/* XPM */
static char * leaking_wall3_xpm[] = {
"128 128 9752 3",
"   	c #191107",
".  	c #100A04",
"+  	c #110B03",
"@  	c #1C1408",
"#  	c #1E1409",
"$  	c #170F06",
"%  	c #1A1308",
"&  	c #130D03",
"*  	c #110F03",
"=  	c #120D04",
"-  	c #1A1107",
";  	c #1C1305",
">  	c #1F180C",
",  	c #2E2213",
"'  	c #312514",
")  	c #362919",
"!  	c #362817",
"~  	c #6F5331",
"{  	c #6A4421",
"]  	c #362511",
"^  	c #3C2814",
"/  	c #5A3E28",
"(  	c #7B4B1B",
"_  	c #704924",
":  	c #593D21",
"<  	c #946538",
"[  	c #946435",
"}  	c #895624",
"|  	c #473724",
"1  	c #684929",
"2  	c #64492B",
"3  	c #302415",
"4  	c #2B1F15",
"5  	c #3C2E1C",
"6  	c #392911",
"7  	c #402F1D",
"8  	c #2E2212",
"9  	c #322413",
"0  	c #291B0B",
"a  	c #251C0F",
"b  	c #2F200E",
"c  	c #2F2517",
"d  	c #3B2E1A",
"e  	c #2F2315",
"f  	c #322316",
"g  	c #22170A",
"h  	c #2A1A0E",
"i  	c #25180B",
"j  	c #2F2211",
"k  	c #372613",
"l  	c #2E2215",
"m  	c #392311",
"n  	c #4D3415",
"o  	c #31230E",
"p  	c #211309",
"q  	c #1F1608",
"r  	c #2C1E0F",
"s  	c #382712",
"t  	c #342513",
"u  	c #3A2916",
"v  	c #2F1E0F",
"w  	c #271E11",
"x  	c #2B1E10",
"y  	c #231A0F",
"z  	c #1A1006",
"A  	c #201708",
"B  	c #22180B",
"C  	c #211609",
"D  	c #21160A",
"E  	c #25190A",
"F  	c #2A1B0B",
"G  	c #2B1D0D",
"H  	c #201808",
"I  	c #1F1709",
"J  	c #2D2011",
"K  	c #281C0D",
"L  	c #291E0D",
"M  	c #261A0B",
"N  	c #1E180B",
"O  	c #1F1503",
"P  	c #150E06",
"Q  	c #271A0E",
"R  	c #22190C",
"S  	c #2A1E11",
"T  	c #2E2012",
"U  	c #291E0F",
"V  	c #271C0F",
"W  	c #2B1D0F",
"X  	c #271D0D",
"Y  	c #25190B",
"Z  	c #271A11",
"`  	c #21190C",
" . 	c #23180C",
".. 	c #1D150A",
"+. 	c #1C1406",
"@. 	c #24180E",
"#. 	c #21170B",
"$. 	c #20150A",
"%. 	c #24180D",
"&. 	c #291C0F",
"*. 	c #321D0E",
"=. 	c #2D1F0E",
"-. 	c #2F1F11",
";. 	c #2D1F0F",
">. 	c #2C2010",
",. 	c #342614",
"'. 	c #2E1F0E",
"). 	c #2F1D0D",
"!. 	c #2C1B0B",
"~. 	c #291C0D",
"{. 	c #2E1C0D",
"]. 	c #2C1D0D",
"^. 	c #2B1C0C",
"/. 	c #231606",
"(. 	c #1D1003",
"_. 	c #1C1005",
":. 	c #1D1105",
"<. 	c #171002",
"[. 	c #1C1006",
"}. 	c #181206",
"|. 	c #120C03",
"1. 	c #150E04",
"2. 	c #0E0801",
"3. 	c #140D03",
"4. 	c #170D05",
"5. 	c #1C1207",
"6. 	c #1D1208",
"7. 	c #201309",
"8. 	c #24170A",
"9. 	c #271C0E",
"0. 	c #211608",
"a. 	c #2D1C0F",
"b. 	c #25190C",
"c. 	c #281B0E",
"d. 	c #25190D",
"e. 	c #271B0E",
"f. 	c #2A1D0E",
"g. 	c #2C1D11",
"h. 	c #302112",
"i. 	c #302513",
"j. 	c #49331C",
"k. 	c #4C3620",
"l. 	c #4C3824",
"m. 	c #573C21",
"n. 	c #A36526",
"o. 	c #6C4F2E",
"p. 	c #83531A",
"q. 	c #9D6624",
"r. 	c #8F6233",
"s. 	c #6C4624",
"t. 	c #8A5720",
"u. 	c #966232",
"v. 	c #725237",
"w. 	c #503B27",
"x. 	c #8E6439",
"y. 	c #7F623F",
"z. 	c #5A462D",
"A. 	c #4A3922",
"B. 	c #3E2D19",
"C. 	c #362514",
"D. 	c #372816",
"E. 	c #342511",
"F. 	c #2C200F",
"G. 	c #231A0E",
"H. 	c #35291A",
"I. 	c #453123",
"J. 	c #3A2A1A",
"K. 	c #281D0F",
"L. 	c #372714",
"M. 	c #312110",
"N. 	c #231709",
"O. 	c #372715",
"P. 	c #342411",
"Q. 	c #34210C",
"R. 	c #513516",
"S. 	c #523618",
"T. 	c #463119",
"U. 	c #382715",
"V. 	c #2C2111",
"W. 	c #3B2B16",
"X. 	c #2F210E",
"Y. 	c #251A0A",
"Z. 	c #322615",
"`. 	c #362816",
" + 	c #432F19",
".+ 	c #271C0D",
"++ 	c #30220F",
"@+ 	c #281D0E",
"#+ 	c #302113",
"$+ 	c #221A0D",
"%+ 	c #201A0C",
"&+ 	c #201609",
"*+ 	c #231509",
"=+ 	c #281A09",
"-+ 	c #362913",
";+ 	c #372611",
">+ 	c #34220F",
",+ 	c #372511",
"'+ 	c #2E1F0C",
")+ 	c #261A09",
"!+ 	c #261A0E",
"~+ 	c #120B05",
"{+ 	c #170F04",
"]+ 	c #231406",
"^+ 	c #241707",
"/+ 	c #2A1B0C",
"(+ 	c #32200E",
"_+ 	c #28190D",
":+ 	c #2B1E0C",
"<+ 	c #261D0F",
"[+ 	c #281A0E",
"}+ 	c #24190A",
"|+ 	c #26190C",
"1+ 	c #201509",
"2+ 	c #1F1408",
"3+ 	c #191106",
"4+ 	c #221B0C",
"5+ 	c #2A1E0E",
"6+ 	c #1E1306",
"7+ 	c #231908",
"8+ 	c #2C1E10",
"9+ 	c #32220D",
"0+ 	c #352311",
"a+ 	c #2B1B0B",
"b+ 	c #332110",
"c+ 	c #35230D",
"d+ 	c #2F1E0C",
"e+ 	c #352514",
"f+ 	c #3A2A14",
"g+ 	c #342815",
"h+ 	c #3C2812",
"i+ 	c #2F1F10",
"j+ 	c #25170B",
"k+ 	c #321E0E",
"l+ 	c #2E1D0D",
"m+ 	c #1C1003",
"n+ 	c #211408",
"o+ 	c #1B1004",
"p+ 	c #211607",
"q+ 	c #1A1005",
"r+ 	c #160F06",
"s+ 	c #181007",
"t+ 	c #160F05",
"u+ 	c #140E07",
"v+ 	c #150E05",
"w+ 	c #1A1307",
"x+ 	c #23190C",
"y+ 	c #23170A",
"z+ 	c #291B0F",
"A+ 	c #24180C",
"B+ 	c #2B1C11",
"C+ 	c #261910",
"D+ 	c #261A0D",
"E+ 	c #241A0E",
"F+ 	c #1E1609",
"G+ 	c #2F2313",
"H+ 	c #302719",
"I+ 	c #69533E",
"J+ 	c #5B4533",
"K+ 	c #301F09",
"L+ 	c #AC7336",
"M+ 	c #97632E",
"N+ 	c #9E6D36",
"O+ 	c #9F6B35",
"P+ 	c #95632C",
"Q+ 	c #AA6E30",
"R+ 	c #563D29",
"S+ 	c #472B10",
"T+ 	c #965C1F",
"U+ 	c #76502B",
"V+ 	c #644425",
"W+ 	c #392B15",
"X+ 	c #372A1A",
"Y+ 	c #392C1B",
"Z+ 	c #483822",
"`+ 	c #3E2F1B",
" @ 	c #352413",
".@ 	c #322614",
"+@ 	c #392919",
"@@ 	c #1E160A",
"#@ 	c #2B1D0E",
"$@ 	c #4B3A29",
"%@ 	c #463622",
"&@ 	c #523D26",
"*@ 	c #50361F",
"=@ 	c #453420",
"-@ 	c #211709",
";@ 	c #372514",
">@ 	c #56330C",
",@ 	c #875726",
"'@ 	c #89511A",
")@ 	c #503215",
"!@ 	c #664423",
"~@ 	c #392918",
"{@ 	c #44311A",
"]@ 	c #412E16",
"^@ 	c #342918",
"/@ 	c #291E12",
"(@ 	c #322515",
"_@ 	c #332715",
":@ 	c #251B0A",
"<@ 	c #392615",
"[@ 	c #2B2010",
"}@ 	c #2A190B",
"|@ 	c #23180A",
"1@ 	c #24190B",
"2@ 	c #211B0F",
"3@ 	c #2A1D09",
"4@ 	c #452D15",
"5@ 	c #201407",
"6@ 	c #281B0B",
"7@ 	c #1D1205",
"8@ 	c #261908",
"9@ 	c #2B1B0A",
"0@ 	c #462F15",
"a@ 	c #261709",
"b@ 	c #2E1D0B",
"c@ 	c #2C1B0A",
"d@ 	c #372312",
"e@ 	c #321E0C",
"f@ 	c #372211",
"g@ 	c #2E1B11",
"h@ 	c #30220E",
"i@ 	c #2C1C0C",
"j@ 	c #241709",
"k@ 	c #2B1B0E",
"l@ 	c #2A1C11",
"m@ 	c #291D0F",
"n@ 	c #1F1609",
"o@ 	c #251A0B",
"p@ 	c #1D1407",
"q@ 	c #2D2217",
"r@ 	c #271608",
"s@ 	c #291909",
"t@ 	c #2F1F0F",
"u@ 	c #301F0D",
"v@ 	c #332613",
"w@ 	c #342514",
"x@ 	c #352512",
"y@ 	c #392611",
"z@ 	c #41301C",
"A@ 	c #3A2915",
"B@ 	c #3F2E1B",
"C@ 	c #392710",
"D@ 	c #362616",
"E@ 	c #352414",
"F@ 	c #281C0E",
"G@ 	c #2D210D",
"H@ 	c #2C1708",
"I@ 	c #281A0B",
"J@ 	c #251609",
"K@ 	c #1F1605",
"L@ 	c #180E07",
"M@ 	c #1C1107",
"N@ 	c #150D05",
"O@ 	c #140E05",
"P@ 	c #170D04",
"Q@ 	c #171105",
"R@ 	c #120B04",
"S@ 	c #1C1308",
"T@ 	c #241A0F",
"U@ 	c #23170C",
"V@ 	c #2E1F11",
"W@ 	c #271A0D",
"X@ 	c #251B0E",
"Y@ 	c #3C2D1C",
"Z@ 	c #302618",
"`@ 	c #382A19",
" # 	c #4B3927",
".# 	c #4A3929",
"+# 	c #503F31",
"@# 	c #A96A26",
"## 	c #744E29",
"$# 	c #B47C3D",
"%# 	c #866439",
"&# 	c #73512C",
"*# 	c #976427",
"=# 	c #9E6B33",
"-# 	c #B97936",
";# 	c #956533",
"># 	c #7D531F",
",# 	c #765737",
"'# 	c #3B2918",
")# 	c #59412B",
"!# 	c #523D29",
"~# 	c #473624",
"{# 	c #4D3B28",
"]# 	c #6D5233",
"^# 	c #463521",
"/# 	c #4C3A2A",
"(# 	c #463321",
"_# 	c #463320",
":# 	c #463421",
"<# 	c #312412",
"[# 	c #3D2C17",
"}# 	c #674724",
"|# 	c #9B6931",
"1# 	c #603E1B",
"2# 	c #764311",
"3# 	c #6E451E",
"4# 	c #784918",
"5# 	c #744B25",
"6# 	c #744A1C",
"7# 	c #3D2915",
"8# 	c #3E2E1B",
"9# 	c #3F2D18",
"0# 	c #43311B",
"a# 	c #352814",
"b# 	c #36291A",
"c# 	c #392B1A",
"d# 	c #42311F",
"e# 	c #312615",
"f# 	c #352416",
"g# 	c #2A1B10",
"h# 	c #342515",
"i# 	c #342516",
"j# 	c #2E2011",
"k# 	c #312212",
"l# 	c #322715",
"m# 	c #352513",
"n# 	c #30200D",
"o# 	c #452E19",
"p# 	c #51381C",
"q# 	c #312313",
"r# 	c #321E0D",
"s# 	c #3A2312",
"t# 	c #382212",
"u# 	c #35210F",
"v# 	c #392310",
"w# 	c #412818",
"x# 	c #3F2917",
"y# 	c #362111",
"z# 	c #35200F",
"A# 	c #342010",
"B# 	c #2A1C0C",
"C# 	c #231808",
"D# 	c #2D1D0E",
"E# 	c #2B190D",
"F# 	c #2C1D0F",
"G# 	c #291C0E",
"H# 	c #25180D",
"I# 	c #1F140A",
"J# 	c #181205",
"K# 	c #302311",
"L# 	c #32220F",
"M# 	c #29180A",
"N# 	c #2C1B0C",
"O# 	c #332212",
"P# 	c #2C1C0D",
"Q# 	c #2E1F0D",
"R# 	c #3F2C14",
"S# 	c #382615",
"T# 	c #382614",
"U# 	c #3D2B15",
"V# 	c #3A2919",
"W# 	c #3C2A17",
"X# 	c #3A2A17",
"Y# 	c #362612",
"Z# 	c #281A07",
"`# 	c #211406",
" $ 	c #231308",
".$ 	c #1A1106",
"+$ 	c #170C04",
"@$ 	c #191008",
"#$ 	c #160E05",
"$$ 	c #180F05",
"%$ 	c #130C04",
"&$ 	c #1A1105",
"*$ 	c #22170D",
"=$ 	c #201409",
"-$ 	c #22180C",
";$ 	c #281C0F",
">$ 	c #23190D",
",$ 	c #302014",
"'$ 	c #2F2214",
")$ 	c #292011",
"!$ 	c #2A1F11",
"~$ 	c #2B1D13",
"{$ 	c #130D05",
"]$ 	c #322416",
"^$ 	c #3C2C1F",
"/$ 	c #2E1D0E",
"($ 	c #3F2914",
"_$ 	c #4E3A24",
":$ 	c #70471C",
"<$ 	c #A46725",
"[$ 	c #AC6D2A",
"}$ 	c #4D2E10",
"|$ 	c #5E452D",
"1$ 	c #3F2B18",
"2$ 	c #543E27",
"3$ 	c #5B3D1E",
"4$ 	c #543D26",
"5$ 	c #6D5036",
"6$ 	c #683F1A",
"7$ 	c #B1824F",
"8$ 	c #5C452C",
"9$ 	c #4C3C29",
"0$ 	c #7E6046",
"a$ 	c #4D3724",
"b$ 	c #5E4C37",
"c$ 	c #3C2917",
"d$ 	c #352817",
"e$ 	c #2E2216",
"f$ 	c #3C2B19",
"g$ 	c #4B3923",
"h$ 	c #563C20",
"i$ 	c #66492C",
"j$ 	c #4D3319",
"k$ 	c #995E1E",
"l$ 	c #A2682A",
"m$ 	c #77491B",
"n$ 	c #694A28",
"o$ 	c #6E4A20",
"p$ 	c #875A2B",
"q$ 	c #684622",
"r$ 	c #4B361F",
"s$ 	c #483720",
"t$ 	c #473522",
"u$ 	c #473623",
"v$ 	c #3B2D1B",
"w$ 	c #402F1B",
"x$ 	c #302313",
"y$ 	c #40311D",
"z$ 	c #342512",
"A$ 	c #3C2F1D",
"B$ 	c #332414",
"C$ 	c #38281B",
"D$ 	c #392815",
"E$ 	c #3E2711",
"F$ 	c #321F0E",
"G$ 	c #372B16",
"H$ 	c #412F1E",
"I$ 	c #473117",
"J$ 	c #3D2815",
"K$ 	c #291D10",
"L$ 	c #362412",
"M$ 	c #382513",
"N$ 	c #3E2918",
"O$ 	c #392312",
"P$ 	c #402B19",
"Q$ 	c #3D2713",
"R$ 	c #3A220E",
"S$ 	c #3E2513",
"T$ 	c #412A16",
"U$ 	c #3B2411",
"V$ 	c #382512",
"W$ 	c #34210E",
"X$ 	c #291A0B",
"Y$ 	c #28180C",
"Z$ 	c #271A0C",
"`$ 	c #2C1E0D",
" % 	c #28190C",
".% 	c #2D1E11",
"+% 	c #291B0C",
"@% 	c #26170A",
"#% 	c #26180B",
"$% 	c #1C1208",
"%% 	c #291D0D",
"&% 	c #302010",
"*% 	c #27190A",
"=% 	c #311F0F",
"-% 	c #2D1D0F",
";% 	c #2D1C0D",
">% 	c #261507",
",% 	c #261606",
"'% 	c #32200B",
")% 	c #251506",
"!% 	c #241407",
"~% 	c #3B2810",
"{% 	c #3C2811",
"]% 	c #331E0A",
"^% 	c #29180B",
"/% 	c #221507",
"(% 	c #1E1307",
"_% 	c #170E04",
":% 	c #180F06",
"<% 	c #140E03",
"[% 	c #140D05",
"}% 	c #140F06",
"|% 	c #161005",
"1% 	c #1A0F08",
"2% 	c #1C1409",
"3% 	c #1F140B",
"4% 	c #1C170A",
"5% 	c #1B1309",
"6% 	c #1D1308",
"7% 	c #37271A",
"8% 	c #332415",
"9% 	c #3F2E1D",
"0% 	c #3E2A1A",
"a% 	c #3E2E1C",
"b% 	c #2F1F14",
"c% 	c #0F0A03",
"d% 	c #3E2F1E",
"e% 	c #392D19",
"f% 	c #412F19",
"g% 	c #5B3D20",
"h% 	c #463223",
"i% 	c #402C1B",
"j% 	c #452D1C",
"k% 	c #B67C36",
"l% 	c #AA7031",
"m% 	c #56412E",
"n% 	c #503D29",
"o% 	c #3B2B1B",
"p% 	c #5D4631",
"q% 	c #786048",
"r% 	c #46311E",
"s% 	c #875A27",
"t% 	c #8C6540",
"u% 	c #553E26",
"v% 	c #473520",
"w% 	c #392A17",
"x% 	c #6E5639",
"y% 	c #644A34",
"z% 	c #644B30",
"A% 	c #6B4C2F",
"B% 	c #1F1508",
"C% 	c #3F2F1A",
"D% 	c #3B2916",
"E% 	c #574532",
"F% 	c #5F4425",
"G% 	c #7A4D1E",
"H% 	c #B2732C",
"I% 	c #87541D",
"J% 	c #7D4E1A",
"K% 	c #674017",
"L% 	c #8E612F",
"M% 	c #886133",
"N% 	c #7C572F",
"O% 	c #674B33",
"P% 	c #684D33",
"Q% 	c #4E3C26",
"R% 	c #5E472B",
"S% 	c #382813",
"T% 	c #3A2914",
"U% 	c #3C2D1D",
"V% 	c #422F19",
"W% 	c #432E1A",
"X% 	c #3C2B1B",
"Y% 	c #392817",
"Z% 	c #251809",
"`% 	c #392712",
" & 	c #452F17",
".& 	c #48351C",
"+& 	c #4E3417",
"@& 	c #3A270D",
"#& 	c #2B1E0B",
"$& 	c #3E2B16",
"%& 	c #3F2C1B",
"&& 	c #382612",
"*& 	c #422C1A",
"=& 	c #3D2813",
"-& 	c #402815",
";& 	c #422816",
">& 	c #422916",
",& 	c #422B16",
"'& 	c #3E2514",
")& 	c #3B2413",
"!& 	c #3C2614",
"~& 	c #3C2412",
"{& 	c #352010",
"]& 	c #2D200F",
"^& 	c #2A1A0D",
"/& 	c #311F0E",
"(& 	c #2A1909",
"_& 	c #301E11",
":& 	c #291A0D",
"<& 	c #190F03",
"[& 	c #312214",
"}& 	c #2F1E0E",
"|& 	c #2A1709",
"1& 	c #29190D",
"2& 	c #382511",
"3& 	c #322112",
"4& 	c #291709",
"5& 	c #211305",
"6& 	c #1F1105",
"7& 	c #1C1106",
"8& 	c #201105",
"9& 	c #342110",
"0& 	c #2E1E09",
"a& 	c #211304",
"b& 	c #201307",
"c& 	c #24160C",
"d& 	c #1A1004",
"e& 	c #1A1209",
"f& 	c #24180A",
"g& 	c #160D05",
"h& 	c #150F04",
"i& 	c #180F04",
"j& 	c #160E04",
"k& 	c #160D04",
"l& 	c #1C1508",
"m& 	c #1D1509",
"n& 	c #392819",
"o& 	c #392B19",
"p& 	c #453523",
"q& 	c #443726",
"r& 	c #322015",
"s& 	c #2E1F13",
"t& 	c #120D06",
"u& 	c #3E301E",
"v& 	c #40321D",
"w& 	c #352616",
"x& 	c #2C1D0C",
"y& 	c #332216",
"z& 	c #3F2D1C",
"A& 	c #43301D",
"B& 	c #83582E",
"C& 	c #684F34",
"D& 	c #644935",
"E& 	c #5A4631",
"F& 	c #513B2B",
"G& 	c #55402A",
"H& 	c #3C2A16",
"I& 	c #795F41",
"J& 	c #A27441",
"K& 	c #714720",
"L& 	c #6E563E",
"M& 	c #5D4228",
"N& 	c #5D4229",
"O& 	c #7B5532",
"P& 	c #836649",
"Q& 	c #4A3721",
"R& 	c #4B3A2A",
"S& 	c #362717",
"T& 	c #41311E",
"U& 	c #41311C",
"V& 	c #4A361C",
"W& 	c #382310",
"X& 	c #6E4D2D",
"Y& 	c #9C6323",
"Z& 	c #A0621E",
"`& 	c #955F21",
" * 	c #915A23",
".* 	c #8A5929",
"+* 	c #94622B",
"@* 	c #83613C",
"#* 	c #694E33",
"$* 	c #71573A",
"%* 	c #674D36",
"&* 	c #594129",
"** 	c #68482C",
"=* 	c #372817",
"-* 	c #513B25",
";* 	c #513C23",
">* 	c #332215",
",* 	c #332313",
"'* 	c #3C2B18",
")* 	c #4B3B26",
"!* 	c #644B2B",
"~* 	c #52381F",
"{* 	c #48331E",
"]* 	c #2D1E0C",
"^* 	c #4A3823",
"/* 	c #3B2C1B",
"(* 	c #43301A",
"_* 	c #392514",
":* 	c #3D2916",
"<* 	c #3C2515",
"[* 	c #422917",
"}* 	c #3B2513",
"|* 	c #442B18",
"1* 	c #3A2112",
"2* 	c #3D2714",
"3* 	c #3F2513",
"4* 	c #3F2913",
"5* 	c #38250E",
"6* 	c #372110",
"7* 	c #392511",
"8* 	c #3E2817",
"9* 	c #3C2717",
"0* 	c #392313",
"a* 	c #352310",
"b* 	c #2F2114",
"c* 	c #271B0B",
"d* 	c #241509",
"e* 	c #27180C",
"f* 	c #2B190C",
"g* 	c #28190B",
"h* 	c #221407",
"i* 	c #1E1107",
"j* 	c #1F1207",
"k* 	c #291808",
"l* 	c #261809",
"m* 	c #201308",
"n* 	c #1D1306",
"o* 	c #1F1406",
"p* 	c #190F07",
"q* 	c #1E1708",
"r* 	c #1B1106",
"s* 	c #181006",
"t* 	c #1A0F05",
"u* 	c #181005",
"v* 	c #170E05",
"w* 	c #0E0904",
"x* 	c #140A06",
"y* 	c #140C04",
"z* 	c #110901",
"A* 	c #171107",
"B* 	c #191108",
"C* 	c #0F0801",
"D* 	c #110D04",
"E* 	c #130A04",
"F* 	c #312416",
"G* 	c #342616",
"H* 	c #7A4F21",
"I* 	c #322714",
"J* 	c #44321E",
"K* 	c #7B5E42",
"L* 	c #3C2D17",
"M* 	c #523F2B",
"N* 	c #312314",
"O* 	c #3C2D1A",
"P* 	c #6A4E2E",
"Q* 	c #654F38",
"R* 	c #463423",
"S* 	c #281B0D",
"T* 	c #392813",
"U* 	c #3B2B1D",
"V* 	c #2E200B",
"W* 	c #241A0C",
"X* 	c #271C0C",
"Y* 	c #885E30",
"Z* 	c #302211",
"`* 	c #463825",
" = 	c #372917",
".= 	c #231608",
"+= 	c #634728",
"@= 	c #4B3319",
"#= 	c #985D1C",
"$= 	c #341B09",
"%= 	c #6E4C27",
"&= 	c #A47136",
"*= 	c #543B20",
"== 	c #1E1104",
"-= 	c #534031",
";= 	c #42301D",
">= 	c #3C2C1B",
",= 	c #372513",
"'= 	c #6F543B",
")= 	c #43311A",
"!= 	c #48341F",
"~= 	c #3B2A16",
"{= 	c #3A2C1B",
"]= 	c #41321E",
"^= 	c #352615",
"/= 	c #2E2211",
"(= 	c #5C442D",
"_= 	c #533C1F",
":= 	c #614931",
"<= 	c #2F2112",
"[= 	c #211506",
"}= 	c #291E11",
"|= 	c #322617",
"1= 	c #42321F",
"2= 	c #3F311F",
"3= 	c #1E1509",
"4= 	c #171005",
"5= 	c #1D1508",
"6= 	c #140F05",
"7= 	c #1A0F03",
"8= 	c #23180B",
"9= 	c #291A09",
"0= 	c #2E200F",
"a= 	c #43301C",
"b= 	c #372813",
"c= 	c #211507",
"d= 	c #2D210E",
"e= 	c #483622",
"f= 	c #342615",
"g= 	c #45321E",
"h= 	c #47351F",
"i= 	c #422F1E",
"j= 	c #2E2111",
"k= 	c #281A0C",
"l= 	c #1D1406",
"m= 	c #1C1206",
"n= 	c #201304",
"o= 	c #2D1F11",
"p= 	c #251A09",
"q= 	c #1F1306",
"r= 	c #1F1506",
"s= 	c #221509",
"t= 	c #1F150A",
"u= 	c #1A1206",
"v= 	c #1F160C",
"w= 	c #1B1107",
"x= 	c #130D04",
"y= 	c #140C03",
"z= 	c #140D02",
"A= 	c #140F03",
"B= 	c #1C1307",
"C= 	c #1A1208",
"D= 	c #2B1F13",
"E= 	c #392A1B",
"F= 	c #22180A",
"G= 	c #21180B",
"H= 	c #291F0E",
"I= 	c #2D2214",
"J= 	c #3F311D",
"K= 	c #53432C",
"L= 	c #463420",
"M= 	c #3F2E1C",
"N= 	c #5A412C",
"O= 	c #835B2E",
"P= 	c #816345",
"Q= 	c #A37139",
"R= 	c #5F4B33",
"S= 	c #49331F",
"T= 	c #4F3922",
"U= 	c #685339",
"V= 	c #6F573E",
"W= 	c #8D6E48",
"X= 	c #79674F",
"Y= 	c #7F633E",
"Z= 	c #8C755A",
"`= 	c #775F44",
" - 	c #846F50",
".- 	c #806A51",
"+- 	c #87694A",
"@- 	c #9E825E",
"#- 	c #876F50",
"$- 	c #8B6F55",
"%- 	c #806647",
"&- 	c #745C41",
"*- 	c #33271A",
"=- 	c #392A1C",
"-- 	c #422D14",
";- 	c #3F2912",
">- 	c #43331B",
",- 	c #4E371F",
"'- 	c #63462B",
")- 	c #82592A",
"!- 	c #513721",
"~- 	c #5F462F",
"{- 	c #4C3920",
"]- 	c #5C4632",
"^- 	c #47321D",
"/- 	c #58432B",
"(- 	c #473420",
"_- 	c #794E21",
":- 	c #7C501E",
"<- 	c #2A190A",
"[- 	c #4E3C22",
"}- 	c #5F4A30",
"|- 	c #493A26",
"1- 	c #59452F",
"2- 	c #614D36",
"3- 	c #5B4C38",
"4- 	c #312414",
"5- 	c #483627",
"6- 	c #3C2C1A",
"7- 	c #4B371F",
"8- 	c #42301B",
"9- 	c #2B2212",
"0- 	c #302414",
"a- 	c #4C3A27",
"b- 	c #483928",
"c- 	c #4E381F",
"d- 	c #3D2B18",
"e- 	c #4A3D25",
"f- 	c #3F2D17",
"g- 	c #3F3221",
"h- 	c #493924",
"i- 	c #50422C",
"j- 	c #4D3E26",
"k- 	c #4D3B24",
"l- 	c #443421",
"m- 	c #42321C",
"n- 	c #4E3823",
"o- 	c #42311C",
"p- 	c #47341F",
"q- 	c #483521",
"r- 	c #4C3B26",
"s- 	c #45331F",
"t- 	c #533F2B",
"u- 	c #58452C",
"v- 	c #422F1D",
"w- 	c #382611",
"x- 	c #453525",
"y- 	c #3B2E1B",
"z- 	c #3D2C19",
"A- 	c #312113",
"B- 	c #392916",
"C- 	c #352715",
"D- 	c #2F2110",
"E- 	c #322613",
"F- 	c #1D1207",
"G- 	c #26170C",
"H- 	c #2C1F11",
"I- 	c #291C09",
"J- 	c #1F1409",
"K- 	c #1B1308",
"L- 	c #251B0C",
"M- 	c #1F1509",
"N- 	c #201707",
"O- 	c #24160B",
"P- 	c #20180C",
"Q- 	c #20180B",
"R- 	c #170F05",
"S- 	c #1B1108",
"T- 	c #1C1309",
"U- 	c #1B1307",
"V- 	c #2A1F0F",
"W- 	c #352718",
"X- 	c #412C17",
"Y- 	c #6A4822",
"Z- 	c #5A320E",
"`- 	c #6E4922",
" ; 	c #332314",
".; 	c #453723",
"+; 	c #4A3723",
"@; 	c #6F4418",
"#; 	c #694011",
"$; 	c #543B24",
"%; 	c #533A21",
"&; 	c #3D2E1C",
"*; 	c #705131",
"=; 	c #4F3826",
"-; 	c #885F33",
";; 	c #B9782E",
">; 	c #6C543F",
",; 	c #5C452E",
"'; 	c #6C5035",
"); 	c #685237",
"!; 	c #957F63",
"~; 	c #8E775A",
"{; 	c #A57F58",
"]; 	c #947351",
"^; 	c #322716",
"/; 	c #876E4E",
"(; 	c #A58666",
"_; 	c #7C5D3A",
":; 	c #765839",
"<; 	c #674C2F",
"[; 	c #6A5034",
"}; 	c #67482B",
"|; 	c #5D4226",
"1; 	c #896A49",
"2; 	c #AF7E49",
"3; 	c #AE773A",
"4; 	c #87633E",
"5; 	c #3E2B13",
"6; 	c #453018",
"7; 	c #583E28",
"8; 	c #4A301B",
"9; 	c #422F20",
"0; 	c #503C23",
"a; 	c #3C2E1F",
"b; 	c #654931",
"c; 	c #44301B",
"d; 	c #4E3D26",
"e; 	c #442F19",
"f; 	c #5B4434",
"g; 	c #7D5F3B",
"h; 	c #60482C",
"i; 	c #4B3822",
"j; 	c #5A442F",
"k; 	c #41321C",
"l; 	c #53402B",
"m; 	c #3A2912",
"n; 	c #46341C",
"o; 	c #4D3A27",
"p; 	c #4E3924",
"q; 	c #543924",
"r; 	c #432F1A",
"s; 	c #3E2715",
"t; 	c #372612",
"u; 	c #3B2512",
"v; 	c #372512",
"w; 	c #544027",
"x; 	c #3E2912",
"y; 	c #442C15",
"z; 	c #382A17",
"A; 	c #3D2B1B",
"B; 	c #473622",
"C; 	c #786446",
"D; 	c #49341D",
"E; 	c #4A3621",
"F; 	c #462E1C",
"G; 	c #503A25",
"H; 	c #4E3923",
"I; 	c #432D18",
"J; 	c #44311E",
"K; 	c #442F1D",
"L; 	c #352614",
"M; 	c #4C3621",
"N; 	c #57442E",
"O; 	c #4A331D",
"P; 	c #311E0E",
"Q; 	c #251708",
"R; 	c #231607",
"S; 	c #2A1C0E",
"T; 	c #2D1E10",
"U; 	c #2C1F0D",
"V; 	c #1D1408",
"W; 	c #2D1A09",
"X; 	c #2F1E0D",
"Y; 	c #231506",
"Z; 	c #231507",
"`; 	c #211508",
" > 	c #24170C",
".> 	c #1C1306",
"+> 	c #191307",
"@> 	c #1D1309",
"#> 	c #20160A",
"$> 	c #291C10",
"%> 	c #3B2717",
"&> 	c #543313",
"*> 	c #412B1A",
"=> 	c #3E2D1B",
"-> 	c #3D2E1F",
";> 	c #302518",
">> 	c #422F1F",
",> 	c #332A24",
"'> 	c #412916",
")> 	c #543A27",
"!> 	c #493321",
"~> 	c #3F2916",
"{> 	c #AC7E43",
"]> 	c #A16B2F",
"^> 	c #A26B30",
"/> 	c #905C23",
"(> 	c #422D16",
"_> 	c #5E442C",
":> 	c #4E3925",
"<> 	c #5E4B36",
"[> 	c #7D684D",
"}> 	c #8B7158",
"|> 	c #896C50",
"1> 	c #7B5F43",
"2> 	c #77583B",
"3> 	c #644C35",
"4> 	c #7F5E40",
"5> 	c #896F4F",
"6> 	c #836244",
"7> 	c #836548",
"8> 	c #734F33",
"9> 	c #775739",
"0> 	c #704E2C",
"a> 	c #754E29",
"b> 	c #825F3D",
"c> 	c #A57032",
"d> 	c #A06A2D",
"e> 	c #916E49",
"f> 	c #81674A",
"g> 	c #6B5338",
"h> 	c #6E553A",
"i> 	c #6F533A",
"j> 	c #6F533C",
"k> 	c #563F27",
"l> 	c #332312",
"m> 	c #55422E",
"n> 	c #5D4632",
"o> 	c #795F42",
"p> 	c #81664B",
"q> 	c #482F16",
"r> 	c #6F4E32",
"s> 	c #7F5D37",
"t> 	c #664B2F",
"u> 	c #634830",
"v> 	c #654D32",
"w> 	c #7A5C3F",
"x> 	c #643D10",
"y> 	c #2E2010",
"z> 	c #5D4531",
"A> 	c #4C341E",
"B> 	c #553B25",
"C> 	c #543925",
"D> 	c #533922",
"E> 	c #482F1C",
"F> 	c #472F1B",
"G> 	c #45311B",
"H> 	c #4F3726",
"I> 	c #4B3320",
"J> 	c #59432D",
"K> 	c #563B24",
"L> 	c #634428",
"M> 	c #5F4935",
"N> 	c #846A4F",
"O> 	c #4F3A23",
"P> 	c #583E26",
"Q> 	c #45311C",
"R> 	c #4B3723",
"S> 	c #432A19",
"T> 	c #47351E",
"U> 	c #593B1A",
"V> 	c #372712",
"W> 	c #604A33",
"X> 	c #634B31",
"Y> 	c #5F4C33",
"Z> 	c #4D3922",
"`> 	c #3B2917",
" , 	c #3E2B1A",
"., 	c #382617",
"+, 	c #342314",
"@, 	c #2C1B09",
"#, 	c #36200D",
"$, 	c #33230E",
"%, 	c #241609",
"&, 	c #281B0F",
"*, 	c #231B0B",
"=, 	c #2C1A0C",
"-, 	c #322211",
";, 	c #221309",
">, 	c #191104",
",, 	c #191207",
"', 	c #1B1207",
"), 	c #1B1206",
"!, 	c #171007",
"~, 	c #181208",
"{, 	c #302315",
"], 	c #302314",
"^, 	c #3B2B1C",
"/, 	c #453421",
"(, 	c #473422",
"_, 	c #3F2F1F",
":, 	c #493725",
"<, 	c #391800",
"[, 	c #915E2A",
"}, 	c #513F2C",
"|, 	c #483726",
"1, 	c #413320",
"2, 	c #493628",
"3, 	c #8C5E27",
"4, 	c #B47532",
"5, 	c #B87D33",
"6, 	c #BC7930",
"7, 	c #715A44",
"8, 	c #54422C",
"9, 	c #413421",
"0, 	c #82674A",
"a, 	c #887053",
"b, 	c #917559",
"c, 	c #714D28",
"d, 	c #9D682A",
"e, 	c #84623B",
"f, 	c #987449",
"g, 	c #8E6F4B",
"h, 	c #7D5C3D",
"i, 	c #886546",
"j, 	c #825B3B",
"k, 	c #755436",
"l, 	c #8A6745",
"m, 	c #825936",
"n, 	c #825F3E",
"o, 	c #AA7745",
"p, 	c #9F682D",
"q, 	c #6E533B",
"r, 	c #7D6147",
"s, 	c #7C6045",
"t, 	c #634A31",
"u, 	c #644D37",
"v, 	c #6A5137",
"w, 	c #523B26",
"x, 	c #4C3721",
"y, 	c #513B22",
"z, 	c #825E39",
"A, 	c #816341",
"B, 	c #74532F",
"C, 	c #785C39",
"D, 	c #815C34",
"E, 	c #5C3F24",
"F, 	c #735435",
"G, 	c #785336",
"H, 	c #7C572D",
"I, 	c #714C28",
"J, 	c #916131",
"K, 	c #4F361F",
"L, 	c #4D331F",
"M, 	c #4E3520",
"N, 	c #4C301E",
"O, 	c #4A321C",
"P, 	c #47331C",
"Q, 	c #462D18",
"R, 	c #3F2816",
"S, 	c #4B321F",
"T, 	c #432F1D",
"U, 	c #4C3421",
"V, 	c #4B311A",
"W, 	c #543A22",
"X, 	c #5B3E22",
"Y, 	c #170D03",
"Z, 	c #4B3625",
"`, 	c #574126",
" ' 	c #583E2A",
".' 	c #503722",
"+' 	c #4E351F",
"@' 	c #4F3421",
"#' 	c #472E1C",
"$' 	c #46301D",
"%' 	c #432D16",
"&' 	c #473323",
"*' 	c #784814",
"=' 	c #3E2C18",
"-' 	c #503C21",
";' 	c #60472E",
">' 	c #5B4A35",
",' 	c #51402F",
"'' 	c #422F1B",
")' 	c #3F2F1D",
"!' 	c #413120",
"~' 	c #392A1A",
"{' 	c #3D2712",
"]' 	c #402A14",
"^' 	c #35230E",
"/' 	c #2C1B08",
"(' 	c #1C0F05",
"_' 	c #312316",
":' 	c #271A0A",
"<' 	c #251608",
"[' 	c #2D1D10",
"}' 	c #25180A",
"|' 	c #271B0D",
"1' 	c #231609",
"2' 	c #1E1108",
"3' 	c #160D03",
"4' 	c #1E1407",
"5' 	c #190E04",
"6' 	c #1B0F05",
"7' 	c #1F150B",
"8' 	c #1E1408",
"9' 	c #1A0F06",
"0' 	c #150E03",
"a' 	c #140D04",
"b' 	c #20140B",
"c' 	c #2F2212",
"d' 	c #38291B",
"e' 	c #342716",
"f' 	c #302416",
"g' 	c #342518",
"h' 	c #402E1D",
"i' 	c #4F3A28",
"j' 	c #483625",
"k' 	c #3C2B1A",
"l' 	c #3A2C1C",
"m' 	c #56371A",
"n' 	c #755843",
"o' 	c #604B35",
"p' 	c #564331",
"q' 	c #533C2E",
"r' 	c #614C3B",
"s' 	c #674E34",
"t' 	c #AA763F",
"u' 	c #B27939",
"v' 	c #AF7533",
"w' 	c #503A26",
"x' 	c #58402A",
"y' 	c #635138",
"z' 	c #998569",
"A' 	c #977A5B",
"B' 	c #8C6F4E",
"C' 	c #92714F",
"D' 	c #AE7632",
"E' 	c #9B6323",
"F' 	c #9C744B",
"G' 	c #876C4E",
"H' 	c #7C5E41",
"I' 	c #886643",
"J' 	c #89623E",
"K' 	c #7D5C39",
"L' 	c #7B5534",
"M' 	c #7A5534",
"N' 	c #866340",
"O' 	c #A66F2F",
"P' 	c #A86F32",
"Q' 	c #7B5F3E",
"R' 	c #705840",
"S' 	c #533B26",
"T' 	c #51361E",
"U' 	c #604931",
"V' 	c #72563B",
"W' 	c #382917",
"X' 	c #654724",
"Y' 	c #42290E",
"Z' 	c #583E21",
"`' 	c #A36E2F",
" ) 	c #966931",
".) 	c #A06C31",
"+) 	c #795A36",
"@) 	c #5D442D",
"#) 	c #614A2F",
"$) 	c #5C442B",
"%) 	c #462E14",
"&) 	c #9B6022",
"*) 	c #48311C",
"=) 	c #3B2514",
"-) 	c #432C18",
";) 	c #48331B",
">) 	c #49321C",
",) 	c #492F1E",
"') 	c #4A321E",
")) 	c #46301C",
"!) 	c #402816",
"~) 	c #472C1C",
"{) 	c #503520",
"]) 	c #49321A",
"^) 	c #5A3F2A",
"/) 	c #60432A",
"() 	c #57381F",
"_) 	c #543F2A",
":) 	c #60462F",
"<) 	c #5F462D",
"[) 	c #4A3019",
"}) 	c #482D17",
"|) 	c #442C18",
"1) 	c #452B12",
"2) 	c #4B351E",
"3) 	c #6A481E",
"4) 	c #7F4C1A",
"5) 	c #714417",
"6) 	c #764D21",
"7) 	c #4F371E",
"8) 	c #614D34",
"9) 	c #493A29",
"0) 	c #584832",
"a) 	c #3D2C1E",
"b) 	c #3C2612",
"c) 	c #41260B",
"d) 	c #483218",
"e) 	c #3A240D",
"f) 	c #1F1307",
"g) 	c #342617",
"h) 	c #201408",
"i) 	c #312111",
"j) 	c #21160B",
"k) 	c #201508",
"l) 	c #21150A",
"m) 	c #1D0F05",
"n) 	c #1C120A",
"o) 	c #1F1309",
"p) 	c #1B0E06",
"q) 	c #190E03",
"r) 	c #150F07",
"s) 	c #1D140A",
"t) 	c #231A10",
"u) 	c #281B11",
"v) 	c #2F2616",
"w) 	c #35281A",
"x) 	c #402F1E",
"y) 	c #4A3524",
"z) 	c #3B2919",
"A) 	c #48361E",
"B) 	c #804713",
"C) 	c #3C2E1B",
"D) 	c #805C32",
"E) 	c #6A5540",
"F) 	c #574634",
"G) 	c #624E3D",
"H) 	c #4E3C28",
"I) 	c #6E5741",
"J) 	c #B37832",
"K) 	c #B07937",
"L) 	c #C0853C",
"M) 	c #925712",
"N) 	c #9E6C37",
"O) 	c #6D583B",
"P) 	c #5A442D",
"Q) 	c #7E6242",
"R) 	c #9B6D34",
"S) 	c #866949",
"T) 	c #A07C52",
"U) 	c #946532",
"V) 	c #856240",
"W) 	c #9D7D56",
"X) 	c #755839",
"Y) 	c #8A6945",
"Z) 	c #8C6841",
"`) 	c #856641",
" ! 	c #866341",
".! 	c #835D34",
"+! 	c #7C5635",
"@! 	c #6C4E33",
"#! 	c #4E3B29",
"$! 	c #674D2E",
"%! 	c #9D6525",
"&! 	c #84603A",
"*! 	c #765331",
"=! 	c #6D4E34",
"-! 	c #755739",
";! 	c #7F5726",
">! 	c #584126",
",! 	c #3F2C19",
"'! 	c #402D19",
")! 	c #915B1F",
"!! 	c #835C2D",
"~! 	c #764818",
"{! 	c #583D27",
"]! 	c #B7792A",
"^! 	c #9F6420",
"/! 	c #9F6225",
"(! 	c #985E1A",
"_! 	c #664728",
":! 	c #3B2511",
"<! 	c #432713",
"[! 	c #422A18",
"}! 	c #513522",
"|! 	c #442A18",
"1! 	c #4D3422",
"2! 	c #442B1A",
"3! 	c #432A18",
"4! 	c #492D1B",
"5! 	c #4E3521",
"6! 	c #503521",
"7! 	c #50301D",
"8! 	c #5A3D26",
"9! 	c #59391F",
"0! 	c #654229",
"a! 	c #6F5437",
"b! 	c #665237",
"c! 	c #765A3E",
"d! 	c #593B21",
"e! 	c #996E39",
"f! 	c #925D24",
"g! 	c #855625",
"h! 	c #9E672D",
"i! 	c #9D5D19",
"j! 	c #583F22",
"k! 	c #5C3108",
"l! 	c #794D1A",
"m! 	c #2A2011",
"n! 	c #4E3820",
"o! 	c #553F2B",
"p! 	c #4C3C2A",
"q! 	c #51412E",
"r! 	c #544331",
"s! 	c #4D3F2B",
"t! 	c #4F3E29",
"u! 	c #3E250E",
"v! 	c #533617",
"w! 	c #3F2509",
"x! 	c #442A12",
"y! 	c #382B18",
"z! 	c #342717",
"A! 	c #2C1F0F",
"B! 	c #2A1B0D",
"C! 	c #251A0E",
"D! 	c #221709",
"E! 	c #190E07",
"F! 	c #23160A",
"G! 	c #1D130A",
"H! 	c #1A1008",
"I! 	c #151006",
"J! 	c #120E04",
"K! 	c #1D140B",
"L! 	c #22160C",
"M! 	c #251D11",
"N! 	c #362617",
"O! 	c #352516",
"P! 	c #332614",
"Q! 	c #392A18",
"R! 	c #382817",
"S! 	c #44301E",
"T! 	c #4E3115",
"U! 	c #402910",
"V! 	c #45341F",
"W! 	c #5E4C38",
"X! 	c #584331",
"Y! 	c #4E3E2C",
"Z! 	c #5D4934",
"`! 	c #58412A",
" ~ 	c #BC823C",
".~ 	c #B97D31",
"+~ 	c #A86D2B",
"@~ 	c #B2712A",
"#~ 	c #CC893B",
"$~ 	c #7C5F40",
"%~ 	c #937A5C",
"&~ 	c #755C42",
"*~ 	c #BA7F43",
"=~ 	c #B77A32",
"-~ 	c #AC7231",
";~ 	c #BB7B35",
">~ 	c #653F19",
",~ 	c #9C774C",
"'~ 	c #8D704F",
")~ 	c #97734B",
"!~ 	c #8D643F",
"~~ 	c #85613E",
"{~ 	c #7F5C3C",
"]~ 	c #AE712C",
"^~ 	c #7A5836",
"/~ 	c #A66F2E",
"(~ 	c #5E3F22",
"_~ 	c #70543A",
":~ 	c #8C510D",
"<~ 	c #76522E",
"[~ 	c #715334",
"}~ 	c #5F452D",
"|~ 	c #654D33",
"1~ 	c #523921",
"2~ 	c #43301E",
"3~ 	c #453320",
"4~ 	c #2A1805",
"5~ 	c #483520",
"6~ 	c #654932",
"7~ 	c #B07731",
"8~ 	c #33240D",
"9~ 	c #6E5539",
"0~ 	c #63492E",
"a~ 	c #806245",
"b~ 	c #65452A",
"c~ 	c #743F08",
"d~ 	c #7A4917",
"e~ 	c #A46C33",
"f~ 	c #4A2F1A",
"g~ 	c #4A2F1C",
"h~ 	c #3C2710",
"i~ 	c #492F1B",
"j~ 	c #563622",
"k~ 	c #3D2615",
"l~ 	c #482E1A",
"m~ 	c #442B1B",
"n~ 	c #4F341E",
"o~ 	c #563A24",
"p~ 	c #53341F",
"q~ 	c #573922",
"r~ 	c #4F3118",
"s~ 	c #3A2514",
"t~ 	c #3E2816",
"u~ 	c #684B2B",
"v~ 	c #684F36",
"w~ 	c #734B22",
"x~ 	c #78572C",
"y~ 	c #916532",
"z~ 	c #935A1E",
"A~ 	c #855521",
"B~ 	c #805021",
"C~ 	c #85592C",
"D~ 	c #7F4812",
"E~ 	c #5E3910",
"F~ 	c #84592B",
"G~ 	c #553613",
"H~ 	c #584327",
"I~ 	c #634C36",
"J~ 	c #69543D",
"K~ 	c #47321E",
"L~ 	c #4E3C27",
"M~ 	c #503E2A",
"N~ 	c #45311A",
"O~ 	c #573E25",
"P~ 	c #533C23",
"Q~ 	c #46321C",
"R~ 	c #31210F",
"S~ 	c #321F0F",
"T~ 	c #1C1204",
"U~ 	c #362915",
"V~ 	c #26190A",
"W~ 	c #231508",
"X~ 	c #1E1305",
"Y~ 	c #1D1107",
"Z~ 	c #1F1107",
"`~ 	c #211807",
" { 	c #1E1208",
".{ 	c #1B1006",
"+{ 	c #181108",
"@{ 	c #1E1209",
"#{ 	c #231A0D",
"${ 	c #21190D",
"%{ 	c #281E10",
"&{ 	c #322415",
"*{ 	c #3A2B1C",
"={ 	c #423423",
"-{ 	c #563E26",
";{ 	c #402F1A",
">{ 	c #A16C30",
",{ 	c #593D23",
"'{ 	c #7C6147",
"){ 	c #6E583D",
"!{ 	c #584531",
"~{ 	c #5E4934",
"{{ 	c #6A533D",
"]{ 	c #644E37",
"^{ 	c #9B7042",
"/{ 	c #BC7E37",
"({ 	c #C08136",
"_{ 	c #A6692C",
":{ 	c #90785B",
"<{ 	c #776650",
"[{ 	c #8F7255",
"}{ 	c #AA855E",
"|{ 	c #A36828",
"1{ 	c #AD7029",
"2{ 	c #9A6225",
"3{ 	c #B67939",
"4{ 	c #563918",
"5{ 	c #755835",
"6{ 	c #79573B",
"7{ 	c #9C7449",
"8{ 	c #94693B",
"9{ 	c #956738",
"0{ 	c #9F682B",
"a{ 	c #7F6143",
"b{ 	c #8B6D49",
"c{ 	c #5D4831",
"d{ 	c #B1732D",
"e{ 	c #965C19",
"f{ 	c #62431F",
"g{ 	c #866642",
"h{ 	c #443320",
"i{ 	c #553B1F",
"j{ 	c #7D5C37",
"k{ 	c #85623B",
"l{ 	c #73502C",
"m{ 	c #6E4B26",
"n{ 	c #905617",
"o{ 	c #45301B",
"p{ 	c #322518",
"q{ 	c #503B25",
"r{ 	c #1E1406",
"s{ 	c #271809",
"t{ 	c #291A0E",
"u{ 	c #231605",
"v{ 	c #332511",
"w{ 	c #4B331A",
"x{ 	c #63482E",
"y{ 	c #785027",
"z{ 	c #9C642A",
"A{ 	c #8A6032",
"B{ 	c #8C5A25",
"C{ 	c #895722",
"D{ 	c #7F4F1B",
"E{ 	c #8D581B",
"F{ 	c #643C13",
"G{ 	c #814C14",
"H{ 	c #82521E",
"I{ 	c #5B3E1E",
"J{ 	c #412D18",
"K{ 	c #3E2C1B",
"L{ 	c #382A18",
"M{ 	c #352412",
"N{ 	c #553E24",
"O{ 	c #503415",
"P{ 	c #5F3C1B",
"Q{ 	c #4A2E14",
"R{ 	c #402811",
"S{ 	c #1E1507",
"T{ 	c #150C02",
"U{ 	c #281A0A",
"V{ 	c #2B1A0A",
"W{ 	c #1F1206",
"X{ 	c #180F07",
"Y{ 	c #150D03",
"Z{ 	c #130C03",
"`{ 	c #120B03",
" ] 	c #100903",
".] 	c #211809",
"+] 	c #241D0E",
"@] 	c #302312",
"#] 	c #1E160C",
"$] 	c #281F0E",
"%] 	c #2B1F12",
"&] 	c #251A0C",
"*] 	c #352716",
"=] 	c #342414",
"-] 	c #3C2D1B",
";] 	c #634C34",
">] 	c #5A4833",
",] 	c #A46B2D",
"'] 	c #58432C",
")] 	c #4C3A25",
"!] 	c #74593F",
"~] 	c #604930",
"{] 	c #654C2F",
"]] 	c #675039",
"^] 	c #B88F57",
"/] 	c #BF873E",
"(] 	c #C9883A",
"_] 	c #C67D28",
":] 	c #2F200D",
"<] 	c #9D8260",
"[] 	c #8F7C64",
"}] 	c #71593D",
"|] 	c #83694C",
"1] 	c #896A44",
"2] 	c #805C39",
"3] 	c #8B5C2D",
"4] 	c #8A5519",
"5] 	c #C38A41",
"6] 	c #534433",
"7] 	c #695237",
"8] 	c #624B31",
"9] 	c #68573B",
"0] 	c #7B6348",
"a] 	c #987958",
"b] 	c #B87425",
"c] 	c #5C442E",
"d] 	c #927052",
"e] 	c #2F1B08",
"f] 	c #543E24",
"g] 	c #382918",
"h] 	c #6C553B",
"i] 	c #35260E",
"j] 	c #5E472A",
"k] 	c #9D6929",
"l] 	c #553D23",
"m] 	c #503925",
"n] 	c #69543A",
"o] 	c #7D674D",
"p] 	c #533A20",
"q] 	c #69523A",
"r] 	c #60482D",
"s] 	c #72593F",
"t] 	c #48331D",
"u] 	c #846949",
"v] 	c #715C45",
"w] 	c #5C4831",
"x] 	c #453623",
"y] 	c #43311D",
"z] 	c #53422C",
"A] 	c #382914",
"B] 	c #76644C",
"C] 	c #5E4C36",
"D] 	c #44341F",
"E] 	c #5F4F37",
"F] 	c #3A2612",
"G] 	c #4D3A24",
"H] 	c #533C27",
"I] 	c #5D4B31",
"J] 	c #473019",
"K] 	c #754717",
"L] 	c #925B1C",
"M] 	c #905C22",
"N] 	c #6A4418",
"O] 	c #6E4A26",
"P] 	c #97612C",
"Q] 	c #8C5B25",
"R] 	c #7D501E",
"S] 	c #774412",
"T] 	c #804E1A",
"U] 	c #593B19",
"V] 	c #4E3A25",
"W] 	c #533F29",
"X] 	c #45331D",
"Y] 	c #5C4832",
"Z] 	c #523F2A",
"`] 	c #674D34",
" ^ 	c #5D4122",
".^ 	c #4B2A07",
"+^ 	c #5D3C11",
"@^ 	c #6A4319",
"#^ 	c #5C3611",
"$^ 	c #271404",
"%^ 	c #3F2F1C",
"&^ 	c #513312",
"*^ 	c #32200C",
"=^ 	c #2B1B08",
"-^ 	c #261706",
";^ 	c #261708",
">^ 	c #241608",
",^ 	c #26180A",
"'^ 	c #201507",
")^ 	c #291B0D",
"!^ 	c #20160D",
"~^ 	c #1E1308",
"{^ 	c #150D06",
"]^ 	c #26180C",
"^^ 	c #271D10",
"/^ 	c #302111",
"(^ 	c #3D2F1E",
"_^ 	c #3B2C1C",
":^ 	c #261C10",
"<^ 	c #2F2418",
"[^ 	c #2A1E0F",
"}^ 	c #332519",
"|^ 	c #4D3E29",
"1^ 	c #65503C",
"2^ 	c #4D3A25",
"3^ 	c #91652A",
"4^ 	c #9F6F3D",
"5^ 	c #56422D",
"6^ 	c #483624",
"7^ 	c #664F36",
"8^ 	c #8B6A4B",
"9^ 	c #856C4C",
"0^ 	c #C78F47",
"a^ 	c #C78436",
"b^ 	c #261C0D",
"c^ 	c #856648",
"d^ 	c #644D33",
"e^ 	c #92765D",
"f^ 	c #7D6448",
"g^ 	c #6E5636",
"h^ 	c #B19571",
"i^ 	c #7A5A38",
"j^ 	c #AB886A",
"k^ 	c #AA8253",
"l^ 	c #5A432A",
"m^ 	c #79624C",
"n^ 	c #AB9276",
"o^ 	c #402C18",
"p^ 	c #9C8566",
"q^ 	c #816946",
"r^ 	c #C28438",
"s^ 	c #6C563E",
"t^ 	c #54422F",
"u^ 	c #211407",
"v^ 	c #1B1003",
"w^ 	c #1C0A00",
"x^ 	c #160800",
"y^ 	c #090502",
"z^ 	c #4E3722",
"A^ 	c #664B2B",
"B^ 	c #5A4226",
"C^ 	c #5E4420",
"D^ 	c #443220",
"E^ 	c #4F3822",
"F^ 	c #856342",
"G^ 	c #95795F",
"H^ 	c #896E51",
"I^ 	c #4E3B24",
"J^ 	c #7F684C",
"K^ 	c #735A42",
"L^ 	c #594831",
"M^ 	c #53442F",
"N^ 	c #4A3924",
"O^ 	c #5E4A30",
"P^ 	c #4D3B25",
"Q^ 	c #66523B",
"R^ 	c #584632",
"S^ 	c #362D1A",
"T^ 	c #3A291A",
"U^ 	c #312311",
"V^ 	c #312612",
"W^ 	c #553F29",
"X^ 	c #945E29",
"Y^ 	c #744F2A",
"Z^ 	c #835217",
"`^ 	c #814B12",
" / 	c #4D2E0D",
"./ 	c #876240",
"+/ 	c #865C32",
"@/ 	c #946D47",
"#/ 	c #7D480E",
"$/ 	c #6C4319",
"%/ 	c #8D551F",
"&/ 	c #804E1B",
"*/ 	c #452E13",
"=/ 	c #4A3820",
"-/ 	c #513F2B",
";/ 	c #57432F",
">/ 	c #614D38",
",/ 	c #5F4123",
"'/ 	c #55300E",
")/ 	c #492706",
"!/ 	c #57330C",
"~/ 	c #4B2F11",
"{/ 	c #54300B",
"]/ 	c #221302",
"^/ 	c #3B2B18",
"// 	c #2E1A0D",
"(/ 	c #2F1B0A",
"_/ 	c #321F0D",
":/ 	c #261509",
"</ 	c #231307",
"[/ 	c #1C1304",
"}/ 	c #271808",
"|/ 	c #221405",
"1/ 	c #21150B",
"2/ 	c #372814",
"3/ 	c #472B15",
"4/ 	c #4F331D",
"5/ 	c #412C1A",
"6/ 	c #432C1A",
"7/ 	c #4D3722",
"8/ 	c #4A351F",
"9/ 	c #634D38",
"0/ 	c #674C37",
"a/ 	c #936632",
"b/ 	c #7A6148",
"c/ 	c #735639",
"d/ 	c #81674B",
"e/ 	c #6D513C",
"f/ 	c #8E7456",
"g/ 	c #826346",
"h/ 	c #9D743F",
"i/ 	c #8D673D",
"j/ 	c #5D462F",
"k/ 	c #927556",
"l/ 	c #886A4F",
"m/ 	c #785B3D",
"n/ 	c #F1BD80",
"o/ 	c #906D4A",
"p/ 	c #B6803F",
"q/ 	c #93704D",
"r/ 	c #9E7D57",
"s/ 	c #B17635",
"t/ 	c #A36D32",
"u/ 	c #2E1300",
"v/ 	c #AC9371",
"w/ 	c #A4805F",
"x/ 	c #35230F",
"y/ 	c #6C553F",
"z/ 	c #8E6F4A",
"A/ 	c #654224",
"B/ 	c #AB8559",
"C/ 	c #522E0B",
"D/ 	c #9B7751",
"E/ 	c #9E692B",
"F/ 	c #734F2F",
"G/ 	c #71482A",
"H/ 	c #805C3D",
"I/ 	c #6F472D",
"J/ 	c #6E4F2F",
"K/ 	c #604127",
"L/ 	c #5F482F",
"M/ 	c #684F38",
"N/ 	c #784E23",
"O/ 	c #7C5429",
"P/ 	c #513A1C",
"Q/ 	c #4D3824",
"R/ 	c #664B33",
"S/ 	c #745F47",
"T/ 	c #755D44",
"U/ 	c #543F29",
"V/ 	c #67523A",
"W/ 	c #6A533F",
"X/ 	c #302214",
"Y/ 	c #322517",
"Z/ 	c #443422",
"`/ 	c #372818",
" ( 	c #4A3927",
".( 	c #54402E",
"+( 	c #413324",
"@( 	c #3A2E1E",
"#( 	c #443321",
"$( 	c #493726",
"%( 	c #46321D",
"&( 	c #75471A",
"*( 	c #573F22",
"=( 	c #805829",
"-( 	c #734D28",
";( 	c #65472A",
">( 	c #5A4228",
",( 	c #644827",
"'( 	c #935813",
")( 	c #604122",
"!( 	c #734517",
"~( 	c #7C4F1E",
"{( 	c #6D4824",
"]( 	c #4F371D",
"^( 	c #4D3A26",
"/( 	c #432E1E",
"(( 	c #61482E",
"_( 	c #584430",
":( 	c #645542",
"<( 	c #594329",
"[( 	c #4A341E",
"}( 	c #4C3821",
"|( 	c #6A3F0D",
"1( 	c #422C13",
"2( 	c #53361B",
"3( 	c #443325",
"4( 	c #45321D",
"5( 	c #3B2710",
"6( 	c #432C13",
"7( 	c #2D1B08",
"8( 	c #321E0B",
"9( 	c #2E1A09",
"0( 	c #281709",
"a( 	c #29190B",
"b( 	c #1F1204",
"c( 	c #251B0F",
"d( 	c #221608",
"e( 	c #241808",
"f( 	c #190E05",
"g( 	c #25160A",
"h( 	c #311F10",
"i( 	c #3B2711",
"j( 	c #482E18",
"k( 	c #4E3622",
"l( 	c #513922",
"m( 	c #4D341F",
"n( 	c #49321F",
"o( 	c #543C28",
"p( 	c #685038",
"q( 	c #3C2818",
"r( 	c #977551",
"s( 	c #493522",
"t( 	c #604D38",
"u( 	c #513B2A",
"v( 	c #72583C",
"w( 	c #94785C",
"x( 	c #865C30",
"y( 	c #B2792F",
"z( 	c #43341B",
"A( 	c #634F36",
"B( 	c #9D7E5E",
"C( 	c #724F35",
"D( 	c #9E7A5C",
"E( 	c #755437",
"F( 	c #926B48",
"G( 	c #CB8F50",
"H( 	c #BD7E37",
"I( 	c #BC8244",
"J( 	c #B67937",
"K( 	c #AA702A",
"L( 	c #84613B",
"M( 	c #A48059",
"N( 	c #9C7752",
"O( 	c #31200E",
"P( 	c #4E3D28",
"Q( 	c #9A7956",
"R( 	c #8E683B",
"S( 	c #7D5A34",
"T( 	c #8C6943",
"U( 	c #73573E",
"V( 	c #775B3F",
"W( 	c #644832",
"X( 	c #74553B",
"Y( 	c #6C533A",
"Z( 	c #71583E",
"`( 	c #614832",
" _ 	c #63462A",
"._ 	c #8B5E30",
"+_ 	c #8B663C",
"@_ 	c #6F4D30",
"#_ 	c #7A5F3F",
"$_ 	c #9F692F",
"%_ 	c #775B43",
"&_ 	c #4A3C28",
"*_ 	c #624A35",
"=_ 	c #7D6248",
"-_ 	c #5F4930",
";_ 	c #674F39",
">_ 	c #503C27",
",_ 	c #332918",
"'_ 	c #544532",
")_ 	c #54422E",
"!_ 	c #3A2A1C",
"~_ 	c #483929",
"{_ 	c #362718",
"]_ 	c #392B1D",
"^_ 	c #543F2B",
"/_ 	c #36281A",
"(_ 	c #332716",
"__ 	c #443620",
":_ 	c #463522",
"<_ 	c #3A2D19",
"[_ 	c #5E4021",
"}_ 	c #7E5127",
"|_ 	c #996326",
"1_ 	c #6E4E23",
"2_ 	c #45301A",
"3_ 	c #664F38",
"4_ 	c #5D3710",
"5_ 	c #765431",
"6_ 	c #845220",
"7_ 	c #5C340A",
"8_ 	c #49331E",
"9_ 	c #55422D",
"0_ 	c #614A33",
"a_ 	c #53422E",
"b_ 	c #68553E",
"c_ 	c #5B4832",
"d_ 	c #533E29",
"e_ 	c #4B3826",
"f_ 	c #4E3A26",
"g_ 	c #44270D",
"h_ 	c #251601",
"i_ 	c #3D2B17",
"j_ 	c #42321D",
"k_ 	c #4E351A",
"l_ 	c #34220E",
"m_ 	c #4B3622",
"n_ 	c #402812",
"o_ 	c #3E2710",
"p_ 	c #35210C",
"q_ 	c #322010",
"r_ 	c #28180B",
"s_ 	c #261609",
"t_ 	c #261C0E",
"u_ 	c #23160C",
"v_ 	c #261707",
"w_ 	c #2A1A0B",
"x_ 	c #332310",
"y_ 	c #3F2A14",
"z_ 	c #4D3822",
"A_ 	c #523A28",
"B_ 	c #452F1B",
"C_ 	c #513A26",
"D_ 	c #543825",
"E_ 	c #4F3724",
"F_ 	c #644834",
"G_ 	c #4F3723",
"H_ 	c #493523",
"I_ 	c #54402D",
"J_ 	c #8C7158",
"K_ 	c #896B4C",
"L_ 	c #A17C53",
"M_ 	c #936733",
"N_ 	c #7D5D37",
"O_ 	c #7A5225",
"P_ 	c #AA8661",
"Q_ 	c #3A2A19",
"R_ 	c #A27C5B",
"S_ 	c #79593C",
"T_ 	c #503216",
"U_ 	c #8D6A48",
"V_ 	c #BB803B",
"W_ 	c #C88942",
"X_ 	c #CB9046",
"Y_ 	c #A77134",
"Z_ 	c #CA8D47",
"`_ 	c #B87D2F",
" : 	c #A9702E",
".: 	c #916F49",
"+: 	c #A07549",
"@: 	c #7A5A40",
"#: 	c #6F5A43",
"$: 	c #6E573D",
"%: 	c #907456",
"&: 	c #A47C4E",
"*: 	c #9E703C",
"=: 	c #A97D49",
"-: 	c #715533",
";: 	c #826645",
">: 	c #785C41",
",: 	c #85684C",
"': 	c #7E6044",
"): 	c #684D35",
"!: 	c #AB8152",
"~: 	c #805323",
"{: 	c #7B5C41",
"]: 	c #AB8459",
"^: 	c #95693F",
"/: 	c #956733",
"(: 	c #A16F3C",
"_: 	c #4C3722",
":: 	c #6A553B",
"<: 	c #7A6146",
"[: 	c #4D3C28",
"}: 	c #593F2A",
"|: 	c #70553E",
"1: 	c #6F5643",
"2: 	c #695440",
"3: 	c #493824",
"4: 	c #52412E",
"5: 	c #4C3B2A",
"6: 	c #3E2D1E",
"7: 	c #463628",
"8: 	c #3E2E1F",
"9: 	c #3F2F1E",
"0: 	c #3A2B1D",
"a: 	c #413122",
"b: 	c #433525",
"c: 	c #473524",
"d: 	c #342517",
"e: 	c #312515",
"f: 	c #403022",
"g: 	c #985F1F",
"h: 	c #7D4B15",
"i: 	c #463425",
"j: 	c #473722",
"k: 	c #57402B",
"l: 	c #86561D",
"m: 	c #81511C",
"n: 	c #745431",
"o: 	c #845B31",
"p: 	c #6E4B28",
"q: 	c #2C2011",
"r: 	c #5D482E",
"s: 	c #554129",
"t: 	c #4D3925",
"u: 	c #55422C",
"v: 	c #6B5642",
"w: 	c #5D4834",
"x: 	c #45321F",
"y: 	c #574731",
"z: 	c #513C29",
"A: 	c #48311E",
"B: 	c #724315",
"C: 	c #513924",
"D: 	c #50381F",
"E: 	c #40270C",
"F: 	c #472C15",
"G: 	c #493620",
"H: 	c #432C15",
"I: 	c #372310",
"J: 	c #2A1A0A",
"K: 	c #261608",
"L: 	c #26170B",
"M: 	c #1E1206",
"N: 	c #1B1005",
"O: 	c #1D0E06",
"P: 	c #2B1D0C",
"Q: 	c #2D1E0E",
"R: 	c #352212",
"S: 	c #352210",
"T: 	c #382411",
"U: 	c #503C24",
"V: 	c #4E3B27",
"W: 	c #58412C",
"X: 	c #533D28",
"Y: 	c #57432E",
"Z: 	c #4C3926",
"`: 	c #5A452F",
" < 	c #5C4431",
".< 	c #4A3824",
"+< 	c #6C5236",
"@< 	c #725B3F",
"#< 	c #664B35",
"$< 	c #6C543C",
"%< 	c #98774F",
"&< 	c #946530",
"*< 	c #91653B",
"=< 	c #B37B41",
"-< 	c #A2733A",
";< 	c #B2855C",
">< 	c #5E432D",
",< 	c #926E3F",
"'< 	c #644326",
")< 	c #8F6B4C",
"!< 	c #9A7B57",
"~< 	c #A6794A",
"{< 	c #CA9145",
"]< 	c #B37E43",
"^< 	c #B4762E",
"/< 	c #BE823D",
"(< 	c #C07F34",
"_< 	c #BD8749",
":< 	c #906D4C",
"<< 	c #8E6340",
"[< 	c #4F3419",
"}< 	c #58462E",
"|< 	c #9D8064",
"1< 	c #927558",
"2< 	c #735232",
"3< 	c #836442",
"4< 	c #9E6D31",
"5< 	c #A57B47",
"6< 	c #775C45",
"7< 	c #85674F",
"8< 	c #6C543A",
"9< 	c #6E553D",
"0< 	c #6E5339",
"a< 	c #72563C",
"b< 	c #6D5336",
"c< 	c #8A5C30",
"d< 	c #775330",
"e< 	c #92693E",
"f< 	c #705333",
"g< 	c #835A2F",
"h< 	c #4B3B27",
"i< 	c #8D7155",
"j< 	c #614B33",
"k< 	c #735B48",
"l< 	c #654C3A",
"m< 	c #5F432E",
"n< 	c #271D0F",
"o< 	c #5D4A36",
"p< 	c #4E3D2B",
"q< 	c #3A2B1B",
"r< 	c #392C1A",
"s< 	c #38281C",
"t< 	c #39291D",
"u< 	c #453528",
"v< 	c #3C2C1C",
"w< 	c #4D3D2D",
"x< 	c #39291A",
"y< 	c #4B3928",
"z< 	c #433220",
"A< 	c #453422",
"B< 	c #9C6421",
"C< 	c #573611",
"D< 	c #4E3927",
"E< 	c #43321E",
"F< 	c #9B5F1A",
"G< 	c #9D611B",
"H< 	c #8A5317",
"I< 	c #774F20",
"J< 	c #6B4820",
"K< 	c #432D1B",
"L< 	c #8D5A23",
"M< 	c #7B502B",
"N< 	c #281907",
"O< 	c #65513C",
"P< 	c #4D3B26",
"Q< 	c #584533",
"R< 	c #63503C",
"S< 	c #594630",
"T< 	c #5C4631",
"U< 	c #58412F",
"V< 	c #4D3826",
"W< 	c #574026",
"X< 	c #4C321A",
"Y< 	c #4A2F0F",
"Z< 	c #40290F",
"`< 	c #4F3B24",
" [ 	c #462F17",
".[ 	c #402912",
"+[ 	c #311E0F",
"@[ 	c #2C1A0B",
"#[ 	c #26190B",
"$[ 	c #21170A",
"%[ 	c #1F160A",
"&[ 	c #1C0F06",
"*[ 	c #221609",
"=[ 	c #301F12",
"-[ 	c #342312",
";[ 	c #3A281B",
">[ 	c #57422F",
",[ 	c #544431",
"'[ 	c #56412D",
")[ 	c #5C4734",
"![ 	c #57412C",
"~[ 	c #644C37",
"{[ 	c #65523C",
"][ 	c #655038",
"^[ 	c #5F4C31",
"/[ 	c #5B4830",
"([ 	c #795B3E",
"_[ 	c #9E7648",
":[ 	c #AD7937",
"<[ 	c #BF8542",
"[[ 	c #B8834C",
"}[ 	c #C98F4E",
"|[ 	c #BE874D",
"1[ 	c #986834",
"2[ 	c #B0804B",
"3[ 	c #725336",
"4[ 	c #715333",
"5[ 	c #9F8160",
"6[ 	c #AA7337",
"7[ 	c #CA8A44",
"8[ 	c #BE8847",
"9[ 	c #BE843E",
"0[ 	c #AB7231",
"a[ 	c #B48247",
"b[ 	c #9E7854",
"c[ 	c #8D694C",
"d[ 	c #7D5839",
"e[ 	c #5D4A32",
"f[ 	c #866649",
"g[ 	c #69513C",
"h[ 	c #92724C",
"i[ 	c #BA7F3A",
"j[ 	c #986529",
"k[ 	c #99601F",
"l[ 	c #784612",
"m[ 	c #4F3520",
"n[ 	c #614B34",
"o[ 	c #6D5740",
"p[ 	c #74583A",
"q[ 	c #AB8B6B",
"r[ 	c #B67628",
"s[ 	c #82623F",
"t[ 	c #AB733B",
"u[ 	c #80562B",
"v[ 	c #7C5D43",
"w[ 	c #70593F",
"x[ 	c #614B38",
"y[ 	c #61472E",
"z[ 	c #745A3F",
"A[ 	c #4E3619",
"B[ 	c #624D37",
"C[ 	c #221406",
"D[ 	c #5C4732",
"E[ 	c #55432E",
"F[ 	c #423424",
"G[ 	c #3E2D1C",
"H[ 	c #40311F",
"I[ 	c #463524",
"J[ 	c #604834",
"K[ 	c #3F3020",
"L[ 	c #483422",
"M[ 	c #423223",
"N[ 	c #423524",
"O[ 	c #413020",
"P[ 	c #4E3A29",
"Q[ 	c #443020",
"R[ 	c #58422C",
"S[ 	c #875521",
"T[ 	c #5A4632",
"U[ 	c #775734",
"V[ 	c #AB681B",
"W[ 	c #A66B2C",
"X[ 	c #7E5A31",
"Y[ 	c #836139",
"Z[ 	c #754812",
"`[ 	c #64401D",
" } 	c #865422",
".} 	c #764F21",
"+} 	c #241907",
"@} 	c #544029",
"#} 	c #58422E",
"$} 	c #66503B",
"%} 	c #5A472D",
"&} 	c #55412A",
"*} 	c #513B26",
"=} 	c #4F3B26",
"-} 	c #4C3823",
";} 	c #523C28",
">} 	c #523B1E",
",} 	c #563D21",
"'} 	c #60492E",
")} 	c #503619",
"!} 	c #5A3914",
"~} 	c #4A351B",
"{} 	c #453219",
"]} 	c #3E260F",
"^} 	c #29170A",
"/} 	c #271A09",
"(} 	c #28180A",
"_} 	c #211708",
":} 	c #1D1007",
"<} 	c #200F05",
"[} 	c #21160C",
"}} 	c #332111",
"|} 	c #2F1C0F",
"1} 	c #402C1D",
"2} 	c #483522",
"3} 	c #6A543F",
"4} 	c #664F3C",
"5} 	c #523B29",
"6} 	c #5E4932",
"7} 	c #655039",
"8} 	c #110900",
"9} 	c #413121",
"0} 	c #433321",
"a} 	c #5E4428",
"b} 	c #9E8365",
"c} 	c #7F633D",
"d} 	c #AD7331",
"e} 	c #A46F34",
"f} 	c #BB8239",
"g} 	c #764D20",
"h} 	c #CB8D47",
"i} 	c #62482B",
"j} 	c #463A28",
"k} 	c #341C09",
"l} 	c #5A3F24",
"m} 	c #4C3320",
"n} 	c #C18130",
"o} 	c #AA6925",
"p} 	c #C3843C",
"q} 	c #C07F33",
"r} 	c #BD813A",
"s} 	c #A88053",
"t} 	c #B9844A",
"u} 	c #2D1708",
"v} 	c #46311B",
"w} 	c #443120",
"x} 	c #7F6649",
"y} 	c #775B44",
"z} 	c #73563B",
"A} 	c #6E4C2F",
"B} 	c #BF7F35",
"C} 	c #BE7B2A",
"D} 	c #A76B26",
"E} 	c #B87B2F",
"F} 	c #795E42",
"G} 	c #95785A",
"H} 	c #7A5D3F",
"I} 	c #A3896C",
"J} 	c #44301D",
"K} 	c #7E6649",
"L} 	c #614626",
"M} 	c #9D815D",
"N} 	c #8D6E4B",
"O} 	c #6B5037",
"P} 	c #6B5036",
"Q} 	c #5F472E",
"R} 	c #7D664B",
"S} 	c #71543D",
"T} 	c #6F563A",
"U} 	c #795B43",
"V} 	c #70553A",
"W} 	c #2B1F10",
"X} 	c #352517",
"Y} 	c #66523C",
"Z} 	c #4D3927",
"`} 	c #473625",
" | 	c #463623",
".| 	c #453424",
"+| 	c #45331E",
"@| 	c #4B3823",
"#| 	c #453625",
"$| 	c #4B3C28",
"%| 	c #47311D",
"&| 	c #4C351D",
"*| 	c #A16424",
"=| 	c #473521",
"-| 	c #886034",
";| 	c #90673C",
">| 	c #4F3E2A",
",| 	c #5B4023",
"'| 	c #7A5732",
")| 	c #4A2602",
"!| 	c #76481C",
"~| 	c #6B4218",
"{| 	c #644221",
"]| 	c #6D461A",
"^| 	c #47301A",
"/| 	c #5A4127",
"(| 	c #5B4632",
"_| 	c #624C33",
":| 	c #634F39",
"<| 	c #624D31",
"[| 	c #563E29",
"}| 	c #523B28",
"|| 	c #4B331D",
"1| 	c #4C371D",
"2| 	c #573D22",
"3| 	c #563D23",
"4| 	c #5C4023",
"5| 	c #593919",
"6| 	c #4C341D",
"7| 	c #422E17",
"8| 	c #4E3218",
"9| 	c #2A1A0C",
"0| 	c #27170C",
"a| 	c #251D0E",
"b| 	c #191005",
"c| 	c #190F06",
"d| 	c #261C0F",
"e| 	c #261B0B",
"f| 	c #150B04",
"g| 	c #160E06",
"h| 	c #372C1C",
"i| 	c #322417",
"j| 	c #423021",
"k| 	c #362917",
"l| 	c #1E170B",
"m| 	c #5C4933",
"n| 	c #322315",
"o| 	c #624C34",
"p| 	c #51412B",
"q| 	c #7D6750",
"r| 	c #775E46",
"s| 	c #5B442C",
"t| 	c #9A8161",
"u| 	c #7E6444",
"v| 	c #A07742",
"w| 	c #B38856",
"x| 	c #C28E4F",
"y| 	c #BDA281",
"z| 	c #9B8062",
"A| 	c #857156",
"B| 	c #766348",
"C| 	c #806B50",
"D| 	c #6C543B",
"E| 	c #4E3D23",
"F| 	c #5B4C35",
"G| 	c #4C3D2B",
"H| 	c #34240D",
"I| 	c #321C0A",
"J| 	c #5B4631",
"K| 	c #64523B",
"L| 	c #856F52",
"M| 	c #6F563C",
"N| 	c #7C6445",
"O| 	c #6F5637",
"P| 	c #C59864",
"Q| 	c #563A1E",
"R| 	c #825326",
"S| 	c #5D4837",
"T| 	c #7E6146",
"U| 	c #856949",
"V| 	c #503515",
"W| 	c #2E2411",
"X| 	c #70573B",
"Y| 	c #634A2D",
"Z| 	c #C29D76",
"`| 	c #2B210F",
" 1 	c #5F4E37",
".1 	c #755B40",
"+1 	c #6C563D",
"@1 	c #3A2C17",
"#1 	c #4E3D29",
"$1 	c #47361F",
"%1 	c #89735A",
"&1 	c #614E3A",
"*1 	c #55412E",
"=1 	c #57422D",
"-1 	c #412D19",
";1 	c #52412C",
">1 	c #644B31",
",1 	c #463118",
"'1 	c #4F3B23",
")1 	c #644730",
"!1 	c #724D2C",
"~1 	c #593A1B",
"{1 	c #7D5837",
"]1 	c #70481F",
"^1 	c #7B4A19",
"/1 	c #7F5427",
"(1 	c #6F4C28",
"_1 	c #79572F",
":1 	c #4D3218",
"<1 	c #664421",
"[1 	c #6B523A",
"}1 	c #59442E",
"|1 	c #5A402E",
"11 	c #55412C",
"21 	c #674F36",
"31 	c #583F26",
"41 	c #4D391F",
"51 	c #5E4224",
"61 	c #6B5237",
"71 	c #51371D",
"81 	c #53371B",
"91 	c #472E15",
"01 	c #493319",
"a1 	c #4C3317",
"b1 	c #22160A",
"c1 	c #1E130A",
"d1 	c #150C06",
"e1 	c #150F02",
"f1 	c #2A1E10",
"g1 	c #160B04",
"h1 	c #251A0D",
"i1 	c #201909",
"j1 	c #3A2918",
"k1 	c #392818",
"l1 	c #433121",
"m1 	c #3F311E",
"n1 	c #423224",
"o1 	c #4F3E2B",
"p1 	c #64513C",
"q1 	c #6F593F",
"r1 	c #3D2E1A",
"s1 	c #302012",
"t1 	c #6E5843",
"u1 	c #927C61",
"v1 	c #786046",
"w1 	c #887155",
"x1 	c #6E5739",
"y1 	c #987C5C",
"z1 	c #9C7D52",
"A1 	c #856D4B",
"B1 	c #A18364",
"C1 	c #927759",
"D1 	c #251505",
"E1 	c #866D56",
"F1 	c #A58F72",
"G1 	c #54412A",
"H1 	c #947C5E",
"I1 	c #736048",
"J1 	c #745F42",
"K1 	c #AC957C",
"L1 	c #9F8C70",
"M1 	c #8C7352",
"N1 	c #7D6547",
"O1 	c #9B8166",
"P1 	c #8B7457",
"Q1 	c #6F583D",
"R1 	c #91785B",
"S1 	c #7C624A",
"T1 	c #4E3E2B",
"U1 	c #57422B",
"V1 	c #7F6B53",
"W1 	c #A18971",
"X1 	c #957D5B",
"Y1 	c #BD8440",
"Z1 	c #694C22",
"`1 	c #A68354",
" 2 	c #584833",
".2 	c #2E210E",
"+2 	c #31200F",
"@2 	c #564636",
"#2 	c #5F4830",
"$2 	c #2A200E",
"%2 	c #6C5743",
"&2 	c #94785A",
"*2 	c #5C482E",
"=2 	c #524027",
"-2 	c #463724",
";2 	c #6B543A",
">2 	c #5D4933",
",2 	c #392713",
"'2 	c #68543B",
")2 	c #6F5941",
"!2 	c #523E29",
"~2 	c #654C36",
"{2 	c #473826",
"]2 	c #342313",
"^2 	c #513C28",
"/2 	c #644727",
"(2 	c #473319",
"_2 	c #725E48",
":2 	c #5C4B35",
"<2 	c #5A4731",
"[2 	c #6B5A40",
"}2 	c #61452C",
"|2 	c #7B6244",
"12 	c #624E36",
"22 	c #725B43",
"32 	c #664C2F",
"42 	c #71502C",
"52 	c #614220",
"62 	c #7E5A35",
"72 	c #8B5520",
"82 	c #A27547",
"92 	c #452E12",
"02 	c #5C442A",
"a2 	c #5A3F21",
"b2 	c #76583B",
"c2 	c #6D4F31",
"d2 	c #725738",
"e2 	c #47331E",
"f2 	c #69553D",
"g2 	c #4F3D28",
"h2 	c #412F1A",
"i2 	c #4C371F",
"j2 	c #4F3A24",
"k2 	c #49321B",
"l2 	c #5B4227",
"m2 	c #442C12",
"n2 	c #55422B",
"o2 	c #4B351A",
"p2 	c #452911",
"q2 	c #472906",
"r2 	c #2B1E0F",
"s2 	c #221909",
"t2 	c #292012",
"u2 	c #221A0B",
"v2 	c #180E04",
"w2 	c #2D1D0D",
"x2 	c #432C1D",
"y2 	c #392718",
"z2 	c #3F2D1B",
"A2 	c #45311D",
"B2 	c #553C28",
"C2 	c #5D422B",
"D2 	c #644831",
"E2 	c #573B28",
"F2 	c #654D36",
"G2 	c #9F8062",
"H2 	c #7F6145",
"I2 	c #9C7D5D",
"J2 	c #A58168",
"K2 	c #76583C",
"L2 	c #876642",
"M2 	c #B47E3C",
"N2 	c #C48C47",
"O2 	c #AB7335",
"P2 	c #AD7235",
"Q2 	c #C38A43",
"R2 	c #382C20",
"S2 	c #715D45",
"T2 	c #60503A",
"U2 	c #A58B70",
"V2 	c #7E6950",
"W2 	c #3F2C12",
"X2 	c #B29A7D",
"Y2 	c #AD8D6A",
"Z2 	c #C0A486",
"`2 	c #B99672",
" 3 	c #9D703F",
".3 	c #B79876",
"+3 	c #947A5F",
"@3 	c #786042",
"#3 	c #A89276",
"$3 	c #A1886A",
"%3 	c #9A7F63",
"&3 	c #61401F",
"*3 	c #82694D",
"=3 	c #72614B",
"-3 	c #92795A",
";3 	c #7D5E41",
">3 	c #A08462",
",3 	c #A17F52",
"'3 	c #704927",
")3 	c #5E4523",
"!3 	c #221404",
"~3 	c #372D1C",
"{3 	c #605039",
"]3 	c #534530",
"^3 	c #674F31",
"/3 	c #2D1A07",
"(3 	c #5D452C",
"_3 	c #35200D",
":3 	c #3C240F",
"<3 	c #86674A",
"[3 	c #6F5842",
"}3 	c #785E45",
"|3 	c #72593C",
"13 	c #6C533C",
"23 	c #73593E",
"33 	c #594126",
"43 	c #85674B",
"53 	c #684E38",
"63 	c #6B5034",
"73 	c #745944",
"83 	c #6A4D37",
"93 	c #69492C",
"03 	c #775333",
"a3 	c #704D2A",
"b3 	c #715033",
"c3 	c #5E452B",
"d3 	c #5F4A32",
"e3 	c #81684C",
"f3 	c #8F5D25",
"g3 	c #5D3E19",
"h3 	c #523C26",
"i3 	c #533A25",
"j3 	c #89643F",
"k3 	c #B78145",
"l3 	c #6F481C",
"m3 	c #976424",
"n3 	c #795128",
"o3 	c #6B3B08",
"p3 	c #30210D",
"q3 	c #876543",
"r3 	c #7F5D39",
"s3 	c #885D2E",
"t3 	c #7C4F1F",
"u3 	c #7B4718",
"v3 	c #573817",
"w3 	c #51381E",
"x3 	c #2A1C10",
"y3 	c #3A2613",
"z3 	c #604A32",
"A3 	c #5D432C",
"B3 	c #644930",
"C3 	c #392A15",
"D3 	c #5B4328",
"E3 	c #46321A",
"F3 	c #48311A",
"G3 	c #4C351B",
"H3 	c #593C23",
"I3 	c #472E14",
"J3 	c #4B2B0A",
"K3 	c #2E1E11",
"L3 	c #1D1506",
"M3 	c #1A1007",
"N3 	c #251B0B",
"O3 	c #2B1D10",
"P3 	c #352211",
"Q3 	c #382414",
"R3 	c #342413",
"S3 	c #352613",
"T3 	c #3E2A18",
"U3 	c #402C19",
"V3 	c #47301B",
"W3 	c #4C301A",
"X3 	c #563821",
"Y3 	c #6A472C",
"Z3 	c #593E25",
"`3 	c #5D402C",
" 4 	c #5A412A",
".4 	c #64472B",
"+4 	c #8B623B",
"@4 	c #BD8341",
"#4 	c #CA914C",
"$4 	c #BB7B34",
"%4 	c #966936",
"&4 	c #7F6343",
"*4 	c #231705",
"=4 	c #AD967A",
"-4 	c #8B7458",
";4 	c #A0896A",
">4 	c #7D6343",
",4 	c #AE8F72",
"'4 	c #97754B",
")4 	c #A56F2D",
"!4 	c #8A6F53",
"~4 	c #7F644A",
"{4 	c #674A33",
"]4 	c #7A5A41",
"^4 	c #6A4F37",
"/4 	c #8F7354",
"(4 	c #59432A",
"_4 	c #4C2F1B",
":4 	c #3F1E06",
"<4 	c #543B26",
"[4 	c #6E4F34",
"}4 	c #654B35",
"|4 	c #9E641B",
"14 	c #4C381F",
"24 	c #5E4C35",
"34 	c #5C4A35",
"44 	c #604934",
"54 	c #57412A",
"64 	c #67503B",
"74 	c #675136",
"84 	c #765638",
"94 	c #553B23",
"04 	c #725A42",
"a4 	c #694D34",
"b4 	c #725639",
"c4 	c #715338",
"d4 	c #7B5E43",
"e4 	c #6B4F37",
"f4 	c #866A4F",
"g4 	c #694D32",
"h4 	c #745540",
"i4 	c #80603F",
"j4 	c #846146",
"k4 	c #694C35",
"l4 	c #6D4E33",
"m4 	c #5B3F27",
"n4 	c #613F27",
"o4 	c #6F5236",
"p4 	c #654122",
"q4 	c #714C2F",
"r4 	c #664426",
"s4 	c #784F31",
"t4 	c #5F4A37",
"u4 	c #644E35",
"v4 	c #3E2D1A",
"w4 	c #885315",
"x4 	c #8B4F09",
"y4 	c #6A451C",
"z4 	c #503620",
"A4 	c #4A3624",
"B4 	c #3B2611",
"C4 	c #7B5328",
"D4 	c #694623",
"E4 	c #744C23",
"F4 	c #966737",
"G4 	c #785227",
"H4 	c #886B46",
"I4 	c #906E48",
"J4 	c #6C4C2D",
"K4 	c #815A33",
"L4 	c #633A10",
"M4 	c #684014",
"N4 	c #71431B",
"O4 	c #663D11",
"P4 	c #362210",
"Q4 	c #3C2816",
"R4 	c #392715",
"S4 	c #3C2714",
"T4 	c #3F2A18",
"U4 	c #1D1307",
"V4 	c #36220C",
"W4 	c #4F3A25",
"X4 	c #523A23",
"Y4 	c #4D341E",
"Z4 	c #452F16",
"`4 	c #4C381C",
" 5 	c #1D1004",
".5 	c #2A1908",
"+5 	c #29190C",
"@5 	c #1E1309",
"#5 	c #211509",
"$5 	c #2B1A0D",
"%5 	c #392816",
"&5 	c #3C2915",
"*5 	c #402A15",
"=5 	c #392414",
"-5 	c #3D2816",
";5 	c #392413",
">5 	c #422C18",
",5 	c #462E18",
"'5 	c #4C331E",
")5 	c #5B3E26",
"!5 	c #6A4831",
"~5 	c #694A31",
"{5 	c #60432C",
"]5 	c #412B17",
"^5 	c #63462D",
"/5 	c #5B3C1D",
"(5 	c #AB7130",
"_5 	c #AC742C",
":5 	c #B87C37",
"<5 	c #BA803B",
"[5 	c #765D47",
"}5 	c #927F68",
"|5 	c #735E45",
"15 	c #826441",
"25 	c #7E674C",
"35 	c #997F64",
"45 	c #A2743F",
"55 	c #987448",
"65 	c #AB7F45",
"75 	c #B77C35",
"85 	c #614A32",
"95 	c #6E5438",
"05 	c #654B2E",
"a5 	c #5A4227",
"b5 	c #8D7359",
"c5 	c #66482E",
"d5 	c #784C2A",
"e5 	c #7B4B2A",
"f5 	c #653C1E",
"g5 	c #7D5331",
"h5 	c #BB8A55",
"i5 	c #C69E69",
"j5 	c #895B28",
"k5 	c #D3954F",
"l5 	c #715B46",
"m5 	c #554231",
"n5 	c #483927",
"o5 	c #362614",
"p5 	c #87735F",
"q5 	c #614834",
"r5 	c #795C43",
"s5 	c #77593E",
"t5 	c #7B5C44",
"u5 	c #62472F",
"v5 	c #6F573D",
"w5 	c #6F5337",
"x5 	c #694A30",
"y5 	c #6A4D2E",
"z5 	c #937756",
"A5 	c #8F6E4D",
"B5 	c #977657",
"C5 	c #75593B",
"D5 	c #856445",
"E5 	c #66452B",
"F5 	c #745136",
"G5 	c #78583B",
"H5 	c #6D4D31",
"I5 	c #6C4E2F",
"J5 	c #6F4F35",
"K5 	c #6F4D34",
"L5 	c #865C3A",
"M5 	c #7C5739",
"N5 	c #80573A",
"O5 	c #6F4A2A",
"P5 	c #6A4223",
"Q5 	c #876C4F",
"R5 	c #765837",
"S5 	c #78562A",
"T5 	c #704316",
"U5 	c #402B18",
"V5 	c #42331F",
"W5 	c #573D29",
"X5 	c #80613D",
"Y5 	c #7B5A34",
"Z5 	c #8D591F",
"`5 	c #885928",
" 6 	c #6C4921",
".6 	c #795029",
"+6 	c #735434",
"@6 	c #7D562E",
"#6 	c #855727",
"$6 	c #8B5820",
"%6 	c #663B0E",
"&6 	c #764A1E",
"*6 	c #36210A",
"=6 	c #784A1B",
"-6 	c #4F3316",
";6 	c #3F2A16",
">6 	c #352312",
",6 	c #2F2011",
"'6 	c #3D2A18",
")6 	c #4F331A",
"!6 	c #543E29",
"~6 	c #493621",
"{6 	c #4F361E",
"]6 	c #4D3217",
"^6 	c #34210D",
"/6 	c #2D180A",
"(6 	c #25180F",
"_6 	c #1F1407",
":6 	c #362516",
"<6 	c #3A2815",
"[6 	c #362413",
"}6 	c #3F2B1A",
"|6 	c #422B17",
"16 	c #3F2A17",
"26 	c #3C2613",
"36 	c #4F341F",
"46 	c #573B23",
"56 	c #553721",
"66 	c #634429",
"76 	c #61402B",
"86 	c #715437",
"96 	c #6B4C32",
"06 	c #8C6C51",
"a6 	c #533721",
"b6 	c #573D25",
"c6 	c #A77232",
"d6 	c #B07835",
"e6 	c #AB7531",
"f6 	c #B27E3F",
"g6 	c #795F49",
"h6 	c #6E593E",
"i6 	c #856A4D",
"j6 	c #8B7253",
"k6 	c #A69275",
"l6 	c #776146",
"m6 	c #826C54",
"n6 	c #B08047",
"o6 	c #7D6045",
"p6 	c #936C37",
"q6 	c #7B6448",
"r6 	c #6A5036",
"s6 	c #73583B",
"t6 	c #866E56",
"u6 	c #755639",
"v6 	c #724826",
"w6 	c #80532E",
"x6 	c #653F21",
"y6 	c #755438",
"z6 	c #CF8E41",
"A6 	c #D28E3F",
"B6 	c #BC7E34",
"C6 	c #1D0B00",
"D6 	c #5B462E",
"E6 	c #5A462E",
"F6 	c #372819",
"G6 	c #322618",
"H6 	c #574835",
"I6 	c #866C4E",
"J6 	c #6D4F38",
"K6 	c #8C7558",
"L6 	c #735B40",
"M6 	c #775A3F",
"N6 	c #765B40",
"O6 	c #70523A",
"P6 	c #75583F",
"Q6 	c #795938",
"R6 	c #7A5B38",
"S6 	c #6F5136",
"T6 	c #805D41",
"U6 	c #8B6A47",
"V6 	c #785539",
"W6 	c #694B32",
"X6 	c #5D3C21",
"Y6 	c #6E5133",
"Z6 	c #744F31",
"`6 	c #6E4C2E",
" 7 	c #65482D",
".7 	c #7D5434",
"+7 	c #6D4728",
"@7 	c #85603E",
"#7 	c #795332",
"$7 	c #79522D",
"%7 	c #855936",
"&7 	c #68573E",
"*7 	c #AE762D",
"=7 	c #382105",
"-7 	c #3E2814",
";7 	c #5B4531",
">7 	c #5E442B",
",7 	c #94632C",
"'7 	c #75491C",
")7 	c #885926",
"!7 	c #92632E",
"~7 	c #744513",
"{7 	c #6A4828",
"]7 	c #795A3E",
"^7 	c #96744C",
"/7 	c #613E1B",
"(7 	c #85521D",
"_7 	c #8D5C27",
":7 	c #6B4013",
"<7 	c #694122",
"[7 	c #795026",
"}7 	c #301E10",
"|7 	c #311F11",
"17 	c #392515",
"27 	c #493219",
"37 	c #48341E",
"47 	c #513C24",
"57 	c #382510",
"67 	c #301D0D",
"77 	c #23150B",
"87 	c #23170D",
"97 	c #261B0E",
"07 	c #23160D",
"a7 	c #221508",
"b7 	c #3E2A19",
"c7 	c #372614",
"d7 	c #442F1C",
"e7 	c #3A2614",
"f7 	c #3C2615",
"g7 	c #48311D",
"h7 	c #4B321B",
"i7 	c #543A24",
"j7 	c #684630",
"k7 	c #876244",
"l7 	c #836346",
"m7 	c #755A3A",
"n7 	c #72533A",
"o7 	c #6B4D33",
"p7 	c #886347",
"q7 	c #AA773E",
"r7 	c #AF7836",
"s7 	c #B07738",
"t7 	c #C98C44",
"u7 	c #4D351E",
"v7 	c #9B8365",
"w7 	c #765F43",
"x7 	c #957657",
"y7 	c #80664D",
"z7 	c #977E60",
"A7 	c #8A7457",
"B7 	c #705C43",
"C7 	c #725B40",
"D7 	c #735B43",
"E7 	c #735943",
"F7 	c #735941",
"G7 	c #886349",
"H7 	c #936C4B",
"I7 	c #764B28",
"J7 	c #734E30",
"K7 	c #633A21",
"L7 	c #834F0E",
"M7 	c #B77F3E",
"N7 	c #BD7E2D",
"O7 	c #655137",
"P7 	c #69553F",
"Q7 	c #856B56",
"R7 	c #A98C6D",
"S7 	c #4A3D28",
"T7 	c #7B674E",
"U7 	c #806046",
"V7 	c #7F654B",
"W7 	c #674D33",
"X7 	c #6C5337",
"Y7 	c #654A33",
"Z7 	c #6C5038",
"`7 	c #765336",
" 8 	c #7E5C3F",
".8 	c #845E3D",
"+8 	c #916941",
"@8 	c #8C6A49",
"#8 	c #7B583B",
"$8 	c #735133",
"%8 	c #745035",
"&8 	c #775236",
"*8 	c #745034",
"=8 	c #724D32",
"-8 	c #7C5537",
";8 	c #7D5332",
">8 	c #805634",
",8 	c #7D522F",
"'8 	c #8B5B39",
")8 	c #6A533A",
"!8 	c #2F2311",
"~8 	c #614D33",
"{8 	c #2D1908",
"]8 	c #68441F",
"^8 	c #896037",
"/8 	c #9D6830",
"(8 	c #946B40",
"_8 	c #7E4D1A",
":8 	c #5B3412",
"<8 	c #7D4D1F",
"[8 	c #875821",
"}8 	c #7E5323",
"|8 	c #7F552B",
"18 	c #7A5C39",
"28 	c #745839",
"38 	c #735031",
"48 	c #794611",
"58 	c #9F6C30",
"68 	c #1B1200",
"78 	c #4F3518",
"88 	c #67492C",
"98 	c #845926",
"08 	c #36210F",
"a8 	c #332012",
"b8 	c #3A2712",
"c8 	c #2C1A0A",
"d8 	c #4C371E",
"e8 	c #472A0C",
"f8 	c #553E25",
"g8 	c #4C351C",
"h8 	c #583C20",
"i8 	c #452D16",
"j8 	c #36200A",
"k8 	c #33200F",
"l8 	c #25170A",
"m8 	c #20140A",
"n8 	c #1E1207",
"o8 	c #2B1A0E",
"p8 	c #472E1A",
"q8 	c #4A311C",
"r8 	c #432E19",
"s8 	c #422C17",
"t8 	c #4D3520",
"u8 	c #6D5037",
"v8 	c #6C4C32",
"w8 	c #826144",
"x8 	c #95795C",
"y8 	c #7C5638",
"z8 	c #85664A",
"A8 	c #7B583A",
"B8 	c #7B593C",
"C8 	c #2A1A06",
"D8 	c #A57D4E",
"E8 	c #C5893F",
"F8 	c #B07930",
"G8 	c #885519",
"H8 	c #775B39",
"I8 	c #4C3820",
"J8 	c #9E8769",
"K8 	c #180C02",
"L8 	c #71502F",
"M8 	c #806147",
"N8 	c #967B5F",
"O8 	c #9C8567",
"P8 	c #5E4B35",
"Q8 	c #725D4A",
"R8 	c #56432C",
"S8 	c #4D371F",
"T8 	c #85674E",
"U8 	c #81674D",
"V8 	c #624830",
"W8 	c #674B32",
"X8 	c #724729",
"Y8 	c #8B5B33",
"Z8 	c #805130",
"`8 	c #775130",
" 9 	c #A56827",
".9 	c #B37129",
"+9 	c #6F4D2B",
"@9 	c #755C46",
"#9 	c #6B5641",
"$9 	c #6C573D",
"%9 	c #755D48",
"&9 	c #6A5640",
"*9 	c #69553C",
"=9 	c #856D53",
"-9 	c #80634C",
";9 	c #735B41",
">9 	c #70533B",
",9 	c #7A6145",
"'9 	c #755C3F",
")9 	c #6A5135",
"!9 	c #72573C",
"~9 	c #856447",
"{9 	c #76593E",
"]9 	c #795337",
"^9 	c #744E30",
"/9 	c #855D3D",
"(9 	c #774F2F",
"_9 	c #7C5A39",
":9 	c #795838",
"<9 	c #87633F",
"[9 	c #775434",
"}9 	c #684627",
"|9 	c #8A5E39",
"19 	c #865B38",
"29 	c #996642",
"39 	c #8D623B",
"49 	c #875935",
"59 	c #744926",
"69 	c #68523C",
"79 	c #3F301E",
"89 	c #56412C",
"99 	c #6A543A",
"09 	c #966A27",
"a9 	c #8F510E",
"b9 	c #392204",
"c9 	c #6A4727",
"d9 	c #8E6030",
"e9 	c #905A1D",
"f9 	c #6F4C2B",
"g9 	c #815C32",
"h9 	c #B47833",
"i9 	c #603B13",
"j9 	c #795C3F",
"k9 	c #5E4024",
"l9 	c #50371A",
"m9 	c #5D4328",
"n9 	c #583B25",
"o9 	c #4D3119",
"p9 	c #3C2311",
"q9 	c #3B2715",
"r9 	c #3E2813",
"s9 	c #392410",
"t9 	c #362311",
"u9 	c #5A3E23",
"v9 	c #4C321B",
"w9 	c #573F28",
"x9 	c #4A3014",
"y9 	c #462D14",
"z9 	c #2E1C0C",
"A9 	c #2B1C0E",
"B9 	c #23160B",
"C9 	c #201208",
"D9 	c #1D1206",
"E9 	c #412D1A",
"F9 	c #402C17",
"G9 	c #3F2716",
"H9 	c #3E2A16",
"I9 	c #4F3821",
"J9 	c #4A301E",
"K9 	c #50351F",
"L9 	c #604029",
"M9 	c #694730",
"N9 	c #725539",
"O9 	c #715134",
"P9 	c #7E593A",
"Q9 	c #8D6545",
"R9 	c #8A6546",
"S9 	c #8F6C4E",
"T9 	c #3A220C",
"U9 	c #432E1B",
"V9 	c #3D230D",
"W9 	c #A7763B",
"X9 	c #0C0601",
"Y9 	c #352818",
"Z9 	c #695336",
"`9 	c #8B7354",
" 0 	c #957F60",
".0 	c #775131",
"+0 	c #AA8B68",
"@0 	c #826345",
"#0 	c #A88C6D",
"$0 	c #795C3C",
"%0 	c #9A7248",
"&0 	c #BF7A27",
"*0 	c #886D4A",
"=0 	c #856B4D",
"-0 	c #A28566",
";0 	c #7A5737",
">0 	c #81563A",
",0 	c #795336",
"'0 	c #865635",
")0 	c #7D5536",
"!0 	c #76562F",
"~0 	c #311B01",
"{0 	c #816038",
"]0 	c #684F33",
"^0 	c #56422F",
"/0 	c #614831",
"(0 	c #6B5339",
"_0 	c #312410",
":0 	c #6B5239",
"<0 	c #816849",
"[0 	c #7B5C3E",
"}0 	c #775C3E",
"|0 	c #7D6044",
"10 	c #73583D",
"20 	c #71533A",
"30 	c #8A6A4E",
"40 	c #7C5A3B",
"50 	c #7A5638",
"60 	c #825C3D",
"70 	c #846040",
"80 	c #865F40",
"90 	c #81593B",
"00 	c #734C2F",
"a0 	c #744E32",
"b0 	c #714E33",
"c0 	c #8D603F",
"d0 	c #6B4D2C",
"e0 	c #896141",
"f0 	c #7D5635",
"g0 	c #815737",
"h0 	c #805333",
"i0 	c #835738",
"j0 	c #7B4E29",
"k0 	c #5A4933",
"l0 	c #786248",
"m0 	c #64503A",
"n0 	c #705639",
"o0 	c #725533",
"p0 	c #90571C",
"q0 	c #A2713A",
"r0 	c #966028",
"s0 	c #7A4E20",
"t0 	c #8C5C23",
"u0 	c #A76A27",
"v0 	c #764F27",
"w0 	c #734920",
"x0 	c #7D5221",
"y0 	c #8B5516",
"z0 	c #39281A",
"A0 	c #523A24",
"B0 	c #57381E",
"C0 	c #5D3E25",
"D0 	c #533925",
"E0 	c #523B20",
"F0 	c #4A331B",
"G0 	c #462C1A",
"H0 	c #3D2613",
"I0 	c #503C22",
"J0 	c #4D3518",
"K0 	c #3B2815",
"L0 	c #483018",
"M0 	c #2E1D10",
"N0 	c #1A0E07",
"O0 	c #171207",
"P0 	c #251B0D",
"Q0 	c #271E10",
"R0 	c #281F10",
"S0 	c #372B1C",
"T0 	c #110B02",
"U0 	c #2C1E11",
"V0 	c #4A3926",
"W0 	c #352617",
"X0 	c #21190E",
"Y0 	c #372B1A",
"Z0 	c #34271B",
"`0 	c #614F37",
" a 	c #543F26",
".a 	c #5D4B32",
"+a 	c #93795A",
"@a 	c #9A7A51",
"#a 	c #AA7537",
"$a 	c #604927",
"%a 	c #725B41",
"&a 	c #513F2F",
"*a 	c #493C25",
"=a 	c #5E472F",
"-a 	c #554530",
";a 	c #73614B",
">a 	c #725B42",
",a 	c #A98B68",
"'a 	c #846640",
")a 	c #7E5225",
"!a 	c #905D1C",
"~a 	c #CB9356",
"{a 	c #BF925D",
"]a 	c #C38135",
"^a 	c #8D6D46",
"/a 	c #84654A",
"(a 	c #A88F73",
"_a 	c #5B4831",
":a 	c #4C3D27",
"<a 	c #6D553A",
"[a 	c #412E17",
"}a 	c #816646",
"|a 	c #68543C",
"1a 	c #614C34",
"2a 	c #6D573D",
"3a 	c #745D3F",
"4a 	c #65472C",
"5a 	c #86694A",
"6a 	c #71593E",
"7a 	c #6A5138",
"8a 	c #53422D",
"9a 	c #584530",
"0a 	c #362712",
"aa 	c #4C3B21",
"ba 	c #302515",
"ca 	c #2C1F14",
"da 	c #29200D",
"ea 	c #2B1E0E",
"fa 	c #291E0E",
"ga 	c #382C19",
"ha 	c #2B200F",
"ia 	c #462F1A",
"ja 	c #4C3C28",
"ka 	c #614F35",
"la 	c #816545",
"ma 	c #291E09",
"na 	c #3C321C",
"oa 	c #5B442D",
"pa 	c #69543E",
"qa 	c #201505",
"ra 	c #685138",
"sa 	c #6F5940",
"ta 	c #5D482F",
"ua 	c #82674C",
"va 	c #594229",
"wa 	c #754D28",
"xa 	c #6D533C",
"ya 	c #A47137",
"za 	c #A46321",
"Aa 	c #845524",
"Ba 	c #B06C1B",
"Ca 	c #6F4D28",
"Da 	c #3C2A12",
"Ea 	c #1A1103",
"Fa 	c #40301C",
"Ga 	c #564229",
"Ha 	c #5E4931",
"Ia 	c #533C26",
"Ja 	c #4D3617",
"Ka 	c #312213",
"La 	c #382713",
"Ma 	c #422E1C",
"Na 	c #452F1A",
"Oa 	c #402D16",
"Pa 	c #4B351D",
"Qa 	c #724923",
"Ra 	c #4C3215",
"Sa 	c #2A1E0A",
"Ta 	c #302615",
"Ua 	c #140D06",
"Va 	c #181105",
"Wa 	c #1E1709",
"Xa 	c #261E10",
"Ya 	c #2D2010",
"Za 	c #42341E",
"`a 	c #26190D",
" b 	c #332817",
".b 	c #352717",
"+b 	c #382618",
"@b 	c #705234",
"#b 	c #998164",
"$b 	c #7F664A",
"%b 	c #8D7257",
"&b 	c #705838",
"*b 	c #926028",
"=b 	c #C68B47",
"-b 	c #241503",
";b 	c #45341A",
">b 	c #8C7454",
",b 	c #715F46",
"'b 	c #7B6246",
")b 	c #513F2A",
"!b 	c #907553",
"~b 	c #897257",
"{b 	c #796145",
"]b 	c #886644",
"^b 	c #BB833D",
"/b 	c #917450",
"(b 	c #35220F",
"_b 	c #CB944E",
":b 	c #C1925A",
"<b 	c #8A7050",
"[b 	c #5E4F39",
"}b 	c #826A51",
"|b 	c #A78B6E",
"1b 	c #856E4E",
"2b 	c #654F31",
"3b 	c #7B6347",
"4b 	c #6E5940",
"5b 	c #9F8360",
"6b 	c #725638",
"7b 	c #685136",
"8b 	c #624E34",
"9b 	c #6D5946",
"0b 	c #8A7556",
"ab 	c #74593B",
"bb 	c #7F603F",
"cb 	c #A18868",
"db 	c #9B7F61",
"eb 	c #715A3F",
"fb 	c #8A7355",
"gb 	c #6A5740",
"hb 	c #514430",
"ib 	c #55442F",
"jb 	c #53422F",
"kb 	c #463721",
"lb 	c #7B644A",
"mb 	c #705C44",
"nb 	c #836B4E",
"ob 	c #614B36",
"pb 	c #684E35",
"qb 	c #735D40",
"rb 	c #8C7559",
"sb 	c #917A5B",
"tb 	c #786349",
"ub 	c #4F3C25",
"vb 	c #624F38",
"wb 	c #634E36",
"xb 	c #503C1D",
"yb 	c #72573D",
"zb 	c #624D32",
"Ab 	c #93775E",
"Bb 	c #806142",
"Cb 	c #81654B",
"Db 	c #8F7451",
"Eb 	c #75532B",
"Fb 	c #AC702A",
"Gb 	c #AD7A3C",
"Hb 	c #6E5436",
"Ib 	c #7D6548",
"Jb 	c #84531D",
"Kb 	c #693B0F",
"Lb 	c #826849",
"Mb 	c #4C3B25",
"Nb 	c #614E34",
"Ob 	c #584631",
"Pb 	c #433019",
"Qb 	c #3D311E",
"Rb 	c #483723",
"Sb 	c #332513",
"Tb 	c #402D1D",
"Ub 	c #433423",
"Vb 	c #4B3521",
"Wb 	c #3D2A19",
"Xb 	c #2C210E",
"Yb 	c #24190D",
"Zb 	c #2F2215",
"`b 	c #291F11",
" c 	c #261B0C",
".c 	c #27180B",
"+c 	c #2C1F12",
"@c 	c #3A2917",
"#c 	c #37200D",
"$c 	c #463019",
"%c 	c #5D3F2B",
"&c 	c #4D331E",
"*c 	c #74553C",
"=c 	c #4F3C29",
"-c 	c #836B51",
";c 	c #7B6042",
">c 	c #AE9069",
",c 	c #A8723A",
"'c 	c #7C490F",
")c 	c #9B6020",
"!c 	c #B37330",
"~c 	c #9D764A",
"{c 	c #8D6C48",
"]c 	c #A28260",
"^c 	c #A48060",
"/c 	c #987551",
"(c 	c #5E3D22",
"_c 	c #482E19",
":c 	c #6E4D32",
"<c 	c #876444",
"[c 	c #785131",
"}c 	c #805B3A",
"|c 	c #806140",
"1c 	c #796346",
"2c 	c #7E654D",
"3c 	c #795F43",
"4c 	c #82674B",
"5c 	c #896E4D",
"6c 	c #8A6F4E",
"7c 	c #47371D",
"8c 	c #947A5A",
"9c 	c #B29977",
"0c 	c #B59A7E",
"ac 	c #705D46",
"bc 	c #8E7559",
"cc 	c #8E6D4A",
"dc 	c #583A18",
"ec 	c #170901",
"fc 	c #563921",
"gc 	c #6E5035",
"hc 	c #BE7E30",
"ic 	c #2B1B0C",
"jc 	c #926F49",
"kc 	c #865A27",
"lc 	c #53402D",
"mc 	c #52402C",
"nc 	c #4C3726",
"oc 	c #56442E",
"pc 	c #4E3E2E",
"qc 	c #4E3E2F",
"rc 	c #91795D",
"sc 	c #201104",
"tc 	c #6D583E",
"uc 	c #866C4F",
"vc 	c #5F5038",
"wc 	c #B29272",
"xc 	c #705239",
"yc 	c #593920",
"zc 	c #52341D",
"Ac 	c #65492F",
"Bc 	c #755238",
"Cc 	c #68482D",
"Dc 	c #8D6D4E",
"Ec 	c #7E5938",
"Fc 	c #76563D",
"Gc 	c #725839",
"Hc 	c #856442",
"Ic 	c #AB6B19",
"Jc 	c #311F08",
"Kc 	c #7D684A",
"Lc 	c #7F664D",
"Mc 	c #A7784A",
"Nc 	c #51371E",
"Oc 	c #685039",
"Pc 	c #6C563F",
"Qc 	c #775D46",
"Rc 	c #A7661E",
"Sc 	c #805A34",
"Tc 	c #5D4123",
"Uc 	c #513A22",
"Vc 	c #785638",
"Wc 	c #8A6130",
"Xc 	c #784E25",
"Yc 	c #825624",
"Zc 	c #735739",
"`c 	c #53351D",
" d 	c #4E321B",
".d 	c #4A2F1B",
"+d 	c #3E2413",
"@d 	c #402917",
"#d 	c #3D2716",
"$d 	c #4C351F",
"%d 	c #47311E",
"&d 	c #4C3522",
"*d 	c #3D2E19",
"=d 	c #302011",
"-d 	c #30210F",
";d 	c #170F03",
">d 	c #261A0C",
",d 	c #241508",
"'d 	c #28180D",
")d 	c #291B0E",
"!d 	c #48301B",
"~d 	c #462F1C",
"{d 	c #523925",
"]d 	c #422D19",
"^d 	c #463120",
"/d 	c #594830",
"(d 	c #362A1E",
"_d 	c #C79259",
":d 	c #6D5B46",
"<d 	c #AA7432",
"[d 	c #BB7C2B",
"}d 	c #D18C3B",
"|d 	c #AD7128",
"1d 	c #925C21",
"2d 	c #2A1B03",
"3d 	c #744F34",
"4d 	c #926D4F",
"5d 	c #8D6A49",
"6d 	c #805C3A",
"7d 	c #9A7957",
"8d 	c #765235",
"9d 	c #6D4929",
"0d 	c #725032",
"ad 	c #775338",
"bd 	c #684D39",
"cd 	c #644F3C",
"dd 	c #6A533E",
"ed 	c #BE9F77",
"fd 	c #A68A6E",
"gd 	c #B88139",
"hd 	c #4D3B27",
"id 	c #665033",
"jd 	c #826850",
"kd 	c #2C2114",
"ld 	c #85715B",
"md 	c #9D8870",
"nd 	c #84715A",
"od 	c #8C795E",
"pd 	c #81694A",
"qd 	c #A36D28",
"rd 	c #4B3011",
"sd 	c #8C6D4D",
"td 	c #947A5D",
"ud 	c #795D42",
"vd 	c #66452A",
"wd 	c #9C7958",
"xd 	c #826644",
"yd 	c #775E42",
"zd 	c #554031",
"Ad 	c #554332",
"Bd 	c #5E482F",
"Cd 	c #574533",
"Dd 	c #63513D",
"Ed 	c #705C40",
"Fd 	c #6D5236",
"Gd 	c #51422E",
"Hd 	c #7B5E41",
"Id 	c #573923",
"Jd 	c #65482E",
"Kd 	c #604027",
"Ld 	c #66432C",
"Md 	c #876A4E",
"Nd 	c #684D32",
"Od 	c #6C4C2F",
"Pd 	c #75593E",
"Qd 	c #765A3F",
"Rd 	c #AB793D",
"Sd 	c #825E3A",
"Td 	c #896846",
"Ud 	c #624A2D",
"Vd 	c #755B42",
"Wd 	c #665038",
"Xd 	c #4D3A23",
"Yd 	c #AC7C45",
"Zd 	c #83521F",
"`d 	c #7A4E22",
" e 	c #8B591E",
".e 	c #835A28",
"+e 	c #251B08",
"@e 	c #452914",
"#e 	c #4B2E16",
"$e 	c #8C6034",
"%e 	c #643C15",
"&e 	c #4E351E",
"*e 	c #4F3722",
"=e 	c #4B311C",
"-e 	c #47311B",
";e 	c #3F2918",
">e 	c #3A2611",
",e 	c #3B2615",
"'e 	c #523924",
")e 	c #402C1C",
"!e 	c #3B2C18",
"~e 	c #362517",
"{e 	c #2E2112",
"]e 	c #332516",
"^e 	c #2B1B0D",
"/e 	c #33220D",
"(e 	c #271708",
"_e 	c #1E1204",
":e 	c #22150B",
"<e 	c #28170D",
"[e 	c #312210",
"}e 	c #583C25",
"|e 	c #6F512C",
"1e 	c #452F1E",
"2e 	c #4F3521",
"3e 	c #533B27",
"4e 	c #4C3A26",
"5e 	c #2A2013",
"6e 	c #563C25",
"7e 	c #201201",
"8e 	c #856538",
"9e 	c #92540D",
"0e 	c #1D0600",
"ae 	c #4B3118",
"be 	c #714C30",
"ce 	c #694626",
"de 	c #56371C",
"ee 	c #6E4629",
"fe 	c #734E33",
"ge 	c #66472E",
"he 	c #684530",
"ie 	c #5F3B20",
"je 	c #7B5C42",
"ke 	c #9D7140",
"le 	c #5B4936",
"me 	c #9F784A",
"ne 	c #8F7159",
"oe 	c #705C45",
"pe 	c #5E4B31",
"qe 	c #9D866A",
"re 	c #8E7961",
"se 	c #846F56",
"te 	c #8C7152",
"ue 	c #876441",
"ve 	c #643805",
"we 	c #C27F24",
"xe 	c #9F825F",
"ye 	c #988263",
"ze 	c #8A6F56",
"Ae 	c #907157",
"Be 	c #7F6445",
"Ce 	c #917356",
"De 	c #705336",
"Ee 	c #816B4F",
"Fe 	c #5B482F",
"Ge 	c #473621",
"He 	c #523D2B",
"Ie 	c #503C2A",
"Je 	c #584730",
"Ke 	c #544430",
"Le 	c #5B4834",
"Me 	c #917859",
"Ne 	c #725739",
"Oe 	c #735339",
"Pe 	c #63452E",
"Qe 	c #64452A",
"Re 	c #6C4828",
"Se 	c #674127",
"Te 	c #74533C",
"Ue 	c #75553C",
"Ve 	c #7A5E46",
"We 	c #886849",
"Xe 	c #77583C",
"Ye 	c #684C32",
"Ze 	c #8D6030",
"`e 	c #AB6F2A",
" f 	c #7D603D",
".f 	c #6D5239",
"+f 	c #856B52",
"@f 	c #66513B",
"#f 	c #68513C",
"$f 	c #745025",
"%f 	c #B07024",
"&f 	c #9E6929",
"*f 	c #654827",
"=f 	c #8F602D",
"-f 	c #AF783F",
";f 	c #644F37",
">f 	c #674A2D",
",f 	c #4F3018",
"'f 	c #50301E",
")f 	c #AC6D2F",
"!f 	c #50341B",
"~f 	c #5B4027",
"{f 	c #452B15",
"]f 	c #432919",
"^f 	c #452E1A",
"/f 	c #472D1C",
"(f 	c #49351F",
"_f 	c #41301D",
":f 	c #452F1C",
"<f 	c #483020",
"[f 	c #452F1D",
"}f 	c #3A291B",
"|f 	c #402E1C",
"1f 	c #2E1F0F",
"2f 	c #0F0700",
"3f 	c #321F11",
"4f 	c #221607",
"5f 	c #211205",
"6f 	c #221308",
"7f 	c #1A1009",
"8f 	c #473221",
"9f 	c #4C3521",
"0f 	c #60442E",
"af 	c #573E26",
"bf 	c #4B3422",
"cf 	c #4E3822",
"df 	c #55422A",
"ef 	c #867054",
"ff 	c #5C442F",
"gf 	c #5B442E",
"hf 	c #5C3F2B",
"if 	c #4B3623",
"jf 	c #452E17",
"kf 	c #64452B",
"lf 	c #75502F",
"mf 	c #62442B",
"nf 	c #583A22",
"of 	c #4B331B",
"pf 	c #54381F",
"qf 	c #67452D",
"rf 	c #63442A",
"sf 	c #714E37",
"tf 	c #6B4E37",
"uf 	c #6F5036",
"vf 	c #6F543D",
"wf 	c #976F42",
"xf 	c #7D6243",
"yf 	c #402E1A",
"zf 	c #765D3D",
"Af 	c #61452E",
"Bf 	c #1F190C",
"Cf 	c #836C50",
"Df 	c #80694F",
"Ef 	c #7D6952",
"Ff 	c #8B795D",
"Gf 	c #968266",
"Hf 	c #BC976B",
"If 	c #785A3C",
"Jf 	c #B17A39",
"Kf 	c #B6731C",
"Lf 	c #887153",
"Mf 	c #947657",
"Nf 	c #927E60",
"Of 	c #7D6348",
"Pf 	c #79593A",
"Qf 	c #634C32",
"Rf 	c #735A40",
"Sf 	c #634B33",
"Tf 	c #564130",
"Uf 	c #5B4935",
"Vf 	c #473526",
"Wf 	c #51402C",
"Xf 	c #4A3925",
"Yf 	c #695137",
"Zf 	c #836749",
"`f 	c #533520",
" g 	c #543821",
".g 	c #5B3F26",
"+g 	c #68472E",
"@g 	c #684629",
"#g 	c #6D4C2E",
"$g 	c #66452C",
"%g 	c #67492D",
"&g 	c #78573D",
"*g 	c #836547",
"=g 	c #866A4E",
"-g 	c #6B4F33",
";g 	c #745439",
">g 	c #826C4D",
",g 	c #664E39",
"'g 	c #67523C",
")g 	c #824E15",
"!g 	c #B57328",
"~g 	c #321503",
"{g 	c #9E692C",
"]g 	c #8F5A1D",
"^g 	c #845829",
"/g 	c #775637",
"(g 	c #5D3A20",
"_g 	c #4A2E18",
":g 	c #402914",
"<g 	c #584028",
"[g 	c #3B2816",
"}g 	c #442C1E",
"|g 	c #432C19",
"1g 	c #3A2B1F",
"2g 	c #302013",
"3g 	c #2C1B0D",
"4g 	c #170E06",
"5g 	c #342719",
"6g 	c #25150B",
"7g 	c #201406",
"8g 	c #1B1409",
"9g 	c #1F120A",
"0g 	c #322212",
"ag 	c #7A542F",
"bg 	c #694D35",
"cg 	c #503823",
"dg 	c #4B341C",
"eg 	c #6B5B46",
"fg 	c #7D674E",
"gg 	c #624932",
"hg 	c #59412C",
"ig 	c #5E4A37",
"jg 	c #654C33",
"kg 	c #67472F",
"lg 	c #5A4029",
"mg 	c #594029",
"ng 	c #66452D",
"og 	c #80583A",
"pg 	c #664127",
"qg 	c #6F4C32",
"rg 	c #765439",
"sg 	c #978066",
"tg 	c #937960",
"ug 	c #8D7150",
"vg 	c #482D16",
"wg 	c #9C7753",
"xg 	c #8D7457",
"yg 	c #83694D",
"zg 	c #6C573C",
"Ag 	c #9C876C",
"Bg 	c #8E7861",
"Cg 	c #826E52",
"Dg 	c #8D7C63",
"Eg 	c #7F6A4C",
"Fg 	c #AE9273",
"Gg 	c #82551E",
"Hg 	c #CC8E37",
"Ig 	c #7C5B3A",
"Jg 	c #8C6746",
"Kg 	c #AA8E70",
"Lg 	c #5F432D",
"Mg 	c #5B452C",
"Ng 	c #866D53",
"Og 	c #91755A",
"Pg 	c #644E36",
"Qg 	c #6C5B44",
"Rg 	c #604D3A",
"Sg 	c #68533F",
"Tg 	c #554030",
"Ug 	c #4C3A29",
"Vg 	c #55432F",
"Wg 	c #594430",
"Xg 	c #8B7654",
"Yg 	c #6A462C",
"Zg 	c #5F3E2A",
"`g 	c #725A41",
" h 	c #56381E",
".h 	c #6D4730",
"+h 	c #78583E",
"@h 	c #82654F",
"#h 	c #826545",
"$h 	c #8E7557",
"%h 	c #8E7658",
"&h 	c #725236",
"*h 	c #654529",
"=h 	c #816348",
"-h 	c #745739",
";h 	c #836345",
">h 	c #715B43",
",h 	c #725B45",
"'h 	c #614930",
")h 	c #6C543E",
"!h 	c #8B5A26",
"~h 	c #804C15",
"{h 	c #784812",
"]h 	c #8E5C28",
"^h 	c #946834",
"/h 	c #7D5730",
"(h 	c #574129",
"_h 	c #8E7152",
":h 	c #533820",
"<h 	c #815224",
"[h 	c #714D21",
"}h 	c #3D2817",
"|h 	c #462F1B",
"1h 	c #3D2818",
"2h 	c #402E1B",
"3h 	c #422F1A",
"4h 	c #392517",
"5h 	c #3F2B1C",
"6h 	c #342415",
"7h 	c #342416",
"8h 	c #211308",
"9h 	c #281809",
"0h 	c #342412",
"ah 	c #241507",
"bh 	c #251206",
"ch 	c #1E150B",
"dh 	c #22190E",
"eh 	c #513A27",
"fh 	c #6D4A24",
"gh 	c #6E441B",
"hh 	c #5A422C",
"ih 	c #3D2B19",
"jh 	c #46341F",
"kh 	c #725D44",
"lh 	c #6A4B31",
"mh 	c #6D5238",
"nh 	c #59402B",
"oh 	c #694E3A",
"ph 	c #6E5136",
"qh 	c #6A4A31",
"rh 	c #6F5037",
"sh 	c #6E4C32",
"th 	c #8B6447",
"uh 	c #775034",
"vh 	c #5C3A20",
"wh 	c #644023",
"xh 	c #7C573B",
"yh 	c #805E43",
"zh 	c #7F5C41",
"Ah 	c #9A8268",
"Bh 	c #8A795F",
"Ch 	c #826446",
"Dh 	c #61422B",
"Eh 	c #7B5F44",
"Fh 	c #9D8368",
"Gh 	c #9D896E",
"Hh 	c #9A7757",
"Ih 	c #624A30",
"Jh 	c #705A40",
"Kh 	c #6F5B41",
"Lh 	c #A9967E",
"Mh 	c #877058",
"Nh 	c #8E795F",
"Oh 	c #A3835A",
"Ph 	c #8F6C44",
"Qh 	c #9F8264",
"Rh 	c #A68D6C",
"Sh 	c #876A4C",
"Th 	c #967B5A",
"Uh 	c #876341",
"Vh 	c #74553D",
"Wh 	c #AF8C6F",
"Xh 	c #7C6146",
"Yh 	c #584231",
"Zh 	c #644F3B",
"`h 	c #53432F",
" i 	c #564432",
".i 	c #54442F",
"+i 	c #534434",
"@i 	c #483524",
"#i 	c #5B4833",
"$i 	c #433323",
"%i 	c #5C3A25",
"&i 	c #60452A",
"*i 	c #73543C",
"=i 	c #694C33",
"-i 	c #72573F",
";i 	c #70553D",
">i 	c #70563C",
",i 	c #785A3D",
"'i 	c #8C7155",
")i 	c #8F7557",
"!i 	c #816043",
"~i 	c #7C5838",
"{i 	c #6B4E32",
"]i 	c #6C5137",
"^i 	c #7B592D",
"/i 	c #7D5E39",
"(i 	c #7C5933",
"_i 	c #634C35",
":i 	c #714923",
"<i 	c #643E12",
"[i 	c #935614",
"}i 	c #8D602F",
"|i 	c #B97F3B",
"1i 	c #53361C",
"2i 	c #53412A",
"3i 	c #866448",
"4i 	c #4D2F1A",
"5i 	c #4B311D",
"6i 	c #8E6D4D",
"7i 	c #846341",
"8i 	c #794B18",
"9i 	c #6D481E",
"0i 	c #8F591C",
"ai 	c #402818",
"bi 	c #3F2A1B",
"ci 	c #3B2617",
"di 	c #3C2817",
"ei 	c #3D2D1B",
"fi 	c #2F1F13",
"gi 	c #2C1B0E",
"hi 	c #26150A",
"ii 	c #0F0C04",
"ji 	c #261B0D",
"ki 	c #251A0F",
"li 	c #563B1F",
"mi 	c #7B562B",
"ni 	c #3E2C19",
"oi 	c #4A311A",
"pi 	c #412C18",
"qi 	c #705942",
"ri 	c #65472D",
"si 	c #715335",
"ti 	c #7F5F3D",
"ui 	c #7A583A",
"vi 	c #785836",
"wi 	c #876D56",
"xi 	c #8F734E",
"yi 	c #876F52",
"zi 	c #64452C",
"Ai 	c #614021",
"Bi 	c #583A20",
"Ci 	c #734D30",
"Di 	c #73523B",
"Ei 	c #704D31",
"Fi 	c #9B7855",
"Gi 	c #9A7858",
"Hi 	c #6D4F34",
"Ii 	c #7D5C3B",
"Ji 	c #865F41",
"Ki 	c #8A6D4E",
"Li 	c #5E4C33",
"Mi 	c #9E8870",
"Ni 	c #8D7250",
"Oi 	c #917558",
"Pi 	c #987E65",
"Qi 	c #A38768",
"Ri 	c #886C51",
"Si 	c #8C7150",
"Ti 	c #B69265",
"Ui 	c #987555",
"Vi 	c #A0805F",
"Wi 	c #8F7053",
"Xi 	c #654B2C",
"Yi 	c #78593C",
"Zi 	c #73573F",
"`i 	c #765B41",
" j 	c #80664B",
".j 	c #70533A",
"+j 	c #66533D",
"@j 	c #564734",
"#j 	c #554330",
"$j 	c #523D2C",
"%j 	c #4F3C28",
"&j 	c #8B6F4F",
"*j 	c #7B5C40",
"=j 	c #543921",
"-j 	c #5E4128",
";j 	c #715139",
">j 	c #624329",
",j 	c #271908",
"'j 	c #62472E",
")j 	c #7C6246",
"!j 	c #755337",
"~j 	c #664A31",
"{j 	c #916E50",
"]j 	c #63442C",
"^j 	c #825D3F",
"/j 	c #69482F",
"(j 	c #74543B",
"_j 	c #6B4E2F",
":j 	c #785B40",
"<j 	c #826546",
"[j 	c #916130",
"}j 	c #83592A",
"|j 	c #BD7A2D",
"1j 	c #835829",
"2j 	c #905D21",
"3j 	c #72502D",
"4j 	c #6D5538",
"5j 	c #644228",
"6j 	c #462B13",
"7j 	c #8E6F50",
"8j 	c #5C3A1A",
"9j 	c #765435",
"0j 	c #180E02",
"aj 	c #7C4C18",
"bj 	c #2E1D0A",
"cj 	c #432A17",
"dj 	c #382514",
"ej 	c #362212",
"fj 	c #2C1A0D",
"gj 	c #2C2012",
"hj 	c #1D1106",
"ij 	c #231A0C",
"jj 	c #2A2012",
"kj 	c #312517",
"lj 	c #2F2316",
"mj 	c #382A1B",
"nj 	c #3A2C19",
"oj 	c #362618",
"pj 	c #231807",
"qj 	c #574530",
"rj 	c #6B573D",
"sj 	c #5F4A33",
"tj 	c #231C0E",
"uj 	c #6A563E",
"vj 	c #5F4C38",
"wj 	c #4D3E2A",
"xj 	c #5E4B34",
"yj 	c #80684D",
"zj 	c #9F8A6D",
"Aj 	c #937B5D",
"Bj 	c #493518",
"Cj 	c #786449",
"Dj 	c #9F8767",
"Ej 	c #473725",
"Fj 	c #7F664C",
"Gj 	c #866F53",
"Hj 	c #776143",
"Ij 	c #80694C",
"Jj 	c #886F55",
"Kj 	c #B49E76",
"Lj 	c #9D7E5F",
"Mj 	c #96724C",
"Nj 	c #8D785F",
"Oj 	c #8F7C63",
"Pj 	c #856F4B",
"Qj 	c #B39B7D",
"Rj 	c #7C654D",
"Sj 	c #997E66",
"Tj 	c #765E45",
"Uj 	c #6C5639",
"Vj 	c #5F4D32",
"Wj 	c #9C8467",
"Xj 	c #795E3F",
"Yj 	c #4E3F2A",
"Zj 	c #523F29",
"`j 	c #53442E",
" k 	c #302310",
".k 	c #6B563D",
"+k 	c #705A3F",
"@k 	c #977E5F",
"#k 	c #7F6A54",
"$k 	c #493520",
"%k 	c #50402B",
"&k 	c #725740",
"*k 	c #4C3E2A",
"=k 	c #715B40",
"-k 	c #685539",
";k 	c #9C8265",
">k 	c #9F8669",
",k 	c #987E61",
"'k 	c #594933",
")k 	c #534027",
"!k 	c #674E33",
"~k 	c #3B2E19",
"{k 	c #44321F",
"]k 	c #614A31",
"^k 	c #3F2D16",
"/k 	c #221807",
"(k 	c #46331C",
"_k 	c #563E27",
":k 	c #755F46",
"<k 	c #7F5D33",
"[k 	c #4E391E",
"}k 	c #604A2B",
"|k 	c #76563A",
"1k 	c #996834",
"2k 	c #5A4020",
"3k 	c #B47936",
"4k 	c #46341E",
"5k 	c #49351B",
"6k 	c #765F46",
"7k 	c #997450",
"8k 	c #34210B",
"9k 	c #71481C",
"0k 	c #8A5518",
"ak 	c #54381A",
"bk 	c #271504",
"ck 	c #2A1C0F",
"dk 	c #322313",
"ek 	c #362A18",
"fk 	c #322817",
"gk 	c #312415",
"hk 	c #281E11",
"ik 	c #271F0F",
"jk 	c #261B0F",
"kk 	c #20170B",
"lk 	c #281D14",
"mk 	c #281F12",
"nk 	c #30261A",
"ok 	c #423526",
"pk 	c #3A2B19",
"qk 	c #42321E",
"rk 	c #231C0D",
"sk 	c #655641",
"tk 	c #443522",
"uk 	c #594835",
"vk 	c #433624",
"wk 	c #655037",
"xk 	c #7E6B4F",
"yk 	c #614C36",
"zk 	c #806C50",
"Ak 	c #705B42",
"Bk 	c #8B7257",
"Ck 	c #9E8567",
"Dk 	c #856E51",
"Ek 	c #533D23",
"Fk 	c #6C553E",
"Gk 	c #705A45",
"Hk 	c #7F6D58",
"Ik 	c #BDA789",
"Jk 	c #412A15",
"Kk 	c #685844",
"Lk 	c #6B5238",
"Mk 	c #A18A6B",
"Nk 	c #6D5537",
"Ok 	c #634931",
"Pk 	c #735C44",
"Qk 	c #BA8740",
"Rk 	c #816D52",
"Sk 	c #715B3D",
"Tk 	c #81684A",
"Uk 	c #948064",
"Vk 	c #6B5435",
"Wk 	c #836C54",
"Xk 	c #6A5537",
"Yk 	c #7C6241",
"Zk 	c #7F684A",
"`k 	c #AF9577",
" l 	c #9C8262",
".l 	c #4D361E",
"+l 	c #5B462C",
"@l 	c #513F26",
"#l 	c #5F492F",
"$l 	c #4A3521",
"%l 	c #6B583D",
"&l 	c #8C7054",
"*l 	c #281D0D",
"=l 	c #170D06",
"-l 	c #140E02",
";l 	c #564530",
">l 	c #5C4427",
",l 	c #8C7157",
"'l 	c #7A6448",
")l 	c #907458",
"!l 	c #9E8669",
"~l 	c #5A452C",
"{l 	c #73593C",
"]l 	c #533F27",
"^l 	c #54412B",
"/l 	c #907759",
"(l 	c #564025",
"_l 	c #483A25",
":l 	c #AE9579",
"<l 	c #9E8667",
"[l 	c #917B61",
"}l 	c #8B765E",
"|l 	c #775D41",
"1l 	c #70543B",
"2l 	c #8D7758",
"3l 	c #765E3E",
"4l 	c #786346",
"5l 	c #83664B",
"6l 	c #97642F",
"7l 	c #81694F",
"8l 	c #867154",
"9l 	c #846D54",
"0l 	c #9C7E5D",
"al 	c #6A4E2D",
"bl 	c #614730",
"cl 	c #77522E",
"dl 	c #916C43",
"el 	c #78542A",
"fl 	c #563F24",
"gl 	c #58442B",
"hl 	c #7A5A39",
"il 	c #7B4914",
"jl 	c #261505",
"kl 	c #764613",
"ll 	c #613E1E",
"ml 	c #5E4325",
"nl 	c #402609",
"ol 	c #6F4110",
"pl 	c #57350F",
"ql 	c #2A1D0D",
"rl 	c #372B19",
"sl 	c #3E301D",
"tl 	c #382B1C",
"ul 	c #2D2317",
"vl 	c #3D2D1E",
"wl 	c #302514",
"xl 	c #130B04",
"yl 	c #2D1D12",
"zl 	c #3B2A18",
"Al 	c #342316",
"Bl 	c #2B1A0C",
"Cl 	c #3F2B17",
"Dl 	c #483423",
"El 	c #533C29",
"Fl 	c #60442C",
"Gl 	c #4C321F",
"Hl 	c #57412B",
"Il 	c #7B5941",
"Jl 	c #4D3216",
"Kl 	c #866E55",
"Ll 	c #897760",
"Ml 	c #8E7A60",
"Nl 	c #8B765D",
"Ol 	c #9E886D",
"Pl 	c #856C4B",
"Ql 	c #766045",
"Rl 	c #977C62",
"Sl 	c #8D7050",
"Tl 	c #AE9071",
"Ul 	c #563C28",
"Vl 	c #8A694C",
"Wl 	c #876B4D",
"Xl 	c #7C5C3E",
"Yl 	c #856B4B",
"Zl 	c #8F7351",
"`l 	c #7A583E",
" m 	c #876747",
".m 	c #A48767",
"+m 	c #846549",
"@m 	c #8E7052",
"#m 	c #805F42",
"$m 	c #906E50",
"%m 	c #7A6044",
"&m 	c #998264",
"*m 	c #A9835A",
"=m 	c #51361A",
"-m 	c #876949",
";m 	c #5A442C",
">m 	c #614830",
",m 	c #674F3B",
"'m 	c #423626",
")m 	c #4F371C",
"!m 	c #796448",
"~m 	c #745B40",
"{m 	c #775C43",
"]m 	c #624C37",
"^m 	c #644F3A",
"/m 	c #45351F",
"(m 	c #503E23",
"_m 	c #75593F",
":m 	c #805F43",
"<m 	c #7D5E44",
"[m 	c #62422A",
"}m 	c #694830",
"|m 	c #6D4A31",
"1m 	c #5D371F",
"2m 	c #613C22",
"3m 	c #633F25",
"4m 	c #623E26",
"5m 	c #593621",
"6m 	c #201306",
"7m 	c #56402A",
"8m 	c #604C38",
"9m 	c #5B3713",
"0m 	c #553B27",
"am 	c #755027",
"bm 	c #9F672B",
"cm 	c #B27639",
"dm 	c #9B682E",
"em 	c #976839",
"fm 	c #947958",
"gm 	c #6E4D29",
"hm 	c #7F4F20",
"im 	c #844C18",
"jm 	c #6F4519",
"km 	c #97632C",
"lm 	c #9A5E1B",
"mm 	c #84511D",
"nm 	c #644624",
"om 	c #5D3910",
"pm 	c #4F371B",
"qm 	c #63482A",
"rm 	c #63431F",
"sm 	c #713F0E",
"tm 	c #1C1105",
"um 	c #322214",
"vm 	c #22190B",
"wm 	c #241A0D",
"xm 	c #2C2113",
"ym 	c #281A0D",
"zm 	c #281B10",
"Am 	c #27180A",
"Bm 	c #241708",
"Cm 	c #2C1D12",
"Dm 	c #372717",
"Em 	c #3A2B1A",
"Fm 	c #362417",
"Gm 	c #473120",
"Hm 	c #543C29",
"Im 	c #553C27",
"Jm 	c #503826",
"Km 	c #503C29",
"Lm 	c #563C29",
"Mm 	c #654930",
"Nm 	c #6A5039",
"Om 	c #5E4732",
"Pm 	c #957B5F",
"Qm 	c #9E835D",
"Rm 	c #957A63",
"Sm 	c #9D876D",
"Tm 	c #9D866B",
"Um 	c #6B5030",
"Vm 	c #533D29",
"Wm 	c #89745A",
"Xm 	c #836A49",
"Ym 	c #5D3A21",
"Zm 	c #70492B",
"`m 	c #835C34",
" n 	c #8E7457",
".n 	c #886F54",
"+n 	c #7B593A",
"@n 	c #775E43",
"#n 	c #7C6249",
"$n 	c #73573D",
"%n 	c #927A60",
"&n 	c #8E7458",
"*n 	c #896A4F",
"=n 	c #9B7F60",
"-n 	c #8A6C4F",
";n 	c #957452",
">n 	c #93785A",
",n 	c #947250",
"'n 	c #886749",
")n 	c #866143",
"!n 	c #6F4A2B",
"~n 	c #4F3219",
"{n 	c #896D54",
"]n 	c #8E765D",
"^n 	c #7B6046",
"/n 	c #2D2313",
"(n 	c #8A755A",
"_n 	c #524129",
":n 	c #564532",
"<n 	c #4D3C29",
"[n 	c #604B3B",
"}n 	c #493928",
"|n 	c #4E3C2A",
"1n 	c #3E3222",
"2n 	c #5F4B38",
"3n 	c #4A3625",
"4n 	c #674834",
"5n 	c #4F3824",
"6n 	c #634934",
"7n 	c #65442B",
"8n 	c #694731",
"9n 	c #6E4931",
"0n 	c #643F27",
"an 	c #674428",
"bn 	c #5B3A20",
"cn 	c #5A3820",
"dn 	c #5C3C23",
"en 	c #5A3822",
"fn 	c #54402A",
"gn 	c #675036",
"hn 	c #61462F",
"in 	c #4A3523",
"jn 	c #4C2F1E",
"kn 	c #523E2B",
"ln 	c #A16F35",
"mn 	c #895A2D",
"nn 	c #975F23",
"on 	c #8B673C",
"pn 	c #7E5027",
"qn 	c #8E7355",
"rn 	c #7B5C43",
"sn 	c #8D5219",
"tn 	c #74420C",
"un 	c #93581C",
"vn 	c #834B12",
"wn 	c #7C430D",
"xn 	c #614828",
"yn 	c #634E37",
"zn 	c #6D553E",
"An 	c #5A3F25",
"Bn 	c #52310C",
"Cn 	c #211404",
"Dn 	c #160E08",
"En 	c #22190F",
"Fn 	c #231B0E",
"Gn 	c #2D2012",
"Hn 	c #2A1D11",
"In 	c #251408",
"Jn 	c #291809",
"Kn 	c #20150B",
"Ln 	c #302216",
"Mn 	c #332214",
"Nn 	c #3A2819",
"On 	c #3B281A",
"Pn 	c #45301E",
"Qn 	c #4D3821",
"Rn 	c #412C19",
"Sn 	c #4E3926",
"Tn 	c #4A3423",
"Un 	c #634A33",
"Vn 	c #553C23",
"Wn 	c #8C6844",
"Xn 	c #7B5630",
"Yn 	c #AA743A",
"Zn 	c #AF7C3E",
"`n 	c #B57E44",
" o 	c #080000",
".o 	c #5F4731",
"+o 	c #695239",
"@o 	c #8A7256",
"#o 	c #1D0E01",
"$o 	c #855930",
"%o 	c #8F643C",
"&o 	c #B89577",
"*o 	c #7A6447",
"=o 	c #8D765A",
"-o 	c #846A4C",
";o 	c #A29074",
">o 	c #84674A",
",o 	c #866946",
"'o 	c #76573C",
")o 	c #654326",
"!o 	c #73553C",
"~o 	c #7E6148",
"{o 	c #90795D",
"]o 	c #A28362",
"^o 	c #5F452F",
"/o 	c #805C3F",
"(o 	c #633F29",
"_o 	c #6B4B33",
":o 	c #866343",
"<o 	c #6F4B2F",
"[o 	c #6F5339",
"}o 	c #785B3E",
"|o 	c #6B563C",
"1o 	c #91765B",
"2o 	c #684D38",
"3o 	c #62503A",
"4o 	c #53422B",
"5o 	c #4E3928",
"6o 	c #554131",
"7o 	c #3D2E1E",
"8o 	c #4E3E30",
"9o 	c #483825",
"0o 	c #584333",
"ao 	c #785D44",
"bo 	c #654C37",
"co 	c #4D331D",
"do 	c #5F3F28",
"eo 	c #5B3B25",
"fo 	c #6B4C33",
"go 	c #654428",
"ho 	c #674326",
"io 	c #694328",
"jo 	c #6E4B30",
"ko 	c #644227",
"lo 	c #523018",
"mo 	c #65432A",
"no 	c #756549",
"oo 	c #64492E",
"po 	c #4E3824",
"qo 	c #4C3827",
"ro 	c #513822",
"so 	c #A06729",
"to 	c #885F2D",
"uo 	c #935818",
"vo 	c #946B43",
"wo 	c #6D4114",
"xo 	c #915F28",
"yo 	c #5D4224",
"zo 	c #815225",
"Ao 	c #915C27",
"Bo 	c #99652A",
"Co 	c #73543A",
"Do 	c #705130",
"Eo 	c #664D32",
"Fo 	c #75634B",
"Go 	c #59432F",
"Ho 	c #6E5A40",
"Io 	c #695139",
"Jo 	c #533E25",
"Ko 	c #745434",
"Lo 	c #201204",
"Mo 	c #322717",
"No 	c #27170B",
"Oo 	c #2E2316",
"Po 	c #281C12",
"Qo 	c #24190E",
"Ro 	c #241506",
"So 	c #231408",
"To 	c #22170B",
"Uo 	c #25180C",
"Vo 	c #2E1E10",
"Wo 	c #271A0F",
"Xo 	c #3A2818",
"Yo 	c #47321F",
"Zo 	c #422E1F",
"`o 	c #432F1E",
" p 	c #614932",
".p 	c #5C432F",
"+p 	c #725134",
"@p 	c #AB794C",
"#p 	c #8E6C48",
"$p 	c #93744D",
"%p 	c #C88A47",
"&p 	c #9D7647",
"*p 	c #846C4C",
"=p 	c #9A692F",
"-p 	c #84664A",
";p 	c #594227",
">p 	c #896F4C",
",p 	c #1D0E03",
"'p 	c #907452",
")p 	c #926840",
"!p 	c #87572B",
"~p 	c #846548",
"{p 	c #AE875E",
"]p 	c #7A6043",
"^p 	c #563721",
"/p 	c #8D7556",
"(p 	c #6E5338",
"_p 	c #8B7157",
":p 	c #887058",
"<p 	c #7C6144",
"[p 	c #8D7458",
"}p 	c #8F7155",
"|p 	c #735B42",
"1p 	c #5E412A",
"2p 	c #72543A",
"3p 	c #725039",
"4p 	c #8A6648",
"5p 	c #7A563A",
"6p 	c #7B593B",
"7p 	c #2A1D0B",
"8p 	c #A68B6B",
"9p 	c #7C674C",
"0p 	c #645039",
"ap 	c #4A3520",
"bp 	c #544330",
"cp 	c #4B3A27",
"dp 	c #3E3122",
"ep 	c #3D2C1D",
"fp 	c #584532",
"gp 	c #5D4532",
"hp 	c #765C43",
"ip 	c #573A24",
"jp 	c #644931",
"kp 	c #694832",
"lp 	c #67482E",
"mp 	c #5D432D",
"np 	c #745237",
"op 	c #7C583E",
"pp 	c #6B462C",
"qp 	c #603B26",
"rp 	c #6F4A30",
"sp 	c #5E3C23",
"tp 	c #34220C",
"up 	c #776044",
"vp 	c #5D452E",
"wp 	c #503D27",
"xp 	c #4F3C2A",
"yp 	c #956A3C",
"zp 	c #B27732",
"Ap 	c #8F6434",
"Bp 	c #9E6425",
"Cp 	c #94622C",
"Dp 	c #AA6920",
"Ep 	c #9D601D",
"Fp 	c #7C430E",
"Gp 	c #5E3B18",
"Hp 	c #935920",
"Ip 	c #89531A",
"Jp 	c #855D33",
"Kp 	c #79562D",
"Lp 	c #4E3C2B",
"Mp 	c #7C6950",
"Np 	c #67513A",
"Op 	c #6A5239",
"Pp 	c #643F18",
"Qp 	c #603712",
"Rp 	c #0C0A03",
"Sp 	c #241A10",
"Tp 	c #291E10",
"Up 	c #1E1508",
"Vp 	c #26190F",
"Wp 	c #28160A",
"Xp 	c #231407",
"Yp 	c #27190C",
"Zp 	c #2F1F0E",
"`p 	c #3C291A",
" q 	c #3B2A1B",
".q 	c #372518",
"+q 	c #402B1B",
"@q 	c #43301F",
"#q 	c #44311D",
"$q 	c #4C3724",
"%q 	c #5E4730",
"&q 	c #543C2B",
"*q 	c #664D34",
"=q 	c #634930",
"-q 	c #9D744C",
";q 	c #976227",
">q 	c #775738",
",q 	c #5C3A0D",
"'q 	c #7B6141",
")q 	c #BC843A",
"!q 	c #A5610F",
"~q 	c #96785D",
"{q 	c #775E47",
"]q 	c #6E5A3C",
"^q 	c #836A4C",
"/q 	c #998064",
"(q 	c #907254",
"_q 	c #7F5B3D",
":q 	c #AE7E41",
"<q 	c #876A4B",
"[q 	c #7E6547",
"}q 	c #92775C",
"|q 	c #70523C",
"1q 	c #8B7056",
"2q 	c #8F7D64",
"3q 	c #79624A",
"4q 	c #927C60",
"5q 	c #886C4D",
"6q 	c #7D5F41",
"7q 	c #634029",
"8q 	c #806045",
"9q 	c #826648",
"0q 	c #7C593D",
"aq 	c #66472D",
"bq 	c #988165",
"cq 	c #504233",
"dq 	c #6B533D",
"eq 	c #5C4935",
"fq 	c #4F3F2C",
"gq 	c #3F3121",
"hq 	c #392C1E",
"iq 	c #3C2E1E",
"jq 	c #3F2F20",
"kq 	c #604832",
"lq 	c #5E4630",
"mq 	c #513925",
"nq 	c #593F26",
"oq 	c #63452F",
"pq 	c #64482E",
"qq 	c #694931",
"rq 	c #5C3B23",
"sq 	c #604028",
"tq 	c #6C4A2F",
"uq 	c #78553B",
"vq 	c #71492F",
"wq 	c #613921",
"xq 	c #69462B",
"yq 	c #633F26",
"zq 	c #2D2210",
"Aq 	c #5D4833",
"Bq 	c #5C4128",
"Cq 	c #694F38",
"Dq 	c #5E4731",
"Eq 	c #5E4B39",
"Fq 	c #8C6032",
"Gq 	c #8D5C26",
"Hq 	c #B7772D",
"Iq 	c #A66824",
"Jq 	c #A16726",
"Kq 	c #9C6522",
"Lq 	c #744414",
"Mq 	c #794512",
"Nq 	c #A66B2B",
"Oq 	c #9B5D1F",
"Pq 	c #8A5315",
"Qq 	c #A06425",
"Rq 	c #2A1C0D",
"Sq 	c #664F3B",
"Tq 	c #5F4A34",
"Uq 	c #69553A",
"Vq 	c #72593D",
"Wq 	c #6B4117",
"Xq 	c #864D10",
"Yq 	c #130E02",
"Zq 	c #312312",
"`q 	c #41331B",
" r 	c #3B291A",
".r 	c #302212",
"+r 	c #20170C",
"@r 	c #23180F",
"#r 	c #241B0E",
"$r 	c #26180E",
"%r 	c #291708",
"&r 	c #2A1A09",
"*r 	c #251606",
"=r 	c #382714",
"-r 	c #42311E",
";r 	c #46311F",
">r 	c #3C2919",
",r 	c #483421",
"'r 	c #473321",
")r 	c #483120",
"!r 	c #523C27",
"~r 	c #935C21",
"{r 	c #804708",
"]r 	c #B6762A",
"^r 	c #8C6F4B",
"/r 	c #3F2811",
"(r 	c #937351",
"_r 	c #453221",
":r 	c #624B30",
"<r 	c #6E543C",
"[r 	c #4A3B29",
"}r 	c #836F53",
"|r 	c #7C6349",
"1r 	c #866D52",
"2r 	c #8D7D62",
"3r 	c #856E53",
"4r 	c #B48E63",
"5r 	c #966E3F",
"6r 	c #9B754D",
"7r 	c #8F7356",
"8r 	c #9C7B58",
"9r 	c #998269",
"0r 	c #856F55",
"ar 	c #8A755D",
"br 	c #978065",
"cr 	c #9E8970",
"dr 	c #856C52",
"er 	c #9A8167",
"fr 	c #8B7053",
"gr 	c #6F4E34",
"hr 	c #6F4A34",
"ir 	c #6C482D",
"jr 	c #6E4F33",
"kr 	c #74533A",
"lr 	c #5C3E24",
"mr 	c #5A4730",
"nr 	c #9C886F",
"or 	c #7F6548",
"pr 	c #5F4831",
"qr 	c #67543D",
"rr 	c #4D3F2D",
"sr 	c #624E3A",
"tr 	c #5B4433",
"ur 	c #624C35",
"vr 	c #6C5334",
"wr 	c #573E2B",
"xr 	c #664A32",
"yr 	c #62402B",
"zr 	c #6A4B34",
"Ar 	c #5A3E26",
"Br 	c #684B34",
"Cr 	c #62452D",
"Dr 	c #694B2F",
"Er 	c #74543A",
"Fr 	c #6D492C",
"Gr 	c #613C23",
"Hr 	c #664328",
"Ir 	c #59391E",
"Jr 	c #57442F",
"Kr 	c #785F45",
"Lr 	c #54341A",
"Mr 	c #684931",
"Nr 	c #5C4731",
"Or 	c #563E23",
"Pr 	c #795B3C",
"Qr 	c #83511D",
"Rr 	c #975E22",
"Sr 	c #966027",
"Tr 	c #966022",
"Ur 	c #A36622",
"Vr 	c #7C440D",
"Wr 	c #63360A",
"Xr 	c #935718",
"Yr 	c #AD6D29",
"Zr 	c #A5651F",
"`r 	c #7B430A",
" s 	c #70410B",
".s 	c #5B4932",
"+s 	c #59442D",
"@s 	c #695037",
"#s 	c #5D4429",
"$s 	c #63421D",
"%s 	c #483623",
"&s 	c #312211",
"*s 	c #3C2A1C",
"=s 	c #2A1C13",
"-s 	c #2B2215",
";s 	c #2E2014",
">s 	c #24170B",
",s 	c #26150C",
"'s 	c #2A180B",
")s 	c #281706",
"!s 	c #28190A",
"~s 	c #241A0B",
"{s 	c #21150D",
"]s 	c #332112",
"^s 	c #43301B",
"/s 	c #4A341F",
"(s 	c #48301E",
"_s 	c #5C4127",
":s 	c #965E19",
"<s 	c #C08234",
"[s 	c #AC6A24",
"}s 	c #9B7542",
"|s 	c #4E3A22",
"1s 	c #7D654C",
"2s 	c #4E3A28",
"3s 	c #5B4D34",
"4s 	c #967E63",
"5s 	c #A48F6F",
"6s 	c #8E745D",
"7s 	c #9F876B",
"8s 	c #B97F38",
"9s 	c #C3812B",
"0s 	c #836B50",
"as 	c #967A62",
"bs 	c #776247",
"cs 	c #7C664C",
"ds 	c #856955",
"es 	c #6D563C",
"fs 	c #7C6048",
"gs 	c #6D533A",
"hs 	c #846751",
"is 	c #795437",
"js 	c #774E2F",
"ks 	c #6D5139",
"ls 	c #6A4B2E",
"ms 	c #321F0C",
"ns 	c #2C1C0B",
"os 	c #52432E",
"ps 	c #8B7050",
"qs 	c #735C42",
"rs 	c #7C654A",
"ss 	c #5B4933",
"ts 	c #584332",
"us 	c #64513E",
"vs 	c #513E2A",
"ws 	c #4A3727",
"xs 	c #6B5139",
"ys 	c #58432F",
"zs 	c #6D543E",
"As 	c #533E28",
"Bs 	c #593E24",
"Cs 	c #593D28",
"Ds 	c #51321E",
"Es 	c #614028",
"Fs 	c #5A3C26",
"Gs 	c #6F4F39",
"Hs 	c #684B31",
"Is 	c #5D3B23",
"Js 	c #866E54",
"Ks 	c #7E6344",
"Ls 	c #927757",
"Ms 	c #785E41",
"Ns 	c #7A5B3A",
"Os 	c #755E44",
"Ps 	c #41301F",
"Qs 	c #A07345",
"Rs 	c #7A572D",
"Ss 	c #7F572C",
"Ts 	c #84572D",
"Us 	c #925E24",
"Vs 	c #A5661E",
"Ws 	c #754A0F",
"Xs 	c #B77938",
"Ys 	c #9B5D18",
"Zs 	c #9E5F1C",
"`s 	c #64442A",
" t 	c #6B5536",
".t 	c #745D42",
"+t 	c #62472A",
"@t 	c #543215",
"#t 	c #38260F",
"$t 	c #362A16",
"%t 	c #322314",
"&t 	c #372919",
"*t 	c #241B0C",
"=t 	c #2E1F14",
"-t 	c #2B1C10",
";t 	c #241607",
">t 	c #2B1A0B",
",t 	c #2B1D12",
"'t 	c #2A1D12",
")t 	c #29200E",
"!t 	c #2D2213",
"~t 	c #1D1507",
"{t 	c #2E2413",
"]t 	c #382B1A",
"^t 	c #362A19",
"/t 	c #2B2014",
"(t 	c #3F3421",
"_t 	c #574635",
":t 	c #725A40",
"<t 	c #826E54",
"[t 	c #574A39",
"}t 	c #594433",
"|t 	c #634836",
"1t 	c #A27C52",
"2t 	c #7A6246",
"3t 	c #4F4030",
"4t 	c #7F6C5A",
"5t 	c #644F39",
"6t 	c #A99275",
"7t 	c #938065",
"8t 	c #7B664C",
"9t 	c #786247",
"0t 	c #846D51",
"at 	c #7C604A",
"bt 	c #614E39",
"ct 	c #362918",
"dt 	c #423525",
"et 	c #62513C",
"ft 	c #584836",
"gt 	c #3C351B",
"ht 	c #57442D",
"it 	c #6C553A",
"jt 	c #604830",
"kt 	c #8F785F",
"lt 	c #5B4729",
"mt 	c #836E52",
"nt 	c #8D7557",
"ot 	c #5E4B30",
"pt 	c #67543A",
"qt 	c #372A17",
"rt 	c #433623",
"st 	c #2F2111",
"tt 	c #372A18",
"ut 	c #3B2B17",
"vt 	c #58472D",
"wt 	c #5B4C36",
"xt 	c #41311D",
"yt 	c #453520",
"zt 	c #382C1B",
"At 	c #403321",
"Bt 	c #54412D",
"Ct 	c #685540",
"Dt 	c #6D5640",
"Et 	c #6D563B",
"Ft 	c #58442F",
"Gt 	c #423020",
"Ht 	c #513B23",
"It 	c #412D17",
"Jt 	c #745F46",
"Kt 	c #8C643F",
"Lt 	c #8F6C42",
"Mt 	c #56462F",
"Nt 	c #8A663F",
"Ot 	c #85501A",
"Pt 	c #7E5C39",
"Qt 	c #794D25",
"Rt 	c #8C5E30",
"St 	c #995C20",
"Tt 	c #5E462D",
"Ut 	c #41250B",
"Vt 	c #150901",
"Wt 	c #493821",
"Xt 	c #503E27",
"Yt 	c #583817",
"Zt 	c #462C13",
"`t 	c #2C1F10",
" u 	c #382B1B",
".u 	c #503D2A",
"+u 	c #4B3C29",
"@u 	c #4F3B29",
"#u 	c #392C1C",
"$u 	c #392C1D",
"%u 	c #291D0E",
"&u 	c #2E2314",
"*u 	c #2A1F12",
"=u 	c #21180C",
"-u 	c #332417",
";u 	c #2D2111",
">u 	c #392C1F",
",u 	c #392B1B",
"'u 	c #50402C",
")u 	c #443420",
"!u 	c #7A654D",
"~u 	c #77634A",
"{u 	c #756248",
"]u 	c #886D54",
"^u 	c #614C35",
"/u 	c #715C41",
"(u 	c #543C22",
"_u 	c #B88340",
":u 	c #7E5E2F",
"<u 	c #836E4E",
"[u 	c #6F5C47",
"}u 	c #68523B",
"|u 	c #685336",
"1u 	c #A18768",
"2u 	c #AE9B7D",
"3u 	c #B69D7F",
"4u 	c #AA8C69",
"5u 	c #A98E6B",
"6u 	c #AB957C",
"7u 	c #967D63",
"8u 	c #69553B",
"9u 	c #9F8668",
"0u 	c #A18A6C",
"au 	c #8C7758",
"bu 	c #564126",
"cu 	c #7B5F45",
"du 	c #6F5B44",
"eu 	c #5E4B32",
"fu 	c #73644D",
"gu 	c #927A5C",
"hu 	c #8F7D5E",
"iu 	c #B79D83",
"ju 	c #857053",
"ku 	c #897457",
"lu 	c #826C50",
"mu 	c #A18B70",
"nu 	c #826D52",
"ou 	c #624931",
"pu 	c #AC9278",
"qu 	c #685337",
"ru 	c #7E664C",
"su 	c #795F45",
"tu 	c #786146",
"uu 	c #725F48",
"vu 	c #281908",
"wu 	c #4E3B23",
"xu 	c #725D43",
"yu 	c #937B5F",
"zu 	c #93785B",
"Au 	c #847050",
"Bu 	c #4F3D20",
"Cu 	c #846C4F",
"Du 	c #6E5642",
"Eu 	c #604C34",
"Fu 	c #A0886A",
"Gu 	c #614F3B",
"Hu 	c #83674C",
"Iu 	c #846B4E",
"Ju 	c #79634A",
"Ku 	c #705B46",
"Lu 	c #513F27",
"Mu 	c #442E19",
"Nu 	c #755A40",
"Ou 	c #7F694F",
"Pu 	c #79654E",
"Qu 	c #503A22",
"Ru 	c #412E1E",
"Su 	c #8A6D4D",
"Tu 	c #9F7B53",
"Uu 	c #1C0E00",
"Vu 	c #9B5816",
"Wu 	c #936128",
"Xu 	c #A76927",
"Yu 	c #95632E",
"Zu 	c #7D5D36",
"`u 	c #332413",
" v 	c #604E33",
".v 	c #634E34",
"+v 	c #4F3A27",
"@v 	c #4D3A28",
"#v 	c #483420",
"$v 	c #31210E",
"%v 	c #2E2210",
"&v 	c #493623",
"*v 	c #291F10",
"=v 	c #584935",
"-v 	c #41351E",
";v 	c #362613",
">v 	c #3E2F1F",
",v 	c #3B2F1F",
"'v 	c #51412D",
")v 	c #2E2313",
"!v 	c #281F11",
"~v 	c #2E2013",
"{v 	c #513825",
"]v 	c #442E1B",
"^v 	c #553929",
"/v 	c #513D28",
"(v 	c #51412C",
"_v 	c #45341E",
":v 	c #836C4F",
"<v 	c #90745C",
"[v 	c #8C7256",
"}v 	c #957C63",
"|v 	c #7A6248",
"1v 	c #7E6448",
"2v 	c #B3752D",
"3v 	c #D69E57",
"4v 	c #584025",
"5v 	c #A08870",
"6v 	c #92785A",
"7v 	c #92734C",
"8v 	c #9D703C",
"9v 	c #B7782C",
"0v 	c #C18641",
"av 	c #DBA464",
"bv 	c #654A32",
"cv 	c #967253",
"dv 	c #745A40",
"ev 	c #836447",
"fv 	c #865E3C",
"gv 	c #754F35",
"hv 	c #332217",
"iv 	c #755F49",
"jv 	c #8A7154",
"kv 	c #AE947A",
"lv 	c #7E624C",
"mv 	c #725B44",
"nv 	c #54432E",
"ov 	c #664F3A",
"pv 	c #93765A",
"qv 	c #977759",
"rv 	c #7A5E44",
"sv 	c #68533A",
"tv 	c #685239",
"uv 	c #7E664B",
"vv 	c #B59E82",
"wv 	c #A38A6A",
"xv 	c #947459",
"yv 	c #87684B",
"zv 	c #805F44",
"Av 	c #826547",
"Bv 	c #654D38",
"Cv 	c #543D2A",
"Dv 	c #674C32",
"Ev 	c #88684D",
"Fv 	c #38281A",
"Gv 	c #7B6B53",
"Hv 	c #81583B",
"Iv 	c #603F28",
"Jv 	c #6F4A2F",
"Kv 	c #7D5A3F",
"Lv 	c #856243",
"Mv 	c #7D5C3A",
"Nv 	c #7E5539",
"Ov 	c #704B2D",
"Pv 	c #83684C",
"Qv 	c #AD906F",
"Rv 	c #795A3D",
"Sv 	c #795A3A",
"Tv 	c #65482F",
"Uv 	c #735539",
"Vv 	c #543923",
"Wv 	c #855726",
"Xv 	c #8D6845",
"Yv 	c #935A17",
"Zv 	c #915414",
"`v 	c #1E150A",
" w 	c #3B2613",
".w 	c #3F2D1A",
"+w 	c #56422B",
"@w 	c #332615",
"#w 	c #6B5235",
"$w 	c #5E4328",
"%w 	c #442A1A",
"&w 	c #4C311D",
"*w 	c #4F351F",
"=w 	c #301E0E",
"-w 	c #4B331E",
";w 	c #4E341F",
">w 	c #402B17",
",w 	c #37220C",
"'w 	c #342012",
")w 	c #3C2815",
"!w 	c #3D2718",
"~w 	c #352113",
"{w 	c #331D10",
"]w 	c #311D0F",
"^w 	c #24160A",
"/w 	c #301F13",
"(w 	c #322113",
"_w 	c #352213",
":w 	c #412D1C",
"<w 	c #4C3623",
"[w 	c #4D3624",
"}w 	c #5E4734",
"|w 	c #312618",
"1w 	c #5B4A38",
"2w 	c #6E533C",
"3w 	c #765D43",
"4w 	c #8B6F50",
"5w 	c #957C5F",
"6w 	c #876E54",
"7w 	c #7B5F47",
"8w 	c #91795E",
"9w 	c #3B2509",
"0w 	c #978162",
"aw 	c #A48E75",
"bw 	c #A17E5F",
"cw 	c #B59D7F",
"dw 	c #9A7F60",
"ew 	c #C6883A",
"fw 	c #C07F31",
"gw 	c #BA7B2F",
"hw 	c #876842",
"iw 	c #86684C",
"jw 	c #765A3B",
"kw 	c #876548",
"lw 	c #866848",
"mw 	c #815D3E",
"nw 	c #9D7353",
"ow 	c #724A2F",
"pw 	c #220E00",
"qw 	c #9E876A",
"rw 	c #A48B70",
"sw 	c #967A5C",
"tw 	c #826549",
"uw 	c #B0997B",
"vw 	c #826A53",
"ww 	c #624B33",
"xw 	c #705D44",
"yw 	c #78604C",
"zw 	c #6D5C44",
"Aw 	c #745C43",
"Bw 	c #5C422A",
"Cw 	c #76583E",
"Dw 	c #694B37",
"Ew 	c #6D4F39",
"Fw 	c #513A23",
"Gw 	c #513B29",
"Hw 	c #74573F",
"Iw 	c #5C402B",
"Jw 	c #66422A",
"Kw 	c #312010",
"Lw 	c #715E48",
"Mw 	c #2F2614",
"Nw 	c #6C482E",
"Ow 	c #6B4229",
"Pw 	c #734C31",
"Qw 	c #6D452C",
"Rw 	c #70462B",
"Sw 	c #643B21",
"Tw 	c #6E4427",
"Uw 	c #6A4123",
"Vw 	c #7A5334",
"Ww 	c #69462E",
"Xw 	c #745E3F",
"Yw 	c #85664B",
"Zw 	c #63472F",
"`w 	c #60442B",
" x 	c #75573D",
".x 	c #5D422E",
"+x 	c #866137",
"@x 	c #9B6425",
"#x 	c #A36826",
"$x 	c #905B24",
"%x 	c #3A2101",
"&x 	c #402B1C",
"*x 	c #6D5A3E",
"=x 	c #573A21",
"-x 	c #563C26",
";x 	c #654B34",
">x 	c #6C5235",
",x 	c #63442D",
"'x 	c #503822",
")x 	c #563B25",
"!x 	c #442B19",
"~x 	c #442D19",
"{x 	c #4F3620",
"]x 	c #3D2412",
"^x 	c #392314",
"/x 	c #331F0D",
"(x 	c #332213",
"_x 	c #301D0E",
":x 	c #321D0D",
"<x 	c #2F1E12",
"[x 	c #403020",
"}x 	c #301E12",
"|x 	c #332115",
"1x 	c #43311F",
"2x 	c #503926",
"3x 	c #49341F",
"4x 	c #534130",
"5x 	c #2C2112",
"6x 	c #786148",
"7x 	c #82694E",
"8x 	c #977D61",
"9x 	c #967C5E",
"0x 	c #7F634C",
"ax 	c #83684F",
"bx 	c #84684E",
"cx 	c #937B61",
"dx 	c #795B41",
"ex 	c #897152",
"fx 	c #857055",
"gx 	c #806550",
"hx 	c #9B8870",
"ix 	c #A9977D",
"jx 	c #9B7C58",
"kx 	c #5F3B11",
"lx 	c #704624",
"mx 	c #704C28",
"nx 	c #826A4F",
"ox 	c #836446",
"px 	c #927658",
"qx 	c #936F4B",
"rx 	c #9A7350",
"sx 	c #7A5336",
"tx 	c #786040",
"ux 	c #715C3C",
"vx 	c #705136",
"wx 	c #715E44",
"xx 	c #8A775D",
"yx 	c #614933",
"zx 	c #624E3C",
"Ax 	c #745C47",
"Bx 	c #4A3724",
"Cx 	c #554532",
"Dx 	c #5C4A38",
"Ex 	c #614A37",
"Fx 	c #6A4F33",
"Gx 	c #74593C",
"Hx 	c #72523D",
"Ix 	c #573F2B",
"Jx 	c #705943",
"Kx 	c #5E4632",
"Lx 	c #5F3A21",
"Mx 	c #8A6347",
"Nx 	c #56432D",
"Ox 	c #784F34",
"Px 	c #6A4127",
"Qx 	c #6E452B",
"Rx 	c #724F32",
"Sx 	c #623E21",
"Tx 	c #69442A",
"Ux 	c #644229",
"Vx 	c #664327",
"Wx 	c #724C2E",
"Xx 	c #735337",
"Yx 	c #745A3D",
"Zx 	c #6A5238",
"`x 	c #6E563B",
" y 	c #64462F",
".y 	c #8B6A50",
"+y 	c #725438",
"@y 	c #7A573E",
"#y 	c #644A31",
"$y 	c #624B36",
"%y 	c #A97134",
"&y 	c #985F1C",
"*y 	c #8A5620",
"=y 	c #46321F",
"-y 	c #4C3924",
";y 	c #4E3119",
">y 	c #5E472C",
",y 	c #563A26",
"'y 	c #432D1A",
")y 	c #412A18",
"!y 	c #3E2815",
"~y 	c #3F2817",
"{y 	c #34200E",
"]y 	c #331E0F",
"^y 	c #362312",
"/y 	c #2E1A0C",
"(y 	c #2E1B0B",
"_y 	c #2D200E",
":y 	c #2A1E12",
"<y 	c #1E0F05",
"[y 	c #221408",
"}y 	c #20160B",
"|y 	c #2A1D10",
"1y 	c #3F2D1E",
"2y 	c #493320",
"3y 	c #432F1F",
"4y 	c #4D3D2C",
"5y 	c #917C62",
"6y 	c #8D7154",
"7y 	c #7A6348",
"8y 	c #90785E",
"9y 	c #8C755D",
"0y 	c #8D775B",
"ay 	c #7F674B",
"by 	c #8F775A",
"cy 	c #8A745F",
"dy 	c #958369",
"ey 	c #998772",
"fy 	c #AA9A81",
"gy 	c #B1A087",
"hy 	c #886A49",
"iy 	c #B5731E",
"jy 	c #655139",
"ky 	c #AC987E",
"ly 	c #6A4D33",
"my 	c #92775B",
"ny 	c #957D61",
"oy 	c #977C5F",
"py 	c #89664B",
"qy 	c #7E5739",
"ry 	c #75604B",
"sy 	c #604B34",
"ty 	c #8E6F53",
"uy 	c #8E755A",
"vy 	c #755F43",
"wy 	c #8C745B",
"xy 	c #7C614A",
"yy 	c #654E38",
"zy 	c #5C452F",
"Ay 	c #4F3D2C",
"By 	c #5A4836",
"Cy 	c #463725",
"Dy 	c #684D36",
"Ey 	c #6F513A",
"Fy 	c #80604A",
"Gy 	c #6D4E36",
"Hy 	c #6A4B35",
"Iy 	c #59442A",
"Jy 	c #694D37",
"Ky 	c #775E45",
"Ly 	c #604932",
"My 	c #543D2B",
"Ny 	c #56432E",
"Oy 	c #59432C",
"Py 	c #745233",
"Qy 	c #624027",
"Ry 	c #674225",
"Sy 	c #725035",
"Ty 	c #846449",
"Uy 	c #73563C",
"Vy 	c #7E5E3F",
"Wy 	c #917257",
"Xy 	c #7B5E46",
"Yy 	c #7C6243",
"Zy 	c #6C4E32",
"`y 	c #7B6047",
" z 	c #603F29",
".z 	c #653810",
"+z 	c #905B22",
"@z 	c #A46222",
"#z 	c #4D3825",
"$z 	c #4C2F18",
"%z 	c #553A21",
"&z 	c #573F2A",
"*z 	c #5F4835",
"=z 	c #664D37",
"-z 	c #513E29",
";z 	c #4D3420",
">z 	c #3F2616",
",z 	c #402715",
"'z 	c #47311F",
")z 	c #442917",
"!z 	c #3E2716",
"~z 	c #382111",
"{z 	c #362013",
"]z 	c #342011",
"^z 	c #322011",
"/z 	c #332011",
"(z 	c #331F13",
"_z 	c #221207",
":z 	c #372A1B",
"<z 	c #301F10",
"[z 	c #24180B",
"}z 	c #2B1C0D",
"|z 	c #3E2C1A",
"1z 	c #4B3722",
"2z 	c #4A3422",
"3z 	c #332515",
"4z 	c #67543B",
"5z 	c #4E3C25",
"6z 	c #74583D",
"7z 	c #7F6449",
"8z 	c #81694C",
"9z 	c #76593D",
"0z 	c #654830",
"az 	c #735942",
"bz 	c #7E664E",
"cz 	c #75624B",
"dz 	c #765D42",
"ez 	c #866A51",
"fz 	c #856E56",
"gz 	c #A5927C",
"hz 	c #A39278",
"iz 	c #AB947A",
"jz 	c #87715A",
"kz 	c #765D38",
"lz 	c #A9927A",
"mz 	c #7F5E3D",
"nz 	c #90775B",
"oz 	c #887054",
"pz 	c #957B62",
"qz 	c #785F42",
"rz 	c #725338",
"sz 	c #866B52",
"tz 	c #635038",
"uz 	c #746045",
"vz 	c #997B5F",
"wz 	c #7E644B",
"xz 	c #6B5234",
"yz 	c #74553A",
"zz 	c #7B5E47",
"Az 	c #67513C",
"Bz 	c #584630",
"Cz 	c #503C28",
"Dz 	c #5F452E",
"Ez 	c #78583D",
"Fz 	c #83654A",
"Gz 	c #6A4D32",
"Hz 	c #86654A",
"Iz 	c #705339",
"Jz 	c #543C27",
"Kz 	c #5A4128",
"Lz 	c #5D4331",
"Mz 	c #5D4730",
"Nz 	c #553A22",
"Oz 	c #533720",
"Pz 	c #463822",
"Qz 	c #70492C",
"Rz 	c #603B1F",
"Sz 	c #7B583C",
"Tz 	c #663F25",
"Uz 	c #694C32",
"Vz 	c #826A4D",
"Wz 	c #80654A",
"Xz 	c #74573C",
"Yz 	c #7B6249",
"Zz 	c #806448",
"`z 	c #82694F",
" A 	c #604229",
".A 	c #826448",
"+A 	c #715A40",
"@A 	c #8B5D28",
"#A 	c #402F1C",
"$A 	c #473320",
"%A 	c #5B3D25",
"&A 	c #59412A",
"*A 	c #5A432E",
"=A 	c #584029",
"-A 	c #4A301D",
";A 	c #48331F",
">A 	c #412A17",
",A 	c #3B2614",
"'A 	c #382413",
")A 	c #3D2715",
"!A 	c #392716",
"~A 	c #372313",
"{A 	c #352012",
"]A 	c #362314",
"^A 	c #332211",
"/A 	c #392717",
"(A 	c #271B0C",
"_A 	c #211409",
":A 	c #23170B",
"<A 	c #291C0C",
"[A 	c #3C2A18",
"}A 	c #412B1D",
"|A 	c #3B2813",
"1A 	c #715138",
"2A 	c #6B4E33",
"3A 	c #6B4E35",
"4A 	c #6C5136",
"5A 	c #513722",
"6A 	c #6D553C",
"7A 	c #856E52",
"8A 	c #8C755B",
"9A 	c #8D7157",
"0A 	c #917259",
"aA 	c #645238",
"bA 	c #8C7052",
"cA 	c #887157",
"dA 	c #AE8758",
"eA 	c #B08657",
"fA 	c #715233",
"gA 	c #7D5D41",
"hA 	c #7C6447",
"iA 	c #988063",
"jA 	c #B09370",
"kA 	c #312112",
"lA 	c #856F57",
"mA 	c #8E765C",
"nA 	c #856547",
"oA 	c #846345",
"pA 	c #856246",
"qA 	c #72553A",
"rA 	c #7A5C43",
"sA 	c #72533C",
"tA 	c #775E44",
"uA 	c #745D46",
"vA 	c #493929",
"wA 	c #664C32",
"xA 	c #714E36",
"yA 	c #7A5738",
"zA 	c #765438",
"AA 	c #785840",
"BA 	c #795739",
"CA 	c #785335",
"DA 	c #725131",
"EA 	c #593F24",
"FA 	c #795E49",
"GA 	c #513725",
"HA 	c #573C25",
"IA 	c #6A4B30",
"JA 	c #847053",
"KA 	c #5A351D",
"LA 	c #7D573C",
"MA 	c #704C34",
"NA 	c #6F4B31",
"OA 	c #7E5A41",
"PA 	c #7A5D44",
"QA 	c #7B5E49",
"RA 	c #624832",
"SA 	c #796047",
"TA 	c #6C5036",
"UA 	c #6F553A",
"VA 	c #6E4E36",
"WA 	c #7B5D40",
"XA 	c #7A5B3D",
"YA 	c #553D25",
"ZA 	c #5F4530",
"`A 	c #5E3E23",
" B 	c #523D28",
".B 	c #44321D",
"+B 	c #503A24",
"@B 	c #59432E",
"#B 	c #50432D",
"$B 	c #5D3C24",
"%B 	c #5A3921",
"&B 	c #533521",
"*B 	c #583F28",
"=B 	c #634C37",
"-B 	c #5A422E",
";B 	c #533B25",
">B 	c #422E1A",
",B 	c #47301E",
"'B 	c #47311C",
")B 	c #3B2616",
"!B 	c #392513",
"~B 	c #332010",
"{B 	c #372311",
"]B 	c #412918",
"^B 	c #372213",
"/B 	c #362715",
"(B 	c #281D10",
"_B 	c #5E4736",
":B 	c #705F49",
"<B 	c #382515",
"[B 	c #664F35",
"}B 	c #7B6147",
"|B 	c #71553A",
"1B 	c #856A4F",
"2B 	c #5D462E",
"3B 	c #907057",
"4B 	c #795A43",
"5B 	c #6F4D31",
"6B 	c #6B482C",
"7B 	c #6F5237",
"8B 	c #724E2D",
"9B 	c #8B6848",
"0B 	c #876448",
"aB 	c #8C694B",
"bB 	c #836242",
"cB 	c #7A634A",
"dB 	c #6C563B",
"eB 	c #4C3723",
"fB 	c #867159",
"gB 	c #37240D",
"hB 	c #372212",
"iB 	c #2F2416",
"jB 	c #151106",
"kB 	c #191306",
"lB 	c #785D45",
"mB 	c #523820",
"nB 	c #5B4028",
"oB 	c #5F442D",
"pB 	c #5D432A",
"qB 	c #63452B",
"rB 	c #654227",
"sB 	c #624429",
"tB 	c #70513A",
"uB 	c #684830",
"vB 	c #6A4D34",
"wB 	c #795239",
"xB 	c #998065",
"yB 	c #5C3D27",
"zB 	c #684329",
"AB 	c #51331E",
"BB 	c #5C3C24",
"CB 	c #5B3D28",
"DB 	c #45311F",
"EB 	c #4B2E18",
"FB 	c #65472F",
"GB 	c #684C31",
"HB 	c #6B4F34",
"IB 	c #6E5036",
"JB 	c #472E18",
"KB 	c #715438",
"LB 	c #785740",
"MB 	c #6E5236",
"NB 	c #6B4A30",
"OB 	c #5A4028",
"PB 	c #71553D",
"QB 	c #513C26",
"RB 	c #362714",
"SB 	c #593E27",
"TB 	c #5B3B24",
"UB 	c #432B15",
"VB 	c #462F18",
"WB 	c #533A24",
"XB 	c #493224",
"YB 	c #4A3322",
"ZB 	c #3C2916",
"`B 	c #3B2818",
" C 	c #322213",
".C 	c #322111",
"+C 	c #322312",
"@C 	c #2D1B0C",
"#C 	c #150D04",
"$C 	c #2D2113",
"%C 	c #40301D",
"&C 	c #362819",
"*C 	c #5D4B34",
"=C 	c #61513D",
"-C 	c #493820",
";C 	c #6C573F",
">C 	c #6E5944",
",C 	c #624E3B",
"'C 	c #665139",
")C 	c #5A4936",
"!C 	c #3D2F1D",
"~C 	c #604F38",
"{C 	c #4B3D2A",
"]C 	c #342816",
"^C 	c #725C47",
"/C 	c #7A674C",
"(C 	c #594733",
"_C 	c #5C4C33",
":C 	c #8A7259",
"<C 	c #514029",
"[C 	c #4F4026",
"}C 	c #423722",
"|C 	c #69543B",
"1C 	c #786549",
"2C 	c #B1997F",
"3C 	c #634C33",
"4C 	c #483B2A",
"5C 	c #534328",
"6C 	c #7C694D",
"7C 	c #4D3C27",
"8C 	c #806B4D",
"9C 	c #57472E",
"0C 	c #382B17",
"aC 	c #5F4B37",
"bC 	c #231B0D",
"cC 	c #30271A",
"dC 	c #1D1409",
"eC 	c #1A130A",
"fC 	c #231A0B",
"gC 	c #4B3A24",
"hC 	c #745D3E",
"iC 	c #735C40",
"jC 	c #755E43",
"kC 	c #8D7658",
"lC 	c #69563F",
"mC 	c #89745B",
"nC 	c #715F49",
"oC 	c #413224",
"pC 	c #4B3924",
"qC 	c #3A2B18",
"rC 	c #44331E",
"sC 	c #634F38",
"tC 	c #493722",
"uC 	c #62513A",
"vC 	c #836E5B",
"wC 	c #7D684F",
"xC 	c #604E36",
"yC 	c #66533C",
"zC 	c #3B2C1A",
"AC 	c #55432C",
"BC 	c #63513A",
"CC 	c #453727",
"DC 	c #392E1F",
"EC 	c #171106",
"FC 	c #261E0F",
"GC 	c #271E0F",
"HC 	c #261C0C",
"IC 	c #201709",
"JC 	c #171006",
"KC 	c #1B1306",
"LC 	c #191006",
"MC 	c #261D0E",
"NC 	c #281B0C",
"OC 	c #23190E",
"PC 	c #2C2214",
"QC 	c #2D2211",
"RC 	c #443624",
"SC 	c #443723",
"TC 	c #503F2C",
"UC 	c #4F3D2B",
"VC 	c #23180D",
"WC 	c #382A1A",
"XC 	c #584330",
"YC 	c #5D4D3A",
"ZC 	c #3E2D15",
"`C 	c #7C5F42",
" D 	c #624E37",
".D 	c #6A5840",
"+D 	c #5B432B",
"@D 	c #8C7657",
"#D 	c #7B6749",
"$D 	c #957E63",
"%D 	c #51422C",
"&D 	c #937D5B",
"*D 	c #7D684C",
"=D 	c #69573B",
"-D 	c #6F5C40",
";D 	c #967C5B",
">D 	c #5C4931",
",D 	c #7C5D40",
"'D 	c #69533F",
")D 	c #8D7860",
"!D 	c #876F54",
"~D 	c #715F45",
"{D 	c #7D6A4F",
"]D 	c #967E61",
"^D 	c #68563B",
"/D 	c #634E32",
"(D 	c #998366",
"_D 	c #755E41",
":D 	c #887356",
"<D 	c #675945",
"[D 	c #86735B",
"}D 	c #4C3D2D",
"|D 	c #261C0A",
"1D 	c #866D55",
"2D 	c #9B846B",
"3D 	c #C2AA8E",
"4D 	c #503C26",
"5D 	c #483826",
"6D 	c #654E35",
"7D 	c #917A5C",
"8D 	c #89765A",
"9D 	c #978368",
"0D 	c #7F6A52",
"aD 	c #8D765D",
"bD 	c #7C644A",
"cD 	c #765F42",
"dD 	c #AA9379",
"eD 	c #89755D",
"fD 	c #897051",
"gD 	c #7F6A50",
"hD 	c #6C553C",
"iD 	c #523F2C",
"jD 	c #7D6A50",
"kD 	c #5A482A",
"lD 	c #776349",
"mD 	c #8F785E",
"nD 	c #79644C",
"oD 	c #846C50",
"pD 	c #856C50",
"qD 	c #46351F",
"rD 	c #6D5337",
"sD 	c #59472B",
"tD 	c #725C43",
"uD 	c #5B472E",
"vD 	c #624E30",
"wD 	c #6A543D",
"xD 	c #604A2F",
"yD 	c #806F54",
"zD 	c #7E6C57",
"AD 	c #65533A",
"BD 	c #7F674C",
"CD 	c #846D55",
"DD 	c #625440",
"ED 	c #5F4F3D",
"FD 	c #493724",
"GD 	c #463523",
"HD 	c #4E3E29",
"ID 	c #6C5C45",
"JD 	c #4C3D29",
"KD 	c #574732",
"LD 	c #382716",
"MD 	c #312315",
"ND 	c #3B2C19",
"OD 	c #291D0B",
"PD 	c #352816",
"QD 	c #332719",
"RD 	c #342112",
"SD 	c #382719",
"TD 	c #2E2110",
"UD 	c #4E3B26",
"VD 	c #5C422D",
"WD 	c #5A4430",
"XD 	c #5B442F",
"YD 	c #735C41",
"ZD 	c #7E5F45",
"`D 	c #755A3E",
" E 	c #7E6149",
".E 	c #7C5F44",
"+E 	c #735334",
"@E 	c #836348",
"#E 	c #674A31",
"$E 	c #745740",
"%E 	c #715D41",
"&E 	c #937356",
"*E 	c #644830",
"=E 	c #6A4E32",
"-E 	c #674A32",
";E 	c #76523A",
">E 	c #86674C",
",E 	c #745538",
"'E 	c #554226",
")E 	c #593A20",
"!E 	c #83644A",
"~E 	c #78573A",
"{E 	c #6F4E35",
"]E 	c #6E563F",
"^E 	c #826040",
"/E 	c #845E3F",
"(E 	c #966E4C",
"_E 	c #967355",
":E 	c #A17F5E",
"<E 	c #866648",
"[E 	c #6D4C32",
"}E 	c #2B1A07",
"|E 	c #23190A",
"1E 	c #6A5741",
"2E 	c #665342",
"3E 	c #897155",
"4E 	c #8A745B",
"5E 	c #94785F",
"6E 	c #5F4833",
"7E 	c #694E35",
"8E 	c #816447",
"9E 	c #5B4226",
"0E 	c #8B6C4F",
"aE 	c #76593B",
"bE 	c #64462E",
"cE 	c #69533C",
"dE 	c #583D2A",
"eE 	c #5D4430",
"fE 	c #795A46",
"gE 	c #6C4B2E",
"hE 	c #271B0A",
"iE 	c #645139",
"jE 	c #746046",
"kE 	c #573A27",
"lE 	c #50341F",
"mE 	c #503724",
"nE 	c #52341F",
"oE 	c #51331F",
"pE 	c #4E321D",
"qE 	c #513820",
"rE 	c #64462D",
"sE 	c #482E1C",
"tE 	c #472C1A",
"uE 	c #4B2E1B",
"vE 	c #543824",
"wE 	c #4E3724",
"xE 	c #48301C",
"yE 	c #5B4230",
"zE 	c #4D3622",
"AE 	c #4C311E",
"BE 	c #47301D",
"CE 	c #3D2717",
"DE 	c #564431",
"EE 	c #54412C",
"FE 	c #593D25",
"GE 	c #3E2512",
"HE 	c #422B15",
"IE 	c #442D1B",
"JE 	c #3F2A19",
"KE 	c #392612",
"LE 	c #311D0E",
"ME 	c #342111",
"NE 	c #2D1B0D",
"OE 	c #27160B",
"PE 	c #493222",
"QE 	c #432C1B",
"RE 	c #3D2917",
"SE 	c #56402C",
"TE 	c #674E37",
"UE 	c #70543C",
"VE 	c #58402B",
"WE 	c #5D4731",
"XE 	c #5F4A39",
"YE 	c #4E371C",
"ZE 	c #76624D",
"`E 	c #73583E",
" F 	c #7F6950",
".F 	c #99785F",
"+F 	c #816349",
"@F 	c #886649",
"#F 	c #815D3D",
"$F 	c #907558",
"%F 	c #836349",
"&F 	c #7F5D40",
"*F 	c #65472B",
"=F 	c #916E52",
"-F 	c #8A684B",
";F 	c #69462C",
">F 	c #856448",
",F 	c #7D593F",
"'F 	c #7F5B3C",
")F 	c #815E41",
"!F 	c #856346",
"~F 	c #866243",
"{F 	c #795438",
"]F 	c #6F472C",
"^F 	c #71482E",
"/F 	c #956949",
"(F 	c #815536",
"_F 	c #865E42",
":F 	c #7E583B",
"<F 	c #7A5840",
"[F 	c #493925",
"}F 	c #463722",
"|F 	c #78644D",
"1F 	c #5F4B35",
"2F 	c #473423",
"3F 	c #5E4D38",
"4F 	c #543E2D",
"5F 	c #5F4732",
"6F 	c #654F39",
"7F 	c #614C38",
"8F 	c #6D563E",
"9F 	c #594432",
"0F 	c #52402B",
"aF 	c #3E2B1D",
"bF 	c #392D1C",
"cF 	c #443623",
"dF 	c #472F20",
"eF 	c #48321E",
"fF 	c #705B47",
"gF 	c #34230F",
"hF 	c #533C25",
"iF 	c #4C341C",
"jF 	c #472E1B",
"kF 	c #593B28",
"lF 	c #593D2A",
"mF 	c #36220F",
"nF 	c #664D33",
"oF 	c #563A25",
"pF 	c #553C26",
"qF 	c #533A23",
"rF 	c #62442D",
"sF 	c #533B28",
"tF 	c #49311D",
"uF 	c #452B1A",
"vF 	c #634933",
"wF 	c #402918",
"xF 	c #35291B",
"yF 	c #271909",
"zF 	c #39220F",
"AF 	c #472F1A",
"BF 	c #4F321B",
"CF 	c #3A2412",
"DF 	c #351F0F",
"EF 	c #311C0D",
"FF 	c #372414",
"GF 	c #25170C",
"HF 	c #2E1F10",
"IF 	c #362316",
"JF 	c #3C2718",
"KF 	c #412B19",
"LF 	c #483220",
"MF 	c #47301F",
"NF 	c #785E44",
"OF 	c #725842",
"PF 	c #644731",
"QF 	c #6B503A",
"RF 	c #644B35",
"SF 	c #755A45",
"TF 	c #765D48",
"UF 	c #503A23",
"VF 	c #987C5D",
"WF 	c #856F53",
"XF 	c #8A7157",
"YF 	c #A1876C",
"ZF 	c #7B5A42",
"`F 	c #75583D",
" G 	c #826141",
".G 	c #806042",
"+G 	c #896A4C",
"@G 	c #78593F",
"#G 	c #7B5E45",
"$G 	c #74573A",
"%G 	c #7E5F44",
"&G 	c #6D4C30",
"*G 	c #6A482C",
"=G 	c #825E41",
"-G 	c #734B30",
";G 	c #6B482D",
">G 	c #784C2E",
",G 	c #6A4429",
"'G 	c #825A3A",
")G 	c #785135",
"!G 	c #7E5A3A",
"~G 	c #6E492D",
"{G 	c #7B5938",
"]G 	c #724E32",
"^G 	c #261406",
"/G 	c #6F5B43",
"(G 	c #624D36",
"_G 	c #261607",
":G 	c #57412D",
"<G 	c #564430",
"[G 	c #473728",
"}G 	c #533E27",
"|G 	c #553F2C",
"1G 	c #5E4835",
"2G 	c #523E2C",
"3G 	c #503B2A",
"4G 	c #493827",
"5G 	c #4A3825",
"6G 	c #57402D",
"7G 	c #553E2B",
"8G 	c #372719",
"9G 	c #67563F",
"0G 	c #61503D",
"aG 	c #331D09",
"bG 	c #523823",
"cG 	c #4D3926",
"dG 	c #4F3923",
"eG 	c #563F2B",
"fG 	c #5F422C",
"gG 	c #4C3019",
"hG 	c #593B23",
"iG 	c #492E1D",
"jG 	c #533825",
"kG 	c #4D3120",
"lG 	c #553D28",
"mG 	c #4E3725",
"nG 	c #543A26",
"oG 	c #523923",
"pG 	c #52371F",
"qG 	c #452C18",
"rG 	c #49311E",
"sG 	c #412B18",
"tG 	c #342013",
"uG 	c #2F210F",
"vG 	c #453524",
"wG 	c #46321E",
"xG 	c #422815",
"yG 	c #452D19",
"zG 	c #492F1C",
"AG 	c #402C16",
"BG 	c #361F10",
"CG 	c #301D0F",
"DG 	c #342310",
"EG 	c #321E0F",
"FG 	c #2F200F",
"GG 	c #332210",
"HG 	c #3E2A1B",
"IG 	c #3C2819",
"JG 	c #3F2C18",
"KG 	c #553F27",
"LG 	c #674E35",
"MG 	c #6A4C35",
"NG 	c #775B42",
"OG 	c #886E51",
"PG 	c #624730",
"QG 	c #684C37",
"RG 	c #48311B",
"SG 	c #725C44",
"TG 	c #917A60",
"UG 	c #867256",
"VG 	c #90775D",
"WG 	c #7F6147",
"XG 	c #76553B",
"YG 	c #735136",
"ZG 	c #785437",
"`G 	c #7B5536",
" H 	c #825E42",
".H 	c #876546",
"+H 	c #78593E",
"@H 	c #775A40",
"#H 	c #74563A",
"$H 	c #6D4E35",
"%H 	c #57351D",
"&H 	c #6B4A2B",
"*H 	c #6E4A30",
"=H 	c #603B22",
"-H 	c #553820",
";H 	c #74492D",
">H 	c #744727",
",H 	c #7E5336",
"'H 	c #775639",
")H 	c #825C45",
"!H 	c #5D4930",
"~H 	c #554731",
"{H 	c #786147",
"]H 	c #604A35",
"^H 	c #4E3D2A",
"/H 	c #4F3C27",
"(H 	c #413220",
"_H 	c #54412F",
":H 	c #53412D",
"<H 	c #503C2C",
"[H 	c #4B392A",
"}H 	c #493627",
"|H 	c #4A3B28",
"1H 	c #473727",
"2H 	c #574330",
"3H 	c #604C3A",
"4H 	c #776750",
"5H 	c #3C2B14",
"6H 	c #513723",
"7H 	c #453521",
"8H 	c #4F3C2B",
"9H 	c #543C26",
"0H 	c #48301D",
"aH 	c #503923",
"bH 	c #472E17",
"cH 	c #503522",
"dH 	c #563822",
"eH 	c #573F2C",
"fH 	c #462E19",
"gH 	c #503422",
"hH 	c #543822",
"iH 	c #4E3320",
"jH 	c #492F17",
"kH 	c #452B16",
"lH 	c #3A2310",
"mH 	c #3D2515",
"nH 	c #3B2814",
"oH 	c #402E19",
"pH 	c #322114",
"qH 	c #2D1C10",
"rH 	c #1F1006",
"sH 	c #1F160B",
"tH 	c #2E1C0E",
"uH 	c #392516",
"vH 	c #2A190D",
"wH 	c #2E1E0F",
"xH 	c #452D1D",
"yH 	c #46301F",
"zH 	c #63462E",
"AH 	c #61492F",
"BH 	c #70573D",
"CH 	c #765A3D",
"DH 	c #634831",
"EH 	c #5B3D24",
"FH 	c #2C1A07",
"GH 	c #B59C80",
"HH 	c #826B4D",
"IH 	c #8F775D",
"JH 	c #8F6B50",
"KH 	c #7E5D43",
"LH 	c #856347",
"MH 	c #714F33",
"NH 	c #7F5A3A",
"OH 	c #7B5238",
"PH 	c #825E40",
"QH 	c #805D42",
"RH 	c #6D4A32",
"SH 	c #714D35",
"TH 	c #664027",
"UH 	c #634024",
"VH 	c #A28162",
"WH 	c #73492E",
"XH 	c #6D4527",
"YH 	c #684123",
"ZH 	c #825833",
"`H 	c #7F593E",
" I 	c #7A583B",
".I 	c #79543A",
"+I 	c #6B492F",
"@I 	c #AD927A",
"#I 	c #513D2A",
"$I 	c #5E4532",
"%I 	c #443322",
"&I 	c #493829",
"*I 	c #503D2B",
"=I 	c #4F3F2E",
"-I 	c #4A3B2A",
";I 	c #453627",
">I 	c #403220",
",I 	c #5F4936",
"'I 	c #5E4933",
")I 	c #533D2D",
"!I 	c #3F2C1A",
"~I 	c #53412B",
"{I 	c #806B54",
"]I 	c #74624E",
"^I 	c #513623",
"/I 	c #4A3323",
"(I 	c #4C3B28",
"_I 	c #573B29",
":I 	c #513724",
"<I 	c #4E3522",
"[I 	c #583B26",
"}I 	c #432B17",
"|I 	c #4F3825",
"1I 	c #422D1A",
"2I 	c #543927",
"3I 	c #4B321C",
"4I 	c #4F331E",
"5I 	c #4A2E1B",
"6I 	c #4C301F",
"7I 	c #432C17",
"8I 	c #1A1104",
"9I 	c #4A2F19",
"0I 	c #3C2716",
"aI 	c #382110",
"bI 	c #33210E",
"cI 	c #331F0E",
"dI 	c #362415",
"eI 	c #332114",
"fI 	c #2A1F0D",
"gI 	c #29170D",
"hI 	c #2F1E11",
"iI 	c #301F11",
"jI 	c #2D1A0E",
"kI 	c #3B2312",
"lI 	c #4C3925",
"mI 	c #493421",
"nI 	c #533D25",
"oI 	c #6E533A",
"pI 	c #715035",
"qI 	c #80664A",
"rI 	c #3A2D20",
"sI 	c #67533C",
"tI 	c #553E2A",
"uI 	c #5C3E28",
"vI 	c #94785D",
"wI 	c #795539",
"xI 	c #5E3F26",
"yI 	c #4B2C12",
"zI 	c #765034",
"AI 	c #64432B",
"BI 	c #63412A",
"CI 	c #5D381B",
"DI 	c #66462D",
"EI 	c #714D31",
"FI 	c #6B462A",
"GI 	c #624934",
"HI 	c #66442A",
"II 	c #634629",
"JI 	c #6F4A2E",
"KI 	c #774D2E",
"LI 	c #5E361C",
"MI 	c #6E4526",
"NI 	c #794E32",
"OI 	c #5D3F26",
"PI 	c #825B3C",
"QI 	c #181408",
"RI 	c #584732",
"SI 	c #62533D",
"TI 	c #4C3E2C",
"UI 	c #4A392A",
"VI 	c #63533D",
"WI 	c #544533",
"XI 	c #5F4E3A",
"YI 	c #5B4934",
"ZI 	c #4A3627",
"`I 	c #403120",
" J 	c #403123",
".J 	c #403121",
"+J 	c #4A3C2B",
"@J 	c #52422F",
"#J 	c #66503C",
"$J 	c #483824",
"%J 	c #55432D",
"&J 	c #775F48",
"*J 	c #402E18",
"=J 	c #443221",
"-J 	c #433223",
";J 	c #382718",
">J 	c #503622",
",J 	c #4A3522",
"'J 	c #46331F",
")J 	c #482F1F",
"!J 	c #442C19",
"~J 	c #4B301A",
"{J 	c #432917",
"]J 	c #472E19",
"^J 	c #472D1A",
"/J 	c #4C311C",
"(J 	c #3A2210",
"_J 	c #3F2814",
":J 	c #412815",
"<J 	c #291807",
"[J 	c #2E1D0F",
"}J 	c #302213",
"|J 	c #312317",
"1J 	c #221B0B",
"2J 	c #2C1C11",
"3J 	c #2F1D10",
"4J 	c #241408",
"5J 	c #402A18",
"6J 	c #463022",
"7J 	c #5C412B",
"8J 	c #583E27",
"9J 	c #71553C",
"0J 	c #60452F",
"aJ 	c #A48F73",
"bJ 	c #88735D",
"cJ 	c #816A4E",
"dJ 	c #766146",
"eJ 	c #68533C",
"fJ 	c #6B4930",
"gJ 	c #58371F",
"hJ 	c #775031",
"iJ 	c #694329",
"jJ 	c #815838",
"kJ 	c #7A5137",
"lJ 	c #795030",
"mJ 	c #6E4A2D",
"nJ 	c #593A1E",
"oJ 	c #6A4930",
"pJ 	c #603F23",
"qJ 	c #5D3D24",
"rJ 	c #694126",
"sJ 	c #5A371D",
"tJ 	c #6D4529",
"uJ 	c #6A4126",
"vJ 	c #674327",
"wJ 	c #845D3C",
"xJ 	c #815A40",
"yJ 	c #8B6445",
"zJ 	c #6F593E",
"AJ 	c #A88F71",
"BJ 	c #574430",
"CJ 	c #3D2D1A",
"DJ 	c #3B2D1E",
"EJ 	c #4D3D2F",
"FJ 	c #54412E",
"GJ 	c #4A3725",
"HJ 	c #5D4A33",
"IJ 	c #433421",
"JJ 	c #3C2F1E",
"KJ 	c #4C3B2F",
"LJ 	c #3D2F20",
"MJ 	c #433427",
"NJ 	c #413022",
"OJ 	c #52402D",
"PJ 	c #473421",
"QJ 	c #382610",
"RJ 	c #382D1D",
"SJ 	c #322514",
"TJ 	c #181004",
"UJ 	c #402A19",
"VJ 	c #3E2917",
"WJ 	c #4A3220",
"XJ 	c #402B1A",
"YJ 	c #422E19",
"ZJ 	c #4F3B28",
"`J 	c #493220",
" K 	c #4D321E",
".K 	c #4B321E",
"+K 	c #432814",
"@K 	c #281906",
"#K 	c #453925",
"$K 	c #120A00",
"%K 	c #35210D",
"&K 	c #3E2415",
"*K 	c #362411",
"=K 	c #291908",
"-K 	c #2D1B0A",
";K 	c #221205",
">K 	c #2B2214",
",K 	c #342619",
"'K 	c #453223",
")K 	c #493622",
"!K 	c #634D37",
"~K 	c #4F432E",
"{K 	c #503E2C",
"]K 	c #564631",
"^K 	c #665440",
"/K 	c #41301B",
"(K 	c #3B2D19",
"_K 	c #463726",
":K 	c #342917",
"<K 	c #634D3A",
"[K 	c #615034",
"}K 	c #7A6950",
"|K 	c #6C573E",
"1K 	c #725D45",
"2K 	c #5E4D34",
"3K 	c #7A6549",
"4K 	c #78674E",
"5K 	c #644D3A",
"6K 	c #4A3C2C",
"7K 	c #241D0F",
"8K 	c #231707",
"9K 	c #301D10",
"0K 	c #211206",
"aK 	c #412C1B",
"bK 	c #2D1D0B",
"cK 	c #2E200D",
"dK 	c #271907",
"eK 	c #1F1205",
"fK 	c #2C1D0B",
"gK 	c #39210E",
"hK 	c #210D00",
"iK 	c #927D61",
"jK 	c #A18A6E",
"kK 	c #594636",
"lK 	c #191103",
"mK 	c #140C00",
"nK 	c #160B02",
"oK 	c #150E02",
"pK 	c #151205",
"qK 	c #2C2314",
"rK 	c #0E0800",
"sK 	c #0E0600",
"tK 	c #0B0900",
"uK 	c #151004",
"vK 	c #3B2F20",
"wK 	c #51402E",
"xK 	c #72614D",
"yK 	c #63513B",
"zK 	c #503F27",
"AK 	c #322513",
"BK 	c #4F4231",
"CK 	c #3C2F1F",
"DK 	c #302717",
"EK 	c #241C0F",
"FK 	c #2E2416",
"GK 	c #1E1606",
"HK 	c #20180D",
"IK 	c #241B0D",
"JK 	c #2A2113",
"KK 	c #2F2514",
"LK 	c #2E2715",
"MK 	c #40311C",
"NK 	c #3F3120",
"OK 	c #312616",
"PK 	c #2D1F10",
"QK 	c #110C03",
"RK 	c #110B04",
"SK 	c #2E2418",
"TK 	c #281E0D",
"UK 	c #332717",
"VK 	c #4B3922",
"WK 	c #635139",
"XK 	c #584937",
"YK 	c #574633",
"ZK 	c #695238",
"`K 	c #726248",
" L 	c #77614E",
".L 	c #826C52",
"+L 	c #7A684E",
"@L 	c #796649",
"#L 	c #6E5941",
"$L 	c #735E41",
"%L 	c #57432D",
"&L 	c #6B553B",
"*L 	c #725F46",
"=L 	c #8F7A5F",
"-L 	c #8D755A",
";L 	c #937A61",
">L 	c #8C7659",
",L 	c #7A6750",
"'L 	c #6C5A41",
")L 	c #766048",
"!L 	c #836E55",
"~L 	c #877158",
"{L 	c #866E52",
"]L 	c #A78F74",
"^L 	c #49361C",
"/L 	c #876D4D",
"(L 	c #A48B6F",
"_L 	c #987F60",
":L 	c #705940",
"<L 	c #261705",
"[L 	c #52442C",
"}L 	c #746049",
"|L 	c #7C664E",
"1L 	c #2F1F07",
"2L 	c #3D2E15",
"3L 	c #6A5440",
"4L 	c #5F4931",
"5L 	c #4E3B25",
"6L 	c #6D5940",
"7L 	c #594834",
"8L 	c #6A583E",
"9L 	c #5C472F",
"0L 	c #6A553A",
"aL 	c #917A5F",
"bL 	c #796851",
"cL 	c #80684E",
"dL 	c #614E33",
"eL 	c #5C4A33",
"fL 	c #2B1909",
"gL 	c #59452E",
"hL 	c #796550",
"iL 	c #736148",
"jL 	c #705740",
"kL 	c #826952",
"lL 	c #644C33",
"mL 	c #6A5A46",
"nL 	c #746148",
"oL 	c #4D3F28",
"pL 	c #9C846A",
"qL 	c #7B6650",
"rL 	c #635340",
"sL 	c #624D39",
"tL 	c #604F37",
"uL 	c #56462E",
"vL 	c #5B4A36",
"wL 	c #58432D",
"xL 	c #3A3020",
"yL 	c #2C1F13",
"zL 	c #5C4936",
"AL 	c #493927",
"BL 	c #392D1A",
"CL 	c #322414",
"DL 	c #2E2517",
"EL 	c #271D11",
"FL 	c #20180A",
"GL 	c #2A1F10",
"HL 	c #1F170D",
"IL 	c #22140A",
"JL 	c #372412",
"KL 	c #422B1A",
"LL 	c #644E3B",
"ML 	c #463422",
"NL 	c #50402F",
"OL 	c #5D4633",
"PL 	c #5D4530",
"QL 	c #644A35",
"RL 	c #5A3F29",
"SL 	c #5A3B25",
"TL 	c #61462E",
"UL 	c #573A22",
"VL 	c #624833",
"WL 	c #907355",
"XL 	c #6A5037",
"YL 	c #553B24",
"ZL 	c #6E543B",
"`L 	c #583A25",
" M 	c #73533A",
".M 	c #332416",
"+M 	c #593F2B",
"@M 	c #77614C",
"#M 	c #68563E",
"$M 	c #6D583A",
"%M 	c #998063",
"&M 	c #6E573C",
"*M 	c #A28268",
"=M 	c #826647",
"-M 	c #AD9279",
";M 	c #AA8F6F",
">M 	c #C2A588",
",M 	c #B09378",
"'M 	c #AC9172",
")M 	c #A08466",
"!M 	c #8D7055",
"~M 	c #9A7D60",
"{M 	c #896F52",
"]M 	c #8C745A",
"^M 	c #997D5D",
"/M 	c #90775E",
"(M 	c #A0856E",
"_M 	c #8F765B",
":M 	c #7E6653",
"<M 	c #7C664D",
"[M 	c #61472F",
"}M 	c #583F2B",
"|M 	c #8E735B",
"1M 	c #8E7055",
"2M 	c #AC9376",
"3M 	c #785C3E",
"4M 	c #6E4C33",
"5M 	c #89694C",
"6M 	c #8A6C51",
"7M 	c #785A42",
"8M 	c #5A422B",
"9M 	c #583E2C",
"0M 	c #5C422B",
"aM 	c #553924",
"bM 	c #1B1405",
"cM 	c #433426",
"dM 	c #5D4D3D",
"eM 	c #56452E",
"fM 	c #49301E",
"gM 	c #4A301C",
"hM 	c #513926",
"iM 	c #482F1D",
"jM 	c #412E1D",
"kM 	c #3F2A1A",
"lM 	c #493721",
"mM 	c #362313",
"nM 	c #3A2718",
"oM 	c #372615",
"pM 	c #372411",
"qM 	c #32210E",
"rM 	c #2E1E0E",
"sM 	c #291A0C",
"tM 	c #2F1D0C",
"uM 	c #321D0F",
"vM 	c #3B2412",
"wM 	c #3C2513",
"xM 	c #3F2714",
"yM 	c #170C03",
"zM 	c #49371F",
"AM 	c #5C432E",
"BM 	c #594230",
"CM 	c #463520",
"DM 	c #5B4431",
"EM 	c #583E29",
"FM 	c #574028",
"GM 	c #573F29",
"HM 	c #77573C",
"IM 	c #613E26",
"JM 	c #6B4831",
"KM 	c #5E4028",
"LM 	c #68462C",
"MM 	c #6F4C34",
"NM 	c #6E503C",
"OM 	c #674C36",
"PM 	c #835D41",
"QM 	c #7E5C42",
"RM 	c #664B32",
"SM 	c #4F371F",
"TM 	c #6A4E3B",
"UM 	c #291C0B",
"VM 	c #65543C",
"WM 	c #6A523E",
"XM 	c #755C44",
"YM 	c #7F5D42",
"ZM 	c #694C31",
"`M 	c #7A5B40",
" N 	c #805C41",
".N 	c #846B4C",
"+N 	c #745A3E",
"@N 	c #A08666",
"#N 	c #947658",
"$N 	c #6C4D32",
"%N 	c #6D5338",
"&N 	c #65482C",
"*N 	c #77553A",
"=N 	c #684A30",
"-N 	c #846852",
";N 	c #9F866A",
">N 	c #5C4834",
",N 	c #594530",
"'N 	c #533F2D",
")N 	c #684730",
"!N 	c #583D29",
"~N 	c #4D3521",
"{N 	c #573C27",
"]N 	c #513C25",
"^N 	c #4F3B27",
"/N 	c #573D2A",
"(N 	c #59422F",
"_N 	c #493524",
":N 	c #533F28",
"<N 	c #644630",
"[N 	c #796249",
"}N 	c #48361F",
"|N 	c #43311E",
"1N 	c #4A3722",
"2N 	c #433020",
"3N 	c #412E1C",
"4N 	c #351F11",
"5N 	c #392613",
"6N 	c #301C0C",
"7N 	c #321F10",
"8N 	c #281609",
"9N 	c #2E2113",
"0N 	c #26170D",
"aN 	c #201209",
"bN 	c #2F1D0F",
"cN 	c #392213",
"dN 	c #452817",
"eN 	c #462B17",
"fN 	c #4D301D",
"gN 	c #1C1205",
"hN 	c #54422D",
"iN 	c #523E27",
"jN 	c #624A34",
"kN 	c #513F2D",
"lN 	c #59412D",
"mN 	c #57402A",
"nN 	c #573D26",
"oN 	c #6D523A",
"pN 	c #76543A",
"qN 	c #614429",
"rN 	c #6F492E",
"sN 	c #60442F",
"tN 	c #6E4D35",
"uN 	c #6B4D36",
"vN 	c #65402A",
"wN 	c #7B5A41",
"xN 	c #7A5D42",
"yN 	c #7B604C",
"zN 	c #735E49",
"AN 	c #816751",
"BN 	c #7A644A",
"CN 	c #816145",
"DN 	c #785838",
"EN 	c #745133",
"FN 	c #8E6A4A",
"GN 	c #7F593B",
"HN 	c #937253",
"IN 	c #8E6F52",
"JN 	c #8B684C",
"KN 	c #856A4B",
"LN 	c #8A6D4F",
"MN 	c #7C5939",
"NN 	c #7B5D3E",
"ON 	c #725238",
"PN 	c #6F5035",
"QN 	c #7D593D",
"RN 	c #60442A",
"SN 	c #6D593F",
"TN 	c #9E8468",
"UN 	c #513D27",
"VN 	c #634D3B",
"WN 	c #5B4633",
"XN 	c #4E3E2D",
"YN 	c #40301F",
"ZN 	c #422C15",
"`N 	c #60432B",
" O 	c #59422D",
".O 	c #473220",
"+O 	c #483223",
"@O 	c #4C3826",
"#O 	c #493324",
"$O 	c #5E462F",
"%O 	c #735D43",
"&O 	c #423322",
"*O 	c #6B533E",
"=O 	c #55422F",
"-O 	c #442F20",
";O 	c #3F2D1D",
">O 	c #433120",
",O 	c #372413",
"'O 	c #37210E",
")O 	c #311E0C",
"!O 	c #301E0F",
"~O 	c #2F1D0E",
"{O 	c #2E1B0E",
"]O 	c #161006",
"^O 	c #251409",
"/O 	c #27170A",
"(O 	c #301B0E",
"_O 	c #34210F",
":O 	c #38210E",
"<O 	c #442D1C",
"[O 	c #180C05",
"}O 	c #77624C",
"|O 	c #604D3B",
"1O 	c #564730",
"2O 	c #504130",
"3O 	c #533E2C",
"4O 	c #6A4F38",
"5O 	c #4B3726",
"6O 	c #614632",
"7O 	c #5F3E27",
"8O 	c #7E5F46",
"9O 	c #614126",
"0O 	c #654530",
"aO 	c #644532",
"bO 	c #563A20",
"cO 	c #7E5841",
"dO 	c #62462F",
"eO 	c #715339",
"fO 	c #67472C",
"gO 	c #74573E",
"hO 	c #8E7459",
"iO 	c #795C41",
"jO 	c #624C32",
"kO 	c #45331C",
"lO 	c #8A715A",
"mO 	c #816851",
"nO 	c #816B51",
"oO 	c #745A43",
"pO 	c #836747",
"qO 	c #906A4C",
"rO 	c #624221",
"sO 	c #856141",
"tO 	c #7E5F42",
"uO 	c #735335",
"vO 	c #825E3D",
"wO 	c #7F6243",
"xO 	c #7E5C41",
"yO 	c #8D6D4F",
"zO 	c #7C5A40",
"AO 	c #735438",
"BO 	c #6B4C34",
"CO 	c #5A3E24",
"DO 	c #392B1C",
"EO 	c #A78D74",
"FO 	c #5E4834",
"GO 	c #564230",
"HO 	c #4B3A26",
"IO 	c #403221",
"JO 	c #422D1D",
"KO 	c #59402E",
"LO 	c #513821",
"MO 	c #47341E",
"NO 	c #3D2C1B",
"OO 	c #180B02",
"PO 	c #52402E",
"QO 	c #52412F",
"RO 	c #54432D",
"SO 	c #513D2C",
"TO 	c #3B2B1A",
"UO 	c #2F1F0D",
"VO 	c #352110",
"WO 	c #2F1C0D",
"XO 	c #130E05",
"YO 	c #261508",
"ZO 	c #28170B",
"`O 	c #311D0D",
" P 	c #34200F",
".P 	c #2F1C0B",
"+P 	c #392111",
"@P 	c #362211",
"#P 	c #472F1C",
"$P 	c #4B311F",
"%P 	c #4A2E17",
"&P 	c #543421",
"*P 	c #21140A",
"=P 	c #493C29",
"-P 	c #76614A",
";P 	c #6F5B45",
">P 	c #644E3C",
",P 	c #604E39",
"'P 	c #574833",
")P 	c #5B402B",
"!P 	c #5C3F27",
"~P 	c #664A34",
"{P 	c #5A3E2A",
"]P 	c #5E452E",
"^P 	c #503621",
"/P 	c #664830",
"(P 	c #614527",
"_P 	c #755B43",
":P 	c #806951",
"<P 	c #7E6750",
"[P 	c #533C2B",
"}P 	c #42311D",
"|P 	c #7A674E",
"1P 	c #604C37",
"2P 	c #8E755B",
"3P 	c #866E59",
"4P 	c #896B50",
"5P 	c #75583A",
"6P 	c #775136",
"7P 	c #785538",
"8P 	c #7C593B",
"9P 	c #6F4F34",
"0P 	c #83634A",
"aP 	c #735237",
"bP 	c #775C40",
"cP 	c #886747",
"dP 	c #946D4D",
"eP 	c #846245",
"fP 	c #856348",
"gP 	c #745234",
"hP 	c #8C6A4E",
"iP 	c #7E6244",
"jP 	c #75593C",
"kP 	c #694F33",
"lP 	c #4D3B2E",
"mP 	c #3D2711",
"nP 	c #968162",
"oP 	c #523C2A",
"pP 	c #543D29",
"qP 	c #4C3825",
"rP 	c #5D432B",
"sP 	c #3F2F1B",
"tP 	c #4A3626",
"uP 	c #443122",
"vP 	c #594936",
"wP 	c #281D0B",
"xP 	c #58422D",
"yP 	c #513C2B",
"zP 	c #331F0F",
"AP 	c #362315",
"BP 	c #362512",
"CP 	c #362515",
"DP 	c #352111",
"EP 	c #33200E",
"FP 	c #31200D",
"GP 	c #2F1F0C",
"HP 	c #301E13",
"IP 	c #140B03",
"JP 	c #2F2314",
"KP 	c #1A0B01",
"LP 	c #211306",
"MP 	c #2A1C0B",
"NP 	c #2E1E0C",
"OP 	c #2F1D0B",
"PP 	c #382211",
"QP 	c #472F19",
"RP 	c #543722",
"SP 	c #462C19",
"TP 	c #1F1308",
"UP 	c #604D35",
"VP 	c #715E4B",
"WP 	c #655342",
"XP 	c #5F4D38",
"YP 	c #6D5942",
"ZP 	c #4A3A29",
"`P 	c #5B4732",
" Q 	c #4F3622",
".Q 	c #4D301B",
"+Q 	c #6B4C37",
"@Q 	c #5D452F",
"#Q 	c #684B32",
"$Q 	c #987B5E",
"%Q 	c #6B543B",
"&Q 	c #71533C",
"*Q 	c #664832",
"=Q 	c #6E5A42",
"-Q 	c #68523A",
";Q 	c #8B7259",
">Q 	c #7C654B",
",Q 	c #81674F",
"'Q 	c #745940",
")Q 	c #674B2D",
"!Q 	c #705138",
"~Q 	c #705034",
"{Q 	c #6E4E35",
"]Q 	c #6F5034",
"^Q 	c #826449",
"/Q 	c #816448",
"(Q 	c #7D5C40",
"_Q 	c #8E6E4C",
":Q 	c #836445",
"<Q 	c #8D6F51",
"[Q 	c #77583D",
"}Q 	c #66462A",
"|Q 	c #755237",
"1Q 	c #150E07",
"2Q 	c #705741",
"3Q 	c #614B37",
"4Q 	c #715E49",
"5Q 	c #483725",
"6Q 	c #453322",
"7Q 	c #5D4129",
"8Q 	c #422A13",
"9Q 	c #533B23",
"0Q 	c #462C18",
"aQ 	c #3D2B1A",
"bQ 	c #4A3826",
"cQ 	c #4B3323",
"dQ 	c #57402C",
"eQ 	c #3F301D",
"fQ 	c #312617",
"gQ 	c #6B5741",
"hQ 	c #45331A",
"iQ 	c #513B28",
"jQ 	c #5B4635",
"kQ 	c #372918",
"lQ 	c #3F291A",
"mQ 	c #3A2513",
"nQ 	c #322012",
"oQ 	c #312011",
"pQ 	c #301F0E",
"qQ 	c #2F1C0C",
"rQ 	c #2D1E0D",
"sQ 	c #190E08",
"tQ 	c #1B0D06",
"uQ 	c #1D1108",
"vQ 	c #2F1B0C",
"wQ 	c #331F0B",
"xQ 	c #2D1C0C",
"yQ 	c #482F1B",
"zQ 	c #4C2E1C",
"AQ 	c #22150A",
"BQ 	c #54432F",
"CQ 	c #816650",
"DQ 	c #6D5B45",
"EQ 	c #665541",
"FQ 	c #543F2D",
"GQ 	c #5E402A",
"HQ 	c #5F422B",
"IQ 	c #7A5436",
"JQ 	c #805F3F",
"KQ 	c #5E422B",
"LQ 	c #614328",
"MQ 	c #6B4F38",
"NQ 	c #684E33",
"OQ 	c #68533D",
"PQ 	c #654A31",
"QQ 	c #4C3720",
"RQ 	c #654A36",
"SQ 	c #372718",
"TQ 	c #5F4F36",
"UQ 	c #846D56",
"VQ 	c #695337",
"WQ 	c #76644D",
"XQ 	c #7F674F",
"YQ 	c #6B533B",
"ZQ 	c #755C40",
"`Q 	c #74563C",
" R 	c #72553E",
".R 	c #896C4F",
"+R 	c #87674C",
"@R 	c #795B42",
"#R 	c #85674A",
"$R 	c #6B4B32",
"%R 	c #866547",
"&R 	c #8D6F50",
"*R 	c #7F644C",
"=R 	c #816547",
"-R 	c #7A5D45",
";R 	c #6F5336",
">R 	c #765A43",
",R 	c #71523A",
"'R 	c #1E0F01",
")R 	c #2A2010",
"!R 	c #674F3C",
"~R 	c #8E765A",
"{R 	c #503F28",
"]R 	c #493822",
"^R 	c #523E2D",
"/R 	c #452D1A",
"(R 	c #432B18",
"_R 	c #3F2613",
":R 	c #423120",
"<R 	c #44301F",
"[R 	c #412F21",
"}R 	c #160C04",
"|R 	c #7C6449",
"1R 	c #3A2A18",
"2R 	c #443019",
"3R 	c #493423",
"4R 	c #402C1A",
"5R 	c #3A2414",
"6R 	c #3B2714",
"7R 	c #3A2616",
"8R 	c #3A2715",
"9R 	c #362213",
"0R 	c #392512",
"aR 	c #342211",
"bR 	c #170E03",
"cR 	c #1E1106",
"dR 	c #150F05",
"eR 	c #1F1808",
"fR 	c #22180D",
"gR 	c #21180E",
"hR 	c #141006",
"iR 	c #0E0902",
"jR 	c #110C02",
"kR 	c #372F1C",
"lR 	c #322418",
"mR 	c #261D12",
"nR 	c #1E1608",
"oR 	c #130F02",
"pR 	c #161004",
"qR 	c #130F05",
"rR 	c #191109",
"sR 	c #2B1E13",
"tR 	c #272010",
"uR 	c #2E2516",
"vR 	c #483722",
"wR 	c #7E6951",
"xR 	c #1F1104",
"yR 	c #3A2814",
"zR 	c #1C0E01",
"AR 	c #6B543C",
"BR 	c #684C30",
"CR 	c #A38467",
"DR 	c #83684A",
"ER 	c #74553E",
"FR 	c #221A0E",
"GR 	c #2D2215",
"HR 	c #2F220F",
"IR 	c #413423",
"JR 	c #4F3F28",
"KR 	c #20190D",
"LR 	c #1A0F07",
"MR 	c #2B1C0B",
"NR 	c #352C1B",
"OR 	c #382916",
"PR 	c #1E170A",
"QR 	c #130D06",
"RR 	c #1A1205",
"SR 	c #3F321F",
"TR 	c #362716",
"UR 	c #4B3A2B",
"VR 	c #170D01",
"WR 	c #191004",
"XR 	c #140B02",
"YR 	c #150B03",
"ZR 	c #181106",
"`R 	c #140B04",
" S 	c #100801",
".S 	c #100902",
"+S 	c #1D1209",
"@S 	c #191009",
"#S 	c #181107",
"$S 	c #231B0C",
"%S 	c #2E220F",
"&S 	c #362B1B",
"*S 	c #3E3121",
"=S 	c #3B2A1C",
"-S 	c #3E2E19",
";S 	c #362C1D",
">S 	c #594735",
",S 	c #4E3F2F",
"'S 	c #53412F",
")S 	c #564731",
"!S 	c #4F442E",
"~S 	c #594832",
"{S 	c #514030",
"]S 	c #584936",
"^S 	c #6E5C42",
"/S 	c #6C5741",
"(S 	c #554028",
"_S 	c #735D45",
":S 	c #71604A",
"<S 	c #887151",
"[S 	c #584A35",
"}S 	c #7F6951",
"|S 	c #65563F",
"1S 	c #4E3E2A",
"2S 	c #473824",
"3S 	c #362815",
"4S 	c #77644A",
"5S 	c #6A5641",
"6S 	c #6B563E",
"7S 	c #493823",
"8S 	c #6F5740",
"9S 	c #755F44",
"0S 	c #523C21",
"aS 	c #795F40",
"bS 	c #5A492E",
"cS 	c #6E5B42",
"dS 	c #8C795B",
"eS 	c #7D6A52",
"fS 	c #7B644E",
"gS 	c #4C3921",
"hS 	c #64543E",
"iS 	c #44321B",
"jS 	c #836C52",
"kS 	c #75624A",
"lS 	c #2B200B",
"mS 	c #6C583E",
"nS 	c #816950",
"oS 	c #725E42",
"pS 	c #7A6347",
"qS 	c #2E1F09",
"rS 	c #423320",
"sS 	c #41311A",
"tS 	c #2D220F",
"uS 	c #64513B",
"vS 	c #42311A",
"wS 	c #69563E",
"xS 	c #58452F",
"yS 	c #56432F",
"zS 	c #7F6750",
"AS 	c #756048",
"BS 	c #4B3A28",
"CS 	c #513D29",
"DS 	c #5B4937",
"ES 	c #56452F",
"FS 	c #493A24",
"GS 	c #4E3C29",
"HS 	c #544130",
"IS 	c #352611",
"JS 	c #493A27",
"KS 	c #493926",
"LS 	c #443724",
"MS 	c #2E2114",
"NS 	c #281C11",
"OS 	c #2F2213",
"PS 	c #1A1309",
"QS 	c #271607",
"RS 	c #321E10",
"SS 	c #453120",
"TS 	c #49311C",
"US 	c #4E3621",
"VS 	c #4B311B",
"WS 	c #6C4D34",
"XS 	c #5A4129",
"YS 	c #49301A",
"ZS 	c #6F5D47",
"`S 	c #705E46",
" T 	c #9E896E",
".T 	c #8D775E",
"+T 	c #71583C",
"@T 	c #856B51",
"#T 	c #826B4F",
"$T 	c #6C5943",
"%T 	c #654B30",
"&T 	c #A58B6F",
"*T 	c #967E60",
"=T 	c #836D4F",
"-T 	c #A58E74",
";T 	c #9D8568",
">T 	c #AA8E74",
",T 	c #9A8262",
"'T 	c #A48769",
")T 	c #B9A081",
"!T 	c #A28A71",
"~T 	c #B7A182",
"{T 	c #695038",
"]T 	c #715A45",
"^T 	c #5F4932",
"/T 	c #9A8368",
"(T 	c #7E6749",
"_T 	c #CEB196",
":T 	c #7A614A",
"<T 	c #7C614B",
"[T 	c #77614B",
"}T 	c #896E54",
"|T 	c #937A60",
"1T 	c #997C65",
"2T 	c #927358",
"3T 	c #77573B",
"4T 	c #93745C",
"5T 	c #97785C",
"6T 	c #795639",
"7T 	c #836344",
"8T 	c #856951",
"9T 	c #5A3E27",
"0T 	c #5E4126",
"aT 	c #5D412A",
"bT 	c #654A34",
"cT 	c #7B5F48",
"dT 	c #301E09",
"eT 	c #654E36",
"fT 	c #8A6F54",
"gT 	c #83654D",
"hT 	c #775C42",
"iT 	c #76573B",
"jT 	c #856849",
"kT 	c #7D614A",
"lT 	c #72573B",
"mT 	c #887055",
"nT 	c #70553C",
"oT 	c #755D41",
"pT 	c #7F6A51",
"qT 	c #654B31",
"rT 	c #523724",
"sT 	c #503824",
"tT 	c #5D442C",
"uT 	c #5B402A",
"vT 	c #5E432F",
"wT 	c #42301C",
"xT 	c #4D3E28",
"yT 	c #33210F",
"zT 	c #221808",
"AT 	c #2D2013",
"BT 	c #251808",
"CT 	c #29180C",
"DT 	c #1D1006",
"ET 	c #210F04",
"FT 	c #44301C",
"GT 	c #443021",
"HT 	c #49301F",
"IT 	c #5A3F26",
"JT 	c #4A301A",
"KT 	c #5E3E29",
"LT 	c #5E432C",
"MT 	c #4A3A21",
"NT 	c #836F55",
"OT 	c #8A7960",
"PT 	c #80614D",
"QT 	c #7F6B52",
"RT 	c #624F3A",
"ST 	c #62442F",
"TT 	c #5B422B",
"UT 	c #5E4634",
"VT 	c #685338",
"WT 	c #674E3B",
"XT 	c #674E38",
"YT 	c #574531",
"ZT 	c #6D593C",
"`T 	c #684C33",
" U 	c #654730",
".U 	c #61442D",
"+U 	c #7F654E",
"@U 	c #6D4F36",
"#U 	c #715038",
"$U 	c #6C4E35",
"%U 	c #825F42",
"&U 	c #7D5D40",
"*U 	c #785236",
"=U 	c #6E4628",
"-U 	c #67442B",
";U 	c #835E3E",
">U 	c #6F4D32",
",U 	c #59432B",
"'U 	c #543E2A",
")U 	c #5E4930",
"!U 	c #5E442F",
"~U 	c #423523",
"{U 	c #6A503A",
"]U 	c #61472B",
"^U 	c #5F432B",
"/U 	c #5B3E27",
"(U 	c #593E26",
"_U 	c #694D36",
":U 	c #6B4D35",
"<U 	c #584229",
"[U 	c #5D4935",
"}U 	c #593E29",
"|U 	c #533822",
"1U 	c #402A16",
"2U 	c #462D19",
"3U 	c #322210",
"4U 	c #251507",
"5U 	c #221305",
"6U 	c #1E1007",
"7U 	c #201305",
"8U 	c #221306",
"9U 	c #3B2716",
"0U 	c #442D1A",
"aU 	c #452A16",
"bU 	c #5F432C",
"cU 	c #5F442C",
"dU 	c #5F422A",
"eU 	c #583B22",
"fU 	c #34281A",
"gU 	c #604A34",
"hU 	c #7C6B54",
"iU 	c #665340",
"jU 	c #66513C",
"kU 	c #66533E",
"lU 	c #4B3C2B",
"mU 	c #443222",
"nU 	c #513E2B",
"oU 	c #4C3727",
"pU 	c #5A412B",
"qU 	c #655036",
"rU 	c #68553F",
"sU 	c #5B432E",
"tU 	c #4B3B28",
"uU 	c #5A422D",
"vU 	c #4E331E",
"wU 	c #493521",
"xU 	c #563F2D",
"yU 	c #513C2C",
"zU 	c #624E35",
"AU 	c #61432D",
"BU 	c #664834",
"CU 	c #6A5038",
"DU 	c #563C22",
"EU 	c #6E523A",
"FU 	c #73563F",
"GU 	c #6A4A34",
"HU 	c #6B4B31",
"IU 	c #77543A",
"JU 	c #704E31",
"KU 	c #704C31",
"LU 	c #6A442B",
"MU 	c #735236",
"NU 	c #684A2F",
"OU 	c #523C25",
"PU 	c #4E3A27",
"QU 	c #664D36",
"RU 	c #4F3624",
"SU 	c #161008",
"TU 	c #34271A",
"UU 	c #69513D",
"VU 	c #674F38",
"WU 	c #543B23",
"XU 	c #523922",
"YU 	c #634932",
"ZU 	c #5E452F",
"`U 	c #513A25",
" V 	c #432A16",
".V 	c #4B341E",
"+V 	c #412917",
"@V 	c #4C3D26",
"#V 	c #33210C",
"$V 	c #362414",
"%V 	c #331F11",
"&V 	c #231504",
"*V 	c #221307",
"=V 	c #201206",
"-V 	c #342213",
";V 	c #3F2818",
">V 	c #4C331F",
",V 	c #4D3924",
"'V 	c #4A311F",
")V 	c #4A2F1D",
"!V 	c #674832",
"~V 	c #1B150B",
"{V 	c #6F5A45",
"]V 	c #7A6754",
"^V 	c #644E3A",
"/V 	c #4E402D",
"(V 	c #433524",
"_V 	c #402E1F",
":V 	c #493723",
"<V 	c #634B37",
"[V 	c #5D4A34",
"}V 	c #56412B",
"|V 	c #58422B",
"1V 	c #553A27",
"2V 	c #553D29",
"3V 	c #523A26",
"4V 	c #443B27",
"5V 	c #775F46",
"6V 	c #6A4932",
"7V 	c #6A5139",
"8V 	c #725942",
"9V 	c #674B34",
"0V 	c #664A33",
"aV 	c #816046",
"bV 	c #7B583F",
"cV 	c #67462E",
"dV 	c #724D31",
"eV 	c #65462A",
"fV 	c #59402A",
"gV 	c #432915",
"hV 	c #3F301C",
"iV 	c #48351F",
"jV 	c #3A2817",
"kV 	c #6B4F35",
"lV 	c #5F4832",
"mV 	c #4D3620",
"nV 	c #644933",
"oV 	c #5C422E",
"pV 	c #6F563D",
"qV 	c #644B33",
"rV 	c #5A412D",
"sV 	c #4F3621",
"tV 	c #432918",
"uV 	c #36230F",
"vV 	c #2C190C",
"wV 	c #1B1007",
"xV 	c #221206",
"yV 	c #1F1005",
"zV 	c #1A0E06",
"AV 	c #200F07",
"BV 	c #1B0F06",
"CV 	c #211207",
"DV 	c #2A1B0F",
"EV 	c #2D1E0B",
"FV 	c #442E1A",
"GV 	c #472F1D",
"HV 	c #523A25",
"IV 	c #48321F",
"JV 	c #634A35",
"KV 	c #6D573E",
"LV 	c #402E17",
"MV 	c #5C422C",
"NV 	c #7C624C",
"OV 	c #5A3D27",
"PV 	c #847154",
"QV 	c #806D58",
"RV 	c #554533",
"SV 	c #50412F",
"TV 	c #584835",
"UV 	c #483325",
"VV 	c #473627",
"WV 	c #4B3B24",
"XV 	c #523C29",
"YV 	c #493828",
"ZV 	c #563F29",
"`V 	c #5D432E",
" W 	c #4D3621",
".W 	c #4A3622",
"+W 	c #4B3825",
"@W 	c #41331D",
"#W 	c #79654C",
"$W 	c #5E4129",
"%W 	c #684C36",
"&W 	c #654731",
"*W 	c #5A402A",
"=W 	c #715640",
"-W 	c #70543D",
";W 	c #63442E",
">W 	c #6F5239",
",W 	c #68442B",
"'W 	c #67462C",
")W 	c #58351D",
"!W 	c #63422B",
"~W 	c #4B3020",
"{W 	c #3E271A",
"]W 	c #49321D",
"^W 	c #5C4D34",
"/W 	c #5E4F3C",
"(W 	c #59442F",
"_W 	c #4B3621",
":W 	c #483320",
"<W 	c #3C2516",
"[W 	c #372012",
"}W 	c #341F0E",
"|W 	c #241909",
"1W 	c #2B2110",
"2W 	c #26160A",
"3W 	c #29160B",
"4W 	c #211307",
"5W 	c #24150B",
"6W 	c #1E1205",
"7W 	c #1B0E04",
"8W 	c #180D04",
"9W 	c #1E0F07",
"0W 	c #201207",
"aW 	c #28170A",
"bW 	c #22160B",
"cW 	c #27180D",
"dW 	c #4A311E",
"eW 	c #543C25",
"fW 	c #5A3F28",
"gW 	c #69583F",
"hW 	c #88735B",
"iW 	c #52402A",
"jW 	c #4A3525",
"kW 	c #443525",
"lW 	c #453321",
"mW 	c #553E2D",
"nW 	c #52402F",
"oW 	c #5A4735",
"pW 	c #463626",
"qW 	c #553A23",
"rW 	c #573B25",
"sW 	c #322110",
"tW 	c #6A5236",
"uW 	c #7F6A53",
"vW 	c #563C2A",
"wW 	c #654831",
"xW 	c #5E462E",
"yW 	c #60452C",
"zW 	c #664630",
"AW 	c #4E3422",
"BW 	c #5A3A24",
"CW 	c #583920",
"DW 	c #563824",
"EW 	c #492D19",
"FW 	c #553F2A",
"GW 	c #31200C",
"HW 	c #3E2916",
"IW 	c #4B3F2E",
"JW 	c #665037",
"KW 	c #5E4430",
"LW 	c #503B24",
"MW 	c #4D3623",
"NW 	c #553E27",
"OW 	c #624A32",
"PW 	c #5B412E",
"QW 	c #503825",
"RW 	c #503721",
"SW 	c #402814",
"TW 	c #432E18",
"UW 	c #382311",
"VW 	c #3A2315",
"WW 	c #352B1C",
"XW 	c #311E0D",
"YW 	c #2A1B0E",
"ZW 	c #1F1108",
"`W 	c #201107",
" X 	c #28160B",
".X 	c #432F1C",
"+X 	c #5C3F26",
"@X 	c #5F3C25",
"#X 	c #51341E",
"$X 	c #473927",
"%X 	c #43321F",
"&X 	c #493325",
"*X 	c #513A24",
"=X 	c #49331D",
"-X 	c #513E28",
";X 	c #58442E",
">X 	c #685139",
",X 	c #614934",
"'X 	c #563F26",
")X 	c #3D2D1F",
"!X 	c #3E2D1F",
"~X 	c #563D25",
"{X 	c #63472E",
"]X 	c #5C412A",
"^X 	c #62432A",
"/X 	c #684932",
"(X 	c #61442F",
"_X 	c #523721",
":X 	c #4F3420",
"<X 	c #55371C",
"[X 	c #4E361E",
"}X 	c #5C4029",
"|X 	c #593B24",
"1X 	c #482D19",
"2X 	c #523A22",
"3X 	c #463624",
"4X 	c #705238",
"5X 	c #553D26",
"6X 	c #5B432D",
"7X 	c #533A29",
"8X 	c #4F3D27",
"9X 	c #5B3E28",
"0X 	c #4A331E",
"aX 	c #493221",
"bX 	c #372515",
"cX 	c #3D301E",
"dX 	c #463823",
"eX 	c #231409",
"fX 	c #1C1509",
"gX 	c #151008",
"hX 	c #0D0901",
"iX 	c #0E0702",
"jX 	c #0C0700",
"kX 	c #120B01",
"lX 	c #0D0701",
"mX 	c #130C02",
"nX 	c #0F0B04",
"oX 	c #110C04",
"pX 	c #1D170B",
"qX 	c #2B2011",
"rX 	c #68543E",
"sX 	c #574734",
"tX 	c #655540",
"uX 	c #3A2C1E",
"vX 	c #5C4C37",
"wX 	c #453926",
"xX 	c #4E402A",
"yX 	c #2C2313",
"zX 	c #5E4E39",
"AX 	c #3A2F1E",
"BX 	c #110D03",
"CX 	c #110C01",
"DX 	c #120B02",
"EX 	c #120A03",
"FX 	c #120C02",
"GX 	c #191206",
"HX 	c #110C00",
"IX 	c #5B422E",
"JX 	c #594833",
"KX 	c #3A2D1B",
"LX 	c #655239",
"MX 	c #6E5840",
"NX 	c #7F674E",
"OX 	c #120A01",
"PX 	c #180B03",
"QX 	c #0F0800",
"RX 	c #130901",
"SX 	c #120800",
"TX 	c #130A00",
"UX 	c #231809",
"VX 	c #160F02",
"WX 	c #533E2A",
"XX 	c #382819",
"YX 	c #1D1404",
"ZX 	c #0D0700",
"`X 	c #21170D",
" Y 	c #251D0F",
".Y 	c #382C1A",
"+Y 	c #554431",
"@Y 	c #604E3A",
"#Y 	c #403424",
"$Y 	c #161204",
"%Y 	c #0E0C02",
"&Y 	c #140B00",
"*Y 	c #1A1207",
"=Y 	c #302316",
"-Y 	c #2C1D10",
";Y 	c #120E01",
">Y 	c #2F2413",
",Y 	c #342718",
"'Y 	c #181307",
")Y 	c #100702",
"!Y 	c #130902",
"~Y 	c #0F0903",
"{Y 	c #0F0701",
"]Y 	c #0D0900",
"^Y 	c #0B0600",
"/Y 	c #0C0701",
"(Y 	c #0F0A01",
"_Y 	c #211A0C",
":Y 	c #2F2515",
"<Y 	c #453726",
"[Y 	c #2F2518",
"}Y 	c #392C16",
"|Y 	c #6D5A41",
"1Y 	c #5A4A34",
"2Y 	c #524127",
"3Y 	c #614836",
"4Y 	c #614D35",
"5Y 	c #52422D",
"6Y 	c #433325",
"7Y 	c #483D2B",
"8Y 	c #6F583B",
"9Y 	c #816F51",
"0Y 	c #9B8568",
"aY 	c #684F39",
"bY 	c #8A7359",
"cY 	c #90795B",
"dY 	c #51432F",
"eY 	c #725F47",
"fY 	c #8B795E",
"gY 	c #76624A",
"hY 	c #725E44",
"iY 	c #6D5D46",
"jY 	c #554733",
"kY 	c #705B40",
"lY 	c #7F6E58",
"mY 	c #7B6549",
"nY 	c #332611",
"oY 	c #6A563D",
"pY 	c #382710",
"qY 	c #978262",
"rY 	c #56422C",
"sY 	c #49351D",
"tY 	c #5A422A",
"uY 	c #735C43",
"vY 	c #675640",
"wY 	c #2C1A09",
"xY 	c #59492E",
"yY 	c #5F4C37",
"zY 	c #5C4A32",
"AY 	c #5E4A36",
"BY 	c #5F4E36",
"CY 	c #493A28",
"DY 	c #564428",
"EY 	c #59462C",
"FY 	c #53412C",
"GY 	c #735D47",
"HY 	c #4A321D",
"IY 	c #605036",
"JY 	c #5C4B37",
"KY 	c #4A3928",
"LY 	c #554230",
"MY 	c #483925",
"NY 	c #594531",
"OY 	c #6C5740",
"PY 	c #483B28",
"QY 	c #2F2115",
"RY 	c #392A16",
"SY 	c #4B3B29",
"TY 	c #40311E",
"UY 	c #312413",
"VY 	c #41321F",
"WY 	c #21180A",
"XY 	c #1B140A",
"YY 	c #39281B",
"ZY 	c #382815",
"`Y 	c #352011",
" Z 	c #4F3929",
".Z 	c #594A36",
"+Z 	c #4C3420",
"@Z 	c #553D2A",
"#Z 	c #705A43",
"$Z 	c #927B5F",
"%Z 	c #533E2B",
"&Z 	c #634D36",
"*Z 	c #58422A",
"=Z 	c #664B34",
"-Z 	c #735840",
";Z 	c #534129",
">Z 	c #5A4B35",
",Z 	c #978367",
"'Z 	c #685740",
")Z 	c #8B6F57",
"!Z 	c #92775F",
"~Z 	c #9B7D63",
"{Z 	c #80624A",
"]Z 	c #9A7862",
"^Z 	c #896C54",
"/Z 	c #9B7F6A",
"(Z 	c #A28C71",
"_Z 	c #8C6F55",
":Z 	c #6E553B",
"<Z 	c #896F54",
"[Z 	c #836A53",
"}Z 	c #5C4733",
"|Z 	c #5B4330",
"1Z 	c #574529",
"2Z 	c #785F4C",
"3Z 	c #7C6248",
"4Z 	c #77674D",
"5Z 	c #8D7358",
"6Z 	c #5B452F",
"7Z 	c #6C4D31",
"8Z 	c #664731",
"9Z 	c #5C4129",
"0Z 	c #84664D",
"aZ 	c #5D4630",
"bZ 	c #543C24",
"cZ 	c #543E2B",
"dZ 	c #5E4733",
"eZ 	c #61432C",
"fZ 	c #5D3D26",
"gZ 	c #352515",
"hZ 	c #564531",
"iZ 	c #412E1B",
"jZ 	c #2A1D0A",
"kZ 	c #1B1105",
"lZ 	c #2A1E13",
"mZ 	c #21160D",
"nZ 	c #22160D",
"oZ 	c #2D1F13",
"pZ 	c #332517",
"qZ 	c #3D2A1A",
"rZ 	c #3F3222",
"sZ 	c #2B1F0D",
"tZ 	c #2B1A09",
"uZ 	c #422D1B",
"vZ 	c #533A27",
"wZ 	c #4B3524",
"xZ 	c #593E2C",
"yZ 	c #473224",
"zZ 	c #332819",
"AZ 	c #3C301F",
"BZ 	c #382A1E",
"CZ 	c #443423",
"DZ 	c #533F2A",
"EZ 	c #3E3526",
"FZ 	c #725E47",
"GZ 	c #54422B",
"HZ 	c #604C35",
"IZ 	c #5C412D",
"JZ 	c #553926",
"KZ 	c #684C34",
"LZ 	c #63452D",
"MZ 	c #563D26",
"NZ 	c #513720",
"OZ 	c #5D3F29",
"PZ 	c #4C321E",
"QZ 	c #1E1105",
"RZ 	c #4B3B23",
"SZ 	c #5E422A",
"TZ 	c #583D26",
"UZ 	c #51341F",
"VZ 	c #543723",
"WZ 	c #3F2812",
"XZ 	c #473523",
"YZ 	c #402716",
"ZZ 	c #4F3626",
"`Z 	c #452E1D",
" ` 	c #312217",
".` 	c #2D1F12",
"+` 	c #291B0A",
"@` 	c #231708",
"#` 	c #180D05",
"$` 	c #23190B",
"%` 	c #291C12",
"&` 	c #402A17",
"*` 	c #402A1B",
"=` 	c #433324",
"-` 	c #3E3120",
";` 	c #433526",
">` 	c #46382A",
",` 	c #39291C",
"'` 	c #3D2F21",
")` 	c #463324",
"!` 	c #60513C",
"~` 	c #564633",
"{` 	c #3D3223",
"]` 	c #533F2C",
"^` 	c #927C62",
"/` 	c #6A543E",
"(` 	c #674730",
"_` 	c #563B27",
":` 	c #624930",
"<` 	c #664C39",
"[` 	c #513520",
"}` 	c #664E37",
"|` 	c #524029",
"1` 	c #442F1E",
"2` 	c #1F1305",
"3` 	c #462C17",
"4` 	c #4B2F17",
"5` 	c #4E311D",
"6` 	c #4C301C",
"7` 	c #4D321B",
"8` 	c #52331E",
"9` 	c #5F402B",
"0` 	c #513B24",
"a` 	c #4B3522",
"b` 	c #4C3119",
"c` 	c #49301C",
"d` 	c #4B301C",
"e` 	c #4E301C",
"f` 	c #231A0A",
"g` 	c #2D1E12",
"h` 	c #221409",
"i` 	c #190F05",
"j` 	c #1F130A",
"k` 	c #372415",
"l` 	c #412F1D",
"m` 	c #564332",
"n` 	c #483628",
"o` 	c #3D2E21",
"p` 	c #3D2D1D",
"q` 	c #4A3A2C",
"r` 	c #403223",
"s` 	c #524433",
"t` 	c #574432",
"u` 	c #3C2E1D",
"v` 	c #635240",
"w` 	c #674F3E",
"x` 	c #685643",
"y` 	c #583D28",
"z` 	c #61412A",
"A` 	c #684A34",
"B` 	c #523B27",
"C` 	c #59422E",
"D` 	c #5D4733",
"E` 	c #5D412E",
"F` 	c #533D27",
"G` 	c #715743",
"H` 	c #4C361E",
"I` 	c #473322",
"J` 	c #3A281A",
"K` 	c #392F1F",
"L` 	c #482C17",
"M` 	c #4C2F1C",
"N` 	c #483019",
"O` 	c #452917",
"P` 	c #55402B",
"Q` 	c #553922",
"R` 	c #462E1D",
"S` 	c #4B2F1C",
"T` 	c #442914",
"U` 	c #492A19",
"V` 	c #36291D",
"W` 	c #120C05",
"X` 	c #483A27",
"Y` 	c #452B19",
"Z` 	c #372617",
"`` 	c #322412",
"  .	c #271C10",
". .	c #2B2113",
"+ .	c #20130A",
"@ .	c #23140C",
"# .	c #191208",
"$ .	c #1B0F04",
"% .	c #342216",
"& .	c #39271A",
"* .	c #332816",
"= .	c #422C19",
"- .	c #503A2C",
"; .	c #483823",
"> .	c #493825",
", .	c #352B19",
"' .	c #34291A",
") .	c #3A2E1F",
"! .	c #433224",
"~ .	c #453724",
"{ .	c #483829",
"] .	c #3B2D1F",
"^ .	c #5B4837",
"/ .	c #6A563F",
"( .	c #533F2F",
"_ .	c #1E190B",
": .	c #604F39",
"< .	c #4A3D29",
"[ .	c #413422",
"} .	c #6A5742",
"| .	c #634E3C",
"1 .	c #543721",
"2 .	c #5F442F",
"3 .	c #614633",
"4 .	c #644F38",
"5 .	c #5A4330",
"6 .	c #58402E",
"7 .	c #533A26",
"8 .	c #4A3321",
"9 .	c #50402D",
"0 .	c #65513B",
"a .	c #5A3C24",
"b .	c #412817",
"c .	c #4B321D",
"d .	c #463018",
"e .	c #644A32",
"f .	c #69533A",
"g .	c #4B3421",
"h .	c #4E311E",
"i .	c #432B19",
"j .	c #422A17",
"k .	c #482C19",
"l .	c #3E240F",
"m .	c #4F3B2A",
"n .	c #4A321F",
"o .	c #3D2A1B",
"p .	c #392814",
"q .	c #3A2717",
"r .	c #372516",
"s .	c #2C1C0F",
"t .	c #332315",
"u .	c #372A19",
"v .	c #302616",
"w .	c #2E1F12",
"x .	c #23150C",
"y .	c #120B06",
"z .	c #281D11",
"A .	c #21170E",
"B .	c #1A0E05",
"C .	c #3B2E1D",
"D .	c #352916",
"E .	c #432D1C",
"F .	c #52422C",
"G .	c #503B28",
"H .	c #403122",
"I .	c #35281B",
"J .	c #38291C",
"K .	c #3D2C1C",
"L .	c #443725",
"M .	c #453425",
"N .	c #463927",
"O .	c #4D3C2B",
"P .	c #503D2D",
"Q .	c #574735",
"R .	c #271F10",
"S .	c #6C5843",
"T .	c #433420",
"U .	c #675843",
"V .	c #715C48",
"W .	c #5E4A35",
"X .	c #5D412C",
"Y .	c #634B32",
"Z .	c #5E4531",
"` .	c #5B4530",
" ..	c #55402C",
"...	c #5B4731",
"+..	c #372716",
"@..	c #382A1C",
"#..	c #4A2E1A",
"$..	c #4C301D",
"%..	c #553824",
"&..	c #4A321A",
"*..	c #482C18",
"=..	c #4C3219",
"-..	c #4E311B",
";..	c #412510",
">..	c #472D1B",
",..	c #52331F",
"'..	c #4A2A17",
")..	c #50321E",
"!..	c #482B18",
"~..	c #57462F",
"{..	c #473222",
"]..	c #362418",
"^..	c #4E3826",
"/..	c #3C2A19",
"(..	c #352719",
"_..	c #21170C",
":..	c #1C1209",
"<..	c #241606",
"[..	c #392A1D",
"}..	c #271A10",
"|..	c #3F2E1F",
"1..	c #3C2D1E",
"2..	c #3E301F",
"3..	c #463222",
"4..	c #412E1F",
"5..	c #48382A",
"6..	c #61513E",
"7..	c #58412D",
"8..	c #66553E",
"9..	c #564330",
"0..	c #4F3D29",
"a..	c #604F3C",
"b..	c #5B4B38",
"c..	c #37220F",
"d..	c #573E29",
"e..	c #563D28",
"f..	c #4F3424",
"g..	c #533C28",
"h..	c #4A3620",
"i..	c #4F321C",
"j..	c #54351F",
"k..	c #563722",
"l..	c #4C301B",
"m..	c #4E321F",
"n..	c #402714",
"o..	c #371F0F",
"p..	c #3A2413",
"q..	c #3F2715",
"r..	c #4A2D1C",
"s..	c #351F0E",
"t..	c #362110",
"u..	c #55452F",
"v..	c #3E2E1D",
"w..	c #2A1F0E",
"x..	c #332617",
"y..	c #2B2012",
"z..	c #1E130B",
"A..	c #1D160B",
"B..	c #141107",
"C..	c #1E140A",
"D..	c #261D10",
"E..	c #120D03",
"F..	c #110C05",
"G..	c #413322",
"H..	c #0A0400",
"I..	c #080600",
"J..	c #110B01",
"K..	c #191007",
"L..	c #241C0D",
"M..	c #251D0B",
"N..	c #2A2110",
"O..	c #5E4E38",
"P..	c #161003",
"Q..	c #2B1E12",
"R..	c #1A1003",
"S..	c #160D00",
"T..	c #181102",
"U..	c #1D1607",
"V..	c #181003",
"W..	c #160B01",
"X..	c #463322",
"Y..	c #2E1E0D",
"Z..	c #211208",
"`..	c #170E02",
" +.	c #1F1507",
".+.	c #2C1F0E",
"++.	c #312513",
"@+.	c #24190C",
"#+.	c #241C10",
"$+.	c #20190C",
"%+.	c #20170A",
"&+.	c #534430",
"*+.	c #44351F",
"=+.	c #3D2D1C",
"-+.	c #3B291C",
";+.	c #38271A",
">+.	c #1D0F06",
",+.	c #0E0A03",
"'+.	c #191408",
")+.	c #0F0803",
"!+.	c #201A0B",
"~+.	c #3B2E1E",
"{+.	c #23190F",
"]+.	c #523F2E",
"^+.	c #544333",
"/+.	c #594633",
"(+.	c #6C5B46",
"_+.	c #473A27",
":+.	c #4A3A25",
"<+.	c #6B573E",
"[+.	c #443427",
"}+.	c #5B4A37",
"|+.	c #63533F",
"1+.	c #614B31",
"2+.	c #53402A",
"3+.	c #56452C",
"4+.	c #41321D",
"5+.	c #776047",
"6+.	c #4E4028",
"7+.	c #3B301E",
"8+.	c #493B28",
"9+.	c #433726",
"0+.	c #685942",
"a+.	c #7B634C",
"b+.	c #6A5645",
"c+.	c #4A3E2E",
"d+.	c #6F5943",
"e+.	c #5C4830",
"f+.	c #6A5842",
"g+.	c #523E24",
"h+.	c #3F2E18",
"i+.	c #42331E",
"j+.	c #957F64",
"k+.	c #756047",
"l+.	c #79644A",
"m+.	c #514431",
"n+.	c #3B2E1C",
"o+.	c #53402F",
"p+.	c #443625",
"q+.	c #463925",
"r+.	c #453823",
"s+.	c #453725",
"t+.	c #3F321E",
"u+.	c #443826",
"v+.	c #4D3E2C",
"w+.	c #4F3E2C",
"x+.	c #1B1109",
"y+.	c #1C1608",
"z+.	c #161107",
"A+.	c #16110A",
"B+.	c #141005",
"C+.	c #1B1608",
"D+.	c #1F180A",
"E+.	c #21190A",
"F+.	c #1C110A",
"G+.	c #1A1306",
"H+.	c #2E2214",
"I+.	c #2A1D0F",
"J+.	c #302218",
"K+.	c #3A2B1E",
"L+.	c #3A2C1A",
"M+.	c #604C39",
"N+.	c #4A3827",
"O+.	c #201303",
"P+.	c #120902",
"Q+.	c #2D2617",
"R+.	c #090500",
"S+.	c #392F22",
"T+.	c #4A3D30",
"U+.	c #42382C",
"V+.	c #4E3F2D",
"W+.	c #5E503E",
"X+.	c #5F503A",
"Y+.	c #594634",
"Z+.	c #705D4D",
"`+.	c #756350",
" @.	c #36301D",
".@.	c #0D0600",
"+@.	c #1F1A0B",
"@@.	c #1C1504",
"#@.	c #140700",
"$@.	c #7E684E",
"%@.	c #503E28",
"&@.	c #89725A",
"*@.	c #66513A",
"=@.	c #705F4A",
"-@.	c #4F3D2A",
";@.	c #6B5C47",
">@.	c #735C4B",
",@.	c #322311",
"'@.	c #362B1F",
")@.	c #443829",
"!@.	c #705D47",
"~@.	c #271A07",
"{@.	c #443B29",
"]@.	c #493D2A",
"^@.	c #3B2515",
"/@.	c #796247",
"(@.	c #735F4A",
"_@.	c #4B3827",
":@.	c #5A482F",
"<@.	c #77654C",
"[@.	c #6D5A44",
"}@.	c #67543F",
"|@.	c #312614",
"1@.	c #1D1104",
"2@.	c #1D1303",
"3@.	c #332818",
"4@.	c #352918",
"5@.	c #453824",
"6@.	c #2A2313",
"7@.	c #100802",
"8@.	c #100900",
"9@.	c #160F09",
"0@.	c #0F0A02",
"a@.	c #1C140A",
"b@.	c #1D150B",
"c@.	c #130A03",
"d@.	c #1C150A",
"e@.	c #29190A",
"f@.	c #442E1C",
"g@.	c #684933",
"h@.	c #62452F",
"i@.	c #63462C",
"j@.	c #5E4228",
"k@.	c #443827",
"l@.	c #322511",
"m@.	c #857058",
"n@.	c #523722",
"o@.	c #5E422D",
"p@.	c #816245",
"q@.	c #533B24",
"r@.	c #69523B",
"s@.	c #5D422D",
"t@.	c #513923",
"u@.	c #4C3A2B",
"v@.	c #483626",
"w@.	c #42301F",
"x@.	c #402F20",
"y@.	c #291F13",
"z@.	c #463525",
"A@.	c #3E321F",
"B@.	c #3E2E21",
"C@.	c #3B2719",
"D@.	c #372616",
"E@.	c #463428",
"F@.	c #473926",
"G@.	c #5E4D36",
"H@.	c #81654A",
"I@.	c #573C24",
"J@.	c #422E1B",
"K@.	c #483321",
"L@.	c #3A2816",
"M@.	c #392411",
"N@.	c #3C2918",
"O@.	c #2D1A0D",
"P@.	c #22140B",
"Q@.	c #221208",
"R@.	c #1C0F03",
"S@.	c #1C0E03",
"T@.	c #1C1004",
"U@.	c #201006",
"V@.	c #2A190C",
"W@.	c #3F2C1D",
"X@.	c #462E1B",
"Y@.	c #412C16",
"Z@.	c #55371F",
"`@.	c #67492F",
" #.	c #543A23",
".#.	c #594C37",
"+#.	c #553E2F",
"@#.	c #483827",
"##.	c #4D3725",
"$#.	c #614430",
"%#.	c #543E28",
"&#.	c #5B412A",
"*#.	c #5C412C",
"=#.	c #432D15",
"-#.	c #503927",
";#.	c #3D2E1D",
">#.	c #20150C",
",#.	c #3F341F",
"'#.	c #3B2518",
")#.	c #493626",
"!#.	c #392A1E",
"~#.	c #36291B",
"{#.	c #423121",
"]#.	c #3E2D20",
"^#.	c #3D2B1C",
"/#.	c #3D301F",
"(#.	c #3B2D1A",
"_#.	c #53432D",
":#.	c #775B41",
"<#.	c #422A19",
"[#.	c #462F1D",
"}#.	c #382816",
"|#.	c #392616",
"1#.	c #1B0F07",
"2#.	c #1C0F04",
"3#.	c #1C0D03",
"4#.	c #1A0E03",
"5#.	c #150905",
"6#.	c #140C02",
"7#.	c #1F110A",
"8#.	c #23130A",
"9#.	c #674A2F",
"0#.	c #63482C",
"a#.	c #554331",
"b#.	c #4C3C27",
"c#.	c #5E472D",
"d#.	c #58412B",
"e#.	c #55402E",
"f#.	c #56402D",
"g#.	c #4C3923",
"h#.	c #5B422A",
"i#.	c #4F351D",
"j#.	c #4E3623",
"k#.	c #503C2B",
"l#.	c #453220",
"m#.	c #624A36",
"n#.	c #3D2B1D",
"o#.	c #40301E",
"p#.	c #443323",
"q#.	c #3E2F1D",
"r#.	c #423324",
"s#.	c #463625",
"t#.	c #63503A",
"u#.	c #564A35",
"v#.	c #6A5337",
"w#.	c #4C3220",
"x#.	c #4F3522",
"y#.	c #462D1A",
"z#.	c #3A2615",
"A#.	c #3E2B18",
"B#.	c #3B2718",
"C#.	c #2E1C0B",
"D#.	c #281C0C",
"E#.	c #271709",
"F#.	c #241809",
"G#.	c #1B0E05",
"H#.	c #160F04",
"I#.	c #221606",
"J#.	c #1F1208",
"K#.	c #27190B",
"L#.	c #3D2919",
"M#.	c #3D2918",
"N#.	c #3E2914",
"O#.	c #432E1D",
"P#.	c #4D3320",
"Q#.	c #543B25",
"R#.	c #583C24",
"S#.	c #63462F",
"T#.	c #3B2F1C",
"U#.	c #584633",
"V#.	c #58452E",
"W#.	c #523E2F",
"X#.	c #422D18",
"Y#.	c #5C422F",
"Z#.	c #47301C",
"`#.	c #54402B",
" $.	c #4D3827",
".$.	c #4B3828",
"+$.	c #453426",
"@$.	c #64503C",
"#$.	c #3F3024",
"$$.	c #3C2C1D",
"%$.	c #3C2B1C",
"&$.	c #493826",
"*$.	c #463224",
"=$.	c #39291B",
"-$.	c #3C301E",
";$.	c #2B1C0F",
">$.	c #5E4C34",
",$.	c #432E1C",
"'$.	c #493420",
")$.	c #3E2718",
"!$.	c #422C1C",
"~$.	c #392412",
"{$.	c #392316",
"]$.	c #352314",
"^$.	c #271C0A",
"/$.	c #1A0D02",
"($.	c #1E1005",
"_$.	c #180C04",
":$.	c #190D03",
"<$.	c #27190D",
"[$.	c #211109",
"}$.	c #2C1B0F",
"|$.	c #402B16",
"1$.	c #3E2A17",
"2$.	c #452E1C",
"3$.	c #46331E",
"4$.	c #48321D",
"5$.	c #654C34",
"6$.	c #160E03",
"7$.	c #503F2B",
"8$.	c #4C3E29",
"9$.	c #433320",
"0$.	c #483724",
"a$.	c #604D37",
"b$.	c #4D3D28",
"c$.	c #594836",
"d$.	c #584431",
"e$.	c #563E2D",
"f$.	c #4E3B2A",
"g$.	c #403421",
"h$.	c #483727",
"i$.	c #5C4A31",
"j$.	c #3E2F1C",
"k$.	c #473424",
"l$.	c #402D1C",
"m$.	c #4D3B29",
"n$.	c #463323",
"o$.	c #413221",
"p$.	c #402E20",
"q$.	c #352A1A",
"r$.	c #3B2C1D",
"s$.	c #413222",
"t$.	c #2C1E13",
"u$.	c #665441",
"v$.	c #392212",
"w$.	c #422B1C",
"x$.	c #3C2616",
"y$.	c #362112",
"z$.	c #241C0C",
"A$.	c #190C02",
"B$.	c #1D0F07",
"C$.	c #140C01",
"D$.	c #160B03",
"E$.	c #1A0D06",
"F$.	c #170C02",
"G$.	c #2C1D0E",
"H$.	c #543D28",
"I$.	c #1B1407",
"J$.	c #3B2D1C",
"K$.	c #574331",
"L$.	c #4F402C",
"M$.	c #4F3E2F",
"N$.	c #5C4633",
"O$.	c #534029",
"P$.	c #4C3B24",
"Q$.	c #1A150A",
"R$.	c #5D4E39",
"S$.	c #715C44",
"T$.	c #42301E",
"U$.	c #38291A",
"V$.	c #392A19",
"W$.	c #433424",
"X$.	c #493B27",
"Y$.	c #443524",
"Z$.	c #352618",
"`$.	c #211808",
" %.	c #51422D",
".%.	c #4D321F",
"+%.	c #4D3424",
"@%.	c #3E2515",
"#%.	c #382315",
"$%.	c #2C180B",
"%%.	c #291A0A",
"&%.	c #261D0D",
"*%.	c #1A0E04",
"=%.	c #0F0901",
"-%.	c #0F0B03",
";%.	c #100A05",
">%.	c #1D1608",
",%.	c #161306",
"'%.	c #120A02",
")%.	c #0F0A04",
"!%.	c #0E0900",
"~%.	c #0B0500",
"{%.	c #0D0601",
"]%.	c #0D0500",
"^%.	c #120901",
"/%.	c #110701",
"(%.	c #130B00",
"_%.	c #0D0902",
":%.	c #0C0900",
"<%.	c #3C3220",
"[%.	c #21190B",
"}%.	c #493624",
"|%.	c #3F2F22",
"1%.	c #312215",
"2%.	c #352417",
"3%.	c #36271A",
"4%.	c #0D0C00",
"5%.	c #0D0800",
"6%.	c #0C0600",
"7%.	c #090600",
"8%.	c #221A0C",
"9%.	c #382B16",
"0%.	c #4B3C22",
"a%.	c #362A1A",
"b%.	c #1A1507",
"c%.	c #312518",
"d%.	c #281E12",
"e%.	c #291A10",
"f%.	c #1F1708",
"g%.	c #422B19",
"h%.	c #432D1E",
"i%.	c #3B2A15",
"j%.	c #1B1208",
"k%.	c #160C03",
"l%.	c #1B110A",
"m%.	c #180D07",
"n%.	c #130E03",
"o%.	c #180E06",
"p%.	c #0B0602",
"q%.	c #0D0602",
"r%.	c #160F07",
"s%.	c #272011",
"t%.	c #2C2115",
"u%.	c #2D230F",
"v%.	c #2A2112",
"w%.	c #291F12",
"x%.	c #342818",
"y%.	c #2F2716",
"z%.	c #211A0F",
"A%.	c #20170D",
"B%.	c #1E170C",
"C%.	c #221C0E",
"D%.	c #372E1E",
"E%.	c #584537",
"F%.	c #5C4E39",
"G%.	c #4F3F2B",
"H%.	c #423620",
"I%.	c #5C4D39",
"J%.	c #5D4B36",
"K%.	c #5B4F3B",
"L%.	c #52412A",
"M%.	c #3E2D18",
"N%.	c #594732",
"O%.	c #4C3C26",
"P%.	c #523F2D",
"Q%.	c #423220",
"R%.	c #423420",
"S%.	c #302413",
"T%.	c #493C2C",
"U%.	c #362A17",
"V%.	c #2F2012",
"W%.	c #3E2F23",
"X%.	c #241D0D",
"Y%.	c #1E150C",
"Z%.	c #20170E",
"`%.	c #221B0F",
" &.	c #1E140B",
".&.	c #1A120A",
"+&.	c #1A110A",
"@&.	c #130B03",
"#&.	c #1D1009",
"$&.	c #1C1108",
"%&.	c #231309",
"&&.	c #201809",
"*&.	c #312519",
"=&.	c #190F04",
"-&.	c #100501",
";&.	c #5D472D",
">&.	c #5C4934",
",&.	c #7C6046",
"'&.	c #684E39",
")&.	c #4D3723",
"!&.	c #715840",
"~&.	c #624F36",
"{&.	c #755A43",
"]&.	c #715941",
"^&.	c #52422E",
"/&.	c #816B52",
"(&.	c #6D5843",
"_&.	c #2F291A",
":&.	c #32261C",
"<&.	c #34291B",
"[&.	c #7F705C",
"}&.	c #231B10",
"|&.	c #705E48",
"1&.	c #735C48",
"2&.	c #635237",
"3&.	c #5B4B35",
"4&.	c #76664E",
"5&.	c #725F49",
"6&.	c #685640",
"7&.	c #3E3020",
"8&.	c #4B4030",
"9&.	c #3B2C1E",
"0&.	c #554631",
"a&.	c #32271B",
"b&.	c #3C2B17",
"c&.	c #130C00",
"d&.	c #483C28",
"e&.	c #47331D",
"f&.	c #594A32",
"g&.	c #362B1A",
"h&.	c #3B3120",
"i&.	c #292214",
"j&.	c #342A1C",
"k&.	c #4C3E2B",
"l&.	c #271F11",
"m&.	c #24170E",
"n&.	c #0A0200",
"o&.	c #0C0800",
"p&.	c #0C0500",
"q&.	c #150B02",
"r&.	c #281E0E",
"s&.	c #150D01",
"t&.	c #130C05",
"u&.	c #120D05",
"v&.	c #1D160C",
"w&.	c #100D05",
"x&.	c #140C05",
"y&.	c #140A02",
"z&.	c #180D03",
"A&.	c #1A0F04",
"B&.	c #170B01",
"C&.	c #170F08",
"D&.	c #201607",
"E&.	c #3F2B19",
"F&.	c #3A2313",
"G&.	c #462D1B",
"H&.	c #48301F",
"I&.	c #513624",
"J&.	c #573B26",
"K&.	c #583F2A",
"L&.	c #4E3723",
"M&.	c #57412E",
"N&.	c #765137",
"O&.	c #513826",
"P&.	c #4E3720",
"Q&.	c #563922",
"R&.	c #543523",
"S&.	c #3C2715",
"T&.	c #3F2712",
"U&.	c #442B17",
"V&.	c #4C331C",
"W&.	c #422D1C",
"X&.	c #453323",
"Y&.	c #302516",
"Z&.	c #37291A",
"`&.	c #100B03",
" *.	c #725D42",
".*.	c #382415",
"+*.	c #4D3522",
"@*.	c #5B432F",
"#*.	c #674E3A",
"$*.	c #4F3925",
"%*.	c #442C1A",
"&*.	c #66492F",
"**.	c #4E341D",
"=*.	c #35220C",
"-*.	c #3D2C1A",
";*.	c #1F130B",
">*.	c #110A03",
",*.	c #211105",
"'*.	c #231205",
")*.	c #251807",
"!*.	c #4B3C2C",
"~*.	c #3C2518",
"{*.	c #342212",
"]*.	c #4A2D1B",
"^*.	c #51371F",
"/*.	c #594025",
"(*.	c #40321F",
"_*.	c #4C321C",
":*.	c #4C2F15",
"<*.	c #472D19",
"[*.	c #382616",
"}*.	c #372619",
"|*.	c #4E402B",
"1*.	c #483F2B",
"2*.	c #523825",
"3*.	c #412A19",
"4*.	c #564029",
"5*.	c #5A432D",
"6*.	c #51361F",
"7*.	c #5E4229",
"8*.	c #492F1A",
"9*.	c #3D2612",
"0*.	c #402817",
"a*.	c #392C20",
"b*.	c #2E1D12",
"c*.	c #281A10",
"d*.	c #26190E",
"e*.	c #1D110B",
"f*.	c #1C130B",
"g*.	c #191308",
"h*.	c #1A1108",
"i*.	c #1A1109",
"j*.	c #130B05",
"k*.	c #190D05",
"l*.	c #180E03",
"m*.	c #1D1005",
"n*.	c #261407",
"o*.	c #211204",
"p*.	c #221707",
"q*.	c #452A17",
"r*.	c #3D2616",
"s*.	c #442F18",
"t*.	c #4D321C",
"u*.	c #4A351D",
"v*.	c #432D19",
"w*.	c #574231",
"x*.	c #150F06",
"y*.	c #392C18",
"z*.	c #776551",
"A*.	c #523A21",
"B*.	c #452B17",
"C*.	c #412915",
"D*.	c #53351E",
"E*.	c #432B1A",
"F*.	c #472E1E",
"G*.	c #342A18",
"H*.	c #342613",
"I*.	c #382518",
"J*.	c #140E06",
"K*.	c #5B4636",
"L*.	c #422C1B",
"M*.	c #45301F",
"N*.	c #452E20",
"O*.	c #5A422F",
"P*.	c #34200D",
"Q*.	c #31220F",
"R*.	c #3D2F22",
"S*.	c #24190F",
"T*.	c #161106",
"U*.	c #1E0F04",
"V*.	c #251305",
"W*.	c #2D2216",
"X*.	c #2B1F0E",
"Y*.	c #311F12",
"Z*.	c #3D2510",
"`*.	c #4D311C",
" =.	c #452B18",
".=.	c #5B432C",
"+=.	c #503D28",
"@=.	c #110B05",
"#=.	c #715C49",
"$=.	c #3B2111",
"%=.	c #442A13",
"&=.	c #382A1D",
"*=.	c #332718",
"==.	c #3B291B",
"-=.	c #3C2F19",
";=.	c #4B3E2A",
">=.	c #3F301F",
",=.	c #191105",
"'=.	c #4C3D2A",
")=.	c #3E2717",
"!=.	c #2C1C0A",
"~=.	c #423321",
"{=.	c #27190F",
"]=.	c #25190E",
"^=.	c #1D160A",
"/=.	c #22180E",
"(=.	c #1A140B",
"_=.	c #1B1408",
":=.	c #160A04",
"<=.	c #160C06",
"[=.	c #150C03",
"}=.	c #3A2411",
"|=.	c #4B3520",
"1=.	c #493422",
"2=.	c #110A00",
"3=.	c #6B4F39",
"4=.	c #392110",
"5=.	c #3A2512",
"6=.	c #5B3F25",
"7=.	c #49311A",
"8=.	c #332618",
"9=.	c #493625",
"0=.	c #41311F",
"a=.	c #392E1D",
"b=.	c #3A2618",
"c=.	c #453020",
"d=.	c #372A16",
"e=.	c #392714",
"f=.	c #3A2511",
"g=.	c #311D0B",
"h=.	c #331F10",
"i=.	c #130B01",
"j=.	c #1C120B",
"k=.	c #191209",
"l=.	c #191309",
"m=.	c #150A05",
"n=.	c #241306",
"o=.	c #452C1B",
"p=.	c #3F2B16",
"q=.	c #4C321D",
"r=.	c #4A311B",
"s=.	c #44311F",
"t=.	c #4A3120",
"u=.	c #47331F",
"v=.	c #3F291B",
"w=.	c #473925",
"x=.	c #3D3427",
"y=.	c #492B15",
"z=.	c #402614",
"A=.	c #462C1B",
"B=.	c #4B2F19",
"C=.	c #422B18",
"D=.	c #3A2714",
"E=.	c #402D1E",
"F=.	c #362519",
"G=.	c #221C0B",
"H=.	c #412D1D",
"I=.	c #3A2A1D",
"J=.	c #3D2814",
"K=.	c #37200F",
"L=.	c #341F0D",
"M=.	c #3B2414",
"N=.	c #331D0F",
"O=.	c #181008",
"P=.	c #1A100A",
"Q=.	c #1C160B",
"R=.	c #1C1109",
"S=.	c #1D140C",
"T=.	c #100904",
"U=.	c #191406",
"V=.	c #140B05",
"W=.	c #0E0802",
"X=.	c #130F04",
"Y=.	c #0F0C03",
"Z=.	c #120903",
"`=.	c #110902",
" -.	c #161007",
".-.	c #3B2D1D",
"+-.	c #25160B",
"@-.	c #342113",
"#-.	c #493322",
"$-.	c #20160C",
"%-.	c #403322",
"&-.	c #35281D",
"*-.	c #64442C",
"=-.	c #402916",
"--.	c #442D17",
";-.	c #35200E",
">-.	c #312114",
",-.	c #392617",
"'-.	c #413323",
")-.	c #201608",
"!-.	c #261A0F",
"~-.	c #403021",
"{-.	c #281708",
"]-.	c #271A0B",
"^-.	c #392614",
"/-.	c #32210F",
"(-.	c #251707",
"_-.	c #2B1F0F",
":-.	c #20180F",
"<-.	c #3A2F1A",
"[-.	c #25170E",
"}-.	c #190E06",
"|-.	c #120C04",
"1-.	c #181109",
"2-.	c #090801",
"3-.	c #070300",
"4-.	c #1A1408",
"5-.	c #1B130A",
"6-.	c #261C11",
"7-.	c #282010",
"8-.	c #2D2415",
"9-.	c #352A1B",
"0-.	c #38291D",
"a-.	c #2D2414",
"b-.	c #382B1E",
"c-.	c #33261C",
"d-.	c #2F2414",
"e-.	c #221C0D",
"f-.	c #302614",
"g-.	c #50412D",
"h-.	c #574934",
"i-.	c #4F3D2D",
"j-.	c #423422",
"k-.	c #3D3121",
"l-.	c #1D1609",
"m-.	c #302517",
"n-.	c #2F2619",
"o-.	c #1A1407",
"p-.	c #272113",
"q-.	c #3A2D1D",
"r-.	c #33291A",
"s-.	c #20180E",
"t-.	c #443A27",
"u-.	c #554531",
"v-.	c #2F2618",
"w-.	c #2A1F14",
"x-.	c #281F13",
"y-.	c #1F170B",
"z-.	c #403323",
"A-.	c #2F2516",
"B-.	c #1C150B",
"C-.	c #2A1F13",
"D-.	c #2B1F11",
"E-.	c #322919",
"F-.	c #2B2311",
"G-.	c #0F0A00",
"H-.	c #221B0E",
"I-.	c #150E09",
"J-.	c #130E06",
"K-.	c #150F03",
"L-.	c #150D02",
"M-.	c #3A2D1C",
"N-.	c #2F2312",
"O-.	c #382C1D",
"P-.	c #3A2B17",
"Q-.	c #3E2B1C",
"R-.	c #2F2310",
"S-.	c #211A10",
"T-.	c #4B3824",
"U-.	c #4D3F29",
"V-.	c #503F2A",
"W-.	c #57452E",
"X-.	c #5F4D3A",
"Y-.	c #50412B",
"Z-.	c #413523",
"`-.	c #413420",
" ;.	c #2D2411",
".;.	c #231A09",
"+;.	c #2D2310",
"@;.	c #4F402D",
"#;.	c #36261C",
"$;.	c #423521",
"%;.	c #181306",
"&;.	c #423929",
"*;.	c #080800",
"=;.	c #120F06",
"-;.	c #2E281D",
";;.	c #3E3428",
">;.	c #1C180D",
",;.	c #221D11",
"';.	c #312417",
");.	c #493B29",
"!;.	c #2E2312",
"~;.	c #362D1D",
"{;.	c #261D11",
"];.	c #291D11",
"^;.	c #171109",
"/;.	c #322616",
"(;.	c #2B1E11",
"_;.	c #271D0E",
":;.	c #352B1D",
"<;.	c #2D2316",
"[;.	c #2A2111",
"};.	c #161105",
"|;.	c #140D01",
"1;.	c #27180E",
"2;.	c #2B1D11",
"3;.	c #1E140D",
"4;.	c #3B3121",
"5;.	c #352919",
"6;.	c #3C2A1A",
"7;.	c #251D0D",
"8;.	c #3A2617",
"9;.	c #412D1E",
"0;.	c #422C1E",
"a;.	c #352415",
"b;.	c #3F2B1B",
"c;.	c #2F2216",
"d;.	c #130D01",
"e;.	c #35271A",
"f;.	c #301F0F",
"g;.	c #2C1C0E",
"h;.	c #2B1A0F",
"i;.	c #271609",
"j;.	c #241409",
"k;.	c #25140A",
"l;.	c #28170C",
"m;.	c #241706",
"n;.	c #1D1103",
"o;.	c #180E05",
"p;.	c #180F03",
"q;.	c #1F1102",
"r;.	c #21180D",
"s;.	c #3A2D1E",
"t;.	c #302317",
"u;.	c #413223",
"v;.	c #3A2E20",
"w;.	c #161104",
"x;.	c #1F1707",
"y;.	c #342714",
"z;.	c #291F0F",
"A;.	c #312418",
"B;.	c #302418",
"C;.	c #2D2115",
"D;.	c #3A2D1A",
"E;.	c #2F1D11",
"F;.	c #342417",
"G;.	c #251509",
"H;.	c #1E1006",
"I;.	c #1E170D",
"J;.	c #261808",
"K;.	c #130A01",
"L;.	c #150C04",
"M;.	c #170C05",
"N;.	c #1A0C03",
"O;.	c #201106",
"P;.	c #2F2014",
"Q;.	c #34261A",
"R;.	c #3D2F1F",
"S;.	c #2F2411",
"T;.	c #2D2212",
"U;.	c #342618",
"V;.	c #291F0D",
"W;.	c #2F2113",
"X;.	c #271B11",
"Y;.	c #2D1E13",
"Z;.	c #2F2217",
"`;.	c #2B2013",
" >.	c #271B10",
".>.	c #3C2C1E",
"+>.	c #2B1A10",
"@>.	c #2E1C10",
"#>.	c #2E1E13",
"$>.	c #22150C",
"%>.	c #231306",
"&>.	c #1A0D07",
"*>.	c #130903",
"=>.	c #140A03",
"->.	c #1B1104",
";>.	c #241A11",
">>.	c #2F2513",
",>.	c #2E2317",
"'>.	c #22190D",
")>.	c #231B0F",
"!>.	c #322818",
"~>.	c #271B0F",
"{>.	c #2F2013",
"]>.	c #2C2013",
"^>.	c #3F3223",
"/>.	c #332318",
"(>.	c #372B1B",
"_>.	c #372A1D",
":>.	c #2C1E12",
"<>.	c #291A11",
"[>.	c #282112",
"}>.	c #25180E",
"|>.	c #271D12",
"1>.	c #1F1106",
"2>.	c #110D05",
"3>.	c #251709",
"4>.	c #160C01",
"5>.	c #180D06",
"6>.	c #180D02",
"7>.	c #23150A",
"8>.	c #2D2112",
"9>.	c #251B10",
"0>.	c #23180E",
"a>.	c #251C0D",
"b>.	c #291D12",
"c>.	c #292013",
"d>.	c #3A2C1D",
"e>.	c #332518",
"f>.	c #251D10",
"g>.	c #1F150D",
"h>.	c #24170D",
"i>.	c #30200F",
"j>.	c #201205",
"k>.	c #1E1004",
"l>.	c #0F0D02",
"m>.	c #1C0E07",
"n>.	c #1C1007",
"o>.	c #1C0E05",
"p>.	c #211209",
"q>.	c #2A1C12",
"r>.	c #302215",
"s>.	c #33261A",
"t>.	c #302417",
"u>.	c #281C10",
"v>.	c #1D160D",
"w>.	c #1E150D",
"x>.	c #2C1B10",
"y>.	c #201108",
"z>.	c #0D0801",
"A>.	c #190D02",
"B>.	c #190E02",
"C>.	c #0E0803",
"D>.	c #0B0601",
"E>.	c #0D0903",
"F>.	c #0E0901",
"G>.	c #1C1507",
"H>.	c #110B06",
"I>.	c #100A03",
"J>.	c #110A04",
"K>.	c #100A01",
"L>.	c #110A01",
"M>.	c #1E160B",
"N>.	c #0A0600",
"O>.	c #0E0B04",
"P>.	c #261F11",
"Q>.	c #302318",
"R>.	c #241B0F",
"S>.	c #1E120A",
"T>.	c #1D1204",
"U>.	c #160C05",
"V>.	c #171206",
"W>.	c #0E0C04",
"X>.	c #070500",
"Y>.	c #110802",
"Z>.	c #0F0802",
"`>.	c #1D150C",
" ,.	c #171205",
".,.	c #251C10",
"+,.	c #241B10",
"@,.	c #292112",
"#,.	c #3B3020",
"$,.	c #181207",
"%,.	c #191407",
"&,.	c #161207",
"*,.	c #140F04",
"=,.	c #140F07",
"-,.	c #0C0B03",
";,.	c #100B04",
">,.	c #120E03",
",,.	c #120F05",
"',.	c #110C07",
"),.	c #171208",
"!,.	c #170F07",
"~,.	c #251C0E",
"{,.	c #1D170A",
"],.	c #19120A",
"^,.	c #1B140B",
"/,.	c #171308",
"(,.	c #1B170B",
"_,.	c #141104",
":,.	c #160D07",
"<,.	c #141004",
"[,.	c #0C0703",
"},.	c #0E0A04",
"|,.	c #0C0803",
"1,.	c #33251A",
"2,.	c #291D14",
"3,.	c #291F15",
"4,.	c #2D2413",
"5,.	c #272013",
"6,.	c #1A150B",
"7,.	c #2A2114",
"8,.	c #312818",
"9,.	c #261E11",
"0,.	c #261F10",
"a,.	c #403222",
"b,.	c #2D2014",
"c,.	c #2F2415",
"d,.	c #2B2114",
"e,.	c #241D10",
"f,.	c #19100A",
"g,.	c #221B11",
"h,.	c #110E05",
"i,.	c #231C0F",
"j,.	c #332A1A",
"k,.	c #100C04",
"l,.	c #271C11",
"m,.	c #0F0B02",
"n,.	c #2B2111",
"o,.	c #19140A",
"p,.	c #1B1209",
"q,.	c #0F0902",
"r,.	c #1C1407",
"s,.	c #150C05",
"t,.	c #140B06",
"u,.	c #181009",
"v,.	c #160F08",
"w,.	c #22170C",
"x,.	c #271D0C",
"y,.	c #322516",
"z,.	c #1F180B",
"A,.	c #191204",
"B,.	c #261E12",
"C,.	c #291D13",
"D,.	c #2F1F0B",
"E,.	c #1A1409",
"F,.	c #1D170F",
"G,.	c #190D07",
"H,.	c #0E0A01",
"I,.	c #100804",
"J,.	c #0E0A02",
"K,.	c #110D06",
"L,.	c #110D02",
"M,.	c #130C06",
"N,.	c #151207",
"O,.	c #130D07",
"P,.	c #191409",
"Q,.	c #100901",
"R,.	c #20130C",
"S,.	c #302718",
"T,.	c #2D2116",
"U,.	c #22140D",
"V,.	c #1F160E",
"W,.	c #241D11",
"X,.	c #1B130C",
"Y,.	c #1C0F07",
"Z,.	c #1E1506",
"`,.	c #120E05",
"   .  +  @  #  $  %  &  *  =  -  ;  >  ,  '  )  !  ~  {  ]  ^  /  (  _  :  <  [  }  |  1  2  3  4  5  6  7  8  9  0  a  b  c  d  e  f  g  h  i  j  k  l  m  n  o  p  q  r  s  t  u  v  w  x  y  z  A  B  C  D     E  F  G  H  I  J  K  L  M  N  O  P  Q  R  S  T  U  V  W  X  Y  Z  `   . .. +. @. #. $. %. &. *. =. -. ;. >. ,. '. ). !. ~. {. ]. ^. /. (. _. :. <. _. [. }. |. 1. 2. 3. 4. =  ",
"5. 6. 7. 8. 9. 0. a. b. c. d. e. f. g. h. i. j. k. l. m. n. o. p. q. r. s. t. u. v. w. x. y. z. A. B. C. D. E. F. W  G. H. I. J. K. L. M. N. O. P. Q. R. S. T. U. V. W. X. Y. Z. `.  + .+ ++ @+ #+ $+ %+ %. &+ *+ =+ -+ ;+ >+ ,+ '+ )+ !+ ~+ {+ ]+ ^+ /+ ;. (+ _+ :+ x  <+ [+ }+ 9. |+ 1+ 2+ 3+ 4+ 5+ 6+ 7+ 8+ r  9+ 0+ a+ b+ c+ d+ e+ f+ g+ h+ i+ ;. j+ k+ l+ m+ n+ o+ p+ q+ r+ s+ }. t+ u+ v+ ",
"w+ q  x+ y+ b. z+ A+ B+ S  C+ D+ E+ U  F+ G+ H+ I+ J+ K+ L+ M+ N+ O+ P+ Q+ R+ S+ T+ U+ V+ W+ X+ Y+ Z+ `+  @ V  .@ +@ @@ #@ $@ %@ &@ *@ =@ -@ ;@ >@ ,@ '@ )@ !@ ~@ {@ ]@ ^@ /@ (@ _@ O. :@ i. <@ [@ }@ |@ 1@ &+ 2@ 3@ P. 4@ 5@ 6@ 7@ 8@ 9@ 0@ a@ b@ c@ d@ e@ f@ g@ h@ i@ j@ k@ l@ m@ n@ i  o@ p@ u+ q@ r@ s@ t@ u@ v@ w@ x@ d+ y@ k  z@ A@ B@ C@ D@ E@ F@ G@ H@ I@ J@ K@ z  L@ M@ N@ O@ P@ Q@ R@ ",
"S@ B  D+ T@ U  g  U@ V@ W@ x  @+ X@ Y@ S@ Z@ `@  # .# +# @# ## $# %# &# *# =# -# ;# ># ,# '# )# !# ~# {# ]# ^# /# (# g  _# :# <# [# }# |# 1# 2# 3# 4# 5# 6# 7# 8# 9# 0# a# b# c# d# e# f# _@ g# h# i# j# k# l# m# n# o# p# q# U. r# d@ s# t# u# v# w# x# y# z# A# B# C# D# E# F# G# -@ H# U@ I# J# K# L# M# N# /+ M. O# P# Q# a@ R# S# T# U# V# W# X# Y# Z# `# `# _+ 6@  $ .$ +$ @$ N@ #$ $$ %$ ",
"&$ *$ =$ -$ ;$ >$ x  ,$ '$ D@ )$ !$ ~$ {$ ]$ ^$ /$ ($ _$ :$ <$ [$ }$ |$ 1$ 2$ 3$ 4$ 5$ 6$ 7$ 8$ 9$ 0$ z@ a$ b$ c$ d$ e$ f$ g$ h$ i$ j$ k$ l$ m$ n$ o$ p$ q$ r$ s$ t$ u$ v$ w$ 9. x$ y$ z$ A$ B$ l  C$ D$ E$ F$ G$ H$ I$ J$ K$ L$ M$ N$ O$ P$ Q$ R$ S$ T$ U$ V$ W$ X$ Y$ Z$ `$  % .% +% %. @% #% $% %% &% *% =% -% t@ n# ;% N# a@ >% ,% '% )% !% ~% {% ]% ^% 0. /% (% I  @  q+ _% {+ :% <% [% }% ",
"|% 1% 2% 3% 4% 5% 6% 7% 8% 9% 0% a% b% c% d% e% f% g% h% i% j% k% l% m% n% {# o% p% q% r% s% t% u% v% w% x% y% z% A% B% C% D% E% F% G% H% I% J% K% L% M% N% O% P% Q% R% Y+ S% T% 9% U% V% W% X% Y% Z% `% X$  & .& {% +& @& #& $& %& && *& =& -& ;& >& ,& '& )& !& ~& k# {& ]& ^& /& (& _& M# :& <& [& }& |& 1& /+ Q# 2& 3& D# 0  4& *+ 5& 6& 7& 8& 9& 0& @% a& b& 1+ c& d& e& f& g& h& i& j& k& ",
"$$ :% M@ #  l& m& (% n& o& p& q& r& s& t& u& v& w& x& y& z& A& B& C& D& E& F& G& H& I& J& K& L& M& N& O& P& Q& R& S& T& U& V& W& X& Y& Z& `&  * .* +* @* #* $* %* &* ** =* x& -* ;* >* ,* `% ^  '* )* !* F. ~* {* W# ]* ^* /* (* _* :* <* [* }* |* 1* 2* 3* 4* 5* 6* 7* 8* 9* b+ 0* u# L$ P# a* &+ b* c* d* e* ^. O# f* D# }@ g* J@ h* i* i* 6+ j* k* l* m* n* o* ;  z  1+ p* q* r* s* t* u* v* ",
"w* =  t+ x* y* &  z* A* B* 3. C* D* E* F* G* -@ e. H* I* J* K* L* M* N* O* P* Q* O. R* S* T* U* V* W* X* Y* Z* `* >.  = d$ .= 9+ += @= #= $= %= &= *= == -= ;= >= 7* ,= ]. '= )= != ~= {= ]= ^= /= (= W. _= := K# <= [= }= K# |= 1= 2= b. +% 3= 4= 5= 6= 7= 8= -  9= 0= 7+ a= b= c= d= e= f= o@ g= h= i= z& #  j= k= j* &  B% l= m= S@ n= &+ K  o= p= q= 3= r= s= t= u= 2% v= w= -  x= y= z= A= ",
"3% 5. B= B* C= D= E= l# F= G= H= I= J= K= L= M= N= O= P= Q= R= S= T= U= V= W= X= Y= Z= `=  - .- +- @- #- $- %- &- *- =- -- ;- >- ,- '- )- !- ~- {- ]- ^- /- (- _- :- <- [- }- |- 1- 2- 3- 4- 5- 6- 7- 8- 9- 0- a- g= 9$ b- '# F* {@ c- d- e- f- g- x@ !$ h- i- j- k- l- m- n- o- p- q- r- s- t- u- v- w- 4- x- y- z- A- B- C- D- E- F- D+ G- H- I- q= J- K- =$ L- M- N- 6. O- P- Q- 2% R- q+ S- ",
"T- U- 6% -  s= V- W- ;. X- Y- Z- `- ,*  ; .; +; @; #; $; %; &; *; =; -; ;; >; ,; '; ); !; ~; {; ]; ^; /; (; _; :; <; [; }; |; u% 1; 2; 3; 4; 5; 6; 7; 8; 9; 0; a; b; c; d; e; f; g; h; i; j; k; l; m; n; k  o; p; q; r; s; t; u; v; w; x; y; w. z; A; Z* B; C; D; E; F; G; p- H; I; J; K; X@ L; M; N; O; 2& }& /$ P; Q; 5& R; S; T; U; V; +% W; X; Y; Z; /+ *+ `;  > .> 3+ z  7& 7& 4= l= m& }. ",
"$  +> @> (%    K- #> $> %> I$ &> *> => -> ;> >> ,> '> )> !> ~> {> ]> ^> /> (> _> :> <> [> }> |> 1> 2> 3> 4> 5> 6> 7> 8> 9> 0> a> b> c> d> e> f> g> h> i> j> k> l> m> n> o> p> q> r> s> A% t> u> v> w> x> y> z> A> B> C> D> E> F> G> H> I> q- J> K> L> S@ M> N> O> E; P> Q> R> c- S> T> U> V> W> X> Y> Z> `>  , ., +, ]* @, #, $, %, &, S@ *, =, b  -, &, L- ;, B  n* L@ >, &$ ,, F- ', B* -  ), ",
"!, ~, @  >  U@ 3% 9. {, ], ^, /, h% (,  ; _, :, <, [, }, |, 1, 2, 3, 4, 5, 6, 7, 8, 9, 0, a, b, c, d, e, f, g, h, i, j, k, l, m, n, o, p, q, r, s, t, u, v, w, x, p- y, z, A, B, C, D, E, F, G, H, I, J, K, L, M, N, O, o# P, Q, R, S, T, U, V, W, X, Y, Z, `,  ' .' +' @' #' $' %' &' *' =' -' ;' >' ,' d# '' )' !' ~' {' ]' ^' /' (' _' :' <'  % [' }' |' `; 1' 2' 3' 4' 5' 6' 6. 7' 8' 9' 0' ",
"O@ a' @@ @@ b' y  c' d' e' f' g' h' i' j' k' l' m' n' o' p' q' r' s' t' u' v' w' x' y' z' A' B' C' D' E' F' G' H' I' J' K' L' M' N' O' P' Q' R' S' $; T' U' V' W' X' Y' Z' `'  ) .) +) @) #) $) %) &) *) =) -) ;) >) ,) ') )) !) ~) {) U, ]) ^) /) () #> _) :) <) [) }) Q, |) 1) 2) 3) 4) 5) 6) 7) 8) 9) 0) =@ H$ a) 7  b) c) d) e) f) g) h) G  J  i) j) k) I# l) S@ 9' r* 9' m) n) S@ o) p) q) ",
"r) r+ s) S@ t) u) v) w) x) g) ]$ |' y) z) A) B) C) D) E) F) G) H) I) J) K) L) M) N) O) P) Q) R) S) T) U) V) W) X) Y) Z) `)  ! .! +! @! #! $! %! &! (= *! =! -! t  ;! >! ,! '! )! !! ~! {! ]! ^! /! (! _! :! <! [! }! |! 1! 2! 3! 4! 5! 6! 7! 8! 9! 0! Q- a! b! c! d! e! f! g! h! i! j! k! l! m! n! o! ]- p! q! r! s! t! u! v! w! x! 0. y! z! A! r  B! C! D! 1' D  #  q  R- E! F! @  G! h) H! S@ ",
"s* I! J! K! L! M! e$ N! O! P! Q! R! ]$ S! T! U! H) V! W! X! Y! Z! `!  ~ .~ +~ @~ #~ $~ %~ &~ *~ =~ -~ ;~ >~ ,~ '~ )~ !~ ~~ {~ ]~ ^~ /~ (~ _~ :~ <~ [~ }~ |~ 1~ 2~ 3~ 4~ 5~ 6~ 7~ 8~ 9~ 0~ a~ b~ c~ d~ e~ >& f~ g~ h~ i~ j~ k~ l~ m~ n~ o~ p~ q~ r~ s~ t~ u~ v~ w~ x~ y~ z~ A~ B~ C~ D~ E~ F~ G~ H~ I~ J~ K~ L~ M~ N~ O~ P~ Q~ R~ S~ T~ `@ U~ V~ 8@ W~ V; R; X~ Y~ `; Z~ &  r* `~  { I# w= .{ R- ",
"+{ @{ 6% #{ p* ${ %{ &{ !  C. *{ 9% ={ -{ ;{ >{ ,{ '{ ){ !{ ~{ {{ ]{ ^{ /{ ({ _{ M  :{ <{ [{ }{ |{ 1{ 2{ 3{ 4{ 5{ 6{ 7{ 8{ 9{ 0{ a{ b{ c{ J* d{ e{ f{ g{ 2$ +@ e@ h{ i{ j{ k{ l{ m{ n{ /. o{ p{ z  a% q{ #  r{ 4' %, s{ t{ )% u{ R! v{ v  T# 5~ W$ w{ x{ y{ z{ A{ u% B{ C{ D{ E{ F{ G{ H{ I{ J{ n; K{ L{ x@ M{ x, N{ O{ ,- P{ Q{ R{ 5@ P! #  d& 1@ S{ T{ U{ V{ W{ 0. 6+ v+ {$ X{ a' Y{ Z{ `{  ] ",
".] X@ +] @] -$ #] $] %] &] *] 0- A! =] -] ;] >] ,] '] )] !] ~] {] ]] ^] /] (] _] :] <] [] }] |] 1] 2] 3] 4] 5] 6] 7] 8] 9] 0] c- a] b] c] d] e] f] g] h] ;* i] m& j] k] l] m] n] o] p] q] r] s] t] u] v] w] x] y] z] A] B] 7  C] D] E] F] G] g= H] I] J] K' K] L] M] N] O] P] Q] R] S] T] U] V] W] X] =' Y] Z] `]  ^ .^ +^ @^ #^ $^ X- %^ P! N! &^ *^ =^ -^ ;^ >^ ,^ '^ p@ L! )^ !^ ', ~^ 3' {^ ",
"1@ ]^ #> ^^ ~. /^ (^ _^ :^ <^ [^ }^ 7  |^ 1^ 2^ 3^ 4^  @ 5^ 6^ 7^ 8^ 9^ 0^ a^ b^ c^ ~# d^ e^ f^ g^ h^ i^ j^ k^ l^ m^ n^ E& o^ p^ q^ r^ s^ t^ u^ v^ m= w^ x^ y^ F+ z^ A^ B^ C^ D^ E^ F^ G^ H^ I^ J^ K^ L^ M^ 8, N^ O^ P^ Q^ R^ S^ T^ -$ f' J  U^ V^ W^ X^ Y^ Z^ `^  / ./ +/ @/ #/ $/ %/ &/ */ G; Q$ =/ -/ ;/ >/ G& ,/ '/ )/ !/ ~/ {/ ]/ L$ h. ^/ V, // (/ _/ :/ </ [/ }/ |/ s+ W  %  #  -@ @> y= ",
"=$ 1/ W@ t@ &% 2/ 3/ 4/ 5/ 6/ K, 7/ 8/ 9/ 0/ a$ o> a/ b/ c/ d/ e/ f/ g/ h/ i/ j/ k/ l/ m/ n/ o/ p/ q/ r/ s/ t/ u/ v/ w/ x/ y/ z/ A/ B/ C/ D/ E/ F/ G/ H/ I/ J/ K/ L/ w> M/ N/ O/ P/ Q/ R/ S/ T/ U/ V/ W/ P^ g] X/ p; Y/ ,' Z/ `/  ( .( +( @( R* #( $( %( &( *( =( -( ;( >( ,( '( )( !( ~( {( ]( ^( /( (( _( :( <( [( }( X; |( 1( 2( 3( 4( R~ 5( 6( 7( 8( 9( @% 0( a(  $ <' b( I# c( d( e( f( .{ ",
"8' g( Y$ h( l> s; i( j( k( D> l( m( n( o( p( q( r( s( t( u( v( w( 7> x( y( z( A( B( C( D( E( F( G( H( I( J( K( L( M( N( O( P( w^ Q( R( S( T( U( V( W( X( Y( Z( `(  _ ._ +_ @_ #_ $_ %_ &_ *_ =_ -_ |~ ;_ >_ ,_ '_ )_ !_ ~_ {_ ]_ ^_ N^ /_ (_ ]$ __ :_ <_ [_ }_ |_ 1_ 2_ 3_ Y! 4_ 5_ 6_ 7_ 8_ D% h{ 9_ 0_ a_ b_ c_ d_ e_ f_ g_ h_ i_ j_ k_ l_ ,+ m_ n_ o_ p_ q_ r_ s@ s_ 0( 8. t_ |' 8= m= &  4. ",
"u_ j@ v_ w_ x_ o_ y_ z_ A_ B_ C_ D_ E_ F_ G_ H_ n] q- I_ J_ K_ L_ M_ N_ O_ P_ Q_ R_ S_ T_ U_ V_ W_ X_ Y_ Z_ `_  : .: +: @: #: $: %: &: *: =: -: ;: >: ,: ': ): !: ~: {: ]: ^: /: (: _: :: <: [: }: |: 1: 2: o& 3: 4: 5: 6: 7: W- 8: 9: 0: a: b: c: d: e: f: g: h: i: j: k: l: m: n: o: p: q: r: K] s: t: u: v: w: x: y: z: A: B: $& C: D: E: 6( F: G: H: I: v  J: s{ K: L: l* m& H- '^ M: N: O: ",
"1' ,^ P: Q: R: S: T: U: V: W: X: Y: Z: `:  < .< +< @< #< $< %< &< *< =< -< ;< >< ,< '< )< !< ~< {< ]< ^< /< (< _< :< << [< }< |< 1< 2< 3< 4< 5< 6< 7< 8< 9< 0< a< b< c< d< e< f< g< h< i< q] j< k< l< >; m< n< o< p< q< r< s< t< u< v< X% w< x< y< z< d% A< B< C< D< E< F< G< H< I< J< K< L< M< N< O< P< Q< R< S< T< U< r% V< f- n! 7) W< X< Y< Z< `<  [ .[ +[ @[ }' _+ #[ j@ $[ K. %[ == &[ t* ",
"*[ b. !. =[ -[ X% ;[ >[ ,[ '[ )[ ![ ~[ {[ ][ X: ^[ /[ ([ K^ _[ :[ <[ [[ }[ |[ 1[ 2[ 3[ 4[ 5[ 6[ 7[ 8[ 9[ H( 0[ a[ b[ c[ d[ e[ r: f[ g[ h[ i[ j[ k[ l[ m[ n[ o[ o; p[ q[ r[ s[ t[ u[ v[ w[ x[ y[ z[ A[ V: B[ C[ D[ E[ F[ G[ H[ I[ J[ K[ |, L[ M[ N[ O[ P[ Q[ R[ S[ T[ U[ V[ W[ X[ Y[ Z[ `[  } .} +} @} #} $} %} &} N; *} =} -} ;} >} ,} '} )} !} ~} {}  + ]} d+ ^} /} (} *[ _} B  %] .$ q) :} <} ",
"<& [} 1& x@ }} |} 1} 2} 3} 4} 5} L= 6} t, 7} 8} 9} 0} a} b} c} d} e} z{ f} g} h} i} j} k} l} m} n} o} p} q} r} s} t} u} v} w} x} y} z} A} B} C} D} E} F} G} H} I} J} K} L} M} N} O} P} Q} R} S} T} U} V} <& W} X} Y} Z} `}  | .| U% +| T= z_ :_ @| #| $| %| &| *| =| -| ;| >| ,| '| )| !| ~| {| ]| ^| /| ); (| _| :| <| [| }| || 1| 2| 3| 4| 5| 6| Q& 7| 8| 9| 0| 0( X$ g( C  y+ K$ a| |. b| c| ",
"d| K$ e| _. f| g| X* h| i| j| *] k| l| m| n| o| p| q| r| s| t| u| v| w| x| y| z| A| ]] B| C| D| E| F| G| H| I| J| K| L| M| N| 0] O| [@ p< P| Q| R| S| T| U| V| X] W| X| Y| Z| =' n[ `| /+  1 .1 +1  @ @1 #1 $1 %1 &1 *1 ,! =1 C- E@ ,. g$ -1 %@ G[ <' %} ;1 >1 D> ,1 '1 )1 !1 ~1 {1 ]1 ^1 /1 (1 _1 t^ :1 <1 [1 }1 |1 11 21 31 41 51 61 71 81 '% 91 |) 01 a1 /+ b1 $$ c1 d1 e1 f1 |= u= 1. g1 {+ ",
"8' h1 i1 j1 k1 l1 m1 n1 :, 6^ o1 p1 q1 r1 s1 L~ t1 u1 v1 w1 x1 y1 z1 A1 B1 C1 D1 E1 F1 G1 H1 I1 J1 K1 L1 M1 N1 O1 P1 Q1 R1 S1 T1 U1 V1 W1 X1 Y1 Z1 r% `1 ,(  =  2 .2 +2 @2 #2 $2 q( %2 &2 *2 ,; =2 -2 ;2 >2 ,2 '2 )2 !2 ~2 {2 =@ ]2 ^2 8/ /2 (2 L= _2 :2 <2 [2 }2 |2 12 22 32 42 52 62 72 82 92 02 ;= a2 b2 c2 d2 e2 f2 g2 h2 i2 j2 k2 l2 m2 &; 2$ n2 o2 p2 q2 F  r2 $] s2 /^ t2 R  u2 F+ @$ v2 ",
"C  D  w2 ;@ O. x2 y2 z2 A2 B2 C2 D2 E2 F2 G2 H2 I2 J2 K2 L2 M2 N2 O2 P2 Q2 R2 S2 T2 U2 V2 W2 X2 Y2 Z2 `2  3 .3 +3 @3 #3 $3 %3 &3 *3 =3 -3 ;3 >3 ,3 '3 )3 !3 ~3 {3 ]3 ^3 /3 (3 7/ _3 :3 <3 [| |} 0< [3 }3 |3 13 23 33 43 53 63 73 }: 83 93 03 a3 b3 c3 d3 e3 j{ f3 g3 h3 i3 j3 k3 l3 m3 n3 o3 p3 q3 r3 s3 t3 u3 v3 w3 x3 y3 z3 A3 B3 E^ C3 D3 E3 F3 G3 H3 I3 J3 n= #[ r_ k@ K3 *+ o) L3 #> -  M3 ",
"N3 j+ O3 h( P3 Q3 V$ R3 S3 T3 U3 V3 l} W3 X3 Y3 Z3 `3  4 .4 +4 @4 #4 $4 %4 &4 *4 =4 -4 ;4 >4 U2 ,4 '4 v> )4 !4 ~4 {4 ]4 ^4 /4 (4 _4 :4 '< <4 [4 }4 |4 14 24 34 44 54 64 74 84 94 04 a4 b4 c4 d4 e4 f4 g4 h4 i4 j4 k4 l4 #* m4 O~ n4 o4 p4 q4 r4 s4 t4 u4 v4 w4 x4 y4 z4 A4 B4 C4 D4 E4 F4 G4 H4 I4 J4 K4 L4 M4 N4 O4 P4 Q4 R4 S4 T4 U4 V4 W4 X4 Y4 j] Z4 `4  5 .5 +5 -% F@ l) @5 F- #5 y+ B% Y~ ",
"g  $5 i) %5 &5 *5 =5 -5 ;5 >5 G_ ,5 '5 )5 E( !5 ~5 {5 ]5 ^5 /5 (5 _5 :5 <5 [5 d& }5 |5 15 25 35 45 55 65 75 85 95 05 a5 b5 c5 d5 e5 f5 g5 h5 i5 j5 k5 l5 m5 n5 o5 p5 q5 r5 s5 t5 u5 7^ v5 w5 x5 y5 z5 A5 B5 C5 D5 E5 F5 G5 H5 I5 J5 K5 L5 M5 N5 O5 P5 Q5 R5 S5 T5 U5 V5 K~ W5 X5 Y5 Z5 `5  6 .6 +6 @6 #6 $6 %6 &6 *6 =6 -6 ;6 7* P3 >6 ,6 '6 )6 !6 ~6 {6 ]6 ^6 /6 .= x3 (6 h) D  #. A  _6  { b1 ",
"A+ @+ :6 G* <6 [6 H& }6 |6 16 26 36 46 56 66 76 86 96 06 a6 b6 c6 d6 e6 f6 g6 B$ h6 i6 L| j6 k6 l6 m6 n6 o6 p6 q6 r6 s6 t6 u6 v6 w6 x6 y6 z6 A6 B6 C6 D6 E6 F6 G6 H6 I6 J6 K6 L6 M6 N6 ^4 O6 P6 Q6 R6 S6 T6 U6 V6 W6 X6 Y6 Z6 `6  7 .7 +7 @7 #7 $7 %7 U: &7 *7 =7 -7 V3 ;7 >7 ,7 '7 )7 !7 G% ~7 {7 ]7 ^7 /7 (7 _7 :7 <7 [7 }7 ;. |7 17 i  z^ 27 }: 37 47 57 (_ 67 s_ r  +5 77 x+ 87 97 07 a7 c= ",
"@% 0  O# b7 c7 )) d7 e7 f7 g7 h7 i7 {5 j7 k7 l7 m7 n7 o7 p7 {~ q7 r7 s7 t7 u7 v7 w7 #- i) x7 y7 z7 A7 B7 V2 C7 D7 E7 8< F7 G7 H7 I7 J7 K7 L7 M7 N7 <^ O7 P7 Q7 R7 S7 T7 U7 V7 }3 W7 X7 L& Y7 Z7 `7  8 .8 +8 @8 #8 $8 %8 d< &8 *8 =8 -8 ;8 >8 ,8 +4 '8 )8 !8 ~8 {8 ]8 ^8 /8 (8 _8 :8 <8 [8 }8 |8 18 28 38 48 58 68 78 88 98 08 a8 b8 c8 m2 d8 e8 f8 g8 h8 i8 j8 k8 /+ ;. l8 m8 j) 8. b1 n8 5. k) ",
"A+ o8 m# `> -1 p8 q8 |) r8 s8 t8 1~ u8 v8 w8 x8 y8 z8 A8 B8 C8 D8 E8 F8 G8 H8 %@ I8 J8 K8 L8 M8 N8 O8 P8 Q8 R8 S8 T8 U8 V8 W8 X8 Y8 Z8 `8  9 .9 +9 @9 #9 $9 %9 &9 *9 =9 -9 ;9 >9 ,9 '9 )9 !9 ~9 {9 ]9 ^9 /9 (9 _9 :9 <9  ! [9 }9 G, |9 19 29 39 49 59 69 79 89 99 09 a9 b9 c9 d9 y{ e9 f9 g9 h9 i9 j9 k9 l9 m9 n9 V3 >& o9 p9 q9 r9 s9 t9 u9 v9 w9 x9 F  y9 [# U# z9 A9 k= 1@ $+ B9 C9 m) M: D9 ",
"@5 M  -[ E9 F9 G9 H9 I9 J9 K9 S, L9 M9 N9 O9 P9 Q9 R9 S9 T9 U9 V9 W9 a[ X9 Y9 Z9 `9  0 $< .0 +0 @0 #0 z[ $0 %0 &0 *0 =0 -0 ;0 >0 ,0 '0 )0 !0 ~0 {0 ]0 ^0 /0 (0 _0 :0 <0 [0 }0 |0 10 20 30 40 50 60 70 80 90 00 a0 b0 s4 ]9 c0 d0 e0 f0 N5 g0 h0 i0 j0 k0 l0 m0 n0 o0 p0 q0 r0 s0 t0 u0 v0 w0 x0 y0 h8 z0 A0 B0 C0 D0 E0 F0 G0 H0 Q, /} I0 J0 F0 K0 h+ y@ *) L0 x/ x_ M0 )+ Z% o@ h) q+ &$ 6+ N0 ",
"O0 P0 P0 Q0 R0 S0 |@ T0 U0 E+ V0 W0 X0 b. Y0 Z0 `0  a .a +a @a #a $a %a &a *a =a -a ;a >a 5{ ,a 'a )a !a ~a {a ]a ^a /a (a _a :a <a [a >( )8 }a `= |a 1a 2a 3a 4a 5a 6a 7a 8a 9a 0a b^ aa ba ca F* da ea fa ga ha ia ja ka m0 la ma b8 na oa 8, pa qa ra sa ta ua va wa xa ya za Aa Ba Ca Da Ea `+ Fa Ga Ha &@ Ia Ja Ka La 8- Ma %^ Na Oa K{ =- Pa Qa Ra ;+ Sa j= Ta %{ -@ M@ R  [} Ua {+ N@ Va ",
"Wa Xa &, b. Ya /= b^ _, Za `a  b .b +b @b #b ^# *9 $b %b &b *b =b -b ;b >b ,b 'b )b 4$ !b ~b {b ]b ^b @} /b (b _b :b <b [b }b |b 1b 2b 3b 4b 5b 6b 7b 8b 9b 0b ab bb cb db eb fb gb hb ib a_ jb kb lb mb 1- nb ob pb eb 6} qb rb sb tb ub vb wb xb yb zb Ab Bb Cb Db Eb Fb Gb Hb Ib Jb Kb  , Lb Mb E[ Nb Ob ^2 zb Pb z< |- Qb Rb Sb >2 `> Tb Ub Vb 2/ Wb =[ Xb ~. Yb W* ', J  Zb S@ `b *$ r   c ",
"c( .c +c ], Ya @c #c $c $) E> %c &c *c =c =* -c ;c >c ,c 'c )c !c ~c {c ]c ^c /c (c _c :c <c [c }c |c 1c 2c 3c 4c 5c 6c 7c 8c 9c 0c ac bc !; cc dc ec fc gc Q& hc ic jc kc lc mc nc oc pc g2 qc rc sc tc uc vc wc xc yc zc Ac D2 Bc Cc Dc Ec Fc Gc 8$ Hc Ic Jc Kc Lc Mc Nc Oc Pc Qc Rc Sc Tc Uc p# f8 Vc Wc Xc Yc Zc `c  d .d +d @d #d $d %d &d *d 7/ @c J. ]2 =d R~ Z* -d `# ;d %[ >d l) ,d 7& ",
"U4 &+ _} %, 'd )d z2 !d B_ A: ~d {d ]d ^d /d (d _d :d <d [d }d |d 1d 2d 3d 4d 5d 6d 7d 8d 9d 0d ad bd cd dd ed fd gd hd id jd kd ld md nd od pd qd rd sd 5[ td ud vd wd xd yd zd Ad Bd Cd 1^ Dd )[ Ed Fd '] Gd Hd Id Jd Kd Ld s, Md Nd l4 ^5 Od Pd (0 Qd Rd Sd Td Ud Vd y/ Wd Xd Yd Zd `d  e .e +e A> @e #e $e %e &e *e =e -e ;e >e ,e 'e G[ )e D^ !e a% ~e {e Z* A- ]e ^e N# [% t_ /e e* (e _e ",
"@> u_ 8' :e <e [e V$ }e |e 1e 2e U9 3e g7 4e 5e 6e E9 7e 8e 9e 0e ae D2 be ce de T6 ee fe ge he R/ ie R' je ke le me ne oe pe qe re se Q^ te ue ve we xe ye ze Ae Be Ce De Ee Fe Ge He )b H6 Ie Je Ke Le Me Ne Oe Pe L9 Qe Re Se Te Ue Ve ]4 We Xe Ye >: Ze `e  f .f +f @f #f $f %f &f *f =f -f ;f >f ,f 'f )f !f ~f c$ {f ]f 8* ^f /f (f _f :f <f [f }f |f +, b* i# [& 1f E# 2f :^ 3f 4f 5f 6f ",
"7f -@ b' F@ #@ t@ A& 8f 9f 0f af bf cf !> df ef ff gf hf if _$ jf kf lf mf nf of pf 38 qf rf sf tf uf vf wf xf yf zf Af Bf Cf Df Ef Ff Gf Hf If Jf Kf Lf Mf Nf Of Pf Qf %a Rf Sf Le n% Tf Uf Vf Wf Xf [^ Yf Zf `f  g .g +g @g #g $g kf %g &g *g @_ =g -g ;g v. [: >g ,g 'g V= )g !g ~g {g ]g ^g L~ /g (g _g p~ :g c9 <g R8 p] s9 ;6 [g }g t: %| |g k  v- Y% `. 1g G* 2g r  3g 4g 5g ,6 6g W{ 7g ",
"8g 9g D  d. #@ 0g [g c; ag bg cg *e dg )) eg fg gg hg ig jg .g kg 94 lg mg ng og a0 pg /9 qg rg sg tg ug vg wg xg %a yg zg o] Ag Bg Cg Dg Eg Fg Gg Hg Ig Jg Kg z7 Lg Mg Ng Og Pg Qg Rg Sg Tg Ug Vg p< ,$ Wg Xg Yg Zg `g  h .h +h @h Zc #h $h %h &h *h =h -h ;h >h h> ,h 'h )h !h ~h {h ]h ^h /h (h _h i7 L, -) :h }$ <h [h [, O$ }h |h 1h 2h ^d 3h 4h 5h =* ^@ q< 6h 7h 8h 9h 2f e: 0h *% ah bh ",
"ch [} dh 9. -[ +, i% eh fh gh hh &d H] ih jh kh lh mh nh oh ph qh rh sh th uh vh wh xh yh zh Ah Bh u1 Ch Dh Eh Fh Gh Hh Ih Jh Kh ]{ Lh Mh Nh Oh Ph Qh Rh Sh Th Uh Vh Wh Xh Yh Zh `h  i .i +i @i #i $i G* zg }b %i &i *i ^5 =i -i ;i >i ,i 'i )i !i ~i {i ]i l2 ^i %- /i (i _i :i <i [i }i |i 1i 2i 3i nf 4i 5i 6i 7i 8i 9i 0i /& x# ai bi E9 ci di !  ei g' S; w& fi gi hi 6@ ii q# %, M# a& 8& ",
"', ji ki I@ N! O# y] li mi ni oi pi X% 97 qi #9 ri v8 si $; ti ui vi wi X( xi yi zi Ai Bi Ci Di Ei Fi Gi Hi Ii Ji Ki S' Li Mi Ni Oi Pi Qi Ri Si Ti Ui Vi Wi Xi Yi C5 (h Zi `i  j .j +j 3> @j #j $j %j t- v1 &j *j =j -j ;j >j ,j !d 'j )j !j ~j {j ]j ^j /j (j _j :j <j [j }j 4~ <; |j 1j 2j 3j 4j x{ 5j 6j q~ 7j b; 8j 9j 0j aj bj cj t# f# ,= dj ej 3& F# g* o8 }@ =, fj n8 u* t_ gj b' hj D! ",
"ij jj W* kj lj mj nj oj pj qj d% rj sj =c k' tj uj vj wj xj yj zj Aj Bj Cj Dj Ej Fj Gj Hj Ij u4 Jj Kj Lj Mj Nj Oj |~ Nh Pj &9 Qj Rj Sj Tj Uj Vj Wj Xj Yj Zj `j  k .k +k P8 Cg @k #k $k 1@ %k &k *k =k -k ;k >k ,k 'k )k !k L~ ~k [a Nb #2 {k ]k ^k /k La (k q- _k :k <k [k }k |k 1k z: 2k 3k 4k 5k *g 6k w9 ;( 7k 8k 9k 0k ak bk ck =] dk ek fk i. gj |' V  !$ f' gk V- hk @. dh ik jk kk J- Q- ",
"R0 lk mk nk '$ ok *] pk =1 qk rk sk tk uk vk wk xk yk zk Ak Bk Ck Dk Ek Fk Gk Hk Ik Jk Kk x' Lk Mk Nk Ok Pk Qk Rk Sk Tk Uk Vk Wk Xk Yk .k Zk `k  l Ng .l +l @l #l $l %l ,9 &l *l =l -l ;l >l ,l 'l )l !l ~l {l ]l ^l /l (l _l :l <l [l }l |l 1l 2l r- 3l 4l 5l 6l 7l 8l 24 9l 0l al ,} bl N9 cl dl el fl gl hl il jl kl ll ml nl ol pl _0 ql rl sl {_ tl b# ${ ul !$ vl U4 wl ~. X0 S{ -$ x+ xl ",
"#. ck +% yl zl Al ^. Bl Cl Dl El Fl u5 Gl Hl Il Jl H' Kl Ll Ml Nl Ol [] Pl Ql Rl Sl Tl Ul Vl Xh Wl Xl Yl Zl `l  m .m +m @m #m 6b $m c/ %m -0 &m *m =m -m ;m >m ,m 'm )m !m '[ Y4 ~m ;i {m ]m ^m /m !6 (m _m  4 :m <m [m }m |m 1m Yg 2m 3m 4m 5m J5 6m 7m 8m {9 9m 0m O~ cg am bm cm dm em fm gm hm im jm km lm mm nm om pm qm rm sm )  :. tm um C! &, vm T@ wm xm ym t_ zm Am C  Q; Bm h1 F= Q- ",
".$ >$ |+ Cm W- Dm Em Fm Gm E^ Hm G_ Im Jm Km Lm Mm Nm Om Pm Qm Rm Sm Tm Um Vm Wm Xm Ym Zm `m  n .n +n @n #n $n %n &n *n =n -n ;n >n ,n 'n )n !n ~n /) [f {n ]n ^n Y} /n (n <> _n :n <n [n }n |n 1n #! 2n 3n Om 4n 5n 6n 7n 8n 9n 0n an 3m bn cn dn en fn ~@ gn hn in jn kn ln mn nn on pn qn rn sn tn un vn wn xn $: yn ;f zn An Bn Cn Dn v= X} S  x+ ji En c( Fn Gn Hn ]^ 6f 8. In Jn j@ y+ 6. ",
"e& Kn Ln Mn Nn On Q4 ih Pn Qn Rn _# Sn Tn Tn Un R/ Vn 40 Wn Xn Yn Zn `n  o .o +o @o #o $o %o &o *o =o -o ;o >o ,o 'o )o |] !o ~o {o ]o ^o /o (o _o :o <o 7n [o }o 0- |o 1o 2o 3o 4o 5o 6o 7o 8o 9o => |n 0o U< ao bo co do eo fo go ho io jo ko lo mo no T7 oo po qo ro d8 so to uo vo wo xo yo zo Ao Bo Co Do Eo Fo Go Ho Io Jo Ko Lo Mo O! No Oo X@ gj ^^ -$ Po Qo $. *[ j@ W~ ah Ro e* So To ",
"87 }+ Uo Vo t@ `@ Wo i= Xo Yo A; Zo 7  `o D^  p .p +p @p #p $p %p &p *p =p -p ;p >p ,p 'p )p !p ~p {p Vi f> ]p ^p /p (p _p :p <p [p }p |p X( 1p 2p d4 3p 4p 5p 6p 7p 8p 9p 10 0p ap bp )[ cp 9, dp ep fp gp hp ip jp kp lp mp Oe [m np op pp qp rp sp tp up Qe vp wp xp yp zp Ap Bp Cp Dp Ep Fp Gp Hp Ip Jp Kp Lp Mp Np '2 Op Pp Qp Rp x) ,. ]e q# Fn Sp D  Uo Tp -$ Up Vp W{ Wp Xp 9h K: ,% 6% ",
"]^ Yp Zp Vo `p x<  q .q +q @q #q $q %q *} &q *q =q -q ;q d, >q ,q 'q )q !q ~q {q a+ ]q ^q /q (q _q :q <q D| [q }q |q 1q /q 2q 3q 4q 5q 6q `l 7q 8q Yi 9q 0q aq Pe mk bq cq dq eq ^0 fq gq _^ hq iq jq kq Un lq mq nq oq pq qq rq sq tq uq vq wq xq yq zq Aq Bq Cq := Dq Eq Fq Gq Hq Iq Jq Kq Lq Mq Nq Oq Pq Qq Rq Sq Tq Uq Vq Wq Xq Yq Zq `q  r .r S  a  +r @r Kn #r |@ $r =, {. %r &r *r k=  . ",
"_6 Am |'  , =r => -r ;r -1 >r ,r 'r )r Vm {d !r pq ~r {r ]r ^r /r (r _r :r <r [r }r |r 1r 2r 3r 4r 5r 6r 7r 8r 9r 0r ar br cr dr er Ri fr gr hr ir jr kr lr Hi pf mr nr or pr f2 qr rr q! sr 8: tr ur vr wr xr yr zr Ar d! ~j Br Cr Dr Er Fr Gr Hr Ir Jr Kr Lr Mr Nr Or Pr Qr Rr Sr Tr Ur Vr Wr Xr Yr Zr `r  s .s 2a +s @s #s o3 $s 0. %s &s *s @( *- =s -s ;s &. >s a@ ,s 's )s !s i@ s_ #@ ~s ",
"n8 d1 r* {s `$ ]s  @ H$ )e ^s /s 6/ (s A0 po f$ _s :s <s [s :5 }s |s D[ 1s 2s 3s 4s 5s 6s 8l 7s 8s 9s 0s v% Hi as bs cs ds es fs gs qb hs is js F; ks ls ms ns o@ os ps qs rs ss ts us >; vs ws o( xs tf ys z> 5n zs ,r As p% Bs Cs Ds Es Fs Gs Hs Is Js Ks Ls Ms Ns Os Ps Ed Qs Rs Ss Ts Us Vs Ws Xs Ys Zs V~ `s  t .t +t @t #t $t %t Zb &t Mn *t o@ =t %] &% -t ;t .c .= ,^ ,d >t S* ,t #[ $[ ",
"#{ 't )t !t ^^ ${ ~t 2% {t ]t ^t /t D+ En (t _t :t <t [t }t |t 1t 2t 3t 4t 5t 6t 7t 8t J^ 9t 0t R} at bt Z: }( j: 9: 0} ct dt j- M^ et ft gt U{ Ej ht it jt kt lt mt nt ot pt qt '  rt st tt ut vt wt w& xt yt zt At Bt Ct fp Dt Et %k m> Ft Gt Ht It Jt rs s] Kt Lt Mt 14 Nt Ot Pt Qt Rt St Tt Ut Vt W* !8 Wt Xt Yt Zt +% `t ''  u #  .u +u @u #u 6h `. `@ S  $u !+ %u X@ &u *u X+ X@ 9. 8' =u ",
"@+ X@ %{ -u %[ ;u >u X+ ,u 'u 2- g2 )u :| !u ~u {u ]u ^u /u (u _u :u <u [u }u |u 1u 2u 3u 4u 5u 6u 7u 8u 9u 0u au bu cu du eu fu gu hu iu ju ku lu mu nu ou '2 pu qu ru su tu uu vu wu xu yu zu Au Bu Cu Du Eu Fu Gu Hu 89 Iu )i Ju Ku Lu Mu Nu Ou Pu Qu Ru k0 Su Tu Uu #{ Vu Wu Xu Yu Zu `u  v .v *l :# +v V/ @v #v $v l= %v &v D+ *v =v -v ;v }= >v ,v Va rl  = 'v #| S0 2+ H- )v o+ !v T- X0 ",
"A+ &, )d ~v N* 'r e2 {v ]v ^v /v 12 (v _v :v <v [v }v |v 1v y; 2v 3v 4v 5v 6v z7 7v 8v 9v 0v av bv Nd cv dv ev fv gv hv iv jv kv lv 8m mv nv ov pv qv rv sv tv uv %h vv wv xv Vn yv zv Av Bv Cv >h Dv Ev Fv Gv =r Hv Iv Jv Kv Lv Mv Nv 8> Ov Jv Pv Qv ^q Rv Sv Tv Uv Vv Wv Xv Yv Zv `v  w .w +w b/ @w #w ;2 C0 $w %w &w *w l~ !) =w -w ;w >w x# ,w T4 'w )w !w ~w {w ]w ck ct l* ^w x  Yb ^& r_ ",
"F! Yb /w r& (w _w :w <w [w v} }w p( |w 1w 2w 3w 4w 5w 6w 7w 8w 9w &} 0w aw bw cw dw ew fw gw hw iw jw kw lw mw nw ow pw qw rw sw tw uw qj vw ww g[ xw yw zw Zj Aw Bw Cw P6 Dw Ew Fw g2 Gw kn nc Hw Iw Jw Kw Lw Mw Nw Ow Pw Qw Rw Sw Tw Uw Vw Ww Xw Yw Zw `w  x .x e4 R/ +x @x #x $x %x &x ql *x 1, =x -x ;x >x ,x 'x )x -x !x '> %| ~x E> {x |h ]x ^x /x (x _x :x =% <x [x W0 8= 3% g] }x )% h* ",
"*[ ]^ c( |x V# yf 1x 2x _# U9 3x 4x 5x 6x 7x 8x 9x 0x ax bx cx dx ex fx +3 gx hx ix jx kx lx mx x{ nx ox px qx rx sx n8 tx ux vx wx xx yx 9< zx S< Ax Bx Cx Dx Ex b6 Fx dv Gx Hx Ix c: Jx V: Kx ^2 !6 Lx Mx Nx :@ Ox Px Qx Rx Sx Tx Ux Vx Wx Xx Yx Zx `x  y .y +y @y #y $y %y &y *y S, =y 0+ -y 7+ ;y Vn >y (h M, t8 ,y q; 'y )y E^ '5 ^| !y ~y b7 {y S: ]y ^y /y (y  % _y 8+    :y w% F! <y [y ",
"d. l) }y |y A- O. 1y 2y &v &' $k 3y 4y 5y :0 {n 6y 7y 8y 9y 0y ay by cy dy ey fy gy hy iy jy ky ly my ny oy py qy /o tm ry sy ty uy vy wy xy yy zy Ay By ,' Cy Dy Ey Fy -4 Gy Hy Iy Jy Ky 9/ Ly 7/ My ge }@ Ny Oy Py Qy Ry Sy Ty Uy Vy 66 Wy Xy nb Yy V} Zy z} `y '-  z *e .z +z @z #z $q p; 4e Jh $z %z &z *z =z -z  ' ;z >z ,z 'z S> )z Jk ~& !z d@ ~z {z ]z ^z ;% /z (z _z j& :z <z c= 1+ d( ",
":e  . [z #> }z O. A& |z 1z z- 2z 3z 4z 5z 6z 7z 8z 9z 0z az bz cz dz ez Sm fz gz hz iz jz kz lz mz U} nz oz pz qz rz sz tz uz vz wz xz yz D6 zz 69 Az Bz <n c_ Cz Dz Ez Fz Gz 3$ Hz Iz Jz Kz Lz Mz Nz Oz >, ~@ Pz Qz Rz Sz Tz Uz V' Vz Wz X7 Xz Yz Hu xz If Zz `z  A .A a$ +A @A #A $A X: jk Z+ Nr %A H3 &A G; Nr *A =A -A 4k v} )r ;A 1! >A ,A 'A )A !A ~A {A 67 ]A ^A /A i) b' (A J  *+ #5 _A ",
":A n+ *+ Qo <A 3f [A }A |A K{ S& ~' Zk %} 1A 2A 3A 4A 5A 6A 7A 8A 9A s] 0A dr fr aA bA cA dA eA fA gA 1o 6n hA iA jA kA lA mA nA oA pA qA rA sA tA uA vA S< Ia wA xA yA zA AA BA CA DA Zz EA FA GA HA IA (% tk JA KA LA MA NA OA PA QA RA SA dx TA b/ UA VA WA _p XA YA ZA `A ,=  B .B +B V] @B #B $B %B &B *B =B -B ;B >B ,B 'B =) 'B )B X- s; b= [6 !B ~B {B =% 3f O# +@ 6h F- A  Sb `; _6 _z ",
"W~ m* j+ q+ r  )B T4 ]B ^B L$ /B (B _B :B <B ^5 >1 [B UA #n }B |B 1B 2B 3B 4B 5B 6B Gc 7B 8B Tk 9B 0B aB bB rh cB U  $[ dB eB fB gB 2$ hB L$ M. iB jB kB  > lB mB nB p_ oB pB qB 8d rB sB tB uB i; vB wB :A R* x/ xB yB zB AB BB CB (f DB EB FB GB HB IB `( JB t9 KB LB MB NB OB PB QB ;B RB r- $k SB TB UB VB ]m WB XB YB T# ZB `B w& S# -1 1h t9 L; U. =d  C  ; .C ]A +C @C #C $C @+ j) h* 2+ ",
"K! %[ xm g' Z. %C !' f$ &C {_ `} hd *C =C -C ;C >C ,C 'C )C !C T  ~C >' 2- 9< !C {C ]C ^C /C (C _C :C <C [C o1 }C V2 |C 1C 2C 3C 4C 5C !{ 6C 7C u: U^ 8C 9C qo 0C W} aC Oo 2+ bC p{ @w Yb cC kk ), dC eC fC gC hC E  iC jC kC lC mC uk nC oC pC z2 qC Sb ^= rC sC tC uC rb vC wC Q& xC k= yC zC AC o{ BC y$ CC j# DC B% EC $[ x= FC GC jk `t HC IC JC KC LC Q- 3= A* Kn 97 MC 't '$ NC vm D+ OC ",
"PC QC PC RC SC TC UC VC 1} WC XC YC #: ZC `C  D .D +D L/ @D #D $D %D &D *D `= =D Y] -D ;D >D *) ,D 'D )D !D ~D {D ]D ^D /D (D _D :D <D [D )C }D s+ |D 1D 2D &} 3D 4D 5D 4e X+ [1 ]q 6D 7D 8D 9D 0D aD %} bD cD {% dD eD fD gD hD uC Mt iD jD kD lD mD nD oD pD *2 qD rD sD tD uD vD _: wD xD yD zD #A AD >D BD CD DD ED FD vs w$ GD HD ID JD KD )] :& '  LD }f D. MD ND ;. OD PD QD .+ F# G. -@ ",
"v= |@ !t fi RD SD x) .B TD q< UD VD WD XD YD ZD `D  E .E +E @E T6 @s #E $E wj %E 4b &E *E =E -E -! ;E >E mg ,E 'E )E !E ~E {E tq ]E A8 ^E /E (E _E :E <E [E }E |E 1E 2E 3E 4E 5E 6E e/ W8 7E 8E 9E 0E aE bE 5w cE dE eE RA QB 54 r8 J$ fE gE Cs hE iE P, jE kE &c lE mE nE oE pE qE rE sE tE uE *w vE wE j% xE k. yE zE O~ AE BE CE #! DE EE FE GE HE ;z IE JE e7 KE LE {B }x ME NE Yp OE I# k) ",
"+  O- e. V@ <A kA 2h PE QE RE [A -x @u SE v~ Om TE H2 Ye UE $d VE WE XE Dq YE ZE `E  F .F +F @F #F $F %F &F *F =F -F ;F >F ,F 'F )F !F ~F {F ]F ^F /F (F _F :F <F [F }F |F Ps 1F 2F 3F 4F U< 5F ^l 6F 7F o' 8F /d 9F 0F aF bF cF e_ +v y) dF eF k) `x fF gF ,y hF iF jF kF nh lF mF Pe nF oF pF qF rF sF tF ]5 uF {x vF 6| !x wF e= xF yF x< zF AF o~ BF CF b) DF ^y EF >t L$ FF Zp Yb ^w #[ j* ",
"$  Z$ GF -. HF IF JF KF (- LF MF [w NF Im e= OF PF '= := QF 7a RF *E SF TF +s UF VF WF XF YF ZF `F  G .G +G @G =F #G $G %G &G *G =G -G ;G >G ,G 'G )G !G ~G {G ]G ^G /G (G _G :G cp <G [G Ug }G |G 1G Bt 2G 3G 4G 0} v< 5G .# l' 6G zy 7G ws 8G }} 9G 0G aG bG 1! k( cG dG eG fG Na gG hG iG jG kG lG mG nG Pn !d oG pG qG rG sG tG uG vG wG xG yG zG |! ~z AG BG ;5 .C CG DG EG FG B! s& a7 8h ",
"p@ t{ .+ kA CG GG kA T# HG IG 0% JG +; 'r KG F2 LG MG NG OG Z7 PG Mm QG E7 RG SG TG UG VG WG XG YG ZG `G  H .H +H ~m @H #H $H %H &H *H =H -H ;H >H ,H zv 'H )H [0 9- !H ~H {H ]H ^H /H (H _H #i kn }1 :H <H [H }H |H 1H 2H I[ 4: ~{ Y: 44 3H .| l_ O< 4H 5H Ul 6H E; GD 7H 8H 9H 0H aH bH cH 2e dH bG eH `o fH gH hH O> ~* 46 #d R: Z$ _6 8- iH jH kH lH mH nH oH M{ @C <B [6 FF pH qH  % h) rH ",
"8h sH U0 [z }} tH (x uH vH wH r% xH yH ^f yx vp *E zH AH BH CH DH EH ~- a4 FH =2 GH HH IH JH KH LH MH NH OH PH QH RH SH TH @g UH VH Oe WH XH OH YH ZH `H  I .I +I -@ o- @I 3} #I ^( vb $I 6E Xf #I GD %I &I *I =I -I ;I A$ >I ,I 85 'I lc )I !I %t ~I {I ]I ^I W4 A2 /I (I @u _I i= $' :I <I [I }I |I 1I 2I 3I 4I 5I 6I ,& 7I {' (/ 8I iq =} {' 9I :x :! 3! 0I aI a( bI cI dI eI =] 5+ fI gI 5@ ",
"3= n+ u^ :A -t gi hI iI jI kI ~d t: lI wE A4 mI 7/ nI oI pI qI e/ DH j( 1z rI sI tI uI vI wI xI yI zI AI M9 BI CI DI EI #m FI GI HI II JI KI LI MI NI OI :F PI $w QI RI SI _( E; TI EE UI TC VI WI XI YI ZI `I |, [r  J .J +J @J L[ .u #J $J ff |  }u ms %J &J t$ Q% *J L[ =J -J ;J -) ,5 AF Q> >J ,J mG 'J jF )J !J ~J {J ]J Q. hI n@ Ie Fa ^J /J |) (J _J :J <J b1 9| P# N# [J }J |J K  [= 6f ",
"1J Am 2J O# 3J B! J- 4J 5J H0 Q3 >6 6J qF E2 fG S' 7J 8J 9J 0J V' := aJ bJ cJ dJ eJ 8a fJ )5 gJ EB hJ &8 iJ jJ kJ lJ mJ nJ oJ pJ Tx qJ rJ sJ tJ uJ vJ wJ xJ yJ {x S; zJ AJ q] BJ CJ DJ EJ FJ |G .u GJ HJ IJ JJ KJ LJ MJ NJ ^H OJ 5z O< PJ SE QJ |' ~. RJ SJ TJ UJ VJ WJ R3 y2 !A i| ^, 3y [g XJ YJ ZJ ^- `J  K e2 .K S= |A +K !B @K L- C3 #K ~+ $K H0 %K &K *K i@ =K -K o* ah ;K a7 K   > `# t* ",
"d| Xa >K @5 ,K Y@ 'K ei )K !K ~K {K ]K ^K /K (# (K _K :K ^l <K [K }K |K 1K 2K 3K 4K 5K 6K 7K B! _G j@ 0( :' w= 8K vm x& 9K 0K 0K aK bK cK dK t@ eK fK gK hK [x p& iK ^n jK kK b| lK mK nK oK pK |% qK N@ rK sK tK 4= r) uK r)    &] I  R- ), U4 vK >. b- wK xK yK zK AK BK CK DK EK FK &+ 4= ,, K- GK K- HK gj IK PC JK KK LK <+ C= '  SJ MK Ya NK fi G* OK PK Wa l& :A |E `v OK lk 7' =  QK RK ",
"d| SK TK F* #u 7o UK h< J; VK WK E) e. )h ], XK YK T& >D ZK 'I  i `K  L .L +L .n @L #L $L %L &L O; *L Ng =L -L ;L >L ,L ,b 'L )L !L ~L {L xg ]L ^L /L (L _L :L <L [L by }L |L 1L 2L Ij Bz 3L 4L 5L 6L 7L ;1 8L 9L 0L aL bL cL V= dL eL fL ;_ gL k> hL iL jL nu kL lL mL nL oL pL qL rL lc v$ xC sL tL uL wj #I vL <G T1 wL }D IJ xL yL zL AL q- 8a tk BL (H mj ^; N* G$ k= 4+ CL DL EL FL GL HL ",
"U4 IL ah ;% 0+ JL HE KL a$ LL ML i= =} `# Ub NL OL PL QL RL SL TL UL VL @m WL s, *c XL YL ZL i; ap `L {f gH  M |: .M +M @M #M $M Og bA %M O1 &M *M *M !4 =M -M ;M >M ,M 'M )M !M ~M {M ]M ^M /M (M _M :M l8 8u <M cs [M }M |M 1M x} 2M 7B 3M 4M 5M 6M 7M Cs *B 5F 8M 8M w9 Y( 9M 0M aM ZA bM cM dM eM fM gM T3 hM iM  r jM H& kM yH >r lM CJ |f mM nM R: d@ +[ oM JE pM qM rM .b o@ <= <= 5+ n+ ",
"W{ Z% sM c8 tM uM vM wM T$ !y xM N$ 6/ yM zM By AM BM CM DM EM FM D& GM HM IM JM KM LM MM fo NM OM PM QM RM P6 SM Fw TM UM ~_ VM WM XM i3 %L i> -{ YM ZM `M  N [0 .N +N @N #N yz  I $N %N  x &N *N py =N 6@ -N ;N >N ,N .( rC 'N sF )N  4 1! !N ~N hh {N -} ]N ^N `: /N (N _N 5o :N z4 <N 8I OK r- [N 54 }N !' |N 1N DB 2N +@ =J <B 5D 3N /v T4 4N !B 5N _x R: ME 6N d@ 7N 8N yM 9N :@ 0N N# l) ",
"aN <' a@ bN P; ]z P3 cN ;5 dN xE eN fN gN hN iN W] jN [x Xf kN lN 02 mN +g nN oN pN qN pG rN K5 sN tN uN vN wN xN gg yN zN }r G> AN BN >i 2a CN DN EN FN Td GN HN IN JN KN LN @m B8 MN NN 6i ON PN QN RN j) SN TN UN VN WN XN YN .w WB ZN `N (j mp  O E^ %q .O E; +O po @O #O  O M; cg $O r= %O D< &O *O =O -O ;O H_ >O O* ,O K0 %& s- [A q( ^y F] 'A 'O ]z )O !O ^A ~O <z {O ]O >$ L  !% Wp n+ ",
"c= ^O /O (O c8 _O :O 'w Pn pE <O &w  d [O f1 }O E% |O 1O 2O j' 3O 4O 5O 6O 7O 8O 9O 0O aO bO cO dO uN eO fO gO vf hO iO jO kO lO mO Aw nO oO pO A8 qO {~ rO sO tO uO Y6 E( vO NB wO xO yO zO yO AO BO CO DO gn EO FO GO HO AL IO lI JO (h mq 0m KO (N LO MO :# if Ma 2~ NO PE j' k: G; dG OO PO QO Et tL RO +; SO A2 Yo o% TO FF =r UO 16 Cl ^y VO ]2 6* F$ EF WO >6 {& >6 i@ XO T~ W~ YO g( Z; ",
"OE ZO ^} `O  P .P +P @P #P i3 $P %P &P *P =P -P ;P >P ,P  i vs 'P w9 )P !P OB ge ~P xr {P ]P := ^P /P V+ (P _P :P <P [P }P |P Gh 10 1P 2P 3P 4P 5P 6P 7P 8P 9P 0P aP bP cP dP eP fP gP -F hP iP jP kP PN lP mP nP  # 4y -u $i {= oP pP qP rP nG rG  B 6- ~6 sP _f /s 'r =J n% tP (, uP X# JC vP Lp wP xP %L yP ^H /, J. i% zP ^z AP BP CP 7N DP bI EP _/ ME UO ]w FP GP v  HP IP JP g* /% KP LP ",
"MP Jn NP OP 7N EP d@ PP }I _c QP RP SP TP c= UP VP WP XP YP Ug ZP `P  Q .Q .g >9 +Q RF @Q #Q $Q q] %Q &Q *Q DH P) 8m (H =Q -Q ;Q R} Js >Q ,Q 'Q )Q !Q ~Q {Q ]Q ^Q /Q (Q ,E _Q :Q Rv <Q ls 5a Hd [Q }Q |Q 1Q Bz 2Q 3Q 2F 4Q p! 5Q 6Q kn ]P 7Q 8Q 9Q 0Q aQ O[ %s bQ D% cQ a= dQ eQ )K 8: 3z H- fQ 8a gQ hQ iQ jQ _# Z/ -r <@ kQ l_ lQ mQ nQ oQ Q3 6* VO ^A _/ pQ ns qQ rQ ;% ^& sQ wm CL .c No tQ ",
"uQ [y i@ vQ F$ wQ xQ @P -) yQ 9f zQ !x AQ d: BQ CQ DQ EQ FQ w' w, GQ Bs HQ IQ JQ KQ LQ MQ NQ Ac OQ w: PQ /, QQ RQ gL SQ TQ UQ VQ Ha WQ XQ YQ ZQ `Q  R `D .R +R @R #R $R %R &R @9 *R =R -R ;R >R ,R #E 'R )R !R ~R 8m Ie {R ]R ^R 3N =@ qE /R (R ]5 _R i% e_ _N :R Yo A; <R P[ (, [R Zq J. }R ;u zl |R 1R P3 '. N$ 2R 3R 4R Q3 a* 5R 6R 7R 8R !O 0+ 9R O( JL 6N 0R aR -% gi s_ bR Up V  cR cR b& ",
"R@ dR eR fR gR S@ 0' ^^ ${ I  hR iR jR x+ +% #q yK kR r2 lR :K mR nR x= oR 5= pR qR rR p@ %  2% sR hq q: NK tR ~t *u uR vR zN wR 2% >$ H  w& L: xR sc )K yR i& zR >6 AR x) AF BR 8q CR DR ER K  FR GR [@ HR IR cE JR 4+ iB KR i1 -l LR k) MR B% A+ n8 uG Z* NR OR F. i  PR EC QR JC RR ki SR TR UR Vg VR s* WR -l ;d -@ I@ T{ XR T0 YR @@    $[ p@ 9. ZR #$ `R q+ Y, z*  S .S    f. [} +S F+ @S ",
"#S $% vm %] $S %S &S *S -r =S -S ;S ={ ZP >S ,J ,S TO x] 'S [> Rj )S v] <> !S E& RI ~S KD {S :L ]S t^ ][ ^S /S oc (S _S :S <S [S }S T% |S HJ #1 1S %D 2S 3S -r 4S 5S 6S #l 'P 7S 8S 9S 0S `< aS bS L# cS dS eS fS gS 7l hS iS 2R jS 'Q kS lS mS Dk nS oS pS qS rS sS tS uS vS wS xS _C yS 0} zS J~ AS BS CS DS 34 ES NK &O FS GS HS 9$ IS JS .u KS {_ LS MS jk R  NS e# OS gj GC u2 j= `b PS C= ",
"B% tm n8 .{ v_ 0( r@ QS !s RS R: SS !> 16 TS m< X< 9f US VS #P WS l} XS YS <G ZS `S  T .T %J l6 +T @T #T $T %T &T H2 *T =T -T ;T >T ,T 'T )T +3 !T ~T {T ]T ^T /T (T 0y _T B3 nN :T <T [T }T |T 1T 2T 3T Il 4T 5T 6T 7T S6 >< 8T 9T P> 0T aT bT cT dT eT h6 fT gT hT iT jT s, kT lT  j mT ^n nT oT B3 pT qT rT VE sT tT uT /v vT wT U0 xT n| :> }h @[ ^z 17 yT ~B zT <A AT D# SQ E@ ql BT g  CT ",
":} DT ET So Xp :/ }' ^% VO RD FT [f 8R GT l( Cl J} JB 7; HT 5A IT nh JT KT LT MT NT OT PT QT P8 RT 89 <2 Lp j; R/ ST TT Oc UT XM VT WT {{ XT bv po YT {R 'N i' g) ZT >] `T  U .U =A P~ +U @U #U $U %U &U *U =U -U ;U r> >U >7 ,U 'U %L w' )U zE !U j+ Nm ~U Rf {U Iz ]U ^U /U (U _U bv :U <U ): pr [U nh }U |U h7 1U O, 2U u; 3U P4 5' VC h1 mQ 'w ,= O( <z d+ <- #5 5. &+ _+ 4U Bm 5U sc n+ d. ",
"o+ 6U u^ 7U =$ 8U V~ r_ LP =d u@ ej z# P4 9U 0U J{ ~x C_ aU bU cU bG ff dU eU fU gU hU iU jU kU lU mU nU oU pU y)  + AM qU 'C rU n2 sU 5n tU uU vU wU I[ xU yU |+ zU zl AU mg BU CU DU EU fo FU GU >j HU IU JU KU LU MU NU Z: OU Bt PU _k QU s| RU SU BQ TU Ky UU VU !r W^ 'e WU XU =q B3 YU c] ZU N= `U 4$ UL tF  V .V z4 +V ,e ,2 t= OK @V #V $V %V R~ ]. &V #% k) <& 8' *V A+ =V eK j* qa So ",
"&$ [. f) j* `# ^& ^e O3 NE rM N# -V ;V 2& >V c$ M,  Q  K B> EM ,V 'V )V -x !V ~V J> {V ]V Gk ^V /V (V p& _V 3n :V <V U< +w hD [V eG }V |V !2 7/ 1V 2V X: 3V ta F@ 4V 5V 6V WS 53 LT 7V 8V 9V 0V aV bV ui .4 cV dV eV fV gV  ( hV ^t Xf h' iV L, jV |E p! Ay kV lV mV nV Ht 0U oV pV 9< qV !# nV ,; rV sV mV tF l~ <* ~y J$ -) tV uV b. 8: !' k+ P4 a+ *% @[ 8@ vV l) z  wV f)  $ 5f xV _A yV p+ ",
"zV AV BV CV )% %, ic DV [J A9 EV i+ BP FV ]5 GV HV IV JV KV Qf Dt LV MV NV OV lC PV QV RV *1 SV 1P TV pk UV 4x %I VV WV XV YV *I :V H) s( D; ZV eF `V  W .W +W j= @W #W $W %W &W *W =W -W ;W >W (p o4 ,W 'W `N )W !W Rn  Q ~W 2h _V j' {W ,r /R ]W W  ^W /W Mm J> kn (W _W Ht 7m JV RA A0 |V 3V S' B> mq X4 :W ]5 <W hM PP [W ms }W |W 1W =S tM vQ ,* f* CG 2W 3W V; hj 7& 4W 5W 0K 6W 7@ d& [. ",
"7W 8W 9W 0W *% aW M- bW #@ cW j= K3 _w k  8* dW i3 dW US eW fW 53 GI +B t8 +P gW hW iW &d jW kW (v 9o lW mW 3y lI nW oW af o- pW Go @u Z: GM qW rW 2} ~# sW tW w% uW qV !- vW wW TL SB xW {5 zi yW b; zW AW BW CW DW EW ^| ^d FW `p <R GW QE HW E> 7g )u IW JW KW LW e2 sF u5 MW NW OW }| PW gp QW G_ VE 5n RW 2* SW ]d TW UW ME VW }z um WW /x xQ ns +[ XW >% *% YW a7 m* 0W k) ZW 6& n8 M@ [O ",
"g& j& (% `W sM  X U{ }z Kw |+ 1f Ya ,6 N$ !J D; .X >w 3h vg +X 2e @X s; #X )V $X f2 ZK %X %I jV &X >= ni if ms *X =X -X ;X >X VE `o (* :f ,X Jz 'X D^ )X !X `} )C sy wx  4 C2 ~X {X ]X RL RA ^X /X (X _X :X <X [X }X |X P> 2h )e B; w} Id 1X 2X jF |% 3X ]H 4X 5X sj ~6 6X 7X !U  W 8X 9X sT ML A& 0X hM aX )V KL oH mI -5 m# R3 bX u^ cX dX VJ =, z9 S~ a@ l8 eX IL W{ J- k) 8& h) <y [. 5' i& ",
"fX gX hX iX jX `R kX lX {$ mX a' nX oX 4' pX ', qX J. k0 rX {3 sX tX uX vX wX xX yX zX AX BX CX DX j& w+ EX 8g @+ ]O x= XO `R FX GX HX :^ NJ ]_ IX YN JX KX LX MX NX OR `@ K  OX PX QX PS RX rK SX TX UX >s VX Z$ !e :G WX XX YX ZX {+ ZR `X @+  Y .Y +Y A( @Y #Y 87 6% ), t= QC :A $Y JC ZR q+ %Y RK k& 1. D  &Y *Y r{ GF =Y -Y o) ;Y >Y ,Y Q0 'Y |. )Y !Y ~Y {Y |. ]Y ^Y ^Y /Y jX (Y FX $  4= ",
"+r hk jj _Y :Y Mo ^; >v <Y d% [Y ML '$ dp }Y iW |Y 1Y Y+ 2Y 3Y [V fq 4Y 5Y 6Y 7Y 8Y 9Y 0Y aY bY cY dY eY fY l6 gY hY F) iY ;1 jY kY lY 9r mY 9L nY oY pY o[ qY rY sY ac tY uY cs |K vY wY xY w[ B7 yY zY AY JS BY rl CY DY M* EY yC AC #: FY GY D[ HY wS IY (h Pu JY KY .Y LY MY NY OY Ej PY &{ FC h1 QY )' Dm 6- RY SY AL k| =Y ]t (H TY UY qX VY KK T  b. Wo WY S  wm tm sH XY '^ .. `v T- Q- ",
"d( $. cR &+ I= D+ YY *{ ZY `Y O.  Z x$ .Z %@ T[ e4 oN c] YA +Z @Z #Z _) Dv z7 $Z jS lB Ve !> %Z &Z *Z /- nI =Z MF -Z Et ;Z >Z ,Z 'Z )Z !Z xB ~Z {Z ]Z ^Z /Z (Z _Z :Z NF <Z [Z }Z |Z uS 1Z 2Z 3Z Ng ]X |$ *] 4Z V1 5Z 6Z 7Z HU o6 8Z 9Z 0Z *Q aZ bZ cZ :) dZ z> :G jG eZ l} fZ k~ R+ aR <& Up r! o5 -2  D _i 5t W  gZ Cm AX hZ iZ 5} eB @q ;O *] %t ~e jZ kZ |@ MS lZ T  Z* J- &$ t+ h1  c mZ 6. ",
"9' 6W nZ 0. Q  oZ j= Vo pZ 4- <@ qZ Vo rZ sZ tZ uZ K< (- vZ E^ wZ &d A: xZ w, %C yZ ~# zZ AZ BZ CZ =I t$ DZ PU B; )_ @u EZ U& FZ GZ HZ kq IZ Iw JZ KZ SB Vv ~j LZ }X MZ  U NZ YL cU MZ OZ As LW 0# YB PZ QZ RZ zM SZ $W TZ UZ VZ co >V :J Jk WZ F; cj zG XZ UW ]) @' tF q8 YZ :J 8* ;= ZZ 6% !' ~S |+ ^4 ,B 'y `Z UW 2/ aQ D$ S& S; |7  ` #+ }= [@ .` &% l8 _+ +` Z$ 8. @` 6% Wa #` $`  . R  6. ",
"DT 7& j* 8& M# a.  C .r Ln AZ  r /A %` ]t RC &` *` ^) .O Vm @q h' x) l1 GS ;7 =` E= -` ;` ;` >` ,` 4C '` ND )` !` ~` o; {` ]` vX ^` /` l; _a cg (` sU C2 _` :` <` D: Ew [` *B [( }` |` .o OY L= A& Cz 1` 2` j_ .Y 3` {) 4` ]5 5` 6` 7` 8` 9` LT X: 0` G& a` rG &c b` c` d` 36 e` 8; J. JO f` p@ t  7L mp V3 pi &c %> }J B! g` T; y> %] lZ m@ b. u) ;$ [z 8. &+ h` _A 6f 1/ J- FX |% i` j` u= $% ",
"n8 N: 6+ rH j@ ;^ D# K3 ~@ g) k` *] _^ ql hS lN ;A <w l` w. s( 2^ m` 5G cM n` o` =P AZ IR p` q` r` s` b: t` YV u` v` w` &{ ht x` ja YT  i 3e y` z` A` B` ;' $O j; 5F z^ Fw C` D` E` F` P< G` a$ H` I` ^N J` [^ K` L` z4 M` Q, N` O` dG V3 K9 F` P` OL wr S, Q` .g j( R` cj S` T` U` t< V` a( W` X` !{ Y` AE Q3 wF 7N w_ st Z` `` JP   .. .l  !$ &] >$ + .0. o* @ .f) :A 8. *P #C # .LC R  U- w= ",
"$ .rH W{ LP <' NE D# % .& .cF gZ * .=- kd .; [w = .Q> d7 (f - .SO ; .> .2= CY , .' .) .'` ! .~ .{ .] .vk in ^ ./ .>C ( ._ .: .< .[ .} .| .k. ^) 1 .2 .3 .4 .{! NW 5 .RE oF H; 6 .po sL DZ 7 ._: )K 8 .oM o@ 9 .0 .a .!x b .I9 c .SP r; d .dW HV /v e .f .g .h .HW i .Q, j .k .)z l .R! t$ ,Y H! m .!C n .N$ o .p .q .V@ r .[& s .t .u .v .w .b^ 1' dC t= b1 2+ x .@` #  D  #  y .z .A .V; [. B= ",
"B .$ .N: 7@ [= g( Vo 8G C .WC D .|= U0 [z &] w: E .-w |z a` 4R F .G .H .9$ 5- I .J .K .L .M .|n K[ M[ N .O .P .O* Q .R^ R .S .p& T .U .V .W .X ./  ^) Y .Z .FM fV ` .Ix IV Jz a= W^ KG Z}  ..2H ...1x +..}R hN @..hH  Q #..sE #P $..&c %..&..*..=..-..;..6| f@ >..I> ,..'..)..!..~& CP A! 9N ~s  | ~..{..]..^../..FF W  ^= Gn #@ <= OS g] (..AT U@ '^ 6+ 8& F- [z C  :e c1 U4 3. _..FC 6. :..g  ",
"Y~ j* d* i  <..No )^ ,Y e' [..l' F@ }..q: 7  _, ]A Ma CP <z W4 sP |..1..2..3..SR NK O! `> T3 1x 4..5..Nn 1^ 6..3: 7..Cv o< 8..9..0..a..b..ts n( c..K9 ^- d..s( e..f..g..*> !2 &d sT h..in 8f r1 &5 v% Nn r{ nv b* i..j..k..l..m..m[ sE +Z y_ t8 f~ n..o..p..O$ U$ q..r..s..m  L$ t..}' l@ d: v2 -] u..w} v..o% '6 j# A- OS w..O3 x..Ln 7% y..8= T- $. 6. @{ p@ I# C9 c1 6. 5. X{ @@ wm wV z..6' ",
".$ GX A..]O #C B..C..ZR D..%$ E..F..=u ,Y Z. G..M3 H..lX *Y 6. v* I..1. J..s+ T0 v2 <% K..%+ -2 #u H- L..c' q: fR M..q& SI N..O..V` Gn qX P..i& #@ Q..Rq n& @P Ma 2} !X N: R..S..q+ T..U..V..fR W..$> T$ Y, O7 xt 3x sR ^. 6N X..%r Y..U9 ^A sM rM t* +r Z..4g `..TP n*  +.S* .+.++.@+.#+.$+.%+.&+.*+.=+.Zo -+.hj ;+.,s P@ h& eK $$ F= D  m@ i  $$ s) Up wV q+ (% tm >+.3+ r) ,+.'+.&  )+.sK N@ ",
"!+.N  sH t+ hk .b e# ~+.LS jj w  {+.AX ,Y ]+.^* iq ^+.Nx Rb /+.eq <_ 2H (+.T^ _+.:+.-y JX <+.[+.}+.k0 |+.1+.}F 2+.3+.d3 MY 4+.5+.6+.rt st p< #K m> QD 7+.Vg (H 8+.c' m! 9+.0+.iE a+.b+.c+.d+.e+.f+.$T g+.AY h+.nC -k i+.j+.k+.l+.xT Y9 ft Ny m+.n+.kW  u o+.p+.q+.r+.s+.t+.~# GS JX u+.>= v+./G AZ &S w+.0. p@ /t MS x+.Up y+.# .z+.A+.2% JC #$ r+ v+ B+.SU C+.D+.-  M- E+.qR PS F+.:% w+ C= G+.",
"B= +S Qo U@ H+.I+.O3 J+.$u >O K+.L+.<> Z/ M+.5F ob N+.O+.P+.Q+.^^ R+.S+.T+.U+.=y V+.W+.X+.Vg Y+.cp Z+.`+. @..@.F! +@.kX @@.#@.ME MO $@.%@.&@.*@.=@.AY 0g -@./..^B H& ;@.ES Y. >@.,@.), pR C= '@.)@.!@.~@.kW {@.]@.^@./@.(@.QZ lc p' :+._@.:@.ra [F <@.ni ` .4e [@.L+.}@.H) ^+ Zq l8 MS R; |@.1@.#[ 5G Z` %X RR 2@.w+ 3' <+ #{ 3@.^@ ji 4@.5@.WC 6@.7@.8@..S 9@.XY 0@.a@.b@.c@.S@ t= [% J- d@.{Y ",
"9' 5. 6m rM e@.6m (% z+ Ya P# #@ R! -V f@.>B  w ^z %d ;w g@.mf h@.i@.rf j@.g4 k@.l@.m@.7G DB Vm 5} P[ .' n@.o@.gr KT p@.u> q@.r@.s@.a` t@.=c pC Z/ u@.T .v@.w@.x@.y@.D6 :P w[ c: 6- :R z@.A@.(I O. d% B@.C@.Pn iZ mj D@.c# E@.>v 4G iq F@.R* v- !I ', u .G@.H@.I@.ia 0Q J@.[f Mu K@.Ma E9 L@.X% ~z M@.N@.kA q_ rM n8 N. ~O O@.l8 P@.JC UY Fn -$ 9h QS 2W Q@.*V _. R@.S@.T@.tm  5 b| B ._% T{ yM ",
"kZ 4J 0. So U@.q= YW G  V@.}' +5 W@.h' }h X@.K0 Y@.>) _` Z@.J5 `@.o7 lh  #.1~ L! .#.SN .O M .+#.@#.##.nI -w !d $#.%#.&#.XC }G N^ *#.~N ^P =#.-#.^..ei v@.;#.Ge 2N >#.&v ,#.H] '#.)#.R* !#.~#.v..{#.Gt C .zl ]#.Z` +b R! ^#.D@./#.YV YN I[ SS j1 (#.#$ _#.3F :#.E> ') [f 6R 9f <#.X- [#.0X @c }#.|#.JE JL -V k8 @% #% Rq YW  > TP Y~ 1#.c. /_ D  2#.$. 0W [. @> $ .@{ 3#.i& $ .Y~ 4#.BV 5#.6#.y= ",
"U4 g  6+ xR LP O- 7#.8#.WY B9 d. LD Pn 9* j% U3 XJ M; z^ Oz /  @) {X 9#.0#./  A..@v a#.;6 b#.|n t4 Q% 2y Tn :I c#.d#.$J e#.f#.g#.h#.R> i#.j#.vF k#.*I ^, SQ l#.{#.&] P^ r- m#.n#.Q! o#.E= p#.f$ :R YN =J ]e K+.Z. q#.U* )' q#.r#.8H ~U A< s#.ep D@ }R t#.u#.v#.w#.%| !y x#.|| y#.<O Yo wF [6 z#.)e A#.B#.t@ ^. ~O C#.D#.So E#.F#.2' M: MS Fn e* s= Y; (% 4W j* d( _z >+.N: G#.4#..{ H#.g& X{ yM ",
"5' n+ P@.I#.h) J#.2' 0K r_ `t K#.2g 0R L#.M#.5/ N#.O#.j .P#.Q#.S' aP R#.S#.9T b| T#.}= jM H_ U#.V#.W#.K[ X#.w} B; :n %L ht  < Y#.A> Z#.S' `#.(f |   $..| .$.[x +$.q) @$.TC ^C z@.#$.z& G[ -` Nn h{ _^ $$.9% T .=- AX %$.&$.y- @#.*$.=$.>= -$.{= <= ;$.>$.'u YQ /( U3 ,$.P$ '$.)$.!$.;e <@ ~$.1$ :* {$.d@ ]$.~$.NE Y$ $. D9 *% @5  { D9 %  }= ^$.Z; /$.6' QZ n8 i* ($.q= yM _$.:$.v* v2 #C g& P@ ",
"F- 7U M: <$.[$.r* S@ =V +5 >^ >. }$.!I +q |$.7R 1$.2$.3$.4$.+Z GM qF `] 5$.eo 6$.7$.8$.(W 9$.0$.a$.b$.fp c$.,J d$.FD Cz :G =O e$.!= !6 q{ kn n- hN f$.g$.h$.Z. f$ T0 i$.j$.w$ k$.jq '6 l$.m$.n$.o$.p$.{_ NK -u q$.r$.7  1..(H s$. q Ps g- %$.t$.H+.%% u$.=* Om iZ X- iZ l$.]v f7 s~ )) bX 5N v$.m# w$.x$.'A ;@ ~B y$.c& Rq 'd n8 F- _A z$.*l c. Am #% /% 1+ A$.=$ c= T@.B$.8W C$.Y, D$.E$.F$.9' ",
"m) yV J#.h* So C9 6& :/ /+ X* |' /$ dI bK 4R ,O !y X@.G$..W Q~  ' H$.af JZ IT I$.J$.WY m .5  l#.K$.=I L$.M$.VK 2y N$.MW A: O$.0m IV :> U9 .< 0o V: vG P$.rt 0: W@.Q$.R$.S$.O; &% z0 T$.h# +b U$.TY 9: V$.W$.J. 2N lW lW X$.p` Y$.d: w .SJ Z$.,@.h# `$. %.u, !6 $' .%.+%.@%.o^ I; !& VJ ^z #%.t# >& 5N z9 P# $%.iI %%._+ Yp 8h ', $% 5' $S &%.x  0W 2W /% n+ h* a7 8& S- *%.6% u= <& #C 8I zV 8W ",
"~Y =%.-%.;%.B+.>%.@  ,%.B* '%.)%.!%.FX lX ~%.{%.]%.^Y {%.]%.{Y ^%./%.(%..S _%.:%.>#.<%.[%.L. }%.'# |%.1%.*{ &. Q/ B# 2%.e+ uP +@ 3%.', 4%.5%.6%.7%. ] QD y .U- 8%.9%.0%.>X a%... VC A! /n b%.T  ]C q< [& c%.l' d$ d%.e%.}y Kn K..(6 D! X0 %  #r f%.ek u+.{k L[ ;V `Z W% g%.h%.i%.q9 -K 0+ R4 7N O( P# ^w ji b1 #. K..k& z= eC @> K- 3. JP GL XY fX j%.k%.C= l%.m%.Y{ n%..$ o%.H! :% t+ 7%.p%.q%.",
"r%.,, T- s%.#{ `a S* t= |@ M! Mo t%.u%.x3 #r v%.l  kd 5g kj UK w%.|= ^@ KK x%.y%.wj 9, UD _@ C= #$    *$ z%.A%.u2 d@.@@ w+ B%.C%.D%.Y+ 3X =C E%.F%.G%.H%.I%.;l 2} J%.V5 K%.L%.M%.__ l; N%.O%.P%.q& Q%.R%.S%.>%.UK -$.$X lj 9$.T%.8, x] |, U%.V%.* .G+ Bx /#.W%.-$ WY %[ HK 8g V; x+ X%.K! .. eC A* w+ }y Y%.Z%.Qo 3= G= 0. H. QD a; bC OK K- *v hk .+ C! dC KR `%. &.@  .&.uK g| +&.@&.'+.ZR mX ",
"b| v+ E! TP U4 #&.$&.[= %&.Z$ F# U0 &&.K- ,, *&.F* 1& =&.-&.*% V! 7p <z ;&.q5 #I >&.Aw $n ,&.'&.)&.!&.~&.P) {&.]&.6a FW GL  1 ^&.E% /&.Qc (&. = 9, )+._&.:&.<&.[&.`P wH }&.)[ |&.1&.2&.3&.4&.5&.bJ 6&.>* &S 7&.T .;1 8&.rZ Z! ws 9&.eQ W] 0&.t+ *+.a&.G* b&.c&.d&.e&.f&.t; R! => ,` g&.h&.Ea i&.kB j&.k&.Fn `..l&.m&.n&.o&.M- pK hj LC p&.~s q&.3+ 8= r&.XR s&.$$ R- t&.u&.v&.`v ZR {$ {+ k& w&.",
"x&.#C y&.$$ z&.A&.B&.uQ J- i` _6 n+ g& C&.D&.e: E&.F&.`> !& G&.fM 2U H&.I&.J&.uI }X `w qF <I K&.XM vF PL ZU V#.L&.M&. ..kk DL YP N&.$O O&.*w P&.Q&.R&.S&.sG ,B t~ A: T&.U&.V&.W&.Pn z& o$.X&.Y@ Y&.Z&.}z `&.5= U   *..*.+*.5/ oG M, ^U @*.#*.Ok $*.f@.;A %*.&*.**.]J ia ,J j .yQ %( =*.n .]. &&.qX  ( ^# -*.97 U0 0- `a 5@ 9. L: 8.  > p  ;*.@  w= *Y m& m8 3= .> 4g r+ |% $$ `{ a' 6. LR }R r* ",
">*.`R y* _% B ._$.V..,*.'*. 5 )*.Up j@ =  @  !*.~*.17 {*.FF 16 ]*.m} |) TS fM -w qF c .^*.^*.B> /*.`o y, 6E )u hZ D< Wg K- (*.a#._*.:*.a6 <*.U&.'5 |! Vb [*.%> >r aQ A#.Jk 1$.(, %C w& ,. v< J$.vk }*.w& w* Y&.|*.1*.q( 2*.3*.%( Gl 5O 4*.!6 5*.F` 'r *> 6*.7*.Gl :g 8*.yG fH I: VJ |7 9*.0*.xl _K a*.b*.c*.j` r2 d*.[z 1+ D  R  b1 K- 1+ `v e*.#  Up +&.f*.g*.7f T- h*.B* C= i*.', =&.+$ P@ F$.",
"DX j*.@&.`..P@ k*.l*.m*.n*.o*.p*..= u_ ]O z$.U  h( s~ q*.9* Vo r*.>A ~N yG 5J s*.]v -) t*.u*.v*.di /e N~ h3 ^l w*.Ej > .x*.y*.z*.A*.B*.C*.D*.hH E*.F*.S&. J &C &t G*.H*.M#.r% a` 5D  b I*.{, 1R ;J {e !_ J*.'  K*.6= L*.M*.M; ;r N*.^_ O*.'U 0U 0h =% *] -A ,& (R lH +V P*.}7 sW {. O@.A#.Q*.)%.R*.OS h. %, @. S*.t= 8= %. d. K  r* m* t= S@ ,, l| t= ', 5% j%.h*.S@ e& TJ r) T*.   4. g& C$.E! ",
"x= YR y= f| P+.=&.U*.LP V*.:/ h) V@._+    W*.X*.M0 /y Y*.L*.9U 8* KF Z*.X- {J q..A> `*. =.$' $d cg *B .=.HY dQ +=.M~ g= @=.1, #=.'V !r !- _g $=.%=.Mu *& j1 &=.*=.J$.&{ ==.7# i7 3x s( -=.;=.>=.Ln T  _& ,=.K$ '=.v< X#.}#.ei 'r v4 A@ Ps ys S&.^z T, -5 ~> X< R$ SW )=.s~ YZ /& /z !=.~$.[*.e& ~=.rl {=.ki ]=.^=.M- /=.C! h1 >s B= 3+ S- 6. h*.y+.s) rR (=.%  U- _=.-  T- WR y* t& :=.<=.[=.y* ",
"h& C$.Z{ @&.}R C9 cR v_ *V 7= a7 <' ^w r+ Q..&u NE <z ~A q .^@.}=.^/ {y #d Jk 6/ Q4 |=.*@ yG !J >A q8 Vb i= 1=.o^ ~6 16 2=.CK cX eh 3=.4=.I| 5=.6=.7=.m..^/ 4..;S 8=.GR L; 9% 9=.^N 0=.FD J .W- D] Mo o#.r* a=.IJ zC b=.+q c=. r W- x< d=.tk #%.V$ ~B e=.YZ :g f=. P 0U [*.A# g=.h=.g=./& s  i=.a%.@+ K. &+ 8%._..Qo M- Yb $> bW `X LR J- I# C..e& dC h*.j=.k=.l=. &.@> j%.h*.~Y S@ r%.tm $$ m=.",
"@&.E* IP :$.D9 ZW 7& n=.(e 7U #5 6' R- 0@.%u H# 'd Q; }7 ]  7N ;@ <@  P r*.o=.1$.Q4 6R p=.{x q=.r=.-w s=.t=.,! u=.|=.v=.PS w=.x=.y=.z=.A=.m  =) B=.C=.D=.|f R! )  g' S& J* E=.@c Tb G..`/ R*.y! _, F=.;#.;u KX G=.ea dj H=.M= ^/ I=.=S D^ NO q9 y$._w J=.K=.L=.{& @[ M=.0R 6N P4 `Y G$.N=.P3 FX CK =u s= 1@ V%.I+.X  77 =$ [} 2+ (% T- .$ O=.P=.T- dC ), #] HK Q=.R=.S=.x+.X{ T=.U=.V=.$$ P+.XR ",
"oX W=.X=.Y=.dR k%.{+ Z=.`=.8} o&.R+. -.E+.J- .-.+-.>d j= Bl @-.*K st  ; aR dj >6 Tb q= o+ F= o8 E&.y) $' :6 #-.'* !$ $-.%-.&-.H. BP *-.=-.#d --.;-.8' }@ k  [*._+ >-.c' U{ ,-.3& D@.zq $$.UY .` *[ %+.U@ +  )#.'-.)v )-.u&.a' !-.pZ p#.~-.=+.7g ql ~w {-.U{ </ ]-.Am 9h 2W  $ ^-.M# /-.qH (-.FX _-.:-.<-.b1 +r }' [-.}-.t= ^w h) .{ 5' M3 :% dC    ), $&.zV |-.[% @$ 4g 1-.t&.v+ 8g g*.~Y 2-.3-.",
"O@ 4-.5-.l& eC _=.2% `v a  6-.7-.KK $> <+ 8-./n 9-.X/ 0-.a-.&u b-.y@.@+ gj FK c-.d-.e-.y..kQ ba f-.~+.0- |= T#.g-.W' h-.i-.^@ y! j-.A$ fq ]t k-.l-.m-.n-.A..XY j%.q+ o-.g*.B* s) p-.8% >=.q-.fU r-.JP s-.-s L{ t-.u-.v-.j-.,_ >K fC }&.GR w-.x-.y-.>K p#.z-.A-.jj B-.{+.C-.9$.Z/ D-.97 d@. c AT E-.]C +> R0 F-.m! @@ HL d@.K..v= %  l=.G-.oX eC Z%.C..C= a  H-.R  u* O@ $  I-.K- w+ K..I! J-.W` ",
".$ K-.E! M@ :e T@ 97 L-.8I 9N V  n& fU M-.TR N-.T& O-.(^ J$.m1 n+.P-.3X Q-.^^ f1 xF R-.S-.n@ ib ^2 T-.7  U-.PD ^d OJ V-.x] W-.X-.lc Y-.qk wl @. I+.Z-.;v rZ `-.DJ  ;..;.CC +;.@;.mK ch %] yt #;.>> aR y..$;.79 5@ %;.&;.*;.5. =;.-;.;;.>;.L  ,;.AX ';.);.!;.~;.X+ zt wm c  kd X@ C- {;.#. 8+.];.^;.l&.H. B* /;.(;.!v hX ki g. D-._;.X{ xm :;.<;.V  [;.A  2+ };.#. F+ i& }y `R R@ ,, _..b| [% 8g ",
"|;.`R |. b| b| ', :% J- 6m j+ ym (} p  &+ )d B! T  Uo |+ D+ 1;.2;.K#.B  bW .+ 3;.'$ 4;.f$ Tb Z` b* L@.4h O! NO f$ %^ |z =* |@.]e U% /* N! 5;..b 7&.6;.g) SJ B$ O! 7;.x< >I v9 g%.8;.9U ,-.R: 9;.0;.RE ^s a;.Y% o .CP b;.R3 0% -] w& c;.On w& H+.$> d;.ba e;.EP f;.t@ }z i+ A! y..Yp 3z g;.]& h;.k= }+ L: e* i;.j;.Bm k;.d* l;.;^ u^ j* x+ 7' w+ </ 9| e@.^} NC </ m;.6f :. n;.$$ o;.3' 5' bR k%.",
"IP @&.y* j& N: }-.p;.(% [. ^w 6W *+ q;.Uo Y$ >s 1@ p  r;.Q- F+ AQ G# Qo V- `t #> s;.-` a.  = G+ t;.i| TD n| XX Gn Fm h# MD |J PC Y/ H+.QD u;.v;.H. 3& J .e;.e  @+ w;.x;.RC /..0% qC y;._f Wb !w [# e+ tt 0g pZ lZ c(  % z;.x3 I= A;.*- JP B;.C;.w%.${ D;.z! E;.B! ck &% A- F;.m@ A9 *v W@ j+ i  8. G;.8U *V m8 H;.>^ E#.2W 1' 1' tm (' I;.M! m* X$ =+ J;.E#.h` 6W }-.A&.v* v2 o;.f( &  c@.K;.L;.",
"x= `{ _% g& :$.$ .M;.N;.F- j* TP N. O;.eK `v #@ j@ `; 6% }y  c j) k) Tp Uo w .%. y- !t P;.h. OS `t Q;.]C .@ OS T^ R;.S;.T;.[Y l  kd :y c%.`@ <z Mn a  kd   .U;.j  QR P0 V;.z#.Y% z0 B@ )' +@ B#.6h W;.=] o= X;.Y;.%. -$ EL Qo :y t%.fU Z;.`;. >.S  |. 1...>.+>.T; l;.@>.AT A9 #>.e%.f. )d #5 $>.C..c= >^ f) ]+ h` 0K .= _6 /. %, s= {+ +{ vm J- ;t @` yV %>.i  5@ 6m 2#.&>.y= V=.L;.*>.=>.#C f| ",
"xl `R 5' z  v2 r+ ->.:. WR Y~ _A 1+ m* c| J- C9 u^ rH ^w To r{ _+ #% |y V  Gn U@ ;>.>>.G# ,t AT AT =t z;.b# ,>.cX =- #. '>.%` )>.!>.I= d| ~>.~v E+ D= !-.U  {>.]>.c% ^>.-$.B$ _@ />.[6 NJ (>._>.&C %t :>.~>.<>.5e [>.%` Sp }>.$[ G. &+ |>.)>.w%.o@ X{ .J  q /$ K  W~ (e G# Tp |+ g` ~. f& !+ @> 8= C  2W '^ ;^ n+ f) 5U 7@ ;^ h* 1>.u= 2>.*$ m8 q= s= .c 4W 6' cR 3>.cR _. k%.4>.L;.x= o;.YR T{ ",
".  #$ i& <& wV B .4. 5>.P@ 6>.<y LC n8 hj *+ 8h 7>.=V cW @+ <A s .B! !% ym !+ V  y-.uR r&.MS H- +c fU D-.(;.kd 8>.(B Q..{+.*$ 9>.b^ }= C! a  Q  0>.y@.a>.b>.Q..c. =  C  ], d: c>.d>.e>.d' A-.F* AT AT ha f>.Po #+.Yb X@ c( g>.F+ h>.Yb 5e V  x+ X@ q* RJ pH ^e :& l8 E#.(A i>.[' Z$ ZO :A TP ]O l& 8h `a h* Ro >^ <' 2W Lo G;.j>.cR k>.l>.#] + .M: m*.(' cR 7& d& `; q) (' v* l*.T{ YR '%.YR i=.",
"T=.$$ ,=.m>.n>.k*.$ .9' q) i& k%.f( 1#.o>.p>._. `; n+ y+ #5 _+ .c 6@ [+ ]^ j@ 4= hR !+ zm En I+.:^ ,>.q: C! z .j# q>.~>.M- e. 3= v= a@.S@ -$ y  E+ I+.>d lk &, W  t& F@ r>.Al f' d$ >K s>.H. t>.}= [+ u>.]=.9>.]=.:..1/ v>.w>.S- 8= F= [z B9 :& -@ +S l# r= YW ^e Z% x>.tH b+ ym !-.GF AQ I$.[O v* 5@ ,^ h* *[ Z; y>.0K Z~ Y~ j>.eK }R z>.'>.4f 8W 7& p@ A>.6' AQ  5 t* zV 8W B>.0j g1 dR 8W f| ",
"C>.w* D>.C>.iX {%.E>.F>.]Y V=.x= o%.G>.1. H>.EX @=.<% >*.I>..S J>.L-.f( K>./Y tK E+ D+.L>.6% j) j) .] s* LC M>.lX jX N>.O>.+  L@ .S 1-.O@ z+.g| oX F..>*.N@ i& L;.w* z .P>.W@ 8>.#+ x..Zb 5g Q>.:^ X@ Kn  . }..`a _..>#.s* %[ R>.`a [-.<$.C! AQ V; _%.X+ b| >*.[=.XO W` Z{ h& S>.', #  X{ L-.wV .$ &+ W{ eK Wp @$ h* T>.DX U>.l*.*Y 2. XO V>.W>.X>.D>.Y>.@&.k%.n>.zV DX g& 2f F>.K>.'%..S Z>.p%.",
"T=.y* #$ =  =  PS Z{ uQ }. a@.HK a@.`>.a@. ,..,.M3 Z%.Up =u 3= +,.r;.dh +r @,.L..B  t>.~+.#,./@ $,.eC B* %,..&.v* ]O &,.=;.hR    '+.g|  -.3+ A* ${ l-. &.C= *,.r) =,.yX hk n@ hR I>.-,. ] ;,.>,.%$ ,,.y .',.|. E..BX 2>.D* dR ),.r%.A* M>.A..*Y *$ }= &] Wa JK @. u2 >$ B%.), fR K- d@.3+ =  @=.!,.Z{ @S ), e& $+ ~,.{,.u* ],.#S u* ^,. &.D  D+. -./,.(,.n%._,.v+ $  :,.t&.<,.$  RK hX [,.},.|,.",
"J>.=  >*.   4g Ea XY 5@ |+ >, .{ :..}y MC b. 7' Up (% b1 7. j) h*.Hn 1,.b1 9. a  @. u>.2,.3,._@ %{ 4,.!t V. 4- n@ _;.K$ Q  5,.6,.4,.7,.t+ d%. > f1 a  )$ m! 8,.9,.l& <+ 0,.a,.b,._-.T;.W} *$   .W} w%.c,.JK B  d,.e,.5e f,.e& g,.h,.h*.PS =  i,.j,.m& IC a  X%.I  <+ ,  V  8+ ik MS |= z .k,.l,._;.N@ G. m,.o-.$% P0 U4 gR |-.b@.ij #] Y{ 6$.n,.5% T- h*.I;.o,.m& o-.s* 7f p,.K- D* R@ >*.RK q,.",
"@=.+  g& c@.<=.#C r,.z  h) ~^  { i& u* c% N@ x= s,.`=.u&.t,.[% u,.4= v,.qR XO -  !, rR @$ y-.@5 +S +{ S=.C= :..eC !, I! OC O@ F- #[ 1@ w,.p,.n< @+.GF )^ <= q: D&.x,.h  O# w_ +, ym y> y,.X/ yl AT B9 $[ -@ ~t z,.A,.pZ Kn FL %[ 7' #{ Fn B,.E+ ${ C,.F+ 7' KC A..VC l) :e *[ Y$ v  D,.}' lK E,.g*.F,.h) 0K i* F- ~^ h) .$ $&.s* 5. T- .{ X{ 5% _% M@ {+ `..b| ), G,.y* mX W` uK H,.+{ 0@..  `{ ",
"I,.J>.J,.RK T{ }R C= *Y z  S- BV $ .dC i& 7& W` K,.L,.c% `=.2>.g| a' T0 [% M,.x*.=  N,.t&.`&.t+ dR $  M,.!,.s+ 7f O,.r%.oX P,.Q,.D..6% @{ R,.kk Kn  . A+ K#.D+ H# Q  c*.GF ea ji >d }' {e r2 x  h1 C!  . ', $$ l| S,.T,.U,.fX V,.W,.HL v= .. /=.z,.# .K..P,.c1 X,.M@ T- U4 a@ =, M# .c ym >s sH {$ JC F-  { 2+ c1 7@ J#.Y,.m* Z,.B* S@ v2 M;.JC =l c| i& -  [=.}R LC `,.%$  ] Y{ +  c% iR F>.)+."};
