/* XPM */
static char * leaking_wall4_xpm[] = {
"128 128 5912 2",
"  	c #7A6D5A",
". 	c #4E4841",
"+ 	c #49433A",
"@ 	c #706B61",
"# 	c #746D65",
"$ 	c #6D6760",
"% 	c #5F5A52",
"& 	c #56544B",
"* 	c #57564B",
"= 	c #605C55",
"- 	c #605B55",
"; 	c #585449",
"> 	c #67635B",
", 	c #646059",
"' 	c #6B665D",
") 	c #6F6961",
"! 	c #58554E",
"~ 	c #6F6C64",
"{ 	c #5A534D",
"] 	c #5D574E",
"^ 	c #5C574E",
"/ 	c #6A635F",
"( 	c #5E5954",
"_ 	c #67605B",
": 	c #67615A",
"< 	c #79726D",
"[ 	c #77726D",
"} 	c #6B645E",
"| 	c #625E57",
"1 	c #6A645D",
"2 	c #615B53",
"3 	c #666059",
"4 	c #67615D",
"5 	c #777268",
"6 	c #555146",
"7 	c #777169",
"8 	c #5A564E",
"9 	c #6B655C",
"0 	c #5C534A",
"a 	c #585046",
"b 	c #5E5A55",
"c 	c #6C695E",
"d 	c #6C6761",
"e 	c #6C6561",
"f 	c #565049",
"g 	c #6B625E",
"h 	c #554F48",
"i 	c #6D685F",
"j 	c #6A635B",
"k 	c #696560",
"l 	c #635A55",
"m 	c #747168",
"n 	c #6D695E",
"o 	c #605653",
"p 	c #534F47",
"q 	c #625C56",
"r 	c #656057",
"s 	c #6C675F",
"t 	c #615B55",
"u 	c #615954",
"v 	c #68635B",
"w 	c #766F67",
"x 	c #66615C",
"y 	c #514A44",
"z 	c #615C53",
"A 	c #706961",
"B 	c #605A53",
"C 	c #655E57",
"D 	c #6C665C",
"E 	c #6A6057",
"F 	c #211911",
"G 	c #49473D",
"H 	c #6B6961",
"I 	c #87837D",
"J 	c #726D66",
"K 	c #69635A",
"L 	c #57564E",
"M 	c #534E41",
"N 	c #5C5751",
"O 	c #746C66",
"P 	c #5F5C53",
"Q 	c #6F6A65",
"R 	c #837D77",
"S 	c #817D76",
"T 	c #6E6964",
"U 	c #787069",
"V 	c #68655D",
"W 	c #676158",
"X 	c #746E6B",
"Y 	c #6D6A62",
"Z 	c #7B746D",
"` 	c #605E57",
" .	c #68655A",
"..	c #766E6A",
"+.	c #67635C",
"@.	c #78736C",
"#.	c #807A75",
"$.	c #86807B",
"%.	c #7B6F69",
"&.	c #6C6960",
"*.	c #67605A",
"=.	c #68635C",
"-.	c #747069",
";.	c #736F67",
">.	c #75716A",
",.	c #766E69",
"'.	c #6B655E",
").	c #6F6761",
"!.	c #656059",
"~.	c #7D7770",
"{.	c #69655C",
"].	c #59534B",
"^.	c #68625B",
"/.	c #756E64",
"(.	c #5B584B",
"_.	c #7A7168",
":.	c #6A615A",
"<.	c #56544A",
"[.	c #615D54",
"}.	c #524D45",
"|.	c #5C5650",
"1.	c #625E55",
"2.	c #7D756D",
"3.	c #464139",
"4.	c #66594A",
"5.	c #5E554D",
"6.	c #453B33",
"7.	c #827A6F",
"8.	c #7F786E",
"9.	c #898277",
"0.	c #938880",
"a.	c #7F7970",
"b.	c #5F564E",
"c.	c #605851",
"d.	c #726B62",
"e.	c #595248",
"f.	c #675F59",
"g.	c #78716A",
"h.	c #6D695D",
"i.	c #847B70",
"j.	c #7C756B",
"k.	c #8D867D",
"l.	c #968E84",
"m.	c #978C82",
"n.	c #807A71",
"o.	c #706B5E",
"p.	c #8F8B7E",
"q.	c #958F87",
"r.	c #716B65",
"s.	c #7A736A",
"t.	c #877D76",
"u.	c #837C76",
"v.	c #58514A",
"w.	c #7A736B",
"x.	c #827D73",
"y.	c #6E6A60",
"z.	c #6B685E",
"A.	c #696259",
"B.	c #635B53",
"C.	c #686257",
"D.	c #6B6558",
"E.	c #5A564B",
"F.	c #585049",
"G.	c #514D45",
"H.	c #6C6861",
"I.	c #817571",
"J.	c #665E57",
"K.	c #4D4741",
"L.	c #6B655B",
"M.	c #5E584F",
"N.	c #5A554D",
"O.	c #767069",
"P.	c #5B544B",
"Q.	c #655E54",
"R.	c #837D73",
"S.	c #66635B",
"T.	c #6F6A61",
"U.	c #6B645C",
"V.	c #6A665D",
"W.	c #736F65",
"X.	c #686259",
"Y.	c #4B463E",
"Z.	c #746F67",
"`.	c #69655D",
" +	c #726A60",
".+	c #524D43",
"++	c #676257",
"@+	c #57534B",
"#+	c #7B736B",
"$+	c #6D6D64",
"%+	c #837A73",
"&+	c #7D776F",
"*+	c #706863",
"=+	c #4C453B",
"-+	c #7F7869",
";+	c #393024",
">+	c #595047",
",+	c #928980",
"'+	c #757165",
")+	c #807B77",
"!+	c #69625D",
"~+	c #747067",
"{+	c #696158",
"]+	c #6E695E",
"^+	c #726C63",
"/+	c #7C766D",
"(+	c #716A64",
"_+	c #716C61",
":+	c #424139",
"<+	c #6C6660",
"[+	c #545147",
"}+	c #8D8880",
"|+	c #5D5850",
"1+	c #5B564E",
"2+	c #5B564C",
"3+	c #78766C",
"4+	c #767067",
"5+	c #878277",
"6+	c #4F4D42",
"7+	c #706C65",
"8+	c #655F57",
"9+	c #504B3F",
"0+	c #6E665D",
"a+	c #676056",
"b+	c #706962",
"c+	c #6C675B",
"d+	c #585147",
"e+	c #5F5A4F",
"f+	c #4F4D44",
"g+	c #494137",
"h+	c #4F4741",
"i+	c #403732",
"j+	c #534843",
"k+	c #8A837A",
"l+	c #332C24",
"m+	c #2C271E",
"n+	c #6E685E",
"o+	c #81796F",
"p+	c #615A52",
"q+	c #3F3B2F",
"r+	c #37312C",
"s+	c #60584E",
"t+	c #696151",
"u+	c #72695A",
"v+	c #736A5C",
"w+	c #615648",
"x+	c #756B5D",
"y+	c #766A5F",
"z+	c #6A6156",
"A+	c #70645C",
"B+	c #837A6D",
"C+	c #6E635B",
"D+	c #6E6457",
"E+	c #756C60",
"F+	c #6C6457",
"G+	c #787164",
"H+	c #736A5D",
"I+	c #807B71",
"J+	c #AEA59E",
"K+	c #9F958F",
"L+	c #5A5649",
"M+	c #958C83",
"N+	c #898077",
"O+	c #90897E",
"P+	c #948D85",
"Q+	c #8C867D",
"R+	c #92887E",
"S+	c #786E65",
"T+	c #595044",
"U+	c #5C5245",
"V+	c #5F544A",
"W+	c #6C6156",
"X+	c #5A5343",
"Y+	c #574F44",
"Z+	c #585247",
"`+	c #686154",
" @	c #696152",
".@	c #54483A",
"+@	c #595146",
"@@	c #716959",
"#@	c #74685C",
"$@	c #82796C",
"%@	c #6E6155",
"&@	c #80766E",
"*@	c #81786C",
"=@	c #7F7569",
"-@	c #84786D",
";@	c #868075",
">@	c #797064",
",@	c #655A4F",
"'@	c #63594C",
")@	c #968B7D",
"!@	c #807266",
"~@	c #5B534C",
"{@	c #8A8075",
"]@	c #777066",
"^@	c #736B5D",
"/@	c #827B6E",
"(@	c #565349",
"_@	c #59524C",
":@	c #544C42",
"<@	c #6B665B",
"[@	c #675D51",
"}@	c #574F42",
"|@	c #888176",
"1@	c #897D74",
"2@	c #7E786D",
"3@	c #7C6E63",
"4@	c #5E5448",
"5@	c #897E71",
"6@	c #80776C",
"7@	c #8E8980",
"8@	c #787163",
"9@	c #857A6C",
"0@	c #7A6D60",
"a@	c #564C43",
"b@	c #6B6156",
"c@	c #8B8074",
"d@	c #787266",
"e@	c #8B847B",
"f@	c #9D9A91",
"g@	c #6E695D",
"h@	c #736B60",
"i@	c #7B746B",
"j@	c #60574B",
"k@	c #72665B",
"l@	c #837773",
"m@	c #6C6656",
"n@	c #574C42",
"o@	c #241E15",
"p@	c #584C44",
"q@	c #6F665F",
"r@	c #7B756B",
"s@	c #5C574D",
"t@	c #72685F",
"u@	c #7F776A",
"v@	c #61594B",
"w@	c #514B45",
"x@	c #8E8781",
"y@	c #4D4138",
"z@	c #50473B",
"A@	c #6A6257",
"B@	c #796F62",
"C@	c #746F62",
"D@	c #6E665C",
"E@	c #746E61",
"F@	c #514A3F",
"G@	c #625A4E",
"H@	c #5D5348",
"I@	c #8D857A",
"J@	c #6A6256",
"K@	c #7F766A",
"L@	c #746A5B",
"M@	c #7A7166",
"N@	c #857A70",
"O@	c #686158",
"P@	c #6D695C",
"Q@	c #7E7168",
"R@	c #90877D",
"S@	c #978D83",
"T@	c #7F7B6A",
"U@	c #5F574D",
"V@	c #6B6159",
"W@	c #887B6F",
"X@	c #665E53",
"Y@	c #766F65",
"Z@	c #786D62",
"`@	c #837D6D",
" #	c #4E443E",
".#	c #6F6354",
"+#	c #5E554A",
"@#	c #5F564C",
"##	c #615C56",
"$#	c #7E786E",
"%#	c #666258",
"&#	c #6C655F",
"*#	c #625A51",
"=#	c #615950",
"-#	c #5C554B",
";#	c #5E584D",
">#	c #5B574E",
",#	c #7A746A",
"'#	c #716C64",
")#	c #655F55",
"!#	c #756E67",
"~#	c #78746F",
"{#	c #6E6660",
"]#	c #5F584F",
"^#	c #5E5850",
"/#	c #8D877D",
"(#	c #646156",
"_#	c #5A5146",
":#	c #665B4A",
"<#	c #6E6458",
"[#	c #8E7F72",
"}#	c #847667",
"|#	c #544D3F",
"1#	c #796F64",
"2#	c #443A32",
"3#	c #70655A",
"4#	c #7C7166",
"5#	c #6C645B",
"6#	c #7A7165",
"7#	c #6C6257",
"8#	c #9F9288",
"9#	c #807469",
"0#	c #53473C",
"a#	c #8C7F73",
"b#	c #665B51",
"c#	c #5E564A",
"d#	c #726A5D",
"e#	c #7F7568",
"f#	c #9E9080",
"g#	c #6A6053",
"h#	c #67594F",
"i#	c #62564C",
"j#	c #51473C",
"k#	c #6A6058",
"l#	c #7F776B",
"m#	c #50473E",
"n#	c #666056",
"o#	c #7B756C",
"p#	c #767268",
"q#	c #857F78",
"r#	c #847B72",
"s#	c #8A837B",
"t#	c #716E66",
"u#	c #8B8480",
"v#	c #7C7B74",
"w#	c #7B726D",
"x#	c #746E67",
"y#	c #777068",
"z#	c #8C867E",
"A#	c #939288",
"B#	c #857E75",
"C#	c #5D574F",
"D#	c #8E8680",
"E#	c #8D887F",
"F#	c #85827D",
"G#	c #8A867F",
"H#	c #878178",
"I#	c #7D7972",
"J#	c #88827D",
"K#	c #807B72",
"L#	c #938B84",
"M#	c #95928A",
"N#	c #6D675F",
"O#	c #807B73",
"P#	c #918C81",
"Q#	c #727064",
"R#	c #8A8278",
"S#	c #786D66",
"T#	c #867D73",
"U#	c #635C51",
"V#	c #453F33",
"W#	c #6D635B",
"X#	c #675D54",
"Y#	c #615A51",
"Z#	c #5A554A",
"`#	c #867E72",
" $	c #8D887B",
".$	c #766F66",
"+$	c #6B645A",
"@$	c #726D64",
"#$	c #7B7469",
"$$	c #817B72",
"%$	c #665F57",
"&$	c #605C50",
"*$	c #474039",
"=$	c #726F62",
"-$	c #605A51",
";$	c #777369",
">$	c #837D78",
",$	c #857F77",
"'$	c #817C73",
")$	c #78776E",
"!$	c #7A786F",
"~$	c #6F6C63",
"{$	c #757067",
"]$	c #928D88",
"^$	c #949186",
"/$	c #796E67",
"($	c #767269",
"_$	c #736A64",
":$	c #726D68",
"<$	c #605A54",
"[$	c #7A746C",
"}$	c #8B857C",
"|$	c #695F55",
"1$	c #615647",
"2$	c #7B7571",
"3$	c #746E68",
"4$	c #7C7871",
"5$	c #7A7670",
"6$	c #737068",
"7$	c #7F7A72",
"8$	c #776E6A",
"9$	c #6C6760",
"0$	c #726B63",
"a$	c #55554D",
"b$	c #58534C",
"c$	c #5E5855",
"d$	c #57534D",
"e$	c #5C5550",
"f$	c #88807C",
"g$	c #544F49",
"h$	c #55504A",
"i$	c #65615B",
"j$	c #5F5C55",
"k$	c #5F5852",
"l$	c #544E48",
"m$	c #69645F",
"n$	c #514C46",
"o$	c #5D5952",
"p$	c #54504A",
"q$	c #66605B",
"r$	c #5D544E",
"s$	c #99938C",
"t$	c #6A655D",
"u$	c #69655F",
"v$	c #7A7470",
"w$	c #47443C",
"x$	c #57504A",
"y$	c #75716B",
"z$	c #646058",
"A$	c #726B65",
"B$	c #7F7D75",
"C$	c #807A72",
"D$	c #7A736D",
"E$	c #6E675F",
"F$	c #7E7A71",
"G$	c #888178",
"H$	c #76726C",
"I$	c #696256",
"J$	c #858079",
"K$	c #6A655C",
"L$	c #6F6A62",
"M$	c #7E7C71",
"N$	c #7A746D",
"O$	c #85827B",
"P$	c #716F68",
"Q$	c #847F78",
"R$	c #817C76",
"S$	c #7D7971",
"T$	c #858279",
"U$	c #7D786F",
"V$	c #8F8E87",
"W$	c #7F7A73",
"X$	c #7B7873",
"Y$	c #8B8582",
"Z$	c #8B867E",
"`$	c #817A72",
" %	c #736C68",
".%	c #7C7C73",
"+%	c #837F7A",
"@%	c #727068",
"#%	c #7C7570",
"$%	c #827E77",
"%%	c #726F66",
"&%	c #8A8681",
"*%	c #7A756E",
"=%	c #9A9892",
"-%	c #817F77",
";%	c #79746B",
">%	c #928F87",
",%	c #86837B",
"'%	c #86867F",
")%	c #868479",
"!%	c #7E7772",
"~%	c #67645D",
"{%	c #938E83",
"]%	c #625B54",
"^%	c #8E8881",
"/%	c #857F74",
"(%	c #97938C",
"_%	c #63574D",
":%	c #76726D",
"<%	c #76726A",
"[%	c #7A776F",
"}%	c #6D6B62",
"|%	c #878179",
"1%	c #7B766F",
"2%	c #69645C",
"3%	c #6F6B60",
"4%	c #625D55",
"5%	c #757068",
"6%	c #5E584E",
"7%	c #6B685F",
"8%	c #736E65",
"9%	c #6E6861",
"0%	c #74746C",
"a%	c #6D6962",
"b%	c #6F6B66",
"c%	c #7C7672",
"d%	c #727169",
"e%	c #757269",
"f%	c #727069",
"g%	c #6F6D64",
"h%	c #5D5B53",
"i%	c #746E66",
"j%	c #6E6C64",
"k%	c #78746D",
"l%	c #646257",
"m%	c #75726B",
"n%	c #6D675D",
"o%	c #50483C",
"p%	c #7A7471",
"q%	c #77746D",
"r%	c #807A77",
"s%	c #7E7F75",
"t%	c #68645D",
"u%	c #48433B",
"v%	c #7A7673",
"w%	c #655F59",
"x%	c #67615B",
"y%	c #6C635D",
"z%	c #77736B",
"A%	c #6A6461",
"B%	c #746F68",
"C%	c #7C7771",
"D%	c #717168",
"E%	c #6C695F",
"F%	c #726D65",
"G%	c #78726F",
"H%	c #746D67",
"I%	c #776F69",
"J%	c #7B7970",
"K%	c #716D66",
"L%	c #827B74",
"M%	c #6B6861",
"N%	c #54504B",
"O%	c #76736F",
"P%	c #84807B",
"Q%	c #58524A",
"R%	c #7C7670",
"S%	c #676159",
"T%	c #5F5C54",
"U%	c #524F49",
"V%	c #757168",
"W%	c #7D756F",
"X%	c #8D877E",
"Y%	c #9B9288",
"Z%	c #7B7770",
"`%	c #6A6660",
" &	c #928F8A",
".&	c #78746C",
"+&	c #77746E",
"@&	c #908C84",
"#&	c #817C74",
"$&	c #584F44",
"%&	c #837F76",
"&&	c #7D7B72",
"*&	c #77726A",
"=&	c #817B77",
"-&	c #84807C",
";&	c #787770",
">&	c #7B7A72",
",&	c #716F6A",
"'&	c #77746A",
")&	c #8A857D",
"!&	c #857F79",
"~&	c #837F79",
"{&	c #88847C",
"]&	c #827C76",
"^&	c #908C87",
"/&	c #797671",
"(&	c #837F77",
"_&	c #645F59",
":&	c #7C7973",
"<&	c #86847B",
"[&	c #78756D",
"}&	c #727066",
"|&	c #5D5B52",
"1&	c #827D72",
"2&	c #8D8983",
"3&	c #828077",
"4&	c #98948E",
"5&	c #89877E",
"6&	c #88847E",
"7&	c #87827E",
"8&	c #918D86",
"9&	c #8D8B82",
"0&	c #948C86",
"a&	c #7A756F",
"b&	c #96938D",
"c&	c #8D8881",
"d&	c #8E9089",
"e&	c #6E665F",
"f&	c #7A7A70",
"g&	c #5D5650",
"h&	c #908B82",
"i&	c #665C52",
"j&	c #7F7871",
"k&	c #7B776E",
"l&	c #6A635C",
"m&	c #78736D",
"n&	c #66625A",
"o&	c #837F75",
"p&	c #848079",
"q&	c #76726B",
"r&	c #7F7B72",
"s&	c #88827B",
"t&	c #7F7C75",
"u&	c #817B73",
"v&	c #69625B",
"w&	c #7E7973",
"x&	c #7C7B70",
"y&	c #7C7770",
"z&	c #6D695F",
"A&	c #68665F",
"B&	c #807A76",
"C&	c #5B554D",
"D&	c #7E796F",
"E&	c #6E6761",
"F&	c #76756C",
"G&	c #727067",
"H&	c #53483D",
"I&	c #574C40",
"J&	c #77736C",
"K&	c #83827A",
"L&	c #77756E",
"M&	c #666057",
"N&	c #837C75",
"O&	c #524F47",
"P&	c #6E6B64",
"Q&	c #7E7C76",
"R&	c #665F5C",
"S&	c #706C68",
"T&	c #6B6864",
"U&	c #868379",
"V&	c #6A655F",
"W&	c #59544C",
"X&	c #635E5C",
"Y&	c #747068",
"Z&	c #78746E",
"`&	c #74716B",
" *	c #7F7875",
".*	c #7E7A72",
"+*	c #716966",
"@*	c #76746D",
"#*	c #5F594F",
"$*	c #7E7B72",
"%*	c #89867E",
"&*	c #5A554F",
"**	c #928A80",
"=*	c #6C6863",
"-*	c #837B75",
";*	c #938E87",
">*	c #726F67",
",*	c #98938D",
"'*	c #6D6861",
")*	c #868078",
"!*	c #726F68",
"~*	c #737169",
"{*	c #78716B",
"]*	c #7C7671",
"^*	c #7B7871",
"/*	c #79756E",
"(*	c #7C7A73",
"_*	c #7F7975",
":*	c #73675B",
"<*	c #827E78",
"[*	c #706E6A",
"}*	c #86837C",
"|*	c #807C79",
"1*	c #837C78",
"2*	c #756F69",
"3*	c #817D75",
"4*	c #736B69",
"5*	c #7A7771",
"6*	c #7E7972",
"7*	c #8F8E88",
"8*	c #909089",
"9*	c #72716B",
"0*	c #857F7B",
"a*	c #7E7C78",
"b*	c #7F7C77",
"c*	c #86837E",
"d*	c #828076",
"e*	c #8C8A83",
"f*	c #827F7B",
"g*	c #918B86",
"h*	c #85817B",
"i*	c #918D87",
"j*	c #827A77",
"k*	c #8C8C85",
"l*	c #817B76",
"m*	c #8A877E",
"n*	c #717064",
"o*	c #87817B",
"p*	c #89857B",
"q*	c #948F8A",
"r*	c #999490",
"s*	c #85827A",
"t*	c #97918D",
"u*	c #88827A",
"v*	c #908C82",
"w*	c #605B54",
"x*	c #736E67",
"y*	c #76726F",
"z*	c #6A645E",
"A*	c #716C66",
"B*	c #7D7B74",
"C*	c #6C6661",
"D*	c #827F77",
"E*	c #736C65",
"F*	c #7D7870",
"G*	c #7A7570",
"H*	c #807B75",
"I*	c #7B796F",
"J*	c #69645E",
"K*	c #7A766F",
"L*	c #6F6C67",
"M*	c #6D6B63",
"N*	c #76746A",
"O*	c #726F65",
"P*	c #625D57",
"Q*	c #79746C",
"R*	c #78726C",
"S*	c #78726A",
"T*	c #75736B",
"U*	c #534A3F",
"V*	c #4A4139",
"W*	c #75726C",
"X*	c #7B7973",
"Y*	c #7A7271",
"Z*	c #79746E",
"`*	c #79756D",
" =	c #4F4841",
".=	c #67645E",
"+=	c #7B7570",
"@=	c #69665E",
"#=	c #68645F",
"$=	c #807E78",
"%=	c #756F6C",
"&=	c #7A7772",
"*=	c #706B65",
"==	c #6A665E",
"-=	c #706963",
";=	c #635F59",
">=	c #86827E",
",=	c #62615A",
"'=	c #817E77",
")=	c #64605B",
"!=	c #8D887E",
"~=	c #9C9589",
"{=	c #857E76",
"]=	c #554F49",
"^=	c #8D857E",
"/=	c #635B54",
"(=	c #514A42",
"_=	c #89827B",
":=	c #7D766A",
"<=	c #5B5750",
"[=	c #66625B",
"}=	c #807D75",
"|=	c #6B6760",
"1=	c #7B7872",
"2=	c #6A6561",
"3=	c #747169",
"4=	c #7D7A73",
"5=	c #76736D",
"6=	c #7B7771",
"7=	c #6F6662",
"8=	c #90897B",
"9=	c #7D7871",
"0=	c #807D77",
"a=	c #797772",
"b=	c #77716A",
"c=	c #908B87",
"d=	c #7F7C72",
"e=	c #7C7872",
"f=	c #87847F",
"g=	c #8A8882",
"h=	c #86827C",
"i=	c #787670",
"j=	c #918E8A",
"k=	c #85837B",
"l=	c #94908B",
"m=	c #7A7871",
"n=	c #807C78",
"o=	c #797672",
"p=	c #77746C",
"q=	c #7F7D79",
"r=	c #8C8983",
"s=	c #878681",
"t=	c #7E7974",
"u=	c #86817C",
"v=	c #87857F",
"w=	c #7D7A74",
"x=	c #86857C",
"y=	c #81807A",
"z=	c #908E89",
"A=	c #7E7870",
"B=	c #89857E",
"C=	c #807D74",
"D=	c #938F89",
"E=	c #88867E",
"F=	c #69655E",
"G=	c #918E82",
"H=	c #9F9990",
"I=	c #6A6258",
"J=	c #777166",
"K=	c #817A74",
"L=	c #87807A",
"M=	c #726C66",
"N=	c #807B74",
"O=	c #78726D",
"P=	c #504F4A",
"Q=	c #87847C",
"R=	c #737168",
"S=	c #7E7970",
"T=	c #706A62",
"U=	c #908D84",
"V=	c #88827C",
"W=	c #6E6760",
"X=	c #716E64",
"Y=	c #7B756E",
"Z=	c #6F6C66",
"`=	c #6E6A63",
" -	c #726E67",
".-	c #807E79",
"+-	c #746E69",
"@-	c #918B82",
"#-	c #77756F",
"$-	c #69655B",
"%-	c #5C5749",
"&-	c #84776D",
"*-	c #76706A",
"=-	c #6E6A66",
"--	c #706C66",
";-	c #797470",
">-	c #746F6A",
",-	c #6A6961",
"'-	c #635E58",
")-	c #716F66",
"!-	c #706D68",
"~-	c #797870",
"{-	c #7F7E76",
"]-	c #756F67",
"^-	c #766F6C",
"/-	c #76736B",
"(-	c #82817D",
"_-	c #797670",
":-	c #6A6460",
"<-	c #69645D",
"[-	c #949189",
"}-	c #9C958C",
"|-	c #989184",
"1-	c #9C958B",
"2-	c #847E72",
"3-	c #9F9B92",
"4-	c #7D736A",
"5-	c #7C776B",
"6-	c #88837C",
"7-	c #857C74",
"8-	c #8E8B83",
"9-	c #6F6C65",
"0-	c #817A75",
"a-	c #827F78",
"b-	c #75706B",
"c-	c #8D8782",
"d-	c #696861",
"e-	c #78736E",
"f-	c #7F7B78",
"g-	c #7D7B76",
"h-	c #787270",
"i-	c #827E7A",
"j-	c #645D51",
"k-	c #85807C",
"l-	c #76716C",
"m-	c #777470",
"n-	c #6A635E",
"o-	c #717068",
"p-	c #7F7C74",
"q-	c #7A7973",
"r-	c #7C7974",
"s-	c #838079",
"t-	c #8F908B",
"u-	c #86817F",
"v-	c #7D7A75",
"w-	c #84817A",
"x-	c #82817C",
"y-	c #83827B",
"z-	c #87847D",
"A-	c #84817E",
"B-	c #93918B",
"C-	c #8C8B87",
"D-	c #7F7B76",
"E-	c #84817D",
"F-	c #848077",
"G-	c #89847D",
"H-	c #827D78",
"I-	c #8A8C83",
"J-	c #7C7971",
"K-	c #92918B",
"L-	c #888780",
"M-	c #908F84",
"N-	c #888980",
"O-	c #89867D",
"P-	c #85847C",
"Q-	c #88847F",
"R-	c #858178",
"S-	c #88837E",
"T-	c #919088",
"U-	c #736C62",
"V-	c #928C86",
"W-	c #918E84",
"X-	c #6C675E",
"Y-	c #79746D",
"Z-	c #89847F",
"`-	c #7E7C75",
" ;	c #79736D",
".;	c #78766F",
"+;	c #88877E",
"@;	c #77716F",
"#;	c #74706C",
"$;	c #716E63",
"%;	c #6B665E",
"&;	c #6C6762",
"*;	c #5C5851",
"=;	c #635B56",
"-;	c #737069",
";;	c #706C64",
">;	c #615A56",
",;	c #7E7D77",
"';	c #817F76",
");	c #706B66",
"!;	c #5C5048",
"~;	c #6D6358",
"{;	c #817E76",
"];	c #7F7B74",
"^;	c #6A6662",
"/;	c #77716B",
"(;	c #7B7971",
"_;	c #6C6763",
":;	c #6E6963",
"<;	c #736F6A",
"[;	c #64615C",
"};	c #605C54",
"|;	c #767169",
"1;	c #60605A",
"2;	c #78756F",
"3;	c #6D6664",
"4;	c #9A938A",
"5;	c #948B82",
"6;	c #A6A09A",
"7;	c #8E877E",
"8;	c #8D857C",
"9;	c #908A7F",
"0;	c #918B81",
"a;	c #9E958D",
"b;	c #9E9690",
"c;	c #58564F",
"d;	c #7A7972",
"e;	c #958F8A",
"f;	c #6B675F",
"g;	c #79756C",
"h;	c #86857E",
"i;	c #767068",
"j;	c #777067",
"k;	c #777570",
"l;	c #888580",
"m;	c #8C8984",
"n;	c #878580",
"o;	c #898782",
"p;	c #74746E",
"q;	c #6B6256",
"r;	c #7E7975",
"s;	c #7B746F",
"t;	c #7F7A77",
"u;	c #89847B",
"v;	c #7E7C79",
"w;	c #7E7B7B",
"x;	c #6F6A64",
"y;	c #7C7B73",
"z;	c #66615A",
"A;	c #7B7575",
"B;	c #818078",
"C;	c #79776F",
"D;	c #7F7E77",
"E;	c #85817E",
"F;	c #717269",
"G;	c #83837E",
"H;	c #797771",
"I;	c #888682",
"J;	c #898781",
"K;	c #827E79",
"L;	c #807E77",
"M;	c #7A796F",
"N;	c #74706A",
"O;	c #78776F",
"P;	c #95958C",
"Q;	c #747269",
"R;	c #97938E",
"S;	c #82817A",
"T;	c #8B8885",
"U;	c #7B7974",
"V;	c #8F8F86",
"W;	c #7F7C73",
"X;	c #766F6A",
"Y;	c #908D86",
"Z;	c #868480",
"`;	c #8B8684",
" >	c #484138",
".>	c #898680",
"+>	c #817D73",
"@>	c #78756E",
"#>	c #77736A",
"$>	c #68635A",
"%>	c #79766E",
"&>	c #817F79",
"*>	c #7B7772",
"=>	c #828178",
"->	c #807C75",
";>	c #756F68",
">>	c #78736B",
",>	c #777168",
"'>	c #7F7B73",
")>	c #626056",
"!>	c #5E5C54",
"~>	c #706B64",
"{>	c #736D67",
"]>	c #757267",
"^>	c #88857E",
"/>	c #565145",
"(>	c #5B5146",
"_>	c #706F66",
":>	c #696660",
"<>	c #686660",
"[>	c #7D7974",
"}>	c #7D7772",
"|>	c #78766E",
"1>	c #6F6A66",
"2>	c #7C7774",
"3>	c #7A7770",
"4>	c #6C6A66",
"5>	c #6F6865",
"6>	c #6B6562",
"7>	c #6B645F",
"8>	c #605953",
"9>	c #7E7C73",
"0>	c #77726B",
"a>	c #928D86",
"b>	c #766E65",
"c>	c #817A71",
"d>	c #7E776F",
"e>	c #959087",
"f>	c #837D76",
"g>	c #938982",
"h>	c #89827A",
"i>	c #928B83",
"j>	c #8E867D",
"k>	c #696661",
"l>	c #A49F97",
"m>	c #8E847D",
"n>	c #8F8980",
"o>	c #3A342E",
"p>	c #6A655E",
"q>	c #85837E",
"r>	c #847F79",
"s>	c #85817D",
"t>	c #807D79",
"u>	c #787371",
"v>	c #85827C",
"w>	c #85817C",
"x>	c #59534C",
"y>	c #7E7671",
"z>	c #86847D",
"A>	c #787571",
"B>	c #77746F",
"C>	c #7B7671",
"D>	c #84837B",
"E>	c #989591",
"F>	c #74736B",
"G>	c #908C88",
"H>	c #7D7973",
"I>	c #817F78",
"J>	c #8E8982",
"K>	c #908B89",
"L>	c #89837E",
"M>	c #7B7B75",
"N>	c #86837D",
"O>	c #817D78",
"P>	c #8A8581",
"Q>	c #918C87",
"R>	c #716F67",
"S>	c #837F78",
"T>	c #83817A",
"U>	c #8C8A84",
"V>	c #83847C",
"W>	c #8E8C84",
"X>	c #807E76",
"Y>	c #898278",
"Z>	c #76746E",
"`>	c #8C8882",
" ,	c #737167",
".,	c #79726A",
"+,	c #73726A",
"@,	c #87837F",
"#,	c #797970",
"$,	c #7E7873",
"%,	c #827F75",
"&,	c #5E5551",
"*,	c #6A675F",
"=,	c #625F55",
"-,	c #645F5B",
";,	c #636055",
">,	c #5E5B52",
",,	c #6E6D66",
"',	c #6F665A",
"),	c #696056",
"!,	c #787771",
"~,	c #706E67",
"{,	c #7A7B75",
"],	c #625D59",
"^,	c #67625A",
"/,	c #736F68",
"(,	c #76736C",
"_,	c #7D7875",
":,	c #73706B",
"<,	c #6B6560",
"[,	c #6E6F67",
"},	c #655E51",
"|,	c #968C86",
"1,	c #989387",
"2,	c #8A827A",
"3,	c #9E9891",
"4,	c #8E897D",
"5,	c #8B857A",
"6,	c #948C84",
"7,	c #857D73",
"8,	c #968E89",
"9,	c #716860",
"0,	c #746E64",
"a,	c #7C746C",
"b,	c #908A81",
"c,	c #7A776D",
"d,	c #615851",
"e,	c #948D87",
"f,	c #978D88",
"g,	c #79766F",
"h,	c #7A7875",
"i,	c #898382",
"j,	c #7A7773",
"k,	c #787470",
"l,	c #837E7C",
"m,	c #81786B",
"n,	c #81807B",
"o,	c #74706B",
"p,	c #7E7A75",
"q,	c #64615A",
"r,	c #807C74",
"s,	c #83807B",
"t,	c #8B8483",
"u,	c #7E7D78",
"v,	c #87827C",
"w,	c #96918E",
"x,	c #83807A",
"y,	c #84807D",
"z,	c #797A70",
"A,	c #726E66",
"B,	c #96928C",
"C,	c #80807A",
"D,	c #656058",
"E,	c #77756D",
"F,	c #7F7B77",
"G,	c #706F68",
"H,	c #77726E",
"I,	c #817D77",
"J,	c #8F8C89",
"K,	c #888480",
"L,	c #938F88",
"M,	c #7C796F",
"N,	c #938F8C",
"O,	c #544F44",
"P,	c #898780",
"Q,	c #7C7976",
"R,	c #7B7A74",
"S,	c #7E7B75",
"T,	c #7C7B75",
"U,	c #666159",
"V,	c #7E7570",
"W,	c #7E7B74",
"X,	c #6E6C66",
"Y,	c #6E685F",
"Z,	c #6F6862",
"`,	c #4E4B43",
" '	c #7D7A70",
".'	c #76716B",
"+'	c #827D75",
"@'	c #5A524B",
"#'	c #3F392D",
"$'	c #554C41",
"%'	c #6E6864",
"&'	c #6E6B62",
"*'	c #75736F",
"='	c #74726C",
"-'	c #74726D",
";'	c #6D6865",
">'	c #736F6B",
",'	c #827C78",
"''	c #807C77",
")'	c #6E6A67",
"!'	c #888381",
"~'	c #7D7472",
"{'	c #837E7D",
"]'	c #958E84",
"^'	c #918A82",
"/'	c #948E86",
"('	c #8E867C",
"_'	c #787168",
":'	c #9C9990",
"<'	c #A3A098",
"['	c #A09990",
"}'	c #8F877E",
"|'	c #938D81",
"1'	c #56524B",
"2'	c #9F9790",
"3'	c #837E77",
"4'	c #686058",
"5'	c #8F8981",
"6'	c #988F86",
"7'	c #7D7C74",
"8'	c #767470",
"9'	c #84817C",
"0'	c #554A42",
"a'	c #807F78",
"b'	c #7F7F7A",
"c'	c #84827A",
"d'	c #75736D",
"e'	c #7A736C",
"f'	c #7E7D73",
"g'	c #8A857E",
"h'	c #787671",
"i'	c #797770",
"j'	c #7A7671",
"k'	c #75726D",
"l'	c #85857C",
"m'	c #827F7C",
"n'	c #888783",
"o'	c #86857F",
"p'	c #726D67",
"q'	c #8F8884",
"r'	c #8A8883",
"s'	c #6A675E",
"t'	c #756F6A",
"u'	c #817E78",
"v'	c #797570",
"w'	c #736F69",
"x'	c #706D65",
"y'	c #87857E",
"z'	c #918C88",
"A'	c #89847E",
"B'	c #8B8377",
"C'	c #857F76",
"D'	c #8D8B83",
"E'	c #635D55",
"F'	c #68625C",
"G'	c #6B6561",
"H'	c #7E7A74",
"I'	c #848179",
"J'	c #5D5851",
"K'	c #817C75",
"L'	c #7B7670",
"M'	c #8A867E",
"N'	c #74716C",
"O'	c #716C67",
"P'	c #7E7871",
"Q'	c #615C57",
"R'	c #65605A",
"S'	c #75716F",
"T'	c #685E57",
"U'	c #7B6F61",
"V'	c #746F69",
"W'	c #7D7A76",
"X'	c #84827E",
"Y'	c #76706D",
"Z'	c #76776F",
"`'	c #6D6A66",
" )	c #3D3933",
".)	c #817C77",
"+)	c #727269",
"@)	c #746D6A",
"#)	c #75736C",
"$)	c #7B7975",
"%)	c #888380",
"&)	c #A49E97",
"*)	c #958E83",
"=)	c #959085",
"-)	c #9C968C",
";)	c #716B60",
">)	c #9D9690",
",)	c #9A968C",
"')	c #8B847E",
"))	c #928C81",
"!)	c #8E8A82",
"~)	c #9E988E",
"{)	c #969088",
"])	c #88817B",
"^)	c #A7A197",
"/)	c #575148",
"()	c #9C978E",
"_)	c #928D83",
":)	c #7D7D74",
"<)	c #787673",
"[)	c #7C7972",
"})	c #7C7A76",
"|)	c #787066",
"1)	c #726E68",
"2)	c #797872",
"3)	c #7C7A72",
"4)	c #6A6761",
"5)	c #686560",
"6)	c #88857A",
"7)	c #888582",
"8)	c #75706C",
"9)	c #757370",
"0)	c #87827F",
"a)	c #898783",
"b)	c #7B7976",
"c)	c #8D8783",
"d)	c #91908C",
"e)	c #8E8B88",
"f)	c #7A736F",
"g)	c #6D6860",
"h)	c #807D76",
"i)	c #71726C",
"j)	c #83837A",
"k)	c #807D78",
"l)	c #85847E",
"m)	c #74706D",
"n)	c #83837C",
"o)	c #575147",
"p)	c #7E7976",
"q)	c #7C7C74",
"r)	c #807F77",
"s)	c #655E59",
"t)	c #8C857F",
"u)	c #443F37",
"v)	c #75756F",
"w)	c #8E8D87",
"x)	c #8B8C84",
"y)	c #85837D",
"z)	c #74716A",
"A)	c #82807B",
"B)	c #848177",
"C)	c #7B786F",
"D)	c #7D7B70",
"E)	c #6D6A63",
"F)	c #696460",
"G)	c #817E79",
"H)	c #7D7266",
"I)	c #7E7E76",
"J)	c #66675E",
"K)	c #7E7773",
"L)	c #7E7E79",
"M)	c #6E6862",
"N)	c #616057",
"O)	c #6B6660",
"P)	c #696760",
"Q)	c #777671",
"R)	c #9E988F",
"S)	c #847D74",
"T)	c #949086",
"U)	c #918D81",
"V)	c #8B847C",
"W)	c #938A81",
"X)	c #8F887F",
"Y)	c #928C84",
"Z)	c #9C9490",
"`)	c #948F88",
" !	c #968E88",
".!	c #88847B",
"+!	c #B1AB9F",
"@!	c #524945",
"#!	c #6F6B67",
"$!	c #7D7A77",
"%!	c #7B7773",
"&!	c #8A8683",
"*!	c #6F6D68",
"=!	c #6D645B",
"-!	c #7B7A75",
";!	c #76746F",
">!	c #898881",
",!	c #7E7A76",
"'!	c #837C77",
")!	c #84847D",
"!!	c #62625C",
"~!	c #817F7C",
"{!	c #777370",
"]!	c #807D7A",
"^!	c #6A695F",
"/!	c #817F7A",
"(!	c #767673",
"_!	c #878381",
":!	c #908E88",
"<!	c #908E8A",
"[!	c #716C69",
"}!	c #67635E",
"|!	c #77736E",
"1!	c #786F6B",
"2!	c #726E69",
"3!	c #73746B",
"4!	c #777771",
"5!	c #827C75",
"6!	c #736D69",
"7!	c #7E7B76",
"8!	c #72736F",
"9!	c #5F584C",
"0!	c #7E7B70",
"a!	c #92908A",
"b!	c #75746D",
"c!	c #7D7A72",
"d!	c #706A64",
"e!	c #6A665F",
"f!	c #89887F",
"g!	c #7A7872",
"h!	c #716E65",
"i!	c #7A7A73",
"j!	c #7A776E",
"k!	c #68665D",
"l!	c #625E59",
"m!	c #767369",
"n!	c #636159",
"o!	c #6E6E62",
"p!	c #746E6A",
"q!	c #827B73",
"r!	c #645C50",
"s!	c #615A50",
"t!	c #7E7875",
"u!	c #635F5C",
"v!	c #72726B",
"w!	c #66645F",
"x!	c #7A7B76",
"y!	c #7B766E",
"z!	c #8D857D",
"A!	c #928D82",
"B!	c #736D65",
"C!	c #968F87",
"D!	c #958F88",
"E!	c #8A857C",
"F!	c #90887F",
"G!	c #8F887E",
"H!	c #A19B93",
"I!	c #786E6B",
"J!	c #989086",
"K!	c #A19D96",
"L!	c #A9A39A",
"M!	c #9C948C",
"N!	c #A8A29C",
"O!	c #857D75",
"P!	c #8F8A82",
"Q!	c #968E8B",
"R!	c #514D43",
"S!	c #6A6560",
"T!	c #847F76",
"U!	c #7C766E",
"V!	c #83807C",
"W!	c #81817B",
"X!	c #7D7B73",
"Y!	c #86827F",
"Z!	c #564C42",
"`!	c #706D6A",
" ~	c #68645E",
".~	c #6B655F",
"+~	c #716E68",
"@~	c #7E7D79",
"#~	c #807F7C",
"$~	c #7F7F78",
"%~	c #928E8A",
"&~	c #827D79",
"*~	c #91908A",
"=~	c #898A82",
"-~	c #716C6A",
";~	c #817D79",
">~	c #918F88",
",~	c #83817B",
"'~	c #77756C",
")~	c #7F7C76",
"!~	c #8A8880",
"~~	c #828079",
"{~	c #5C524A",
"]~	c #717066",
"^~	c #7C7A75",
"/~	c #6F6D67",
"(~	c #6F6B68",
"_~	c #79726C",
":~	c #625F59",
"<~	c #76736A",
"[~	c #5D5954",
"}~	c #5B5751",
"|~	c #82807A",
"1~	c #79786F",
"2~	c #79736B",
"3~	c #65605B",
"4~	c #6F6B62",
"5~	c #6C6A64",
"6~	c #7D7975",
"7~	c #615E58",
"8~	c #6C6860",
"9~	c #7B7972",
"0~	c #716759",
"a~	c #797773",
"b~	c #6F7068",
"c~	c #706E64",
"d~	c #797571",
"e~	c #928E86",
"f~	c #8C887F",
"g~	c #6F6B64",
"h~	c #8E8780",
"i~	c #746D63",
"j~	c #9B938B",
"k~	c #8F877D",
"l~	c #7E776D",
"m~	c #918980",
"n~	c #B1ACA0",
"o~	c #A4A298",
"p~	c #9F988F",
"q~	c #989085",
"r~	c #A9A399",
"s~	c #9E9790",
"t~	c #867F76",
"u~	c #87827B",
"v~	c #8C857E",
"w~	c #8B8580",
"x~	c #5C544C",
"y~	c #B2AFA6",
"z~	c #74726E",
"A~	c #7B7C74",
"B~	c #7B7874",
"C~	c #898681",
"D~	c #7B756F",
"E~	c #73706C",
"F~	c #635B50",
"G~	c #73706A",
"H~	c #6A6A63",
"I~	c #65625B",
"J~	c #706E66",
"K~	c #736F6D",
"L~	c #7E7D7A",
"M~	c #8E8A86",
"N~	c #77736D",
"O~	c #8D8B86",
"P~	c #92918C",
"Q~	c #81807C",
"R~	c #72706A",
"S~	c #999992",
"T~	c #746F6B",
"U~	c #989690",
"V~	c #8E908A",
"W~	c #6A645F",
"X~	c #7F7873",
"Y~	c #85857D",
"Z~	c #7F7B70",
"`~	c #7F7D77",
" {	c #837E79",
".{	c #8E8985",
"+{	c #908B85",
"@{	c #897F75",
"#{	c #85817A",
"${	c #89847A",
"%{	c #827F79",
"&{	c #716E69",
"*{	c #736E69",
"={	c #828379",
"-{	c #7D7976",
";{	c #59534E",
">{	c #7A7571",
",{	c #6D675E",
"'{	c #67645B",
"){	c #716B66",
"!{	c #777069",
"~{	c #6E6965",
"{{	c #7A746E",
"]{	c #645E55",
"^{	c #665C53",
"/{	c #675D50",
"({	c #7E7874",
"_{	c #6C6964",
":{	c #7A7874",
"<{	c #89877F",
"[{	c #5F5851",
"}{	c #8A847D",
"|{	c #75706A",
"1{	c #979589",
"2{	c #A69C94",
"3{	c #706861",
"4{	c #817970",
"5{	c #827A73",
"6{	c #9F958E",
"7{	c #969288",
"8{	c #A39F96",
"9{	c #9A928A",
"0{	c #9B978E",
"a{	c #8F857E",
"b{	c #807A73",
"c{	c #7B746E",
"d{	c #9E9592",
"e{	c #79776E",
"f{	c #B0ADA4",
"g{	c #888077",
"h{	c #A7A1A1",
"i{	c #89867F",
"j{	c #8C8985",
"k{	c #716D69",
"l{	c #7E7F78",
"m{	c #7D7B75",
"n{	c #716D68",
"o{	c #625A4D",
"p{	c #77716C",
"q{	c #767670",
"r{	c #77766E",
"s{	c #76756E",
"t{	c #707069",
"u{	c #706E6B",
"v{	c #716C68",
"w{	c #908C89",
"x{	c #898883",
"y{	c #878480",
"z{	c #7B7B74",
"A{	c #888881",
"B{	c #84827C",
"C{	c #75746F",
"D{	c #8A8986",
"E{	c #86877E",
"F{	c #77766F",
"G{	c #6F6F66",
"H{	c #837F7E",
"I{	c #898481",
"J{	c #8E8D89",
"K{	c #8B8681",
"L{	c #5E594F",
"M{	c #877D73",
"N{	c #7F7872",
"O{	c #64605A",
"P{	c #585350",
"Q{	c #5D5752",
"R{	c #72716D",
"S{	c #4E4A44",
"T{	c #58534D",
"U{	c #78736F",
"V{	c #6B6862",
"W{	c #756E68",
"X{	c #6D665F",
"Y{	c #555349",
"Z{	c #767167",
"`{	c #666158",
" ]	c #736C67",
".]	c #56534D",
"+]	c #635D58",
"@]	c #76746B",
"#]	c #6E655B",
"$]	c #7E7B78",
"%]	c #73716C",
"&]	c #7A7A72",
"*]	c #6A6864",
"=]	c #716D64",
"-]	c #7E7C74",
";]	c #65645E",
">]	c #8E8A85",
",]	c #7C766F",
"']	c #9E9991",
")]	c #9E978E",
"!]	c #ABA39B",
"~]	c #98938A",
"{]	c #8B817C",
"]]	c #A8A197",
"^]	c #857C75",
"/]	c #86847A",
"(]	c #968E85",
"_]	c #817B74",
":]	c #918A83",
"<]	c #867D78",
"[]	c #817B75",
"}]	c #CAC5BD",
"|]	c #8D867E",
"1]	c #95928C",
"2]	c #A69F95",
"3]	c #625F5C",
"4]	c #898882",
"5]	c #797370",
"6]	c #777371",
"7]	c #838179",
"8]	c #5D5651",
"9]	c #7F7D78",
"0]	c #645C4F",
"a]	c #8B8984",
"b]	c #736D6B",
"c]	c #72726A",
"d]	c #73746E",
"e]	c #64615D",
"f]	c #706C67",
"g]	c #6C6864",
"h]	c #83827C",
"i]	c #6E6C67",
"j]	c #8B8784",
"k]	c #81817A",
"l]	c #75726F",
"m]	c #858078",
"n]	c #8B8781",
"o]	c #858380",
"p]	c #82817B",
"q]	c #807C76",
"r]	c #7D7B77",
"s]	c #837F7C",
"t]	c #7F7B75",
"u]	c #75726A",
"v]	c #746C5F",
"w]	c #8F8D88",
"x]	c #857E7C",
"y]	c #6A685F",
"z]	c #6C6962",
"A]	c #706F67",
"B]	c #46413C",
"C]	c #6C6A61",
"D]	c #76706B",
"E]	c #6B6766",
"F]	c #66635C",
"G]	c #6E6B65",
"H]	c #4F4B42",
"I]	c #6C685F",
"J]	c #635D57",
"K]	c #5C5852",
"L]	c #605B53",
"M]	c #716B63",
"N]	c #5E5950",
"O]	c #69635E",
"P]	c #7E796E",
"Q]	c #564F4A",
"R]	c #6C6055",
"S]	c #756E61",
"T]	c #7F7E78",
"U]	c #736E6A",
"V]	c #7C7873",
"W]	c #605954",
"X]	c #84827B",
"Y]	c #8D8780",
"Z]	c #908780",
"`]	c #89857D",
" ^	c #67605C",
".^	c #9F9A8F",
"+^	c #ACA6A1",
"@^	c #948D86",
"#^	c #868276",
"$^	c #888478",
"%^	c #8F8D82",
"&^	c #A09A93",
"*^	c #817871",
"=^	c #B2ADA6",
"-^	c #7B746C",
";^	c #877F7A",
">^	c #ADA5A0",
",^	c #938C86",
"'^	c #9A928B",
")^	c #615B57",
"!^	c #5E5D56",
"~^	c #6E6C69",
"{^	c #686762",
"]^	c #7B7A76",
"^^	c #6F6966",
"/^	c #76756F",
"(^	c #6F6E6A",
"_^	c #787570",
":^	c #655D52",
"<^	c #7F7D76",
"[^	c #67625D",
"}^	c #5D5753",
"|^	c #78766D",
"1^	c #797471",
"2^	c #6F6E66",
"3^	c #73706D",
"4^	c #81807D",
"5^	c #7D7D76",
"6^	c #8C8B85",
"7^	c #898784",
"8^	c #929188",
"9^	c #7D7C73",
"0^	c #7B7B71",
"a^	c #7D7C76",
"b^	c #7A7970",
"c^	c #7D7E76",
"d^	c #95938D",
"e^	c #75716D",
"f^	c #4F463C",
"g^	c #8D8B84",
"h^	c #737067",
"i^	c #706C63",
"j^	c #534C46",
"k^	c #56534A",
"l^	c #514E47",
"m^	c #66645C",
"n^	c #67655D",
"o^	c #6F6B65",
"p^	c #6B675E",
"q^	c #645F55",
"r^	c #7A756D",
"s^	c #736D66",
"t^	c #6F6B63",
"u^	c #66635A",
"v^	c #56554C",
"w^	c #7D7268",
"x^	c #71685F",
"y^	c #67635D",
"z^	c #86847C",
"A^	c #878280",
"B^	c #6F6962",
"C^	c #817976",
"D^	c #8A807C",
"E^	c #6F6860",
"F^	c #6D6964",
"G^	c #B3ACA6",
"H^	c #A6A097",
"I^	c #817C72",
"J^	c #655F56",
"K^	c #7C776D",
"L^	c #B3ADA8",
"M^	c #97948C",
"N^	c #625C54",
"O^	c #A09C95",
"P^	c #A19A94",
"Q^	c #ADABA2",
"R^	c #AFAAA3",
"S^	c #65645B",
"T^	c #64625D",
"U^	c #726E6B",
"V^	c #75726E",
"W^	c #86857D",
"X^	c #797A71",
"Y^	c #6B6354",
"Z^	c #837E78",
"`^	c #625C55",
" /	c #716B67",
"./	c #85837C",
"+/	c #7B736E",
"@/	c #7D7874",
"#/	c #635B57",
"$/	c #86817B",
"%/	c #827C7A",
"&/	c #908F8B",
"*/	c #928E89",
"=/	c #8C8884",
"-/	c #88857F",
";/	c #8C8986",
">/	c #83817C",
",/	c #878481",
"'/	c #817E7B",
")/	c #828179",
"!/	c #888481",
"~/	c #87867F",
"{/	c #8B8A84",
"]/	c #58544E",
"^/	c #747064",
"//	c #87827A",
"(/	c #7E7872",
"_/	c #706A65",
":/	c #544F48",
"</	c #5A5551",
"[/	c #5D5950",
"}/	c #645F57",
"|/	c #66645B",
"1/	c #685F59",
"2/	c #635D56",
"3/	c #625E58",
"4/	c #646158",
"5/	c #75736A",
"6/	c #807268",
"7/	c #807568",
"8/	c #76756D",
"9/	c #75746E",
"0/	c #6D6A65",
"a/	c #83837B",
"b/	c #7E7C77",
"c/	c #86807A",
"d/	c #6B6A65",
"e/	c #72716A",
"f/	c #74716D",
"g/	c #838178",
"h/	c #908882",
"i/	c #A49C97",
"j/	c #AAA29F",
"k/	c #8D8580",
"l/	c #9A988B",
"m/	c #A09A95",
"n/	c #9F9D96",
"o/	c #9C9791",
"p/	c #A7A79F",
"q/	c #9F9B94",
"r/	c #948F89",
"s/	c #77766D",
"t/	c #85867F",
"u/	c #70665E",
"v/	c #88827F",
"w/	c #7E7E77",
"x/	c #67645C",
"y/	c #5F5D57",
"z/	c #7B7870",
"A/	c #696360",
"B/	c #797473",
"C/	c #827F7D",
"D/	c #89857F",
"E/	c #77726C",
"F/	c #6C6A62",
"G/	c #76716E",
"H/	c #93908D",
"I/	c #84807A",
"J/	c #959490",
"K/	c #6D6965",
"L/	c #8B8682",
"M/	c #7D7775",
"N/	c #73665D",
"O/	c #5C5752",
"P/	c #69665D",
"Q/	c #746B67",
"R/	c #534D47",
"S/	c #655F5C",
"T/	c #524F46",
"U/	c #5C5750",
"V/	c #5E5A50",
"W/	c #5C5850",
"X/	c #615D53",
"Y/	c #68635D",
"Z/	c #868179",
"`/	c #71706A",
" (	c #73736E",
".(	c #7E7465",
"+(	c #766C5F",
"@(	c #7A7775",
"#(	c #797873",
"$(	c #7E7877",
"%(	c #908B86",
"&(	c #73736B",
"*(	c #7A7A75",
"=(	c #88807A",
"-(	c #9B9690",
";(	c #868279",
">(	c #A7A299",
",(	c #A39D98",
"'(	c #A29C99",
")(	c #A29F98",
"!(	c #A29E96",
"~(	c #938D88",
"{(	c #6B6663",
"](	c #777672",
"^(	c #807F79",
"/(	c #716E67",
"((	c #8B8982",
"_(	c #7B7672",
":(	c #675F5B",
"<(	c #5F5B55",
"[(	c #6C6A63",
"}(	c #827C79",
"|(	c #74716E",
"1(	c #827C77",
"2(	c #7B7B73",
"3(	c #706D6B",
"4(	c #5C594F",
"5(	c #989390",
"6(	c #868380",
"7(	c #8D8B87",
"8(	c #82807E",
"9(	c #83827D",
"0(	c #817B79",
"a(	c #827E7C",
"b(	c #8B8985",
"c(	c #8B8A83",
"d(	c #8A8781",
"e(	c #8B8884",
"f(	c #625A4B",
"g(	c #646055",
"h(	c #7E7771",
"i(	c #58554A",
"j(	c #656056",
"k(	c #6E6962",
"l(	c #5C5A51",
"m(	c #63615A",
"n(	c #646258",
"o(	c #534F48",
"p(	c #636158",
"q(	c #76756B",
"r(	c #726C65",
"s(	c #62615B",
"t(	c #6C6B61",
"u(	c #66635D",
"v(	c #504944",
"w(	c #6D5B4D",
"x(	c #534B3E",
"y(	c #817E75",
"z(	c #5F5952",
"A(	c #463B36",
"B(	c #504A42",
"C(	c #9C9993",
"D(	c #726B67",
"E(	c #87847B",
"F(	c #504C45",
"G(	c #95918C",
"H(	c #605F56",
"I(	c #737066",
"J(	c #5F574F",
"K(	c #A5A199",
"L(	c #99968E",
"M(	c #7A716C",
"N(	c #665E5B",
"O(	c #9E9A91",
"P(	c #8B827C",
"Q(	c #9A938E",
"R(	c #948E87",
"S(	c #706D67",
"T(	c #625B57",
"U(	c #7F7C79",
"V(	c #7F7972",
"W(	c #7E7770",
"X(	c #685F56",
"Y(	c #6F6D65",
"Z(	c #7D7D75",
"`(	c #7C7874",
" _	c #7B7B72",
"._	c #77716D",
"+_	c #87837E",
"@_	c #88867D",
"#_	c #726F6A",
"$_	c #888882",
"%_	c #646057",
"&_	c #807C73",
"*_	c #2D2721",
"=_	c #483F37",
"-_	c #5F5649",
";_	c #544D45",
">_	c #5D594F",
",_	c #5B5550",
"'_	c #696459",
")_	c #585346",
"!_	c #645C55",
"~_	c #665F58",
"{_	c #58544B",
"]_	c #615B54",
"^_	c #777269",
"/_	c #59524B",
"(_	c #68645C",
"__	c #575249",
":_	c #888079",
"<_	c #615C59",
"[_	c #56534B",
"}_	c #676059",
"|_	c #838177",
"1_	c #726E64",
"2_	c #5F5A4E",
"3_	c #62594E",
"4_	c #92887B",
"5_	c #9C9287",
"6_	c #8E8677",
"7_	c #7D7166",
"8_	c #746A64",
"9_	c #7C766A",
"0_	c #8D897F",
"a_	c #8C837B",
"b_	c #897F79",
"c_	c #696257",
"d_	c #575146",
"e_	c #4E4941",
"f_	c #665D53",
"g_	c #3C322B",
"h_	c #474238",
"i_	c #574F47",
"j_	c #878279",
"k_	c #706B63",
"l_	c #7C786E",
"m_	c #95918B",
"n_	c #979289",
"o_	c #B8B4AB",
"p_	c #958E86",
"q_	c #847B74",
"r_	c #8B877F",
"s_	c #8C8982",
"t_	c #989389",
"u_	c #939088",
"v_	c #6A645B",
"w_	c #79736A",
"x_	c #6F6C61",
"y_	c #5E574D",
"z_	c #99948B",
"A_	c #6F665C",
"B_	c #8E8176",
"C_	c #70655E",
"D_	c #847B73",
"E_	c #696053",
"F_	c #797568",
"G_	c #878075",
"H_	c #736B61",
"I_	c #C3BCB6",
"J_	c #5A5349",
"K_	c #857E74",
"L_	c #7B796D",
"M_	c #858075",
"N_	c #7F776E",
"O_	c #7B7568",
"P_	c #494138",
"Q_	c #676051",
"R_	c #756E63",
"S_	c #5C5448",
"T_	c #7C756A",
"U_	c #655C53",
"V_	c #70665C",
"W_	c #554B42",
"X_	c #776C62",
"Y_	c #595449",
"Z_	c #6E645B",
"`_	c #6C665B",
" :	c #817C70",
".:	c #766D62",
"+:	c #797164",
"@:	c #52473D",
"#:	c #7A776A",
"$:	c #6D685E",
"%:	c #7B7166",
"&:	c #5D5248",
"*:	c #585044",
"=:	c #4F473B",
"-:	c #6D6259",
";:	c #786D65",
">:	c #584E42",
",:	c #6A6055",
"':	c #7E786C",
"):	c #7E776C",
"!:	c #49433C",
"~:	c #62594B",
"{:	c #6B6459",
"]:	c #6B5E56",
"^:	c #655D54",
"/:	c #7C7469",
"(:	c #5E5449",
"_:	c #635A4F",
"::	c #817A6F",
"<:	c #544A3F",
"[:	c #51483D",
"}:	c #696054",
"|:	c #62574C",
"1:	c #443932",
"2:	c #706A5E",
"3:	c #797469",
"4:	c #7C776E",
"5:	c #736C63",
"6:	c #878078",
"7:	c #736A63",
"8:	c #6C6659",
"9:	c #746C62",
"0:	c #8C857B",
"a:	c #484137",
"b:	c #6C6458",
"c:	c #6C5F55",
"d:	c #584F41",
"e:	c #71695E",
"f:	c #5D5A4E",
"g:	c #7D766F",
"h:	c #726B66",
"i:	c #66645D",
"j:	c #766E68",
"k:	c #6F6760",
"l:	c #776E66",
"m:	c #93887D",
"n:	c #898072",
"o:	c #6D6255",
"p:	c #63574F",
"q:	c #524941",
"r:	c #665850",
"s:	c #857B6F",
"t:	c #4D483E",
"u:	c #7C756E",
"v:	c #6E6A5F",
"w:	c #7D7570",
"x:	c #7C756C",
"y:	c #433A33",
"z:	c #867F7B",
"A:	c #A09B92",
"B:	c #5C554D",
"C:	c #6C675C",
"D:	c #A9A39E",
"E:	c #9A9790",
"F:	c #756D63",
"G:	c #928983",
"H:	c #797167",
"I:	c #675D52",
"J:	c #81796E",
"K:	c #736760",
"L:	c #5F5850",
"M:	c #665F56",
"N:	c #706A63",
"O:	c #8E8783",
"P:	c #857A6F",
"Q:	c #7A7162",
"R:	c #4A3F38",
"S:	c #8F8777",
"T:	c #7D7264",
"U:	c #71675B",
"V:	c #80796E",
"W:	c #4C443A",
"X:	c #594C43",
"Y:	c #80756E",
"Z:	c #7D7369",
"`:	c #5C5449",
" <	c #5E4E45",
".<	c #887A6D",
"+<	c #564D41",
"@<	c #726458",
"#<	c #8A8172",
"$<	c #706558",
"%<	c #5D5247",
"&<	c #574B40",
"*<	c #897E70",
"=<	c #92867A",
"-<	c #6F6457",
";<	c #867569",
"><	c #897E74",
",<	c #756B5E",
"'<	c #5B4F46",
")<	c #897C72",
"!<	c #8A8073",
"~<	c #6D6254",
"{<	c #675C52",
"]<	c #A5978A",
"^<	c #766E61",
"/<	c #786E61",
"(<	c #6F6757",
"_<	c #786A60",
":<	c #8E8373",
"<<	c #7D7162",
"[<	c #988D81",
"}<	c #6D6355",
"|<	c #776C60",
"1<	c #807567",
"2<	c #8B7F73",
"3<	c #9D9289",
"4<	c #A9A199",
"5<	c #786D5F",
"6<	c #85796D",
"7<	c #878077",
"8<	c #837A6C",
"9<	c #93897F",
"0<	c #918679",
"a<	c #8E8576",
"b<	c #443A30",
"c<	c #999185",
"d<	c #787065",
"e<	c #645B4E",
"f<	c #6B6154",
"g<	c #534A40",
"h<	c #5A4D40",
"i<	c #8B8174",
"j<	c #5F5549",
"k<	c #81776B",
"l<	c #7A7266",
"m<	c #7E7567",
"n<	c #74685E",
"o<	c #5D5447",
"p<	c #685C4F",
"q<	c #6C5F52",
"r<	c #7C7566",
"s<	c #5B5345",
"t<	c #5A4D42",
"u<	c #5A554B",
"v<	c #443E35",
"w<	c #878072",
"x<	c #635A4E",
"y<	c #655A53",
"z<	c #685D51",
"A<	c #67635A",
"B<	c #6A6361",
"C<	c #6E6A64",
"D<	c #65635D",
"E<	c #8A8583",
"F<	c #61584B",
"G<	c #645B57",
"H<	c #6C6560",
"I<	c #74736E",
"J<	c #9F968F",
"K<	c #837C73",
"L<	c #47433A",
"M<	c #ABA59C",
"N<	c #9C9288",
"O<	c #A59F97",
"P<	c #928B84",
"Q<	c #6A6661",
"R<	c #58554C",
"S<	c #534E45",
"T<	c #99958C",
"U<	c #96958C",
"V<	c #706864",
"W<	c #56544D",
"X<	c #58534B",
"Y<	c #615C55",
"Z<	c #464038",
"`<	c #655F5A",
" [	c #797269",
".[	c #88857C",
"+[	c #84837A",
"@[	c #85837A",
"#[	c #8D8274",
"$[	c #7B7369",
"%[	c #86837A",
"&[	c #9B9692",
"*[	c #938E89",
"=[	c #8F8B85",
"-[	c #868378",
";[	c #86827B",
">[	c #7B776F",
",[	c #938F87",
"'[	c #635D54",
")[	c #564F49",
"![	c #8C8680",
"~[	c #8E8B84",
"{[	c #8A887F",
"][	c #85847A",
"^[	c #6B6963",
"/[	c #6E6A61",
"([	c #726965",
"_[	c #65615D",
":[	c #807B76",
"<[	c #73716B",
"[[	c #928D89",
"}[	c #847F7C",
"|[	c #6E6D62",
"1[	c #736E68",
"2[	c #8A897E",
"3[	c #837E7A",
"4[	c #86837F",
"5[	c #6D6862",
"6[	c #797871",
"7[	c #75746B",
"8[	c #5E5851",
"9[	c #696961",
"0[	c #746F6C",
"a[	c #6B6A63",
"b[	c #4B4439",
"c[	c #716A65",
"d[	c #8A8782",
"e[	c #6C6461",
"f[	c #68655E",
"g[	c #4B4A43",
"h[	c #B8B4AE",
"i[	c #99948D",
"j[	c #A7A69F",
"k[	c #9D9792",
"l[	c #A69D99",
"m[	c #8B877D",
"n[	c #4C4841",
"o[	c #5C5A52",
"p[	c #6C6B67",
"q[	c #75736E",
"r[	c #7A766E",
"s[	c #807F76",
"t[	c #413730",
"u[	c #AAA29B",
"v[	c #63625C",
"w[	c #847E7A",
"x[	c #756E6A",
"y[	c #7A7B71",
"z[	c #7E7B73",
"A[	c #45423B",
"B[	c #8A8983",
"C[	c #716D62",
"D[	c #7C7A71",
"E[	c #8E8B86",
"F[	c #827C7D",
"G[	c #908C8A",
"H[	c #6A6157",
"I[	c #6A6456",
"J[	c #75756D",
"K[	c #79736E",
"L[	c #92918A",
"M[	c #69645B",
"N[	c #6A6760",
"O[	c #827D76",
"P[	c #56514A",
"Q[	c #82847D",
"R[	c #8F8D87",
"S[	c #7D7872",
"T[	c #605D57",
"U[	c #747066",
"V[	c #6E6763",
"W[	c #59564E",
"X[	c #6C665F",
"Y[	c #6C6862",
"Z[	c #848178",
"`[	c #797874",
" }	c #908F87",
".}	c #827C73",
"+}	c #65625C",
"@}	c #7C7772",
"#}	c #88867F",
"$}	c #66645E",
"%}	c #6E6C65",
"&}	c #686561",
"*}	c #58544F",
"=}	c #4C433A",
"-}	c #4E4940",
";}	c #69675E",
">}	c #645E56",
",}	c #6C6A65",
"'}	c #A29C96",
")}	c #837C72",
"!}	c #8C8880",
"~}	c #87857C",
"{}	c #6E6B67",
"]}	c #6B6966",
"^}	c #696862",
"/}	c #5F5D54",
"(}	c #56564F",
"_}	c #8E8A83",
":}	c #AFAFA4",
"<}	c #8A8682",
"[}	c #8F8A85",
"}}	c #6D6461",
"|}	c #827D7A",
"1}	c #808078",
"2}	c #9E9F97",
"3}	c #84837E",
"4}	c #645C54",
"5}	c #847C6F",
"6}	c #898980",
"7}	c #8C8883",
"8}	c #84817F",
"9}	c #8F8C86",
"0}	c #888581",
"a}	c #8B837E",
"b}	c #7B7A71",
"c}	c #818079",
"d}	c #7E7971",
"e}	c #5E5C56",
"f}	c #68635E",
"g}	c #726D69",
"h}	c #84817B",
"i}	c #6A625E",
"j}	c #64625C",
"k}	c #85837F",
"l}	c #7B7876",
"m}	c #79796F",
"n}	c #7C7870",
"o}	c #7E7F79",
"p}	c #7B7B76",
"q}	c #6C6963",
"r}	c #777571",
"s}	c #615F57",
"t}	c #615B59",
"u}	c #6D6C64",
"v}	c #6E6B66",
"w}	c #86817D",
"x}	c #3B3029",
"y}	c #48443D",
"z}	c #717069",
"A}	c #686763",
"B}	c #706A66",
"C}	c #5D5C56",
"D}	c #7F7D74",
"E}	c #312F28",
"F}	c #C1BFB7",
"G}	c #36332C",
"H}	c #8B8981",
"I}	c #6D6E66",
"J}	c #74736C",
"K}	c #8E8C88",
"L}	c #757470",
"M}	c #6D6B65",
"N}	c #9B9691",
"O}	c #A19994",
"P}	c #56504C",
"Q}	c #5C5853",
"R}	c #7A7975",
"S}	c #74746D",
"T}	c #6E6E64",
"U}	c #433A32",
"V}	c #716B5D",
"W}	c #6F6D69",
"X}	c #93938D",
"Y}	c #58544C",
"Z}	c #8C8B83",
"`}	c #7A7870",
" |	c #898682",
".|	c #6B6765",
"+|	c #6A6862",
"@|	c #746A66",
"#|	c #626058",
"$|	c #6A6762",
"%|	c #5F5B53",
"&|	c #7D7774",
"*|	c #77736F",
"=|	c #8A8881",
"-|	c #706D66",
";|	c #6C6C67",
">|	c #645F5A",
",|	c #6E6B63",
"'|	c #6E6865",
")|	c #6F7268",
"!|	c #6B6865",
"~|	c #7E6F65",
"{|	c #675E55",
"]|	c #6A6965",
"^|	c #6F6C69",
"/|	c #575450",
"(|	c #544F4D",
"_|	c #5A554E",
":|	c #787870",
"<|	c #65635C",
"[|	c #75716E",
"}|	c #74736F",
"||	c #7C7674",
"1|	c #898984",
"2|	c #78716E",
"3|	c #5F5E55",
"4|	c #63605C",
"5|	c #969290",
"6|	c #888680",
"7|	c #7D7C75",
"8|	c #68665E",
"9|	c #84837D",
"0|	c #827D77",
"a|	c #8E8B81",
"b|	c #5C534C",
"c|	c #716A5C",
"d|	c #969489",
"e|	c #817A76",
"f|	c #767571",
"g|	c #868582",
"h|	c #5F5956",
"i|	c #6B655D",
"j|	c #706E65",
"k|	c #6D6C62",
"l|	c #767266",
"m|	c #928D85",
"n|	c #605C57",
"o|	c #747167",
"p|	c #636059",
"q|	c #716D65",
"r|	c #56524A",
"s|	c #757169",
"t|	c #837E76",
"u|	c #534E49",
"v|	c #5A5651",
"w|	c #5C574F",
"x|	c #6A6861",
"y|	c #6D6C67",
"z|	c #76706E",
"A|	c #706E68",
"B|	c #7A7672",
"C|	c #717067",
"D|	c #69665F",
"E|	c #736F6C",
"F|	c #5F5548",
"G|	c #342F24",
"H|	c #64645A",
"I|	c #716F6B",
"J|	c #55504B",
"K|	c #535049",
"L|	c #585250",
"M|	c #7D7D77",
"N|	c #615E57",
"O|	c #5D5B55",
"P|	c #5E5B57",
"Q|	c #7E7876",
"R|	c #605F59",
"S|	c #77746B",
"T|	c #817C78",
"U|	c #7C7875",
"V|	c #6E6968",
"W|	c #7A7774",
"X|	c #716E6C",
"Y|	c #73716E",
"Z|	c #8F8B86",
"`|	c #80807E",
" 1	c #5E584A",
".1	c #928C7F",
"+1	c #7E7A73",
"@1	c #8B8481",
"#1	c #827C74",
"$1	c #7E7E78",
"%1	c #777A6E",
"&1	c #626158",
"*1	c #878780",
"=1	c #888782",
"-1	c #746D68",
";1	c #534D49",
">1	c #6D635C",
",1	c #5E5C53",
"'1	c #6B6763",
")1	c #716C63",
"!1	c #716B64",
"~1	c #615D58",
"{1	c #76766E",
"]1	c #5E5854",
"^1	c #615A54",
"/1	c #676561",
"(1	c #807D73",
"_1	c #75746C",
":1	c #76716D",
"<1	c #82827A",
"[1	c #5B5853",
"}1	c #6B6866",
"|1	c #676660",
"11	c #7D7B79",
"21	c #5A4D3F",
"31	c #3C3431",
"41	c #585450",
"51	c #5E5B55",
"61	c #65605C",
"71	c #5F5C57",
"81	c #68655F",
"91	c #78776D",
"01	c #777270",
"a1	c #706E69",
"b1	c #847E78",
"c1	c #757772",
"d1	c #6A6663",
"e1	c #74726B",
"f1	c #777870",
"g1	c #808079",
"h1	c #8A8884",
"i1	c #8E8E87",
"j1	c #797673",
"k1	c #847F7A",
"l1	c #7E7B77",
"m1	c #544940",
"n1	c #777669",
"o1	c #85807B",
"p1	c #6D6B64",
"q1	c #6F6A68",
"r1	c #767570",
"s1	c #7D7A71",
"t1	c #858179",
"u1	c #6E6A65",
"v1	c #858379",
"w1	c #8A857F",
"x1	c #615952",
"y1	c #6F6762",
"z1	c #5F5F55",
"A1	c #6B6A62",
"B1	c #716D67",
"C1	c #74726A",
"D1	c #605D56",
"E1	c #5C5952",
"F1	c #63625A",
"G1	c #77716E",
"H1	c #6D6C66",
"I1	c #6A6963",
"J1	c #6B6661",
"K1	c #857A6D",
"L1	c #756F64",
"M1	c #686057",
"N1	c #817C7A",
"O1	c #6B6A64",
"P1	c #696763",
"Q1	c #65645D",
"R1	c #696A63",
"S1	c #605D5B",
"T1	c #535048",
"U1	c #7B7675",
"V1	c #74706E",
"W1	c #6F6E68",
"X1	c #6F6765",
"Y1	c #66635F",
"Z1	c #85827E",
"`1	c #807F7A",
" 2	c #73736D",
".2	c #716B68",
"+2	c #79736C",
"@2	c #6C6965",
"#2	c #69675F",
"$2	c #73726C",
"%2	c #7A7472",
"&2	c #7F7D73",
"*2	c #949289",
"=2	c #4E473D",
"-2	c #817C6F",
";2	c #58574D",
">2	c #6F6D66",
",2	c #77776D",
"'2	c #7F7A75",
")2	c #6F6C68",
"!2	c #6B6860",
"~2	c #7C7D76",
"{2	c #6E6D65",
"]2	c #918C82",
"^2	c #76746C",
"/2	c #6B665F",
"(2	c #545248",
"_2	c #716A66",
":2	c #6E6863",
"<2	c #726F69",
"[2	c #86807C",
"}2	c #73726B",
"|2	c #6E6D64",
"12	c #78786F",
"22	c #635F5B",
"32	c #645E58",
"42	c #6F6E65",
"52	c #65635A",
"62	c #6D6561",
"72	c #6D6763",
"82	c #6C6455",
"92	c #504840",
"02	c #908A83",
"a2	c #444038",
"b2	c #63625B",
"c2	c #706F69",
"d2	c #696966",
"e2	c #696863",
"f2	c #666360",
"g2	c #7A7873",
"h2	c #898480",
"i2	c #666661",
"j2	c #7B7775",
"k2	c #7E7D75",
"l2	c #6B6762",
"m2	c #76766F",
"n2	c #928E88",
"o2	c #736E6B",
"p2	c #79746F",
"q2	c #7A7268",
"r2	c #88857D",
"s2	c #827E76",
"t2	c #7B7470",
"u2	c #9C9991",
"v2	c #635F58",
"w2	c #67625B",
"x2	c #6E6A62",
"y2	c #635F56",
"z2	c #756F6B",
"A2	c #827B76",
"B2	c #706A68",
"C2	c #716F64",
"D2	c #6A645C",
"E2	c #63605B",
"F2	c #7D7873",
"G2	c #827A76",
"H2	c #5D5955",
"I2	c #878783",
"J2	c #8A8582",
"K2	c #594F41",
"L2	c #484038",
"M2	c #665C55",
"N2	c #868781",
"O2	c #86827D",
"P2	c #6F6B61",
"Q2	c #4D4944",
"R2	c #787672",
"S2	c #595851",
"T2	c #837F7D",
"U2	c #86847F",
"V2	c #7F7C78",
"W2	c #6E6966",
"X2	c #666660",
"Y2	c #6F6964",
"Z2	c #939189",
"`2	c #544D47",
" 3	c #878682",
".3	c #86847E",
"+3	c #463F34",
"@3	c #6C6357",
"#3	c #717169",
"$3	c #67675E",
"%3	c #66665E",
"&3	c #727065",
"*3	c #5B5A53",
"=3	c #83847A",
"-3	c #6F6A60",
";3	c #5F5951",
">3	c #655D59",
",3	c #76786F",
"'3	c #66635E",
")3	c #6A675D",
"!3	c #68675E",
"~3	c #57544B",
"{3	c #7B7370",
"]3	c #635E59",
"^3	c #5B5752",
"/3	c #55524B",
"(3	c #6B6863",
"_3	c #8A8684",
":3	c #857B6D",
"<3	c #968D85",
"[3	c #706B62",
"}3	c #605F58",
"|3	c #807E7A",
"13	c #80817B",
"23	c #605F57",
"33	c #726F6D",
"43	c #7C7A77",
"53	c #72706D",
"63	c #B0AEA7",
"73	c #8E8A88",
"83	c #60605B",
"93	c #6B6962",
"03	c #726D6A",
"a3	c #63615E",
"b3	c #767471",
"c3	c #898581",
"d3	c #726F6B",
"e3	c #796F68",
"f3	c #757369",
"g3	c #726C6A",
"h3	c #837F7B",
"i3	c #787370",
"j3	c #75716C",
"k3	c #7E7D74",
"l3	c #585246",
"m3	c #807668",
"n3	c #7C7572",
"o3	c #817D74",
"p3	c #79756F",
"q3	c #76736E",
"r3	c #7E7E75",
"s3	c #57564C",
"t3	c #7F7973",
"u3	c #5B5850",
"v3	c #716F69",
"w3	c #6A6A61",
"x3	c #66625C",
"y3	c #67655B",
"z3	c #605D53",
"A3	c #87827D",
"B3	c #7E7572",
"C3	c #7A7971",
"D3	c #78726B",
"E3	c #5C5855",
"F3	c #5B5953",
"G3	c #5C5953",
"H3	c #6D6A61",
"I3	c #342E26",
"J3	c #413630",
"K3	c #636259",
"L3	c #5E5B53",
"M3	c #777774",
"N3	c #71706B",
"O3	c #686362",
"P3	c #676662",
"Q3	c #524B46",
"R3	c #6D6A64",
"S3	c #87847E",
"T3	c #62615C",
"U3	c #5F5A56",
"V3	c #7F807A",
"W3	c #716B69",
"X3	c #817B78",
"Y3	c #73736C",
"Z3	c #696960",
"`3	c #625F56",
" 4	c #645D58",
".4	c #58564E",
"+4	c #787973",
"@4	c #929087",
"#4	c #584F45",
"$4	c #837D6F",
"%4	c #8F8B87",
"&4	c #817D7A",
"*4	c #8A847E",
"=4	c #7C7A70",
"-4	c #8D8A86",
";4	c #65635B",
">4	c #72716C",
",4	c #726B68",
"'4	c #7E7670",
")4	c #55534D",
"!4	c #746D69",
"~4	c #6A6B64",
"{4	c #767270",
"]4	c #6A6766",
"^4	c #8C8981",
"/4	c #4F4A41",
"(4	c #6A6863",
"_4	c #6C6B63",
":4	c #474038",
"<4	c #6A6563",
"[4	c #6F6A67",
"}4	c #7C7A74",
"|4	c #686460",
"14	c #57514C",
"24	c #76726E",
"34	c #777670",
"44	c #767671",
"54	c #796E61",
"64	c #686358",
"74	c #3D3830",
"84	c #6F6E67",
"94	c #65625D",
"04	c #5C5C55",
"a4	c #5D5C55",
"b4	c #6F6F68",
"c4	c #797472",
"d4	c #67625E",
"e4	c #8D8982",
"f4	c #97948B",
"g4	c #68685E",
"h4	c #64605C",
"i4	c #6B6B64",
"j4	c #5D5A57",
"k4	c #5F5A51",
"l4	c #615D57",
"m4	c #5F5B54",
"n4	c #4F483C",
"o4	c #837B70",
"p4	c #6D6D65",
"q4	c #6D6963",
"r4	c #706C62",
"s4	c #57544C",
"t4	c #706965",
"u4	c #87887F",
"v4	c #736D68",
"w4	c #746F66",
"x4	c #787169",
"y4	c #67675F",
"z4	c #6E6C63",
"A4	c #78716F",
"B4	c #8E8E86",
"C4	c #59574E",
"D4	c #625F5A",
"E4	c #767371",
"F4	c #62605A",
"G4	c #77726F",
"H4	c #57524C",
"I4	c #64645B",
"J4	c #7A7B74",
"K4	c #6E6866",
"L4	c #938B7F",
"M4	c #5E564C",
"N4	c #696762",
"O4	c #74736D",
"P4	c #716E6A",
"Q4	c #696663",
"R4	c #524D48",
"S4	c #908981",
"T4	c #5A5751",
"U4	c #83817E",
"V4	c #575348",
"W4	c #4B4641",
"X4	c #69615A",
"Y4	c #8D8781",
"Z4	c #4F4945",
"`4	c #4B4740",
" 5	c #736D6A",
".5	c #7E7775",
"+5	c #847F7B",
"@5	c #818379",
"#5	c #625C59",
"$5	c #656157",
"%5	c #6D6354",
"&5	c #837D7A",
"*5	c #8B8881",
"=5	c #8F8986",
"-5	c #817E74",
";5	c #7A766C",
">5	c #635E57",
",5	c #5E5B56",
"'5	c #55534C",
")5	c #5B5551",
"!5	c #69685F",
"~5	c #605C59",
"{5	c #908D87",
"]5	c #5C5553",
"^5	c #7C786F",
"/5	c #7C7970",
"(5	c #716C65",
"_5	c #68615C",
":5	c #80807B",
"<5	c #66615B",
"[5	c #7B6F66",
"}5	c #585248",
"|5	c #6D6762",
"15	c #706B67",
"25	c #847E79",
"35	c #6D6966",
"45	c #645D56",
"55	c #5B564F",
"65	c #6C6D65",
"75	c #58524E",
"85	c #7C7B77",
"95	c #605C58",
"05	c #8B8A85",
"a5	c #5D5852",
"b5	c #928782",
"c5	c #61615A",
"d5	c #848279",
"e5	c #6E655C",
"f5	c #7B7368",
"g5	c #5D5A53",
"h5	c #75756B",
"i5	c #79766D",
"j5	c #8D8A82",
"k5	c #736F66",
"l5	c #766F69",
"m5	c #605D54",
"n5	c #58554D",
"o5	c #797674",
"p5	c #595953",
"q5	c #67625C",
"r5	c #4D4840",
"s5	c #84837C",
"t5	c #8A837E",
"u5	c #837E7B",
"v5	c #6D6864",
"w5	c #716D63",
"x5	c #7C7B78",
"y5	c #615E5A",
"z5	c #51514A",
"A5	c #797973",
"B5	c #90908E",
"C5	c #8F8B82",
"D5	c #8A8981",
"E5	c #717167",
"F5	c #716962",
"G5	c #827F7A",
"H5	c #7D7978",
"I5	c #898580",
"J5	c #665F55",
"K5	c #998F84",
"L5	c #5C5954",
"M5	c #9E9992",
"N5	c #787471",
"O5	c #706C69",
"P5	c #706D64",
"Q5	c #868278",
"R5	c #72726D",
"S5	c #7A786E",
"T5	c #787872",
"U5	c #8B8780",
"V5	c #655F5D",
"W5	c #625D58",
"X5	c #7F7974",
"Y5	c #56544E",
"Z5	c #726E65",
"`5	c #6E6C68",
" 6	c #6F6D6A",
".6	c #8B8783",
"+6	c #706C6A",
"@6	c #59554C",
"#6	c #757069",
"$6	c #686760",
"%6	c #665B4D",
"&6	c #535149",
"*6	c #68675F",
"=6	c #5B5854",
"-6	c #787572",
";6	c #87877B",
">6	c #78796E",
",6	c #8B8883",
"'6	c #787472",
")6	c #9D9696",
"!6	c #59574F",
"~6	c #655E56",
"{6	c #807977",
"]6	c #726F63",
"^6	c #92908B",
"/6	c #8B867F",
"(6	c #665F54",
"_6	c #877D70",
":6	c #838078",
"<6	c #707067",
"[6	c #4B4A41",
"}6	c #65615C",
"|6	c #8E8B85",
"16	c #74736A",
"26	c #6C6C64",
"36	c #7B7A70",
"46	c #635F57",
"56	c #706A67",
"66	c #6E6D63",
"76	c #605B56",
"86	c #6B6761",
"96	c #938F86",
"06	c #807E74",
"a6	c #6D655D",
"b6	c #5F5447",
"c6	c #635E56",
"d6	c #64605E",
"e6	c #6C6B68",
"f6	c #4B4541",
"g6	c #635D59",
"h6	c #635F5A",
"i6	c #68625E",
"j6	c #625F5B",
"k6	c #7E7A70",
"l6	c #5F5B51",
"m6	c #7A7675",
"n6	c #5D564D",
"o6	c #524E47",
"p6	c #6F6E69",
"q6	c #69635C",
"r6	c #6E6D68",
"s6	c #595850",
"t6	c #88837B",
"u6	c #7F7667",
"v6	c #999792",
"w6	c #8C8980",
"x6	c #8C8B88",
"y6	c #7F7876",
"z6	c #787871",
"A6	c #827D7B",
"B6	c #84857D",
"C6	c #5F5D58",
"D6	c #75706D",
"E6	c #686761",
"F6	c #5D5750",
"G6	c #6E6D67",
"H6	c #6B6964",
"I6	c #625D56",
"J6	c #6D6D66",
"K6	c #58524F",
"L6	c #76716F",
"M6	c #48423C",
"N6	c #908D85",
"O6	c #8B837F",
"P6	c #868079",
"Q6	c #555047",
"R6	c #5E5B54",
"S6	c #746F6D",
"T6	c #5B5651",
"U6	c #686860",
"V6	c #68625F",
"W6	c #534E44",
"X6	c #9D958D",
"Y6	c #8F8983",
"Z6	c #5A534C",
"`6	c #827D74",
" 7	c #756D67",
".7	c #4C443B",
"+7	c #5D5E57",
"@7	c #63615C",
"#7	c #6F7065",
"$7	c #908A82",
"%7	c #97958E",
"&7	c #4F463D",
"*7	c #7C7369",
"=7	c #6A625D",
"-7	c #989593",
";7	c #76706C",
">7	c #8D8A83",
",7	c #787873",
"'7	c #6D6D68",
")7	c #5E5A53",
"!7	c #6B6B65",
"~7	c #656159",
"{7	c #302920",
"]7	c #484037",
"^7	c #4E453B",
"/7	c #4C433E",
"(7	c #504940",
"_7	c #686359",
":7	c #584F49",
"<7	c #605750",
"[7	c #645E52",
"}7	c #4E473E",
"|7	c #433C33",
"17	c #4A413A",
"27	c #4A443C",
"37	c #3A302A",
"47	c #2E251B",
"57	c #2B231C",
"67	c #3A332C",
"77	c #827A71",
"87	c #7A7365",
"97	c #524844",
"07	c #4E453E",
"a7	c #312A22",
"b7	c #40362F",
"c7	c #6D665C",
"d7	c #4E463B",
"e7	c #60564F",
"f7	c #554D45",
"g7	c #2D291F",
"h7	c #534D46",
"i7	c #514B43",
"j7	c #22180F",
"k7	c #322B23",
"l7	c #261B15",
"m7	c #2A1F18",
"n7	c #322A24",
"o7	c #352F27",
"p7	c #473E37",
"q7	c #524D44",
"r7	c #534D41",
"s7	c #4A453A",
"t7	c #494239",
"u7	c #4C433B",
"v7	c #342B26",
"w7	c #2B221A",
"x7	c #393026",
"y7	c #5D574D",
"z7	c #49413B",
"A7	c #9E9B97",
"B7	c #A49C91",
"C7	c #47423B",
"D7	c #232015",
"E7	c #2F2A23",
"F7	c #2D271E",
"G7	c #766D67",
"H7	c #2C261F",
"I7	c #2B2219",
"J7	c #262219",
"K7	c #29211B",
"L7	c #3E3931",
"M7	c #27211B",
"N7	c #31231D",
"O7	c #1E1811",
"P7	c #79716A",
"Q7	c #61584D",
"R7	c #726A63",
"S7	c #6C625A",
"T7	c #393028",
"U7	c #262117",
"V7	c #19120A",
"W7	c #1B150B",
"X7	c #19120B",
"Y7	c #140E06",
"Z7	c #37312A",
"`7	c #261E17",
" 8	c #242017",
".8	c #383029",
"+8	c #4A443E",
"@8	c #5D524D",
"#8	c #857D76",
"$8	c #554E45",
"%8	c #483F39",
"&8	c #978F8C",
"*8	c #7F7672",
"=8	c #53514A",
"-8	c #2E261F",
";8	c #211813",
">8	c #1F1A12",
",8	c #170F05",
"'8	c #160F08",
")8	c #231C14",
"!8	c #231B14",
"~8	c #1A110B",
"{8	c #1A130A",
"]8	c #302924",
"^8	c #37312B",
"/8	c #605650",
"(8	c #4E483F",
"_8	c #5E574E",
":8	c #4F4C43",
"<8	c #7E766E",
"[8	c #504942",
"}8	c #4C433D",
"|8	c #332B26",
"18	c #2F2C25",
"28	c #2A211B",
"38	c #4B443B",
"48	c #423C34",
"58	c #453D37",
"68	c #625B51",
"78	c #857B71",
"88	c #B2A79D",
"98	c #95867A",
"08	c #807366",
"a8	c #80736A",
"b8	c #817162",
"c8	c #928779",
"d8	c #91867A",
"e8	c #958C7B",
"f8	c #63584B",
"g8	c #6A6255",
"h8	c #85796F",
"i8	c #7F7267",
"j8	c #8C8174",
"k8	c #867B6F",
"l8	c #655A4B",
"m8	c #9B9083",
"n8	c #998F82",
"o8	c #7D7364",
"p8	c #86776A",
"q8	c #898174",
"r8	c #94867C",
"s8	c #564A43",
"t8	c #7E7367",
"u8	c #A1968B",
"v8	c #7F7669",
"w8	c #9E948D",
"x8	c #524C3F",
"y8	c #6D665A",
"z8	c #6C675D",
"A8	c #99958B",
"B8	c #847C71",
"C8	c #837C6D",
"D8	c #736A60",
"E8	c #584E43",
"F8	c #8C867C",
"G8	c #857B72",
"H8	c #796F66",
"I8	c #928C80",
"J8	c #A39B90",
"K8	c #71685E",
"L8	c #978D84",
"M8	c #695D56",
"N8	c #7E756C",
"O8	c #968B7E",
"P8	c #887A6C",
"Q8	c #665A51",
"R8	c #71695F",
"S8	c #6B6357",
"T8	c #61584C",
"U8	c #807367",
"V8	c #84796E",
"W8	c #6D6759",
"X8	c #65594E",
"Y8	c #938780",
"Z8	c #5A5249",
"`8	c #968E83",
" 9	c #8A8078",
".9	c #8D847D",
"+9	c #A59D91",
"@9	c #979086",
"#9	c #736B5F",
"$9	c #63564C",
"%9	c #6E6258",
"&9	c #968E82",
"*9	c #948B7B",
"=9	c #796F5E",
"-9	c #7F7365",
";9	c #6D6458",
">9	c #6C6356",
",9	c #675C51",
"'9	c #8F867B",
")9	c #8A8678",
"!9	c #8E8578",
"~9	c #867F6F",
"{9	c #837B72",
"]9	c #82796E",
"^9	c #7D7566",
"/9	c #9C9389",
"(9	c #756E66",
"_9	c #554D42",
":9	c #7B6F64",
"<9	c #84786C",
"[9	c #978E81",
"}9	c #7A716A",
"|9	c #776C61",
"19	c #7E7364",
"29	c #888276",
"39	c #574C43",
"49	c #797366",
"59	c #A7A198",
"69	c #695D54",
"79	c #7E776B",
"89	c #5C5349",
"99	c #887E76",
"09	c #62584F",
"a9	c #595144",
"b9	c #70685E",
"c9	c #766D61",
"d9	c #685E52",
"e9	c #80766D",
"f9	c #75695D",
"g9	c #796E64",
"h9	c #79766C",
"i9	c #554F47",
"j9	c #4E4945",
"k9	c #4C453F",
"l9	c #59544D",
"m9	c #4D4642",
"n9	c #514E46",
"o9	c #524C46",
"p9	c #4F4942",
"q9	c #605A56",
"r9	c #8F837E",
"s9	c #6E6961",
"t9	c #847D75",
"u9	c #807A6D",
"v9	c #706960",
"w9	c #665E56",
"x9	c #63605A",
"y9	c #817971",
"z9	c #4B443C",
"A9	c #342B27",
"B9	c #807A70",
"C9	c #4E473F",
"D9	c #8D8479",
"E9	c #6B6157",
"F9	c #5E5450",
"G9	c #938C83",
"H9	c #746D64",
"I9	c #969087",
"J9	c #9C978F",
"K9	c #959189",
"L9	c #736D64",
"M9	c #5E5852",
"N9	c #938C85",
"O9	c #898379",
"P9	c #7B786C",
"Q9	c #554E46",
"R9	c #8B847F",
"S9	c #918E86",
"T9	c #756C64",
"U9	c #8F887D",
"V9	c #7E736C",
"W9	c #89837A",
"X9	c #98968E",
"Y9	c #89837D",
"Z9	c #7D7970",
"`9	c #534C42",
" 0	c #7A756C",
".0	c #7D776D",
"+0	c #5F5A50",
"@0	c #68625A",
"#0	c #958E85",
"$0	c #949187",
"%0	c #887F74",
"&0	c #70635A",
"*0	c #4F4840",
"=0	c #8B857F",
"-0	c #8B8880",
";0	c #6E6B61",
">0	c #676058",
",0	c #69675D",
"'0	c #59584E",
")0	c #463F35",
"!0	c #7A756B",
"~0	c #615C54",
"{0	c #5E5A51",
"]0	c #3C3833",
"^0	c #6E6560",
"/0	c #53504A",
"(0	c #71695C",
"_0	c #7D7771",
":0	c #79716E",
"<0	c #5B584C",
"[0	c #5D5C57",
"}0	c #545049",
"|0	c #968F88",
"10	c #938B86",
"20	c #77786E",
"30	c #66655F",
"40	c #605957",
"50	c #8C8A82",
"60	c #948B7F",
"70	c #756F65",
"80	c #676663",
"90	c #78756C",
"00	c #736A65",
"a0	c #85807A",
"b0	c #848680",
"c0	c #71665B",
"d0	c #6D6C65",
"e0	c #696461",
"f0	c #7D7C71",
"g0	c #847D79",
"h0	c #59544E",
"i0	c #645E59",
"j0	c #5B5650",
"k0	c #716F65",
"l0	c #797B73",
"m0	c #858080",
"n0	c #73685D",
"o0	c #A19F98",
"p0	c #8A8680",
"q0	c #878680",
"r0	c #8F8D85",
"s0	c #8B8782",
"t0	c #87817F",
"u0	c #7D7573",
"v0	c #8B8680",
"w0	c #80817A",
"x0	c #706357",
"y0	c #88847D",
"z0	c #8A8780",
"A0	c #7A746F",
"B0	c #7B7574",
"C0	c #686963",
"D0	c #88837D",
"E0	c #6D6967",
"F0	c #5D5853",
"G0	c #57524E",
"H0	c #726B69",
"I0	c #808178",
"J0	c #7F7A76",
"K0	c #817979",
"L0	c #837C7A",
"M0	c #5A5049",
"N0	c #726C64",
"O0	c #7C7B76",
"P0	c #8B8882",
"Q0	c #807B78",
"R0	c #908D89",
"S0	c #6A6360",
"T0	c #928E8B",
"U0	c #7F7E7A",
"V0	c #8A8A83",
"W0	c #808179",
"X0	c #8C8B84",
"Y0	c #9B9081",
"Z0	c #616458",
"`0	c #918D8B",
" a	c #7C7D72",
".a	c #7E7A77",
"+a	c #8A8784",
"@a	c #645B4F",
"#a	c #797372",
"$a	c #727167",
"%a	c #615B52",
"&a	c #4C4740",
"*a	c #6D6A60",
"=a	c #6F6863",
"-a	c #86817E",
";a	c #908E86",
">a	c #7A716F",
",a	c #8F8A83",
"'a	c #847D78",
")a	c #7C7975",
"!a	c #7C7C77",
"~a	c #837A76",
"{a	c #8F8C88",
"]a	c #84877B",
"^a	c #62605B",
"/a	c #726A61",
"(a	c #94908D",
"_a	c #71726A",
":a	c #69635D",
"<a	c #8C8D87",
"[a	c #757271",
"}a	c #87837C",
"|a	c #837D79",
"1a	c #89837C",
"2a	c #7D7D78",
"3a	c #7B7572",
"4a	c #868580",
"5a	c #73746D",
"6a	c #7A7572",
"7a	c #837C79",
"8a	c #958D84",
"9a	c #7B7C76",
"0a	c #6D6B67",
"aa	c #8F8377",
"ba	c #645F58",
"ca	c #7F7B79",
"da	c #7F7A74",
"ea	c #64625B",
"fa	c #807875",
"ga	c #787970",
"ha	c #928D8A",
"ia	c #7F7F7B",
"ja	c #79736F",
"ka	c #8D8987",
"la	c #4E4C48",
"ma	c #77776F",
"na	c #66655C",
"oa	c #5F5E58",
"pa	c #79726F",
"qa	c #7F8079",
"ra	c #868681",
"sa	c #968F7E",
"ta	c #8A847F",
"ua	c #727267",
"va	c #7B7A73",
"wa	c #989790",
"xa	c #94918B",
"ya	c #97948E",
"za	c #7F7E79",
"Aa	c #8E867B",
"Ba	c #8E837F",
"Ca	c #8A8482",
"Da	c #63615B",
"Ea	c #7E7774",
"Fa	c #65625A",
"Ga	c #8F8A86",
"Ha	c #8B8482",
"Ia	c #847E77",
"Ja	c #87837B",
"Ka	c #898078",
"La	c #9A9994",
"Ma	c #5D5A54",
"Na	c #625C57",
"Oa	c #8E8D86",
"Pa	c #87867E",
"Qa	c #7D7C78",
"Ra	c #9B9890",
"Sa	c #82776A",
"Ta	c #757570",
"Ua	c #504947",
"Va	c #726C67",
"Wa	c #8D8C85",
"Xa	c #77706B",
"Ya	c #706964",
"Za	c #76685C",
"`a	c #868680",
" b	c #837D7B",
".b	c #7F7877",
"+b	c #5D5B51",
"@b	c #99928D",
"#b	c #635C57",
"$b	c #83827E",
"%b	c #888683",
"&b	c #666259",
"*b	c #6D6961",
"=b	c #67615C",
"-b	c #7B7673",
";b	c #9D9A93",
">b	c #93908B",
",b	c #7C726A",
"'b	c #8E8D83",
")b	c #97928F",
"!b	c #86867E",
"~b	c #756E6C",
"{b	c #7D7773",
"]b	c #8D8883",
"^b	c #7D736C",
"/b	c #797572",
"(b	c #6F7166",
"_b	c #787772",
":b	c #958F80",
"<b	c #6D6863",
"[b	c #8E8883",
"}b	c #93918C",
"|b	c #766A5E",
"1b	c #87817D",
"2b	c #797974",
"3b	c #7D7977",
"4b	c #847C76",
"5b	c #989792",
"6b	c #8C867F",
"7b	c #918C85",
"8b	c #6B6460",
"9b	c #766F6D",
"0b	c #7A716B",
"ab	c #88867C",
"bb	c #8B8A82",
"cb	c #6E6E67",
"db	c #71675A",
"eb	c #99938E",
"fb	c #7F7A79",
"gb	c #97908A",
"hb	c #857E79",
"ib	c #6E6E68",
"jb	c #6D6C63",
"kb	c #5F5D56",
"lb	c #6F6F67",
"mb	c #5A534E",
"nb	c #8A817B",
"ob	c #7F7771",
"pb	c #6C6C65",
"qb	c #48433D",
"rb	c #605C53",
"sb	c #707167",
"tb	c #726C68",
"ub	c #72706B",
"vb	c #7C6F62",
"wb	c #9B9791",
"xb	c #817E7A",
"yb	c #99958E",
"zb	c #403C35",
"Ab	c #746C68",
"Bb	c #83807D",
"Cb	c #7C7775",
"Db	c #7C7C75",
"Eb	c #76716A",
"Fb	c #9D9A95",
"Gb	c #695F53",
"Hb	c #82807C",
"Ib	c #878881",
"Jb	c #6B6B62",
"Kb	c #86817A",
"Lb	c #7C7773",
"Mb	c #807E75",
"Nb	c #77756A",
"Ob	c #68655B",
"Pb	c #6F6763",
"Qb	c #5F5A53",
"Rb	c #59524F",
"Sb	c #81766B",
"Tb	c #82827B",
"Ub	c #77776E",
"Vb	c #625A55",
"Wb	c #665F59",
"Xb	c #554D49",
"Yb	c #685F5A",
"Zb	c #646157",
"`b	c #746C65",
" c	c #66625D",
".c	c #77706A",
"+c	c #8C8780",
"@c	c #867F7C",
"#c	c #58514C",
"$c	c #64625A",
"%c	c #615749",
"&c	c #686661",
"*c	c #615F58",
"=c	c #5C5A54",
"-c	c #73716A",
";c	c #767773",
">c	c #78706D",
",c	c #6A6562",
"'c	c #5A5A50",
")c	c #918D89",
"!c	c #787773",
"~c	c #6F6F6A",
"{c	c #7D746E",
"]c	c #766C60",
"^c	c #676458",
"/c	c #8E8A84",
"(c	c #857E7A",
"_c	c #716F6C",
":c	c #6A695E",
"<c	c #777773",
"[c	c #797972",
"}c	c #81776A",
"|c	c #74766E",
"1c	c #7C7B71",
"2c	c #6B5F54",
"3c	c #807974",
"4c	c #7B7573",
"5c	c #68645A",
"6c	c #504A47",
"7c	c #423C37",
"8c	c #54544E",
"9c	c #908C85",
"0c	c #7F7E7B",
"ac	c #7A7974",
"bc	c #978C7E",
"cc	c #827F76",
"dc	c #79776D",
"ec	c #59554B",
"fc	c #68615D",
"gc	c #908B88",
"hc	c #858181",
"ic	c #716B62",
"jc	c #7A7A71",
"kc	c #847970",
"lc	c #767970",
"mc	c #6B6C61",
"nc	c #615E59",
"oc	c #5A564F",
"pc	c #615E54",
"qc	c #706155",
"rc	c #5A5148",
"sc	c #5A5750",
"tc	c #6B6461",
"uc	c #807876",
"vc	c #544E4B",
"wc	c #828177",
"xc	c #817874",
"yc	c #838176",
"zc	c #625B55",
"Ac	c #74746F",
"Bc	c #999084",
"Cc	c #676760",
"Dc	c #65645C",
"Ec	c #898582",
"Fc	c #7A736E",
"Gc	c #989691",
"Hc	c #58514D",
"Ic	c #7B756D",
"Jc	c #6D6B66",
"Kc	c #5A5650",
"Lc	c #6C6C66",
"Mc	c #6D6960",
"Nc	c #64615B",
"Oc	c #65615A",
"Pc	c #67655E",
"Qc	c #7B766D",
"Rc	c #6A6052",
"Sc	c #6E6662",
"Tc	c #585148",
"Uc	c #605D58",
"Vc	c #514F48",
"Wc	c #5A5450",
"Xc	c #8B877E",
"Yc	c #706B68",
"Zc	c #6B6C62",
"`c	c #7B7165",
" d	c #8D8985",
".d	c #49423C",
"+d	c #5B574F",
"@d	c #8C8A85",
"#d	c #87857B",
"$d	c #817F7B",
"%d	c #8E8885",
"&d	c #8C8881",
"*d	c #665D54",
"=d	c #66615D",
"-d	c #5B584F",
";d	c #58524B",
">d	c #8C8275",
",d	c #7C7B72",
"'d	c #5C5651",
")d	c #645C59",
"!d	c #605F5A",
"~d	c #848379",
"{d	c #65645F",
"]d	c #5B534E",
"^d	c #6A615B",
"/d	c #64645D",
"(d	c #8E8D88",
"_d	c #7D7267",
":d	c #75756C",
"<d	c #5C5B52",
"[d	c #6C6961",
"}d	c #737469",
"|d	c #6C6A60",
"1d	c #827F74",
"2d	c #6E6A68",
"3d	c #8D8986",
"4d	c #8C8678",
"5d	c #8C877F",
"6d	c #82807D",
"7d	c #83847F",
"8d	c #4E453F",
"9d	c #56534C",
"0d	c #7C7060",
"ad	c #655E58",
"bd	c #767370",
"cd	c #726E63",
"dd	c #56544C",
"ed	c #59554F",
"fd	c #6A6764",
"gd	c #7A7A76",
"hd	c #838278",
"id	c #3F3E32",
"jd	c #4F4944",
"kd	c #999086",
"ld	c #615D56",
"md	c #7F7874",
"nd	c #77706C",
"od	c #5C5951",
"pd	c #5E5A54",
"qd	c #9F9892",
"rd	c #8C887E",
"sd	c #676460",
"td	c #493F37",
"ud	c #675A50",
"vd	c #67665D",
"wd	c #6C6C63",
"xd	c #736C64",
"yd	c #5B5A51",
"zd	c #86827A",
"Ad	c #7B7875",
"Bd	c #79716D",
"Cd	c #857C6C",
"Dd	c #878782",
"Ed	c #625B56",
"Fd	c #55514B",
"Gd	c #5D5D57",
"Hd	c #89847C",
"Id	c #4F4A44",
"Jd	c #877E78",
"Kd	c #898983",
"Ld	c #807A74",
"Md	c #77685E",
"Nd	c #7E8078",
"Od	c #776F6D",
"Pd	c #706D61",
"Qd	c #615A55",
"Rd	c #878380",
"Sd	c #93908A",
"Td	c #8F8C8A",
"Ud	c #8E8E89",
"Vd	c #8F9189",
"Wd	c #857D71",
"Xd	c #5A554C",
"Yd	c #605854",
"Zd	c #645E57",
"`d	c #7E7366",
" e	c #78716C",
".e	c #A4A097",
"+e	c #4E4A43",
"@e	c #918A84",
"#e	c #8D8882",
"$e	c #8D8A84",
"%e	c #8E8475",
"&e	c #7E7D76",
"*e	c #7C7A6F",
"=e	c #69635F",
"-e	c #736B65",
";e	c #777471",
">e	c #86807D",
",e	c #5E5654",
"'e	c #82776C",
")e	c #7B7674",
"!e	c #615D55",
"~e	c #7A6F62",
"{e	c #837F74",
"]e	c #95928D",
"^e	c #8F8D86",
"/e	c #656259",
"(e	c #6B6662",
"_e	c #64635B",
":e	c #55514C",
"<e	c #919189",
"[e	c #6F6D63",
"}e	c #6D6D67",
"|e	c #7D6E5F",
"1e	c #7E7F77",
"2e	c #605F55",
"3e	c #6D6761",
"4e	c #5E5953",
"5e	c #7F7D72",
"6e	c #595550",
"7e	c #918F86",
"8e	c #695B51",
"9e	c #64574C",
"0e	c #9B9892",
"ae	c #706762",
"be	c #736C66",
"ce	c #534B43",
"de	c #99938B",
"ee	c #635C55",
"fe	c #7D766D",
"ge	c #554D44",
"he	c #97918C",
"ie	c #656156",
"je	c #867E78",
"ke	c #776E68",
"le	c #9D9C95",
"me	c #685D4E",
"ne	c #888376",
"oe	c #928B87",
"pe	c #6C6B65",
"qe	c #7A726C",
"re	c #858280",
"se	c #827C7B",
"te	c #636058",
"ue	c #807975",
"ve	c #8F8A84",
"we	c #9E9186",
"xe	c #4F4A42",
"ye	c #5F5B52",
"ze	c #817F75",
"Ae	c #8D8D80",
"Be	c #645B52",
"Ce	c #2C251B",
"De	c #272219",
"Ee	c #2F2923",
"Fe	c #564F48",
"Ge	c #5B544D",
"He	c #655C54",
"Ie	c #5B524E",
"Je	c #6F675F",
"Ke	c #8E8B82",
"Le	c #8F8C83",
"Me	c #5E5B50",
"Ne	c #88827E",
"Oe	c #685D56",
"Pe	c #453D36",
"Qe	c #7F7770",
"Re	c #8E887F",
"Se	c #1A140A",
"Te	c #645C53",
"Ue	c #4C453D",
"Ve	c #4C453E",
"We	c #423A2E",
"Xe	c #39352E",
"Ye	c #92897E",
"Ze	c #3A2E25",
"`e	c #625649",
" f	c #5E5047",
".f	c #332B22",
"+f	c #322A22",
"@f	c #3F382F",
"#f	c #453F34",
"$f	c #1F1C14",
"%f	c #221A13",
"&f	c #2E271E",
"*f	c #201A13",
"=f	c #393127",
"-f	c #38352B",
";f	c #1D160D",
">f	c #16100C",
",f	c #251D14",
"'f	c #302C25",
")f	c #4A443B",
"!f	c #48403C",
"~f	c #221C16",
"{f	c #221B12",
"]f	c #4A453C",
"^f	c #534E48",
"/f	c #514C45",
"(f	c #605952",
"_f	c #5D534B",
":f	c #7C756D",
"<f	c #7E766D",
"[f	c #6A665B",
"}f	c #5A524C",
"|f	c #221A12",
"1f	c #261D13",
"2f	c #3B3327",
"3f	c #7A7568",
"4f	c #534F46",
"5f	c #6A635D",
"6f	c #8C8580",
"7f	c #857F75",
"8f	c #7F7A71",
"9f	c #3D3A2F",
"0f	c #5A544F",
"af	c #453F36",
"bf	c #7C756F",
"cf	c #9A968E",
"df	c #999592",
"ef	c #3E372C",
"ff	c #918579",
"gf	c #777160",
"hf	c #77685A",
"if	c #968A82",
"jf	c #8E8377",
"kf	c #776D60",
"lf	c #5D544A",
"mf	c #5F5349",
"nf	c #7A6F64",
"of	c #72685B",
"pf	c #736A5F",
"qf	c #7B716B",
"rf	c #867B71",
"sf	c #8E8479",
"tf	c #857C71",
"uf	c #50493F",
"vf	c #7E766A",
"wf	c #827A6D",
"xf	c #746C60",
"yf	c #9D9386",
"zf	c #908679",
"Af	c #8B8073",
"Bf	c #7C7468",
"Cf	c #7D7469",
"Df	c #877F73",
"Ef	c #8E8476",
"Ff	c #5F544B",
"Gf	c #867C6E",
"Hf	c #766960",
"If	c #73695B",
"Jf	c #605649",
"Kf	c #4D4538",
"Lf	c #756D65",
"Mf	c #5B5144",
"Nf	c #71685D",
"Of	c #7C7064",
"Pf	c #6E6357",
"Qf	c #7E7369",
"Rf	c #716358",
"Sf	c #90877A",
"Tf	c #8B817A",
"Uf	c #8C857A",
"Vf	c #685E54",
"Wf	c #6A5E55",
"Xf	c #92887C",
"Yf	c #80776B",
"Zf	c #7C7266",
"`f	c #494134",
" g	c #70685F",
".g	c #786E67",
"+g	c #978F85",
"@g	c #60564B",
"#g	c #776E64",
"$g	c #51473E",
"%g	c #4E483E",
"&g	c #7A706B",
"*g	c #4D453B",
"=g	c #635A52",
"-g	c #655A50",
";g	c #777167",
">g	c #766E62",
",g	c #746C5D",
"'g	c #A29C90",
")g	c #6C645A",
"!g	c #665D52",
"~g	c #524B3E",
"{g	c #6F665D",
"]g	c #574E44",
"^g	c #675F54",
"/g	c #50493E",
"(g	c #5A4F44",
"_g	c #5E5348",
":g	c #83776C",
"<g	c #575046",
"[g	c #776E65",
"}g	c #7C7267",
"|g	c #70665D",
"1g	c #7B736A",
"2g	c #81786E",
"3g	c #70675C",
"4g	c #7D786B",
"5g	c #8B8378",
"6g	c #92867C",
"7g	c #7F796D",
"8g	c #7C7063",
"9g	c #797266",
"0g	c #665F52",
"ag	c #8B877A",
"bg	c #554D46",
"cg	c #453F35",
"dg	c #6F675D",
"eg	c #676256",
"fg	c #695E58",
"gg	c #6A655B",
"hg	c #776F63",
"ig	c #6D6559",
"jg	c #6E6A5D",
"kg	c #7F7468",
"lg	c #6F6357",
"mg	c #797367",
"ng	c #70695B",
"og	c #5A4F45",
"pg	c #3D3531",
"qg	c #736964",
"rg	c #574F48",
"sg	c #6C645C",
"tg	c #636258",
"ug	c #5E5A52",
"vg	c #615A53",
"wg	c #4D4941",
"xg	c #645D52",
"yg	c #6C6053",
"zg	c #706056",
"Ag	c #5E5748",
"Bg	c #5E574F",
"Cg	c #565249",
"Dg	c #6B665C",
"Eg	c #79706B",
"Fg	c #6C625B",
"Gg	c #5B554F",
"Hg	c #5D5551",
"Ig	c #6C6865",
"Jg	c #7D786E",
"Kg	c #867B73",
"Lg	c #6E655E",
"Mg	c #807972",
"Ng	c #948C83",
"Og	c #8E877D",
"Pg	c #8C897E",
"Qg	c #6E645C",
"Rg	c #7F7B71",
"Sg	c #736B67",
"Tg	c #777271",
"Ug	c #857F7A",
"Vg	c #6C6A5E",
"Wg	c #6D6357",
"Xg	c #7C7669",
"Yg	c #807973",
"Zg	c #877E77",
"`g	c #625F58",
" h	c #656256",
".h	c #5E5952",
"+h	c #6B6B5F",
"@h	c #68645B",
"#h	c #47413C",
"$h	c #70685C",
"%h	c #7A7469",
"&h	c #878073",
"*h	c #726864",
"=h	c #7B746A",
"-h	c #887E75",
";h	c #B0ABA1",
">h	c #95908C",
",h	c #938C84",
"'h	c #5E564D",
")h	c #50483D",
"!h	c #58514B",
"~h	c #56514C",
"{h	c #7E7162",
"]h	c #71675D",
"^h	c #7C7673",
"/h	c #504945",
"(h	c #5B5851",
"_h	c #524E49",
":h	c #68685F",
"<h	c #6C6B62",
"[h	c #958C80",
"}h	c #56514F",
"|h	c #78706B",
"1h	c #6F6967",
"2h	c #746E6C",
"3h	c #504B48",
"4h	c #7C776F",
"5h	c #5E5951",
"6h	c #8D8984",
"7h	c #6E5F53",
"8h	c #7C6C5F",
"9h	c #6D6560",
"0h	c #878583",
"ah	c #736E6C",
"bh	c #888A82",
"ch	c #6F6B69",
"dh	c #88817C",
"eh	c #716A63",
"fh	c #6F6C62",
"gh	c #5F5A54",
"hh	c #57524B",
"ih	c #5D5A51",
"jh	c #746F65",
"kh	c #5C5A53",
"lh	c #625F57",
"mh	c #7E7266",
"nh	c #86796E",
"oh	c #706D63",
"ph	c #6E6E69",
"qh	c #5C584F",
"rh	c #7A7370",
"sh	c #71716A",
"th	c #857D7B",
"uh	c #87817C",
"vh	c #8B8983",
"wh	c #655D56",
"xh	c #605955",
"yh	c #5F5955",
"zh	c #7A7061",
"Ah	c #887D71",
"Bh	c #656359",
"Ch	c #867E77",
"Dh	c #989592",
"Eh	c #82827C",
"Fh	c #8F8C84",
"Gh	c #87867D",
"Hh	c #8B8581",
"Ih	c #818178",
"Jh	c #8B8076",
"Kh	c #726A67",
"Lh	c #605C56",
"Mh	c #69695F",
"Nh	c #55524C",
"Oh	c #87857A",
"Ph	c #6D6660",
"Qh	c #5D5B54",
"Rh	c #6C655C",
"Sh	c #63625F",
"Th	c #625A56",
"Uh	c #4C4741",
"Vh	c #7C7163",
"Wh	c #7E7264",
"Xh	c #908885",
"Yh	c #96948D",
"Zh	c #948E8A",
"`h	c #8F8984",
" i	c #545145",
".i	c #7E7B79",
"+i	c #776D63",
"@i	c #7F7C71",
"#i	c #625C5A",
"$i	c #716965",
"%i	c #646159",
"&i	c #5E5853",
"*i	c #78746B",
"=i	c #89827D",
"-i	c #827565",
";i	c #89887D",
">i	c #6C645F",
",i	c #737267",
"'i	c #716A67",
")i	c #827E74",
"!i	c #908C86",
"~i	c #868483",
"{i	c #8A8783",
"]i	c #827E7B",
"^i	c #7F7976",
"/i	c #6A6962",
"(i	c #68695F",
"_i	c #7C7877",
":i	c #83857B",
"<i	c #787268",
"[i	c #534F4B",
"}i	c #595750",
"|i	c #777469",
"1i	c #78726E",
"2i	c #5F5B56",
"3i	c #727168",
"4i	c #84827D",
"5i	c #908C8B",
"6i	c #3F3730",
"7i	c #666058",
"8i	c #737269",
"9i	c #45413C",
"0i	c #7B6E62",
"ai	c #706D69",
"bi	c #939089",
"ci	c #6D6B61",
"di	c #5C5950",
"ei	c #716E6B",
"fi	c #96928A",
"gi	c #706F6A",
"hi	c #827A75",
"ii	c #918C86",
"ji	c #676456",
"ki	c #787972",
"li	c #524B48",
"mi	c #646056",
"ni	c #716D6A",
"oi	c #8F8A87",
"pi	c #7F756B",
"qi	c #6A5F51",
"ri	c #6B675D",
"si	c #8E8984",
"ti	c #766F6B",
"ui	c #8C8682",
"vi	c #7D7A78",
"wi	c #7B7167",
"xi	c #747369",
"yi	c #6C6D66",
"zi	c #737065",
"Ai	c #514C47",
"Bi	c #6F6861",
"Ci	c #59554E",
"Di	c #737166",
"Ei	c #67655C",
"Fi	c #58504A",
"Gi	c #767870",
"Hi	c #7D6F68",
"Ii	c #827564",
"Ji	c #707066",
"Ki	c #89827E",
"Li	c #736E66",
"Mi	c #675F58",
"Ni	c #7E7B71",
"Oi	c #85847B",
"Pi	c #6A6355",
"Qi	c #6A6860",
"Ri	c #898880",
"Si	c #7C7876",
"Ti	c #6F6965",
"Ui	c #56504B",
"Vi	c #5E5752",
"Wi	c #615E56",
"Xi	c #5F5C52",
"Yi	c #6E6E6B",
"Zi	c #888071",
"`i	c #707169",
" j	c #66605A",
".j	c #8C8782",
"+j	c #5F5C56",
"@j	c #97958C",
"#j	c #3C3834",
"$j	c #5C5652",
"%j	c #555149",
"&j	c #90867C",
"*j	c #59574D",
"=j	c #87857D",
"-j	c #48443C",
";j	c #5F5853",
">j	c #817D7B",
",j	c #4A4844",
"'j	c #82817E",
")j	c #736657",
"!j	c #84847B",
"~j	c #8A8480",
"{j	c #524D46",
"]j	c #615B56",
"^j	c #8A8985",
"/j	c #8E877C",
"(j	c #848078",
"_j	c #898982",
":j	c #5A524D",
"<j	c #59544F",
"[j	c #554E49",
"}j	c #46413B",
"|j	c #68675D",
"1j	c #594F4B",
"2j	c #75756E",
"3j	c #747371",
"4j	c #625E56",
"5j	c #796E65",
"6j	c #6F6356",
"7j	c #756E6B",
"8j	c #7B7372",
"9j	c #5E5A56",
"0j	c #7C746E",
"aj	c #5B5654",
"bj	c #767672",
"cj	c #6C6C62",
"dj	c #6E6860",
"ej	c #6F6963",
"fj	c #8A827E",
"gj	c #4E4641",
"hj	c #46453D",
"ij	c #575550",
"jj	c #626057",
"kj	c #5E5F57",
"lj	c #554F4A",
"mj	c #56504A",
"nj	c #6B645D",
"oj	c #66605C",
"pj	c #64635A",
"qj	c #595751",
"rj	c #6B6960",
"sj	c #6E6F68",
"tj	c #605044",
"uj	c #84786A",
"vj	c #58554F",
"wj	c #4E4942",
"xj	c #5E5751",
"yj	c #58524C",
"zj	c #666460",
"Aj	c #555248",
"Bj	c #7A7A74",
"Cj	c #56544F",
"Dj	c #635E5B",
"Ej	c #47443D",
"Fj	c #4E4944",
"Gj	c #57544D",
"Hj	c #746C69",
"Ij	c #464138",
"Jj	c #655F58",
"Kj	c #938C80",
"Lj	c #88877F",
"Mj	c #6C6B64",
"Nj	c #4A453E",
"Oj	c #424238",
"Pj	c #5A584F",
"Qj	c #696860",
"Rj	c #3B392F",
"Sj	c #5B544F",
"Tj	c #81817D",
"Uj	c #514D46",
"Vj	c #74756A",
"Wj	c #54524C",
"Xj	c #897D6F",
"Yj	c #7A6F63",
"Zj	c #67665F",
"`j	c #4D4B46",
" k	c #4C4641",
".k	c #807871",
"+k	c #605E56",
"@k	c #747268",
"#k	c #777770",
"$k	c #7E7672",
"%k	c #6F6E64",
"&k	c #5F5953",
"*k	c #5C564F",
"=k	c #6B6A60",
"-k	c #888981",
";k	c #8F8A7F",
">k	c #7D7C77",
",k	c #5D5751",
"'k	c #53504B",
")k	c #47433E",
"!k	c #696562",
"~k	c #655F5B",
"{k	c #645C57",
"]k	c #796F6B",
"^k	c #534F4A",
"/k	c #625D54",
"(k	c #666358",
"_k	c #97948F",
":k	c #8C8375",
"<k	c #6F6656",
"[k	c #44443B",
"}k	c #5A5550",
"|k	c #746D66",
"1k	c #524F48",
"2k	c #69615D",
"3k	c #726E6A",
"4k	c #626359",
"5k	c #5C5955",
"6k	c #585550",
"7k	c #66665D",
"8k	c #828078",
"9k	c #67645F",
"0k	c #54524A",
"ak	c #69625E",
"bk	c #696055",
"ck	c #685E5D",
"dk	c #6A685E",
"ek	c #443F38",
"fk	c #5D584F",
"gk	c #5F5B57",
"hk	c #504D45",
"ik	c #615C58",
"jk	c #635C59",
"kk	c #5A564D",
"lk	c #4F4943",
"mk	c #4E4D46",
"nk	c #706966",
"ok	c #66655D",
"pk	c #827B75",
"qk	c #57554F",
"rk	c #5B5753",
"sk	c #726859",
"tk	c #7F7367",
"uk	c #5C5C54",
"vk	c #48433F",
"wk	c #5D5C53",
"xk	c #635C56",
"yk	c #6D655F",
"zk	c #525047",
"Ak	c #57534E",
"Bk	c #6F6A63",
"Ck	c #453F38",
"Dk	c #585750",
"Ek	c #666461",
"Fk	c #555148",
"Gk	c #65584D",
"Hk	c #4C4944",
"Ik	c #5E5E57",
"Jk	c #4A463E",
"Kk	c #696662",
"Lk	c #767168",
"Mk	c #696962",
"Nk	c #53504C",
"Ok	c #87877E",
"Pk	c #685B4C",
"Qk	c #4D4844",
"Rk	c #4F4C48",
"Sk	c #595650",
"Tk	c #696160",
"Uk	c #46413A",
"Vk	c #55534B",
"Wk	c #7F7E75",
"Xk	c #5E5956",
"Yk	c #605D55",
"Zk	c #575149",
"`k	c #887D72",
" l	c #78746A",
".l	c #605853",
"+l	c #737268",
"@l	c #67665E",
"#l	c #616159",
"$l	c #656560",
"%l	c #53524D",
"&l	c #6A6B61",
"*l	c #676962",
"=l	c #5E5E58",
"-l	c #57514D",
";l	c #55514A",
">l	c #756E69",
",l	c #67655F",
"'l	c #64635F",
")l	c #8D8C84",
"!l	c #97897C",
"~l	c #7C7466",
"{l	c #59564F",
"]l	c #5F5954",
"^l	c #57544E",
"/l	c #4D4D43",
"(l	c #4E4B45",
"_l	c #5B5951",
":l	c #4E4A42",
"<l	c #5A574F",
"[l	c #818179",
"}l	c #93877E",
"|l	c #5D5C58",
"1l	c #605E55",
"2l	c #56554A",
"3l	c #847E76",
"4l	c #696A62",
"5l	c #666561",
"6l	c #68635F",
"7l	c #71706C",
"8l	c #686461",
"9l	c #5E5F54",
"0l	c #696761",
"al	c #57504B",
"bl	c #69665B",
"cl	c #706858",
"dl	c #6C5B54",
"el	c #6E6B6A",
"fl	c #75766D",
"gl	c #615956",
"hl	c #454239",
"il	c #87867B",
"jl	c #5C544D",
"kl	c #413A34",
"ll	c #5A594D",
"ml	c #6E695F",
"nl	c #8C8681",
"ol	c #504B44",
"pl	c #6F675E",
"ql	c #69675C",
"rl	c #564E48",
"sl	c #605B58",
"tl	c #5F5D55",
"ul	c #726A65",
"vl	c #67625F",
"wl	c #65635E",
"xl	c #544F4B",
"yl	c #6C6663",
"zl	c #615F56",
"Al	c #5C5552",
"Bl	c #524942",
"Cl	c #342D23",
"Dl	c #413933",
"El	c #3F3A31",
"Fl	c #47433B",
"Gl	c #5B554E",
"Hl	c #665F5A",
"Il	c #7D786D",
"Jl	c #373228",
"Kl	c #564E49",
"Ll	c #38342D",
"Ml	c #4A433A",
"Nl	c #645D54",
"Ol	c #595046",
"Pl	c #3C352F",
"Ql	c #867F78",
"Rl	c #857E77",
"Sl	c #5D544F",
"Tl	c #818077",
"Ul	c #938A85",
"Vl	c #7D7672",
"Wl	c #47413A",
"Xl	c #716F62",
"Yl	c #807C72",
"Zl	c #92928A",
"`l	c #8E8981",
" m	c #786F67",
".m	c #584F43",
"+m	c #716A60",
"@m	c #9D9990",
"#m	c #545047",
"$m	c #504C43",
"%m	c #56524C",
"&m	c #6B625B",
"*m	c #797466",
"=m	c #746B61",
"-m	c #413A32",
";m	c #918C83",
">m	c #8A847C",
",m	c #69635B",
"'m	c #5F5551",
")m	c #5C554E",
"!m	c #756C66",
"~m	c #726A64",
"{m	c #494437",
"]m	c #28241C",
"^m	c #645A51",
"/m	c #544B3E",
"(m	c #7C736B",
"_m	c #686155",
":m	c #665B52",
"<m	c #736A61",
"[m	c #786D61",
"}m	c #52483D",
"|m	c #7B7265",
"1m	c #776B5E",
"2m	c #877C70",
"3m	c #71665C",
"4m	c #6F685B",
"5m	c #8A7B70",
"6m	c #716758",
"7m	c #5C524B",
"8m	c #685F55",
"9m	c #60534C",
"0m	c #6E6256",
"am	c #655D51",
"bm	c #7D6F66",
"cm	c #4B453B",
"dm	c #787062",
"em	c #645B54",
"fm	c #8A8377",
"gm	c #7D7365",
"hm	c #7F7567",
"im	c #746A60",
"jm	c #797369",
"km	c #7D756B",
"lm	c #726D63",
"mm	c #554E44",
"nm	c #6B635A",
"om	c #504B41",
"pm	c #746A5E",
"qm	c #7C7067",
"rm	c #766B61",
"sm	c #746860",
"tm	c #90867A",
"um	c #786E63",
"vm	c #6F655B",
"wm	c #5C5549",
"xm	c #83786D",
"ym	c #544B40",
"zm	c #685E51",
"Am	c #776E63",
"Bm	c #70675B",
"Cm	c #716B5F",
"Dm	c #675F51",
"Em	c #544D40",
"Fm	c #685E56",
"Gm	c #6E6257",
"Hm	c #7F7163",
"Im	c #767064",
"Jm	c #786F63",
"Km	c #8A8479",
"Lm	c #92897D",
"Mm	c #90887C",
"Nm	c #7E7368",
"Om	c #6F685E",
"Pm	c #3A3028",
"Qm	c #625B50",
"Rm	c #5E5548",
"Sm	c #696157",
"Tm	c #5C5247",
"Um	c #6B5F55",
"Vm	c #4A433C",
"Wm	c #868172",
"Xm	c #938A80",
"Ym	c #685D54",
"Zm	c #8C7F77",
"`m	c #524940",
" n	c #898276",
".n	c #534840",
"+n	c #6D645C",
"@n	c #30271E",
"#n	c #5D594D",
"$n	c #888278",
"%n	c #7C7568",
"&n	c #7B766C",
"*n	c #675B52",
"=n	c #716963",
"-n	c #675F56",
";n	c #676258",
">n	c #6E685A",
",n	c #80786F",
"'n	c #908476",
")n	c #685E53",
"!n	c #6F645B",
"~n	c #6E665B",
"{n	c #80796C",
"]n	c #757066",
"^n	c #847E71",
"/n	c #61554C",
"(n	c #635A50",
"_n	c #7F796C",
":n	c #6A5F55",
"<n	c #6F6358",
"[n	c #5D564C",
"}n	c #585047",
"|n	c #5B564D",
"1n	c #8A887E",
"2n	c #7D756E",
"3n	c #3F3933",
"4n	c #484039",
"5n	c #756B61",
"6n	c #756B60",
"7n	c #73685E",
"8n	c #514A40",
"9n	c #6E675B",
"0n	c #696057",
"an	c #564C47",
"bn	c #3A342A",
"cn	c #695D57",
"dn	c #8C877A",
"en	c #8B847A",
"fn	c #60544E",
"gn	c #72695D",
"hn	c #8F887C",
"in	c #9E9487",
"jn	c #97897D",
"kn	c #898175",
"ln	c #6C6056",
"mn	c #776F61",
"nn	c #8C827B",
"on	c #50483B",
"pn	c #897C74",
"qn	c #5A4F46",
"rn	c #5A5449",
"sn	c #817B6F",
"tn	c #696457",
"un	c #8A8074",
"vn	c #8F887B",
"wn	c #5B564B",
"xn	c #615B50",
"yn	c #60574F",
"zn	c #7F776C",
"An	c #726B5F",
"Bn	c #62594D",
"Cn	c #7D766E",
"Dn	c #716A5F",
"En	c #82776E",
"Fn	c #8C827A",
"Gn	c #887F73",
"Hn	c #665E51",
"In	c #706B60",
"Jn	c #696159",
"Kn	c #595149",
"Ln	c #5A5145",
"Mn	c #726C62",
"Nn	c #7D746B",
"On	c #857C70",
"Pn	c #6F675C",
"Qn	c #695D53",
"Rn	c #766E5D",
"Sn	c #4E453A",
"Tn	c #7B786D",
"Un	c #827971",
"Vn	c #635C52",
"Wn	c #3C3631",
"Xn	c #544F47",
"Yn	c #696258",
"Zn	c #59504A",
"`n	c #68615B",
" o	c #524842",
".o	c #564C46",
"+o	c #7A7367",
"@o	c #59514D",
"#o	c #93928B",
"$o	c #8E8784",
"%o	c #716964",
"&o	c #554A40",
"*o	c #7B6B5E",
"=o	c #555049",
"-o	c #514946",
";o	c #898981",
">o	c #524B45",
",o	c #6E675E",
"'o	c #5E5552",
")o	c #625B59",
"!o	c #66594E",
"~o	c #6A6763",
"{o	c #413B34",
"]o	c #5C584E",
"^o	c #615957",
"/o	c #4D4842",
"(o	c #555046",
"_o	c #4E443B",
":o	c #4C4338",
"<o	c #6E6960",
"[o	c #605A52",
"}o	c #5D564F",
"|o	c #6E6661",
"1o	c #99988E",
"2o	c #6B6B60",
"3o	c #767368",
"4o	c #8A877F",
"5o	c #4C4C40",
"6o	c #4A4942",
"7o	c #514D48",
"8o	c #615E55",
"9o	c #484239",
"0o	c #59514B",
"ao	c #7D7063",
"bo	c #85807E",
"co	c #8F8F88",
"do	c #3E3A35",
"eo	c #675E56",
"fo	c #766E67",
"go	c #4D4945",
"ho	c #443F3B",
"io	c #5A5951",
"jo	c #4C4B42",
"ko	c #5C5B54",
"lo	c #909088",
"mo	c #62635D",
"no	c #564F46",
"oo	c #847C70",
"po	c #7F7977",
"qo	c #5D5C51",
"ro	c #62625A",
"so	c #4A453D",
"to	c #44413B",
"uo	c #6C6A68",
"vo	c #504842",
"wo	c #5E5447",
"xo	c #524B42",
"yo	c #5A574E",
"zo	c #49473C",
"Ao	c #4D4841",
"Bo	c #4F4843",
"Co	c #58564D",
"Do	c #70706B",
"Eo	c #938E8A",
"Fo	c #838077",
"Go	c #615B51",
"Ho	c #56524E",
"Io	c #55514D",
"Jo	c #57554C",
"Ko	c #3E3933",
"Lo	c #433F35",
"Mo	c #3D3731",
"No	c #484540",
"Oo	c #69605B",
"Po	c #817974",
"Qo	c #48443F",
"Ro	c #666156",
"So	c #838076",
"To	c #686361",
"Uo	c #3F3B34",
"Vo	c #4F463F",
"Wo	c #46433D",
"Xo	c #8B7F70",
"Yo	c #625D53",
"Zo	c #4F4B44",
"`o	c #524B44",
" p	c #524A42",
".p	c #665E58",
"+p	c #524D49",
"@p	c #706659",
"#p	c #645B59",
"$p	c #565048",
"%p	c #48483F",
"&p	c #49453D",
"*p	c #48433E",
"=p	c #434138",
"-p	c #5E5D57",
";p	c #56514B",
">p	c #494541",
",p	c #484642",
"'p	c #4A463F",
")p	c #706866",
"!p	c #5F5A55",
"~p	c #4A4440",
"{p	c #8D837A",
"]p	c #85847D",
"^p	c #504C46",
"/p	c #75756A",
"(p	c #67635F",
"_p	c #524F4A",
":p	c #54514A",
"<p	c #65625E",
"[p	c #655E5A",
"}p	c #696561",
"|p	c #6E6054",
"1p	c #635B55",
"2p	c #47463D",
"3p	c #626159",
"4p	c #55544A",
"5p	c #504D46",
"6p	c #616158",
"7p	c #8E8478",
"8p	c #8E8D85",
"9p	c #5C564E",
"0p	c #5D5C52",
"ap	c #5C5A50",
"bp	c #645D55",
"cp	c #665F5B",
"dp	c #4D4A43",
"ep	c #514E48",
"fp	c #5E5C57",
"gp	c #504743",
"hp	c #555249",
"ip	c #8B8579",
"jp	c #85847F",
"kp	c #5F5756",
"lp	c #626157",
"mp	c #626059",
"np	c #6B6053",
"op	c #625E51",
"pp	c #63635A",
"qp	c #4D4740",
"rp	c #5D5953",
"sp	c #78716D",
"tp	c #645F5C",
"up	c #4D4942",
"vp	c #746E65",
"wp	c #4C4941",
"xp	c #8A8982",
"yp	c #4C483F",
"zp	c #938578",
"Ap	c #5B5852",
"Bp	c #7C726C",
"Cp	c #595651",
"Dp	c #59544A",
"Ep	c #59534A",
"Fp	c #949089",
"Gp	c #58564C",
"Hp	c #837B76",
"Ip	c #867C70",
"Jp	c #858381",
"Kp	c #46423C",
"Lp	c #55544B",
"Mp	c #5B5955",
"Np	c #6B6B61",
"Op	c #5D5854",
"Pp	c #6F6D62",
"Qp	c #525149",
"Rp	c #716655",
"Sp	c #4D463C",
"Tp	c #45413B",
"Up	c #5A544C",
"Vp	c #534D4A",
"Wp	c #878278",
"Xp	c #514B47",
"Yp	c #6F6E63",
"Zp	c #4C4842",
"`p	c #56574D",
" q	c #616056",
".q	c #59514C",
"+q	c #888781",
"@q	c #59524A",
"#q	c #978F84",
"$q	c #423B35",
"%q	c #534D48",
"&q	c #615854",
"*q	c #423F37",
"=q	c #867D7B",
"-q	c #58554B",
";q	c #544E47",
">q	c #736B64",
",q	c #514F46",
"'q	c #757469",
")q	c #685F5D",
"!q	c #5F5E56",
"~q	c #99968D",
"{q	c #54514B",
"]q	c #726F6C",
"^q	c #64564C",
"/q	c #534940",
"(q	c #545048",
"_q	c #504B42",
":q	c #5A544E",
"<q	c #65645A",
"[q	c #5B544E",
"}q	c #4F4C46",
"|q	c #7A766D",
"1q	c #5E5B51",
"2q	c #4B433F",
"3q	c #888681",
"4q	c #4B4237",
"5q	c #575448",
"6q	c #60584F",
"7q	c #69685D",
"8q	c #4A463D",
"9q	c #58504B",
"0q	c #66655E",
"aq	c #7C7D77",
"bq	c #4D4943",
"cq	c #787269",
"dq	c #7B7063",
"eq	c #5F584D",
"fq	c #756D66",
"gq	c #6B615B",
"hq	c #666157",
"iq	c #5E5651",
"jq	c #635E54",
"kq	c #4D473F",
"lq	c #4F4B43",
"mq	c #54524B",
"nq	c #8A897F",
"oq	c #766E6B",
"pq	c #52504A",
"qq	c #47423C",
"rq	c #4E443F",
"sq	c #86796D",
"tq	c #48453D",
"uq	c #4C4A40",
"vq	c #443B39",
"wq	c #9C9793",
"xq	c #7A7B73",
"yq	c #777062",
"zq	c #5C544E",
"Aq	c #515048",
"Bq	c #696262",
"Cq	c #4D4A41",
"Dq	c #807769",
"Eq	c #68615E",
"Fq	c #635A56",
"Gq	c #78736A",
"Hq	c #58524D",
"Iq	c #66645A",
"Jq	c #504B43",
"Kq	c #5C5A4F",
"Lq	c #494841",
"Mq	c #544E44",
"Nq	c #90847A",
"Oq	c #45403B",
"Pq	c #524C48",
"Qq	c #545046",
"Rq	c #676259",
"Sq	c #4B4640",
"Tq	c #6C6B5F",
"Uq	c #7B7263",
"Vq	c #4E4B44",
"Wq	c #625C58",
"Xq	c #5A534F",
"Yq	c #72736B",
"Zq	c #7B6F62",
"`q	c #544A41",
" r	c #585251",
".r	c #706D62",
"+r	c #433C35",
"@r	c #605C52",
"#r	c #575247",
"$r	c #4D4843",
"%r	c #565047",
"&r	c #4A4641",
"*r	c #676661",
"=r	c #5F594E",
"-r	c #544E46",
";r	c #3D362C",
">r	c #807869",
",r	c #645D57",
"'r	c #6E6762",
")r	c #948E82",
"!r	c #5C5753",
"~r	c #817567",
"{r	c #443E38",
"]r	c #605E58",
"^r	c #55524A",
"/r	c #887D6F",
"(r	c #6A645A",
"_r	c #655D5A",
":r	c #4D473E",
"<r	c #635E55",
"[r	c #504C47",
"}r	c #504C44",
"|r	c #5D5C54",
"1r	c #4A4640",
"2r	c #524944",
"3r	c #312D26",
"4r	c #535046",
"5r	c #78756B",
"6r	c #5B5A52",
"7r	c #483F35",
"8r	c #857D6E",
"9r	c #5E5E55",
"0r	c #413D35",
"ar	c #454038",
"br	c #6A665C",
"cr	c #58534A",
"dr	c #4F473F",
"er	c #69625A",
"fr	c #59534D",
"gr	c #5E5955",
"hr	c #58544A",
"ir	c #5D5A55",
"jr	c #7D7465",
"kr	c #61625A",
"lr	c #413D38",
"mr	c #68655C",
"nr	c #5A534B",
"or	c #8F8478",
"pr	c #685C53",
"qr	c #5E554F",
"rr	c #58534F",
"sr	c #605751",
"tr	c #545349",
"ur	c #433F37",
"vr	c #44423C",
"wr	c #4B4941",
"xr	c #5B5652",
"yr	c #49423F",
"zr	c #5D5A50",
"Ar	c #47433C",
"Br	c #57514A",
"Cr	c #797971",
"Dr	c #605C51",
"Er	c #928F88",
"Fr	c #504741",
"Gr	c #878478",
"Hr	c #45433C",
"Ir	c #655E55",
"Jr	c #59544B",
"Kr	c #93938B",
"Lr	c #88817E",
"Mr	c #756A61",
"Nr	c #534C45",
"Or	c #5E5C55",
"Pr	c #5D5550",
"Qr	c #636057",
"Rr	c #56554E",
"Sr	c #74756D",
"Tr	c #4A4943",
"Ur	c #77766C",
"Vr	c #8A7E72",
"Wr	c #615E53",
"Xr	c #58574B",
"Yr	c #4C473E",
"Zr	c #524A43",
"`r	c #504A44",
" s	c #413B36",
".s	c #545045",
"+s	c #474439",
"@s	c #58574E",
"#s	c #4E4B41",
"$s	c #49453B",
"%s	c #625C53",
"&s	c #5B544C",
"*s	c #4B4642",
"=s	c #65665A",
"-s	c #463F36",
";s	c #655D4E",
">s	c #4D4846",
",s	c #59564D",
"'s	c #4A483E",
")s	c #56524D",
"!s	c #4A493F",
"~s	c #5D5A4F",
"{s	c #7D796F",
"]s	c #746C6A",
"^s	c #4C4942",
"/s	c #5B5950",
"(s	c #514F49",
"_s	c #67675C",
":s	c #867C6D",
"<s	c #555147",
"[s	c #4F4C44",
"}s	c #7B6D62",
"|s	c #4E463F",
"1s	c #504A43",
"2s	c #68665A",
"3s	c #534A44",
"4s	c #494540",
"5s	c #4A473E",
"6s	c #545148",
"7s	c #514943",
"8s	c #4E4740",
"9s	c #3C3831",
"0s	c #7F7F76",
"as	c #534743",
"bs	c #837C6F",
"cs	c #5A584D",
"ds	c #59564C",
"es	c #4E4943",
"fs	c #524E46",
"gs	c #6D665E",
"hs	c #514944",
"is	c #434039",
"js	c #716864",
"ks	c #4E4844",
"ls	c #80766A",
"ms	c #595451",
"ns	c #4C473F",
"os	c #524E48",
"ps	c #756F6E",
"qs	c #4A433E",
"rs	c #6A5E50",
"ss	c #494136",
"ts	c #5F5D53",
"us	c #79706A",
"vs	c #524F45",
"ws	c #4B473F",
"xs	c #4C4441",
"ys	c #514844",
"zs	c #565149",
"As	c #46433A",
"Bs	c #6F6960",
"Cs	c #6C655E",
"Ds	c #4D4A44",
"Es	c #4E4C45",
"Fs	c #3B342B",
"Gs	c #7F7666",
"Hs	c #8F8B81",
"Is	c #5E5750",
"Js	c #544E49",
"Ks	c #605A57",
"Ls	c #534B48",
"Ms	c #58574C",
"Ns	c #524B47",
"Os	c #736D63",
"Ps	c #49463F",
"Qs	c #57544A",
"Rs	c #706A61",
"Ss	c #564F47",
"Ts	c #594F42",
"Us	c #49473F",
"Vs	c #655E5B",
"Ws	c #515047",
"Xs	c #67675D",
"Ys	c #504E48",
"Zs	c #4F4B45",
"`s	c #514B44",
" t	c #504B46",
".t	c #56514D",
"+t	c #7E7769",
"@t	c #403B34",
"#t	c #4E4840",
"$t	c #757065",
"%t	c #4B453F",
"&t	c #5A5850",
"*t	c #56514E",
"=t	c #615953",
"-t	c #514C43",
";t	c #5A5A51",
">t	c #4B463F",
",t	c #85807D",
"'t	c #4E493C",
")t	c #837975",
"!t	c #4B453D",
"~t	c #656158",
"{t	c #48433C",
"]t	c #504D47",
"^t	c #3F3934",
"/t	c #46443C",
"(t	c #464439",
"_t	c #918C84",
":t	c #5B5A50",
"<t	c #524D47",
"[t	c #575349",
"}t	c #4A4541",
"|t	c #534E47",
"1t	c #847869",
"2t	c #423C35",
"3t	c #504E43",
"4t	c #625952",
"5t	c #6E6B5F",
"6t	c #5F5650",
"7t	c #57524A",
"8t	c #57534A",
"9t	c #635E52",
"0t	c #46423A",
"at	c #524B41",
"bt	c #877F71",
"ct	c #8C877E",
"dt	c #5A5852",
"et	c #565148",
"ft	c #4D4A42",
"gt	c #444138",
"ht	c #77756B",
"it	c #514C48",
"jt	c #737368",
"kt	c #5B5450",
"lt	c #46443F",
"mt	c #4C4844",
"nt	c #817B71",
"ot	c #645C58",
"pt	c #4D4743",
"qt	c #53524B",
"rt	c #605A58",
"st	c #625D5A",
"tt	c #494340",
"ut	c #4F4A45",
"vt	c #736656",
"wt	c #3D382E",
"xt	c #5B574C",
"yt	c #4E4A41",
"zt	c #6D6B60",
"At	c #656257",
"Bt	c #675E57",
"Ct	c #43413D",
"Dt	c #514F45",
"Et	c #5E5C52",
"Ft	c #555348",
"Gt	c #4A483F",
"Ht	c #54534A",
"It	c #3F3833",
"Jt	c #59554D",
"Kt	c #83796D",
"Lt	c #7B726A",
"Mt	c #4C4B43",
"Nt	c #524A46",
"Ot	c #454138",
"Pt	c #7F7775",
"Qt	c #594F4C",
"Rt	c #4B443D",
"St	c #49443D",
"Tt	c #5F5F57",
"Ut	c #7C7868",
"Vt	c #5B5952",
"Wt	c #48423D",
"Xt	c #544F46",
"Yt	c #616059",
"Zt	c #57554A",
"`t	c #312B22",
" u	c #372F29",
".u	c #302A23",
"+u	c #635A51",
"@u	c #5F564D",
"#u	c #827A74",
"$u	c #544D44",
"%u	c #57534C",
"&u	c #4A4339",
"*u	c #444036",
"=u	c #463E38",
"-u	c #49413A",
";u	c #908883",
">u	c #58534E",
",u	c #564A44",
"'u	c #786E5F",
")u	c #756F63",
"!u	c #7F796F",
"~u	c #3F3830",
"{u	c #565046",
"]u	c #776F64",
"^u	c #635F55",
"/u	c #47483D",
"(u	c #787A6F",
"_u	c #4C423C",
":u	c #7E756F",
"<u	c #585349",
"[u	c #3B362E",
"}u	c #3E3A2F",
"|u	c #4F4842",
"1u	c #69655A",
"2u	c #5B554B",
"3u	c #514F47",
"4u	c #544D46",
"5u	c #3A352F",
"6u	c #67685B",
"7u	c #58564B",
"8u	c #3F392F",
"9u	c #87806F",
"0u	c #706657",
"au	c #61584E",
"bu	c #73695F",
"cu	c #7A7066",
"du	c #877F70",
"eu	c #6D6359",
"fu	c #4B4339",
"gu	c #7E7468",
"hu	c #6B6158",
"iu	c #6E6559",
"ju	c #82756B",
"ku	c #6D655A",
"lu	c #50443C",
"mu	c #60564C",
"nu	c #504438",
"ou	c #636054",
"pu	c #60574C",
"qu	c #5A524A",
"ru	c #665D55",
"su	c #514B41",
"tu	c #746F63",
"uu	c #83796C",
"vu	c #61594F",
"wu	c #453E36",
"xu	c #4D443D",
"yu	c #6A6056",
"zu	c #675F53",
"Au	c #776F62",
"Bu	c #72675C",
"Cu	c #72685C",
"Du	c #787167",
"Eu	c #A39C92",
"Fu	c #534941",
"Gu	c #40372C",
"Hu	c #8F8574",
"Iu	c #908676",
"Ju	c #908277",
"Ku	c #837B6D",
"Lu	c #94877D",
"Mu	c #8C877C",
"Nu	c #655D4F",
"Ou	c #6E665E",
"Pu	c #746A5F",
"Qu	c #555045",
"Ru	c #877D71",
"Su	c #5B534B",
"Tu	c #877E6D",
"Uu	c #6F685A",
"Vu	c #82786B",
"Wu	c #898071",
"Xu	c #867D71",
"Yu	c #786E60",
"Zu	c #6F6259",
"`u	c #7A6D62",
" v	c #655D55",
".v	c #4F4941",
"+v	c #645E54",
"@v	c #555042",
"#v	c #908A7C",
"$v	c #786B64",
"%v	c #6C6355",
"&v	c #63594F",
"*v	c #736D60",
"=v	c #80746B",
"-v	c #60594C",
";v	c #918A7F",
">v	c #7C766C",
",v	c #7D7468",
"'v	c #8B8575",
")v	c #786C5F",
"!v	c #746B5F",
"~v	c #686356",
"{v	c #544E45",
"]v	c #686156",
"^v	c #574F45",
"/v	c #6B6359",
"(v	c #847A71",
"_v	c #786F64",
":v	c #776D64",
"<v	c #6E645D",
"[v	c #625D52",
"}v	c #7A7269",
"|v	c #70675D",
"1v	c #676055",
"2v	c #786F66",
"3v	c #72695E",
"4v	c #6C6256",
"5v	c #776E61",
"6v	c #857C77",
"7v	c #625A52",
"8v	c #645B53",
"9v	c #726960",
"0v	c #767066",
"av	c #69615B",
"bv	c #4A473F",
"cv	c #60554D",
"dv	c #716A5E",
"ev	c #4E4842",
"fv	c #574E45",
"gv	c #564D46",
"hv	c #534B46",
"iv	c #413B32",
"jv	c #69604F",
"kv	c #5E544C",
"lv	c #534E46",
"mv	c #716862",
"nv	c #6B645B",
"ov	c #6D675C",
"pv	c #574F4A",
"qv	c #57514B",
"rv	c #6C665E",
"sv	c #47443B",
"tv	c #665E5A",
"uv	c #5B594E",
"vv	c #61564A",
"wv	c #584B3F",
"xv	c #716C62",
"yv	c #575049",
"zv	c #59504B",
"Av	c #4B433B",
"Bv	c #7B7567",
"Cv	c #756A62",
"Dv	c #635C50",
"Ev	c #7F776D",
"Fv	c #5D5549",
"Gv	c #7E7571",
"Hv	c #686157",
"Iv	c #888175",
"Jv	c #645D50",
"Kv	c #483D37",
"Lv	c #756B62",
"Mv	c #796D63",
"Nv	c #7D7168",
"Ov	c #8D8675",
"Pv	c #8B8173",
"Qv	c #554A3E",
"Rv	c #605E54",
"Sv	c #716A62",
"Tv	c #48413B",
"Uv	c #423F36",
"Vv	c #4A433D",
"Wv	c #4D443F",
"Xv	c #64584C",
"Yv	c #514842",
"Zv	c #504E46",
"`v	c #69625C",
" w	c #403A32",
".w	c #49453C",
"+w	c #4E4B46",
"@w	c #726D62",
"#w	c #4B4840",
"$w	c #4A4743",
"%w	c #776F6A",
"&w	c #433B30",
"*w	c #545149",
"=w	c #68615A",
"-w	c #56524F",
";w	c #66665A",
">w	c #605A50",
",w	c #48423F",
"'w	c #544D48",
")w	c #4D4B45",
"!w	c #423D38",
"~w	c #5D584E",
"{w	c #645F56",
"]w	c #646358",
"^w	c #5C544F",
"/w	c #57554D",
"(w	c #4C4540",
"_w	c #57514E",
":w	c #645A4C",
"<w	c #5D554C",
"[w	c #7C7571",
"}w	c #504D44",
"|w	c #726B64",
"1w	c #4B443F",
"2w	c #534B44",
"3w	c #55524D",
"4w	c #544D43",
"5w	c #4A4742",
"6w	c #5A574C",
"7w	c #3D392F",
"8w	c #49453E",
"9w	c #3F3D37",
"0w	c #504B49",
"aw	c #45413D",
"bw	c #4F4C40",
"cw	c #36312A",
"dw	c #464239",
"ew	c #514C44",
"fw	c #5D5245",
"gw	c #5E594E",
"hw	c #48463F",
"iw	c #5D564E",
"jw	c #3F3B31",
"kw	c #47433D",
"lw	c #747469",
"mw	c #5A574D",
"nw	c #5C5D53",
"ow	c #403F36",
"pw	c #655B59",
"qw	c #5A594F",
"rw	c #888172",
"sw	c #57584F",
"tw	c #635E5A",
"uw	c #57544F",
"vw	c #4D4845",
"ww	c #403F38",
"xw	c #757268",
"yw	c #43433B",
"zw	c #47413D",
"Aw	c #5F5B4E",
"Bw	c #6C685D",
"Cw	c #524E45",
"Dw	c #655A4C",
"Ew	c #544B46",
"Fw	c #3C3732",
"Gw	c #4F4947",
"Hw	c #5F5950",
"Iw	c #4F4A43",
"Jw	c #484541",
"Kw	c #5F5752",
"Lw	c #534D45",
"Mw	c #4C4B41",
"Nw	c #5F5F58",
"Ow	c #554F46",
"Pw	c #45403A",
"Qw	c #65605D",
"Rw	c #625B58",
"Sw	c #8F8276",
"Tw	c #4B453C",
"Uw	c #46463F",
"Vw	c #4B4540",
"Ww	c #514E43",
"Xw	c #504943",
"Yw	c #554E47",
"Zw	c #504D43",
"`w	c #534C41",
" x	c #635A4B",
".x	c #4D493F",
"+x	c #453F39",
"@x	c #4B483F",
"#x	c #49443E",
"$x	c #514B46",
"%x	c #46443B",
"&x	c #59524D",
"*x	c #4E4540",
"=x	c #5A564C",
"-x	c #6E5F54",
";x	c #3D3834",
">x	c #54504C",
",x	c #504F46",
"'x	c #4B423C",
")x	c #4C463E",
"!x	c #423F38",
"~x	c #635E51",
"{x	c #4E4A40",
"]x	c #434038",
"^x	c #666458",
"/x	c #403E33",
"(x	c #4A473D",
"_x	c #575048",
":x	c #4B4742",
"<x	c #605B52",
"[x	c #625954",
"}x	c #473F39",
"|x	c #49453F",
"1x	c #4D4B43",
"2x	c #575750",
"3x	c #67665C",
"4x	c #53534A",
"5x	c #4D4B44",
"6x	c #525148",
"7x	c #47453E",
"8x	c #504C48",
"9x	c #4D4742",
"0x	c #55544C",
"ax	c #555048",
"bx	c #3F3C37",
"cx	c #403934",
"dx	c #4C473D",
"ex	c #4F4A47",
"fx	c #4E4B42",
"gx	c #35322B",
"hx	c #544F4A",
"ix	c #5D5652",
"jx	c #4F4E44",
"kx	c #524D4B",
"lx	c #544C44",
"mx	c #5F5653",
"nx	c #717166",
"ox	c #7E736A",
"px	c #635C54",
"qx	c #57554E",
"rx	c #504B45",
"sx	c #53524A",
"tx	c #45423C",
"ux	c #5F5F56",
"vx	c #4E4845",
"wx	c #6C625C",
"xx	c #514A43",
"yx	c #7E7666",
"zx	c #58544D",
"Ax	c #6A6964",
"Bx	c #605E53",
"Cx	c #4E4C47",
"Dx	c #46433B",
"Ex	c #6A5F53",
"Fx	c #605B57",
"Gx	c #59584F",
"Hx	c #655C56",
"Ix	c #43423C",
"Jx	c #535248",
"Kx	c #5A544D",
"Lx	c #5B5B51",
"Mx	c #4C4742",
"Nx	c #53514B",
"Ox	c #5A584E",
"Px	c #564E4B",
"Qx	c #5C554F",
"Rx	c #524C47",
"Sx	c #61574C",
"Tx	c #615850",
"Ux	c #524F4B",
"Vx	c #433F3A",
"Wx	c #524A47",
"Xx	c #625B53",
"Yx	c #3F3935",
"Zx	c #5D5148",
"`x	c #5B5754",
" y	c #636157",
".y	c #514E45",
"+y	c #686360",
"@y	c #6A6A62",
"#y	c #46433E",
"$y	c #453E3B",
"%y	c #585850",
"&y	c #3C3832",
"*y	c #534F49",
"=y	c #575248",
"-y	c #524E44",
";y	c #665E59",
">y	c #5C564D",
",y	c #534F44",
"'y	c #615D52",
")y	c #7E7B6F",
"!y	c #584D41",
"~y	c #605951",
"{y	c #4C4640",
"]y	c #4F4D43",
"^y	c #57554B",
"/y	c #4E4843",
"(y	c #49443C",
"_y	c #65655D",
":y	c #776F6B",
"<y	c #615F5A",
"[y	c #585552",
"}y	c #615F59",
"|y	c #53534C",
"1y	c #46443E",
"2y	c #535047",
"3y	c #4C4840",
"4y	c #544E4A",
"5y	c #534C48",
"6y	c #615650",
"7y	c #545146",
"8y	c #4D4641",
"9y	c #625C51",
"0y	c #6B5F52",
"ay	c #50483F",
"by	c #5B584E",
"cy	c #5D554F",
"dy	c #4C4A41",
"ey	c #6B675C",
"fy	c #757167",
"gy	c #635C58",
"hy	c #55504D",
"iy	c #5A5851",
"jy	c #4C463F",
"ky	c #5D5754",
"ly	c #494840",
"my	c #4D4D42",
"ny	c #605956",
"oy	c #57564A",
"py	c #5F5E54",
"qy	c #5C5B55",
"ry	c #463F39",
"sy	c #524C44",
"ty	c #65574B",
"uy	c #575651",
"vy	c #635953",
"wy	c #514D44",
"xy	c #5C5551",
"yy	c #534C47",
"zy	c #7F786F",
"Ay	c #56504E",
"By	c #63645B",
"Cy	c #5E5D55",
"Dy	c #4B4943",
"Ey	c #747267",
"Fy	c #504D48",
"Gy	c #525046",
"Hy	c #5A5350",
"Iy	c #6C5F56",
"Jy	c #5D5951",
"Ky	c #6F685F",
"Ly	c #817E73",
"My	c #5C534D",
"Ny	c #6C685E",
"Oy	c #4B4743",
"Py	c #59594E",
"Qy	c #675E5C",
"Ry	c #706A60",
"Sy	c #4E4B40",
"Ty	c #5B594F",
"Uy	c #6F6F69",
"Vy	c #6B6A61",
"Wy	c #595551",
"Xy	c #514B48",
"Yy	c #666257",
"Zy	c #64625F",
"`y	c #524B43",
" z	c #4F4D45",
".z	c #645D59",
"+z	c #69675B",
"@z	c #655E53",
"#z	c #45423A",
"$z	c #544C46",
"%z	c #5D5A4C",
"&z	c #4D473D",
"*z	c #4F483E",
"=z	c #4A463C",
"-z	c #727164",
";z	c #48423A",
">z	c #6A6459",
",z	c #5E5A4F",
"'z	c #342F2A",
")z	c #68605E",
"!z	c #49443B",
"~z	c #787368",
"{z	c #635A54",
"]z	c #5B4F49",
"^z	c #615E5C",
"/z	c #5C5A4E",
"(z	c #4F4742",
"_z	c #5D5D55",
"  . + @ # $ % & * = - ; > , ' ) ! ~ { ] ^ / ( _ : < [ } | 1 2 3 4 5 6 7 8 9 0 = a b c d e f g h i j k l m n o p q r s t u v w x y z A B C h D E F G H I J m K L M N O P Q R S T U V W X Y Z `  ...+.@.#.$.%.&.*.=.-.;.>.,.'.-.).!.~.{.].^./.(._.:.<.[.}.|.1.2.3.",
"4.5.6.7.8.9.0.a.b.c.d.e.f.g.h.i.j.k.l.m.n.o.p.q.r.s.t.u.v.w.x.y.z.A.B.C.D.E.F.G.H.I.J.K.L.M.N.O.P.Q.R.S.T.U.V.W.X.Y.Z.`. +.+++@+#+[.$+%+&+*+=+-+;+>+,+5 '+)+!+~+{+]+^+Y /+(+_+>.:+<+[+& }+|+1+2+3+4+5+6+7+8+9+0+a+b+c+d+b+e+f+g+h+X.i+j+k+l+*.m+n+o+p+A q+1 r+s+",
"t+u+v+w+x+y+z+A+B+C+D+E+F+G+H+I+J+K+L+M+N+O+P+Q+R+S+T+U+V+W+X+Y+Z+`+ @.@+@@@#@$@%@&@*@=@-@;@>@,@'@)@!@~@{@]@^@/@(@_@:@<@[@}@|@1@2@3@4@5@6@7@8@9@0@a@b@c@d@e@f@+ g@h@i@j@k@l@m@n@o@p@q@r@s@t@u@v@w@x@y@z@A@B@C@D@E@F@G@H@I@J@K@L@M@N@O@P@Q@R@S@T@U@V@W@X@Y@Z@`@ #",
".#+#@###$#%#&#*#=#-#;#>#,#].'#)#!#~#{#]#^#/#(#_#:#<#[#}#|#1#2#3#4# +5#6#7#8#9#0#a#b#c#d#e#f#g#h#i#j#k#l#m#n#o#5 p#q#r#s#t#u#v#w#x#w.y#z#A#B#C#D#E#F#G#H#I#J#J#2 K#L#M#A N#O#P#Q#R#S#T#U#V#W#X#Y#Z#`# $.$+$@$#$$$%$&$*$=$^.-$;$>$,$'$)$!$~${$]$^$/$($_$:$<$[$}$|$",
"1$2$3$4$5$6$7$8$9$0$a$b$c$d$e$f$g$h$i$j$k$j l$m$n$o$p$: q$r$s$t$u$v$w$x$y$F.z$D#A$B$C$D$E$F$G$H$I$t#J$K$L$M$N$O$P$Q$R$S$T$U$V$W$X$Y$Z$`$ %.%+%@%#%$%%%W$&%*%=%-%;%#.>%,%'%)%@+!%~%{%]%^%/%(%_%w :%<%[%}%|%1%2%3%4%8+5%C 6%7%8%9%0%a%b%c%d%e%f%g%h%i%~.j%k%l%m%n%",
"o%p%q%r%s%t%u%v%w%x%y%z%A%B%C%D%E%F%G%H%I%J%K%L%7+M%N%O%P%Q%y.R%S%T%U%V%W%X%Y%W Z%`% &.&+&@&#&m%$&%&&&*&=&-&;&>&,&'&)&!&~&{&]&^&/&B%(&_&:&<&[&.&}&|&1&2&3&4&5&6&7&8&9&0&a&b&c&d&e&f&g&h&i@]$i&j&k&x@(&l&m&n&}%o&p&q&r&s&t&V%u&q%v&w&x&y&z&x#A&B&C&+&D&E&F&G&k&H&",
"I&q$D$J&K&L&M&N&O&P&Q&R&S&T&:&U&V&W&X&Y&z%Z&`& *.*+*@*#*$*%*&***F%=*-*;*>*,*'*)*!*~*{*]*^*/*(*_*:*5$<*[*}*|*/*1*:&2*;*3*4*5*&+6*<*7*8*9*0*a*b*u$M#c*d*b*e*f*g*h*i*j*k*l*m*n*o*p*q*r*s*t*u*v*w*P#x*y*G&z*A*e%B*C*D*E*>*y$F*G*H*I*J*##K*L*M*N*O*P*Q*R*x&S*@*S*T*U*",
"V*W*X*Y*Z*`* =.=+=@=#=$=%=&=*===-=;=E%f%>=,='=)=!=~={=]=^=/=(=_=:=-.<=I#[=}=|=t&1=2=3=4=5=6=7=+%8=9=m$Y$0=a=b=R%b%c=d=e=-.f=g=h=i=j=i=k=l=m=n=t$o=p=q=r=s=t=u=v=w=x=y=S z=h=A=B=C=D=E=F=G=H=I=J=|%k&K=L=M=q&N=O=P=Q=R=S=(*T=&&U=V=;$W=-.X=Y=Z=`= -.-+-@-#-, $-%-",
"&-*-a&=---;->-,-M%'-)-!-~-{-]-k ^-/-(-_-_-:-<-[-}-|-1-2-3-4-5-6-7-8-9-0-a-h=b-c-d-Z=d%e-f-g-h-i-j-k-l-0=m-6=t#n-o-p-q-r-s-t-C%u-v-w-x-y-z-A-I B-C-D-E-F-G-H-I-J-K-{&l-L-M-N-O-m*P-Q-R-E#S-T-U-V-W-+-X-Y-Z-`-`& ;.;.;S=+;x%Z&@;#;$;%;&;*;=;-;;;3%>;I%,;';L&);i%!;",
"~;{;];^;/;(;Q&P&!-`-_;6=:;<;{-K*[;};|;'#1;2;3;4;5;6;7;8;9;0;/#a;b;c;d;e;f;q&g;h;i;j;k;l;m;n;o;p;q;r;s;t;u;v;w;x;y;z;A;B;C;D;E;F;G;@%&&H;I;J;K;L;b%M;N;O;P;Q;|;R;S;T;J$U;V;W;,;X;n;g=Y;+&Z;`;]- >*-.>[-+>@>1=Y=#>$>%>&>*>=>/-->;>>>,>7+'>^.S$G*)>!>, ~>{>H ]>^>/>",
"(>_>R$5%:><>k%[>}>|>1>2>3>w-4>S&#;5>6>7>8>9>0>a>b>M.c>d>e>f>g>h>i>j>k>2*`*o*l>m>n>o>p>v-q>&=f=v-e.(*r>s>t>G*f*u>v>w>x>y>z>A>B>C>D>E>F>i=G>H>n;t=I>J>$%5&K>L>M>N>O>z-q=P>Q>R>m%S>T>U>~-G%V>W>X>Y>z#3+{;Z>K;`>P% ,($.,+,N;@,H.#,$,%,}+v>D%&,*,=,-,;,>,,,2;:>,&w%',",
"),!,~,{,6=],^,/,(,*>L;_,:,_@y$v-8+<,N;1%[,]*},|,1,2,3,4,5,6,7,8,9,0,a,b,c,d,e,f,g,o;< h,i,j,k,l,m,/*g-n,o,p,B>q,z%&>@>J%r,Z&s,t,u,v,w,x,w>x,y,k=%>z,A,X$B,C,x*D,E,m=B%F,G,H,C%I,J,K,L,M,N,w-N>O,n;P,Q,R,Z.S,o;T,z%S>U,q,V,D-3*W,X,c%v [&A Y,Z,`, '.'$ Z*=-+'@'#'",
"$'t$B*L;%'4>&'*'='-';'>','''N;Z>)'!'3>h*~'{']'^'/'('_'8;:'<'['X%}'|'1'2'3'4'5'6'7'e-8'9'v-O>X*Q&0'k v a'b'c'd'e'~ a-f'g'k=[>U;h'i'p,j'H>k'l'=>m'n'o'p'q'i*r's't'H$;>u'v']*w'2%t$5$H>x'y'a'z'A'B'C'D'R,k=E'F'G'H'9$/,I'J'K'v-L'P-V$M'N';;O'P'K%Q'>.R'&#S'!*e-T'U'",
"s+V'W'!*X'Y'Z'j'S>k>`' ).)x +)@)#)&>b*$)%)>*&)*)=)-);)>),)')))p*!)~){)])^)/)()_):)U;`-c%N><)[)})|)1)r-r;9'2)3);&T,4)5=+,5)s;6)S u-K%7)[&8)9)0):$a)b)X'c)d)e)f)o,g)C>s'h)i)U;:$j)k)<*h=O>l)m)n)o)3>p)&%Q=p-Q-q)r)s)`-V t)u)v)w)x)y)z)A)B)7+C)^*D)E)F)O$E=G)K'O%H)",
"'@I)J)X$K)L)N':$M)N)W. -4><;O)f;2;P)Q)8)/*R)S)T)U)L%N&V)W)X)Y)Z)`)V= !B..!p-+!@!:%#!R$$!m=%!&!*!=!-!;!>!m&,!v''.*='!)!!!,%H;~!{!P*r-]!H$K*E-^!/!c=(!v>_!:!<![!2;}!|!1!z)[*2!3!4!5!g,6!7!;-8!r'9!0!e;a!B%[&b!.+W$c!P&J d!e!:&f!g!h!: i!j!k!l!m!!+n!;.o!p!P%K*q!r!",
"s!t!5*L-u!v!g,w!@>7+U>J&x!y!d'Z%m$z!A!B!C!D!E!F!G!H!I!J!K!L!M!N!O!P!&+Q!R-R!S!p,T!3&U!V!W!&>X!Y!Z!R>g=7!`!4 2;m%W,5*Y= ~.~F%w&i-+~@~#~W''=$~w>(&%~&~c'*~=~N$U;L-='m%-~+&;~>~y$~&,~C;'~<;)~!~~~{~]~%!^~5%M)`*m /~k%W'(~_~:~<~[~}~|~1~;=7@2~3~4~@=E)5~6~7~8~9~e!t@",
"0~a~b~C;b-9)c~d~m$e~f~4%2=g~g-S>h~O#i~j~k~l~m~n~o~p~q~R.r~s~t~u~Q+v~w~x~y~j'z~<;A~B~<-C~D~F,0)E~F~G~w-!,H~I~4=J~--K~M>L~}!>-y$M~N~O~P~Q~&>H$b*R~S~T~U~z-V~W~B>H'X~Y~##[).=Z~`~@% {.{S;d;H*+{/-@{#{${'-%{&{*{R=G.={n;-{;{O.I 3=>{p-4$T*,{/,w*B%'{Y&){!{~{D,{{]{^{",
"/{({_{:{*!5=<{q#S!l-[{X&s T*}{|{1{2{3{4{5{P!6{7{8{9{0{a{b{c{d{}{e{f{g{h{i{k'>{j{k{;{s=l{D;m{Q-n{o{3*p{x#k>q{%!r{s{t{u{v{,!w{e=J*x{y{z{A{B{C{<&R,w)D{E{f-u$]$.-F{G{[>H{O%R=G~x*I{f=J{Z&Q$K{y!L{M{N{X*Q&>{C{O{6*P{Q{R{m=d$S{T{J*q%-{U{M=V{W{X{Y{Z{`{ - ].]+]@].&+@",
"#]$]s,O$%]&]G%t;/&*]=]-];]q>>],]'])]!]5'~]{]]]^]/](]_]:]<][]}]|]1],*2]o*3]P{4]5]E)6]7]H-f=8]K{9]0]H%a]b]c]5=d]k)j'e]f]~$g]8)n,h]i]4]j]k][>l]m]K%j=.>C%n]t*o]p]H-q]r]h)v'f'(*s]t]#-u]B;$]^~,%H>v]w]x]D-L',;y]z]A]B]C]q%D]E]@*`.F]G]H]I]J]K]L]@.e$M]N]O]#)a.P]Q]R]",
"S][ {!O>T]U]@.|{V]H'B*/-W]o,X]C*Y]Z]`] ^.^+^@^j #^$^%^&^*^=^-^;^>^,^'^)^!^=*_-~^{^]^^^-&/^(^_^$!:^3$U{_^<^V'($[^.;}^|^5=1^2^3^4^s{`-p,i=5^6^^>8)7^#;+%5'8^Y!9^N'0^a^b^e=%)<^c^S>d^-!e^X's><^i>f^g^l;C>h^S*z%i^&; ~j^k^l^m^A,F%n^o^$ p^q^r^u$U,*=s^i'(&t^<&u^v^w^",
"x^2;y^f]3)q&z^,;A^B^9'C^*{D^m$y$T*E^F^G^s#H^I^J^K^+^S%L^M^N^;*O^P^Q^b,R^S^x;T^`-U^V^<*w=W^v>A)X^Y^w=P%Z^C*w>`^ /./+/5%@/*{J%2&[;#/$/%/&/9~)~%{*/+=z'V]=/-/s>;/>/v,>'|>,/7!k)'/)/!/~-~/{/E;J{]/^///f%*=z (/_/:/|^S!<//;[/z*}/M%|/1/M%2/9$3/4/P '.|!u]#)H>5/-.2 6/",
"7/h)8/9/-'0/J a/b/c/`&$=d/e/d~s{N~`-f/9/g/b$h/i/h%j/k/l/;>m/n/o/p/q/V=r/F*Z*&{~{s/%{K~q=F%B{v#t/u/v/w/V]a=A>x/7>1>N$y/d!z/.>d'/*A/B/C/^-t]D/A)E/F/G/2>H/I/;~J/K/+%m{g!u'w-R,L/y!{&Q&#{&]L&M/K'N/R-m;#)O/9$P/Y=Q/R/S/T/K$U/V.#!V/W/R>v X/Y/F'F]m-z);.Z/`/ (S=W].(",
"+(]^7$@(q&#($(%(`~.~D/|=2!-!X>@.&(a^B**(3>B;S =(L> ]N{-(;(|;>(,('()(!(~(O{L&{(l]](^(/(k'W'r)((%]0 _(:(X!/!<([(k-C;+~}(|(1(2(3(1 ^*4(i]B{g.l*T>&>D-s*i*5(6(7(`>8(9(Q,A^0(k)a(b(c(d(>]y=A{2(e(k-f(g(3=Z-h(i(j(i^Q%g~k(S!l(z&(;X/>*m(n(o(P*p({ q(r(s(t(u$:&u(($v(w(",
"x(##8)y(z(A(X~B(C(.{D(Y }.6*E(F(r;C%t#G(H(k{v'Q{I('*J(K(L(M(y!N(O(P(Q(R(}~S(K=T(U(X 2!@;o,[=V(W(X(v=B=n;w=N>g]S;$;$~)/->Y(S.Z(`( _%)s-J~6=._+_Z^N=^>c*E-i=@_X]Z>@*#(E=*{t$u=#_$_r=3)%_&_9 b{*_=_-_;_t$>_,_'_<~)_!__ ~_{_A*]_^_K /_(___:_[^<_[{[_9%t$}_O)|_1_2_3_",
"4_5_6_7_8_i;9_0_a_b_c_d_e_f_g_Q.h_4'f.i_j_k_l_m_n_o_p_T!q_r_s_Z-@]j_v't_')V=u_`~y%v_w_x_y_E^z_A_B_C_D_7.E_:=F_G_H_I_J_K_L_4'M_N_O_P_Q_R_S_T_U_V_W_X_Y_Z_`_ :.:+:W+@:#:$:%:&:*:=:A+-:$';:>:f^,::^':):!:~:2.{:]:^:/:(:C._:::<:[:}:|:1:2:3:A@4:5:6:7:8:9:0:a:b:c:d:",
"e:s&f:g:).h:i:j:k:l:=!m:n:o:p:q:r:s: +[$t:u:l_v:w:x:y:z:A:B:):^,C:D:E:g@F:G:H:I:J:K:L:M:N:O: $P:Q:R:S:T:U:V:W:X:Y:Z:`: <]:.<+<@<#<x~$<%<&<*<=<-<;<><,<'<)<4#!<~<{<]<^</<(<_<:<<<[<}<|<1<2<3<4<5<6<7<8<9<0<a<b<c<d<e<f<g<h<i<j<n.k<l<m<n<o<p<q<r<s<t<u<v<w<x<y<z<",
"A<5~I#^*L&m)E/@* -x#/,C>B<C<R-D<T]E<k(F<X-{&d!G<C;H<R~I<J<K<L<M<N<O<P<)=$%Q<R<c(0=w&S<^*@>T<h(K-U<V<V W<-]g/>*R>X<q]==Y<Z<c&`< ^ [H.h=.[h=+[@[#[$[%[&[h/*[m{=[-[W,;[>[,[B;Q=K^'[)[![~[{[][+%^[/[T;.>p&9-([> F=_['-q)e^Y=:[5/-!q%;.<[[[u~F=~+W*F*{{}[m&N~|[W*6=1[",
"2[3[4[o^5[`&j%6[G{f];&/-7[8[);E/9[0[a[b[c[m&d[e[n{f[g[h[i[j[3:k[l[m[n[o[p[q[S!_(@*r[s[u=t[[-u[F#$!D;v[p]$%w[,]x[y[z[A[B[u&C[D[{/+&E[q&F[%[G[j{H[I[5*J[K[L[o^B~M[p)=[//k(T*N[[)Y=O[P[U;A)[>O>c'Q[R[Z*S[T[U[V[W[X[Y[Z[;;2;~,@$s>`[l- }-;j)}~.}E~n]./o=O%N~+}Z%7'@}",
"#->{#}}*%%p=f](*p'!*r]q,$}%}3>>$2;&}*}=}-}V&;}$ ^;;-N~x,`=>},}'})}!}~}{}]}^}/}(}E-`^5$)+A*^~_}:}:><}8(y{[)S%[}}};~W,|}_{1})/7'[ X/2}w]G(3}7*R$4}5})~6}7}8}9}0}a}4%0>`>y)b}V'L'I)2~=&C,^(,%k)T*V=c};>v$u]n{&#;=d}e}R>~$:>R,&=f}M=v';&g}A*h}i}j}k}l}F=[)6[m}n}[ @>",
"U;o}e(p}j%q}c]r}[%P$j$Z=K%##s}t}u}v}w}x}y}e%;]z}A}B}],C}O'D}E}F}G}$/H}>'I}J}:>@%K}L}A,(*M}x,N}O}w>Y/0=L&P}Q}R}7! /R,S}u~z>j'F,j{D*T}B~@,L-0[a~U}V}Q$w-U=k-W}X}Y}~+C%Z%B;Z}`}v'L' |6*G)W'T]X]S>5%b-.|c(g]x;F%+|@|Z%5[#|[^r>$|W'%|&|O{O$S(k]_;R'J[[]X;[%*|=|8}{&y(",
"1[-|#{%{/~~~h];|>|.;,|#)-''|4$*%)|!|}!~|{|q&]|`<N:^|}*4:7~/|g.(|_|:|<|#(R>l][|M%}|||1|9-2)2|3|z-q(4|z{m;5|6|7|,;G*h'_^m%8|9|6= |0|I;e*a|s,>/6=b|c|t>V]k-d[0=S>J d|e|<*F{j)G'f|b(g|-/w.h|@/{-k] {T>I>H,i|j|k|l|m|';<-n|o|p|q|&&r|s|8~t|I S*!-O{F$<-u|v|w|`=.'x|.;",
"y|z|i'A|T>B|7!Z*C|#|N[D|+%+.2!>!E/E|_-F|G|H;@*H|<=I|q}L*X*J|K|L|U]M|N|y*O|P|Q|s,5[R|V'S|T|h!U|K~V|@,W|3)X|i=S,0=Y|>&_/n)5^J}t&Z|`|&~v'|~n{a/n) 1.1I<q|$]$%+1@1z>#1*=K,+&a*$1%1*-&1E/(*k G]t>*1=1|=l;q$#>R>-1*;;12/>1p>,1P&e^Q$'1N;!*d )1p]f!!1~1(,T%{1]1/ ^1r&z)",
"/1(1L;h=_1:1F{<1B}!.[1=-}1^}|1%];-G)1121M:31[(9=41-'j||>0%5=51&>61Z;7181<;l-91@>$.P&01a1+=b1c1d%!,^[V^G'/&C|d1%}e1f1X$g1E|h1x,N~$/i1Z|&%j1k1l1m1U c=n1o1p1j1z~q1T~4%>!^*r1V%s1S&t1u1&__1#(y=d[v1F/w1p%`~x1y1:%z1G{C*>}d A191D[z)B1`=f%H'/*;&C1~#I*T*9^D1E1F1|^G1",
"v!5*3=H1I1>/B><|],H.H>*.L*J13)v{^}.=r{K1L1M1}%_^N1:)^;O1w=P1Q1h'R1S1T1U1h1V1W1X12&4)F{5*^}Y1r-b*Z1`1#(b) 2.2O>j,+2@2:1#2$2 _,;%2D-&2u=$=*2@=2==2-2s,;$;2>2,2'2q%w>__w')2p1$.!2U^>-Y[Z @.>[M'~2{2]2->^2K*/2G'(2: %;;%_2L*:2,|<;d~<2[2J-}2|2(*12a-q,22[%D]f]%;S!%%",
"9>C,X;32u(H.M}m&42j^52~>6272$/`=p[>'0*829202a2b2c2f%v'd2d -|e2N'k{k%,}./f2g2v>,&Y&j'h2z{i2S,7!B[T 8'_{j2k2_^9=S;H*n}T>R}y-l25~|{m2n2P!U(y)o2p2F@q2E,B*r2W,^}s2A|t(t2[&w[*-|!g1M}(,c!-|Q&b/~#B&u2v2w2{1x2d!j|y2v23=+,P&S.D/<+z2})A2J~C>B2C2_&D2^,E2V{F2==>.{(A=P&",
"v#W~.-M>B$p-: Y&J~##G2p>A>L*H2x;1)I2J2K2L2M2%&3)N2O2P2S{Q2<[9*D|^[+|k2$)u1B|[%R2S2+&./T2-'''U2V2^}W28)k'X2p,s)B;7|v's-Y2_1[*z%d[Z2`2 38&c^.3X]+3@3#3W*E/M%i{a%N~$3%3q}&3*3=3A>-&g]o,m%i-%>''i=6*-3z$|]M;3$s(z^;3B^l!>3<2w'W;~~B~,3#{p1*'4$'3)3!3Q;z;~3+.M%'1a%N;",
"J a%j|F={3k;:&*%e!]3^3f]/3(3@]u!_3$=#-:3<3[381}3k{|3~,M*13,&23F{[>3343536373b!839303a3b3c3^|G~F/n,N'd3O2n,o=e39}f3/(g3|(;.5=h3u,i3=3j3O>-'k3{>l3m3n3T,W'%%~>H.h^`]m^3$o3p3W'~ q3n]`.O&J-*{H'y;r3s3 ~w*w*t3x%u3%>/,n^81H(+}I/v3-,a^w3./;-C1E, -H>x3B^p|==y3j'^,z3",
"2!A3>*=*B3C3f;D3@]E3 ;F3^*q}j'G]G3P1H3F+I3J3R-o,_{K3L3M3&;U]N3O3P3Q3N~[ a^g!R3|*S3T3O%b){>U3f]:[z]5*z[V3W3X3I*F#'-Y3Z3`3 4.4+4c[i!M|r'@4a=f*j,#4$4_>/2%4H*&4*4{&/,F]R3k_g~=4n{-4`&>|;4='.%>4X$R h)/,x*,4'4:>M*)4N]!4x E)x[z[~46={4V]]4^4/;[^x2q]~ v$/4(4G1_4:4H<",
"<4/-[4}4}=S(H>|414G%%>24@][ }%34(344X~546474/~A,849404a4b4(~S(c4`!d4]}e4f49$g4h4i4p3x,-'_1/-h}j4:{a%m2{*!3l!k4;4r{1)Y[z]l4u>X*<;F$A]X,h*f=g}m4n4o4p4A]q4O{r4l-i'z(R,s4e t4#2u4v4o,i;w4<%=&<^J~e=F]*-x4<(s;G3V&t#y4N[F]z4i=A4B4k%=.C4k%D4T}E4(,:-x|(,H>,&F4G4H4I4",
"J4K4Q<_-T[`-q%93{{B}S(J&o|a%q{:%_^-'U>L4M4j,u(N4O4n{t]P4x S>g]Q4:,0[d%R4S4Q&T4^*y)U4`~T|7%z{V4>/+|h;W4X4Y4#(Z4`4>.J>%}l'k;w> 5o^v#+&.5+5@5H*#5$5%5&5*5=57[-5;5X>D,>5q]p=y&`}8~B1M][ I/P&P)v49^v=k_x,$1,5z]%>'5)5!5O[<+5)R3~5%3{5M$]55]y;.%^*A*<2,_~>l&t#^5/5(5_5",
"v3t>:5B$2;A>I,''m%<5d'*>k%g,24w=e=_^y^[5}5|5~#1525354555p2P4G4+565-|s175T>h185;~&{i=9~9505n{Z>7|+'v$m=a5R~[=*{b5*,>;.'c5*|b}w1J*d5#_B{T]K{6>f3e5f5-'V!H,<2|=w&S|A*Y&;4<[g5h5+[C;`{J*Q<i5`&|3j5:$k5+_'=(5:;l5L*m5n5m% -<2_(o5^*g]C<p5^>{}'*t#H,0|4 e{&]0>q5m&r55[",
"w-[)Y|x;y) -X][%s5>2F%M%%{Z&t5u5p'v5z4+@w55=;}x5m$;}p-y5z53/e-W3J*y&g,3/<>*-3>D]A5B5I'0=)+C5o2F{D5W2_{A$>,s{E5k^F5y&G5p2,;N')~](H5X$m'4[p&I5Y<J5K5z[9-S!.&1}u$L5M5|=h*Z,k,<^N5->O5P5] Q5:[r=R5x,S5T5U5[.w'&=V5W5X5Y5Z5,|~&^;`5M*/~1)H$,&`*r%i%Y/|!u$R'5=v# 6)=_>",
"-.5*v2G).6;~m%+6@6$$#69^H>N'%'$6r-d~94%6N#y-k;&6-;/-T&X&+|*6W1=6-6;6T~O w=((~>v=>6k;,6'6)6%!P$R,A)5=%]4|>*!6S*#2~6X])~v-Z=O{2;{6X>>/]67}^6/65~(6_6|~|_k(Q&X$E~:&d%Y((;'=&~d~o;:6m(<6}>g2=-8/v>m=[6K}~[}6[^|6[1>.16<|}6)=&;y^269*36~^q&7!}4O>H*46i]56(366S&l!76e1",
"B$0(--Q,{}9'G]86J1P)V 96t^e^L*-|06a6u}b62/p,:>c661d6e6h)f6A|g6h6+&*,i6j6~-k6l6o#:~=,m6,-k%#_B*K{t]''n69-y2o6</p6q6t'r6^^s6&>m  *@*f-t6X,`~Z=# y#u6J}v6@4w6x6.'y66}[&{-z6A6O>y{B6W1A3h*P$C6D6O%#;k=o-E68/V^_[F6f[h4Z.x/y$P&52q4G6#-g]S,2;H6k)|{:1I6J6E/u{*,T S(K6",
"+&p,==1^`~L6(_M6i^&}e4X*N6Q X]O6T/.&''P6Q6C*w-!|R6C6S6>}M=T6H*5[s|8%U6x'V6W6X6s;Y6Z6C4j'g)/~t=b/D/`6s1X.I= 7#&55F{,5.76[%!0|O%O$+7@7#7=1c!$7%7&7*7Z1=7s_=',~r;h-G5e]l-'2f-.'V^O4q3[&t6-7c'7)i{K*`5;7A|>7P$<;!*[393,7P&5['7869$G*$|);m5Z>@>z{g}R>T~)7!7~7Y O1O|{2",
"{7]7^7/7k4(7_7:7<7[7>}}7|7172737475767778797072#a7b7c7d7e7f7g7h7i7j7k7l7m7n7o7p7q7-$r7s7t7u7v7w7x7y7z7k[A7K*B774C7I(D7E7F7G7H7I7J7K7L7M7M7N7O7P7Q7R7S7T7U7V7W7X7Y7:7Z7`7 8.8+8@8<%p##8$8s'%8;*&8*8=8g&-8;8>8,8'8)8!8~8{8k7]8^8/8k4(8_8o,O[:8<8[8}8|8182838L74858",
"6878889808a8b8c8d8e8f8g8{@h8i8j8k8l8m8n8o8p8q8r8s8t8u8k<o<v+v8w8x8y8z8A8B8C8D8E8F8G8H8I8J8K8L8M8N8O8P8Q8R8/@S8T8U8V8T_W8X8Y8Z8t.V:c_`8 9.9+9@9#9$9%9&9*9=9-9;9>9,9'9)9!9~9]@{9]9^9I@)9i./9(9B8_9:9<9[9}9|919293949V8T_59.$!=5;69j_79!9B'899909,@a9;9b9c9d9e9f9>@",
"g9h90|[{i9u}j9N$k9(9l9m9n9o9p9I~q94'r9.!D}O:S=` s9t90,u9b{4~v9w9x9y9)}].z9A9C[c6'4k1B9)*Y)x*g'C9D9E9F9G9H9I9`*J9K9P]L9M9,#N9O9P9Q90 3'R9S9T9U9V9W9a^X9q&Z$n2&+ /Y9Z9`9 0.0w2+0@0#0$09&e=p&m]%0&0*0=0.;-0;0>0,0_|h^A=@ |57'![>[>>;%'0w2)0X(!0~0{0v$]0^0/0($5%(0b.",
"|]t];(&;P6:[v}%'r._0)1Z&D[x' %34>.:0d z)f}<0[0m!}0|010J*20t%,!p3G*348630x2s;40*{0|50o=H}I'r&K,626070Z[v4r );g!>~j3t]p=V]~/-'*'w-X$v4+1%{R~80p4F290F2A U;S>d('!00s-S3c!a0B;w=(*4=9]I,F$s-7!z^b0c0O{h)L'd0D6k_e0G]42}=y&(,j|a%f0g0p^z)V T[;-3~r{|/U{b-$=J*{;V%4$_#",
"y3;[y'-/k5T*k2H$X.h0`=5~72<2+-/*p=i0j0.&k0Q-w>E&e/@~~&i!l5l-l0F^V2`}1[|{W,o,W*k;w-r'S[`>k1m;7}m0n0<~m|70y'4=>7o0p0E)q0r0q{~/s0p2t0^(f&K/q]u0l*e1L$%[n;w=i'&>Z9 ]h*F&d~F#a%v0W!'&k)_^V]24w0>/q3x0H'%(y0Q<u]&]b!9*~#M}.=z0~%K'Y&:1s54[||T]s>`*u$A0B0k1~ C0c}v'^>F<",
"D0k,-.E0=,F0| O$Q ^!(5G0F)p3w=H;9]{_h]H0k1E,F=K/O2`(I0u=c'Q|m=J0e=(,N>_-5$T;p|E)K0x|*|0/.%L0o1D-M0 |D|N0O0q->7g'O>P0Q&Q0R0L/r>P%a&$=F#U2q=b-|6Z>:|9|R=X$S0u.*!T03&w&U0g,P,V0p&#}b3W0E[)!k=+%X0Y0Z0`0H;4[+~:% a6[+|G19*K&*||*--V<~*n^G4](/*.a[=A)h^&=H>w-4]+aI#@a",
"h=#a$aU51%2;%a&a*am /-f/=ao1=~-aW$;aT,!%>aV2,a'a!/)al;!a&{`%5=X*k'~a|!X|j3Z=)'W'+~>=G,9~S3{a]a^a/aW*q%i3(a_a`}*5v#w/r[`&,~:a!2!*b}<aU]K%/~q%X]|*Q-V2u5t1Q&[a}a|a1a(32aQ&*{3a4a5aF$E-D->/6a6&7a8a*-k{i{8/v#9au$~{<*D-@}#_-,E/W*V6&{B}/(j'k{s0O=+'Z%i**'>70aX,i]aa",
">*:,--8)baa%>{-.Y[m=K'-.x*b-<*t>Y3$,R*d'i$y)f&+;b*@/L&]&y(t]I >!_(ca.;da}*i'eafak,5=3)l-gahay'q) 0I;iajaX$kad0G*H%z0f=la*,4=r=O2manah=&|R~.>53>$);h=W,h=-&>&1>!&~[h*!1t2Z[+&s,oa'=paqat>l;raq]saJ-7'k'jaH'ta_]I1!2z4<;M=A|v>uaP*Y[;-va'[-]Q;waxaya<5K;D;Y<zaN~Aa",
"d[Q-#.v'P)$%h^D]x*Ba+&C)Z=C6c'Ca4$c%u1t|D2j,d(DaEat&i{y]Fad E-Gap,j}$.>4S;$*J0Ha-&Ia&4[2[>j{Jav0KaJ0v0@>X*T,B*La`-'2MaS3u=~},!NaOa.&w>8)Pa/2n]N~~#b/{;@5.6Qab!e-85RaK&E/x'k'K&/~e=k16$>-q-q%|~Sa|}!,F>Taf k|UaR$+&t]n{P*Y[C<#|[)(#|~>'C;w,)+j*Va*!WaR*XaZ^j'YaZa",
"]&`a b.bV{8>X[S>&~+be(O$5=@b#b= s1^*E/v4$bC;H;(*%btam_%{[&Q*X,S(a&&b;>*b=bV--bv{:!O2r-w-;bi'>bd},b'b)b!b4).-x p3r-~b{bn!s5r;*>_5]b>{^bw=h=F>T,2$*>O>0|J1];w4A)/b(bw}ba~1N~n{i=a-7|_b:&C%u}s]i':bz^B$|1k,X!} !2m%W,<bN @>(,;[g,#)x%[b@$_b3'Z*}ac3}bb*V&;7_-A6h!|b",
"Z%1b2b3b9~;5I,4b4$s A,5bp36bF-7bS 8b(+XaF#K)s[;&I/9bo]}*o3930bD]+~q{8%K*abbb}au{^*cb;-4!$_{!D/@,dbebQ r[w=:1q,R=4=b}fby|#;K-Z=3[|!t%VagbI c~y{,!hb((Y v=R,ibJ-m%jbkblbmbnb6$ob@]q=d[%];~X39}{>@{|^pbq(P/Y(qb3 k1N=/*/*s|F=#);=>-x-rb$*A*J;61|=51sb`~q3tbJ%ubq9vb",
"wbt=f%`-F=A<xbw&>.`'h!1>B|ybzbAb`686h*BbB[~}|~CbDb]!V$e*|=w4}%O~<-H'#-$%7&p3'/Eb({N;xbh}}2Fb[}O.GbM6Hb|3`%[ !4@1Ibk{X5JbF2v=7$s-v2{!u$)'J&j,d5Kbz/w>A3G)P-t$*/LbMbNbt&x2]%R$ObPbQbRb:$0(o;f=9'SbTbT[UbQ<J0 {o-y$.'VbWbo^XbYbZb`bm& c.c_2:2i]+~+c@c#cB1&=L'$cP1%c",
")+v>t&&c]_'>`-*c=4m5_](;J}=c!*n{.%-c3~){|3;c/->cl;*{6(P-a0,c'c)cW.i64:(;y{Y30-Y!g,A)6(!cjbH*~c{c]c$/k2E6C;+}[(.*>/x|^c/cY-x;M.(cC,k(y^3)Q V>'=g~J;Va_cS,Ibz-x'~0i't]:cy.J&M} 4y0k <c[c`/B~`a3'}cZ>%{~-~,= 2;v>{;1(|c1cH-M%1> -x|1)O.}4n]W~Qbv-};0|`%15e!&{1>,52c",
"O$C>3cc*&bH%l)4c5cV{86S B$g%W{*b1)i56c5~van,T|7c|a~#N$8cn}0/z-C$n!6*daS/7|T]9ce^0c)+acH>|*./K,}[bc>~53O;D|@%`((;_-p,ccH;dcs-ecGaz2^})~L'/,D5fc&/C~U2gcg=hcM=&>y&+}O$i:62icZ;e!$*v'S[t%I>jcO$)&kclcc{C>.2/2v'[ ;[R~I5O;&;{;J1D[r(mc<[m%ncX.E)_;(,g!|4ocpci5D|P$qc",
"rcv'n=scc!w&da2$tcg~o-B>uc|~vcJ*~*wc`&:1(3<50>m4xc{b>5!1ycN~zcI*r2.)Z*p-6!X]Ac5)>[G4X'H 7]X5O>9/BcCc:|O5r=z]#)Dch'l(=]];N06$Ece-s{.3L/$%FcQ*Gc=/v-d36=j2J[q]Hch'<~g/IcJcKcG]w/E;vaF2Z=U4z[/!T>m,^.u'G4H n^v->5L0|*z]O;v'Lct%@>:$Mc~-q)Nc`%-;81y$o-'.Oc|{Pc-'QcRc",
"Sc<+*(Y'n&TcC<*.Uc3~]*I#B*X$Vcw'Q,D((,)~ ~Wci!K%H>< q|t&I1}[Xce-H Yc@%Zc{!J[X$r.h!k-*{H'b}_(5^.&`cx9L-m!,4@%J  dm;.d+dQ0+&f]@d~#u$(~;~#d/(!$w'i=L'<{(,-/$d1]j2e^^.r[Mc(5'*5*L'u]y)%d}4#!T]d~&d*d@>=du'6$I,*{f=, j$+1}!a/O424D2-dS.= s|;d;.F=N4*{86c;p!O='-T^w'>d",
"'#(1R}R[,dR$ ;'d)d/|^^t&f*p R%T^@*<bQ4B$9^`~!d~dg!:,j)T {$r,{d]d^dt;Q-m%.;~-y!/dm($=R,.[B*(dI,[[_d:d#.<}:;U>X[--R~h$Z,<dR3Q&v)O$f/@}[dV'm%P*%(B=|~&>+&X*@%{><^}d[)I5%!Q$A)'~`.Z*|dC>-|1d2d3dP54d5d!-d'/(I,6d(;G*N4E/|=e^>[7de/T5/,8dz$:25>`=O's*+.P)D[W*9d{#9/0d",
"ad&.*~bdr(<b(4cddded9>#.fdV'z{:[i'n=7!)1&>Z&>2B%K{gds5 {$,D;!3!-hdR K;g5q|idjdq3/5q3z)h=~>E,f/*4kd }IbB1ldPcB1md2;e= dT nd:>-;w=od#{~ H%wa1=||T|V=.;y-A1pdqdrd}4`.s2;!,d&~N;3'-!W$F2}4d5H}sdtdud/~7!g!z*N:vdf=w!wd&;Z%2=z2w=I#5%xdyd9-.)h'g-p=m$zdAdZ*J][~Bd9]Cd",
"I6|aDdG)K%u1{2_*EdFdGde=W*2;HdK%S,u~~>v-Id225=,/-!<%%4B&`1Jd3>^>F$Kd._d}V.y0$%j0}aLdD*G-#}O$u'YcMds0[],6h(l-A,e1.'j'F{!.L;K[]*#;p(a-G5`-DdNdE-5^p!26l{a*X$*|Od;%r=t]s]~%D3.[PdQdRdSdTdI]UdVd'2Wdz{h(S,#6XdYdF]4]k0M=h4y-r-Zd4 @+J&R$g.w-J%Z*|~D~F=w-w1o|R{H,c!`d",
"}0((-{W'-.&|]*i|R=b-n{ e.eWb+e1bp!P'C10393`=.'@et;^~*{w>e%h)B,B&34=4C3S;_{#ev=m}$e|;g~`a({k,h(v-%eU(&el!*e9$=eB=e-:%~.v3S3>'F2x'v'-er,;e&4k'`&86h)f=%}w}N>R []#!&~`1*=%$M}>eV'<[k&D/o1%%i;S>,e'e)e,~l1X~M}!eR~g;F=q4>2A4x2w=+2w%5*~5[ 2$x=D$2&O0A0Q;!%3&x*+_$%~e",
"{e]el0^e15H3/(/et'(e+-V._e:e64,~t$A2/!<eN':>z]Q0r>3~3'r][ev,p2!*<2-'.&~&y'9-A~349^_bQ{D%j,S&}eQ0|e(/y{>[%/1e1~g2|^u]C%W,e1e1V!&>1)(&./|al10-z[7!r=}*q0A>$=C>e(f*G]^%j!2eZ&D~*b,-Y3v'%{3e{-{$_0SbZ/W,K;4eS.EaH>q(5et|V{+~<;6eS.X5h9[&w|,'{1<17eG~P%1=t5s>0*C%H;8e",
"9e$_0ep1r_p{y$>-_ Z=+caebecedez[J&p>A1}25+Ncee7|fegen^heie ;$.%{J;E,D}jeL;S3d3;~keb^M*let>3ce13dmenea(m=G/M]Mc<|oe3'G]q|D>{6[]peqee!j3l1o1G)J;g-9a<~reO#^>U0sej3t=J&6d=0{{X*teuec}I5G25=1=ve-^we!eZ;q4'2s2S*h:< M*z/D&xeS.~&*%yeD,h$`*.)E-D~y$~}y&b*s>I>zeAe>aG+",
" +BeCeDeEeFeGeHeIeJeA KeLew $ Q*A Mej5d.U<Ne~6M.1 M)~.OePeQeE#ReSeTeUe@eVeWe~7j 7e>}Xem&E5J YeZe`e f.f+f@f#f$f%f&f*f=f-f;f>f,fG 'fK )f!f~f{f]fk9^f/fR<(fN:3,{$_fO.:f<f^+p_[.C2[fU.-0}f|f1f2f`c3f6'l+-e4f5f6fJ 7f<*8f9f0fafbf9^H%t3cf45M')*o);.O.h)@.P%~ dfw4efff",
"gfhfifn8jfkflfmfnfofX#pfqf>@rfsf$[tfufvf0 wfxf~)Z yfzfAfBfCfDfV8z<Ef%:FfGfHfIfJfKfLfMfZ@NfOfPfQfRf*<SfTfUfVfWf`cXfYfZf`f g.g+g@g#g$gd@*:%g&g*g=g-g;g>g,g'g)g!g~g{g]g;)^g/g(g_g:g<g[g}g|g1g2g3g#]4g5gd<o+6g!0i~7gI[8g`#d:9g0gagbgcgdgegfggg [hgigjgkglg)gmg_=ngog",
"w4B$i'pg`</;qgY#rgsgtgx>ug{{`9vgwgC xgygzgAgP2BgE^CgDg!0EgC%s'Fg4'GgHg -IgJgo&m[KgLgMgNgOgPgi5`$e'A=daQg&%D/RgSgL,Tgf.^$h9UgC]Vg3=z[)ax2w96+WgW_XgYgZgZ%s19$2;x%}aj$@}a&O2+1)>N.,;o^M}`g[)~0r|w2;. hg~&{.h= .&*%l|+h@h#h$h%h&hd+Aa*hLfR.|9Z~=h%+9.-h;h>h,h'h)hs+",
"];m;'{d o^(5I~K$!hr|1_p';1X;~hZ&Y2pd@%{h]h=e'~^hdaV D]*aX[S|U3t%/h-|,]e=d~c%g!e=5^@*p0R[)aR$L'&d(h'#P%}a|=_h:ht>K*k)pc<hJa&cYcr('-g,A*-.r)q&-][hd'&%:1e/(*}h|hN:i;02w01hF%2h9$8&X!{2[}1>k;!4a%-c>{J%s/@*-14=Ld!*!{[]g~n^3hMg3/p>q&*&u^ -e-D}o9/] ]h^4h'%k'm!d}L*",
"J~c%Cgt%'~C1V%T --uev2I~905hJ*+=J1m=6h7h8h 0z;#;-cg%w!&;P&q54$q,Oc9h, z2g2p,*]r]0hE,>&}[S>o'>!F/A'|}x*3)B|S w1|*j!k5x;v$/&h'.*4$[>q4ahs)s|9]bh%:Vao1v,g!y))1S5&#N=f*,'8>~7/&X!6$P$%[chB1Q'9=|dG1dhp1q$]%P*E/ehd D3`3Y-!.]=fh*6M%gh=d/;H$:%.38&%>k04=a0`.z)T>Dbu$",
"5$A1X,hhih2!'*k(jhkhq55)94q$lh;-A*._K3mhnhoh$,! }=<$-1y^9$+-<2}[X$j&G*>2zaQ1e/ueW*T|h;>{_(b+ph!}qhQ$S.V]rh-cC3sh8*~[W*r(%;9^h)H H>3[7+9~th)~q%8<_0M*a*e|p%w=E|Y-Z*y0A2%_y]:,d5y>w1(3]*'~N^uhi', m-Z-<%,0-|E1S|`$*-!*vhO)R,s ;(w2u B%C]=dj',~whz- {e xhy$#dah4$X*",
"_,|=)=#_g~=*+|]*Y[yh@*w2J13=S(y$81 ;T{zhAh*{%%n&d!};:6H$BhA1Ch5$S[F2|!_2f=k)q3N1Dh&e|{Nez[3>Eh9]~*^;FhGh{*6-r;HhIhk;`-A*Z512-0>'<[}{(*$!v3v>7%Jhw1`1,}1.v3#|9=7}~&$=x'ccJ]<hKh4~A*'|r_Lh[^%*[d&_G%H$}>v3i};=q&M}Mh5[($&{p-Nh|586)3<2@$*>p=q3>/H'g-X3X>t&OhPhueG#",
"L;%=q}~{QhDcRh945)<5Sh--!2ThUhV]b%v{20VhWhC%S,O)n=#b~#>,=a01J~Xh''v-y=i5T,_-Yh|~.*R3Zhc=L'}=xbB;a%`h(, iN=s2-|x'@.9-d4s{:[-/8)}*X!@},,b/0>.iR*+i@i(,!*7$#iX!w=V]-a-4};E%6$(5=.`..=$i:,1%u(^5{* /T~;.+,~$OcK[^,B%V{9~N;u]%i>>'$9%5%c2m&5$j3O'y)X5^>-%Z>N.n}&i*>*i",
"p)=iA*J*==9dG*m4&+t&v54/{bNa= R3p,mdp-|<-i;iz%R%R3;.p'1)J >i(4b!F)}466,iw=r_q>'iH'$e`a)iub!i~if*=4s;9-K'y${iO'9/u,]i:%^i5hk)f-Y3/i(i&>_i_2:i, <i[iO>}iJ00|x,`-k-k'7|P)$;|iP5a.a1$|r,x;$|G'&.<[n;1i!6K%^_Q A|H3u(Z&`^2i)^3i5~E/32=,Y #>-'+)^h!$'~4i5i ;U5P'[d6i7i",
")/i|7[z3d'M%Z&x*I]x/8iw>l!}69i-.s]H*G~4_0ia=m{C%+=q|0>..ais|-;biu,X>Z1'!q&Z5.--.j5V],!s5~[L;=&y$cib%q,U]z]w=$1>-@*w/5*Z=z>di&e~,o,n&6=eih)F,9'X8fim{_^P4y{j5I,u3@_A*giv}L&.>4)hi-cI5G&($ c*6#&c*%{iijiA0>]O{v3'>g~ki/e{6D3~{x9m&Z (&C;n}(*3=*=D;Z*''t0g~;[#6_~li",
"j3S{kbM9,|miz]~>/,<-T]pani3$(|5=oih;l)piqi<>n=s/G~#+R-u(;.N>';z%4]m{H'x/risiO;tib^uis{P$G;h=<[%>D315z}T>f=#;A)]1Ia&>$b7(r{vi%iq=@}1)y^m%x]l)rawixi_16~`%yi&&*>*>0=:$;[H$B|e=#{@}H%'29$/bydR3:$`.=*zd#)4eI6=bziZ^k'#;`g_~t#k1<%AiT* {9~`]6*s-[&c*'/J#.&86u1BiscCi",
"Q<=.DiJ1w&Iac;`&--A1L-4)Ei -Fi61%{GiA*HiIi@,Q=F^Ji'=*bM};-;./(q3{3h3U/S,x=_1T|,;R'Kik)M%O>d*4^N5q4#=:6*aLiMi^3T>0/I6NiF#(%+,K~q=$b/&='g;b/6&OiPi_}R,-5Qi,4G]a%5=r-U]-|+~Riz[+~B1G,t#:,L';.k{~ }~Siv'2 B1z[F/_>~*#&<[x,.;Ti@*pdv O4^*R>1=}!q&y&O[UiO>h)/*E~ViWi|4",
"5=R4= Y/v^Xig,S(Y/i6 -Yik'2!c[YaG)f]e1rfZiS-i^<*E/`iM)q4i':6tbj')~}6S!S|N5-. j {a=,d'{.j55Pa'=j3:>X!+j~0$ @j0|uh>>S,#j$j5h%jF'<2;}}!n;=~k)L/(,&jp-QhF'W$;-~~*j%>=jh37]XcZb6bx|BhI ugn}x;c~*|]3|}Ia(&v4 e:1#-G&86O'I*Q$]iB=-j| u&6*M=T);jY<;;>jk3K%&=y-C|) Q&T^x ",
"cblh c,j 0x*bat$~%%=:%'jr]`g -7}9-]^J )jPfv';}P$ba`&>[P&P0l*Oci^%ae=C193+.e*&#W^f3P)_bH{O4p,c(o^@~!j}6A>81*>!2[)~jx/{jba]jR6+d[%K;:[<;6a8}^j9]/jq[*-V!p'N[7 >'e=k-N[G)(jC>w[d'-=^5r[24M%+}R~q4B1d03 _j8%:jZ>$|z/#6pe;^R><j%_[jV.x9}jK]Y9r|E/|j _Qau1S3.!O;g%~,bf",
"r%F01j&iW&/;}2[^4eb 2j}4d-3j&2c5O04jQ&5j6j@h;=N.7j/^k|c!T>8ja'S.1)n#3=9j^[q40jp|S(aj6=_4G/bj_}~&q}T>cjy^*{i$L 7~P-L'djn9f+6dKcej|+S[_bU{Z*F#Wa5}R 4=z}:&v)C<5/6eh*t=fjW,D;W|w=q(5=E/W/%{+.gjhjv ^*@7J|Y2a%S.ijjj5=6$kj=.ljmjnj%_ojcc=]7~X=3e`&i:H;c*hhpjye`^H'T]",
"Qi-,-;w$qj% rjO=o(>246<;ld+e, W*sjlhp&tjujC1vj,~x2wjB^xjza`'4%5*^}yjzj[^.'ojAj2!_>q,Bj2(p,u$y;W,C y/Cjm$DjJ|EjFjR3GjHj^*Ija%JjA>$jP[3/J#S;{iX3KjLj9~3=;!S(B%4ii5LbO%.*>-k;T;x,Mj<hJ'[.Nj{.l9J]Nh2!g]G3t#M]D4&*y;L;>{k>Ojv|QhE%f:@>F'PjQjRj(3#2> (;SjTjghUj&{Vj(5",
"2^6ej$Wj.47!1)O%NaH c6%!F2W[_0<|R,Q&#bXjYjZj76Qd9-=-`j k.c6h.k{{t{I~x/F0T~f; dL=+kw4E,A0%}@k#kP&$kA*O|<5%k&kz5##t y$(**k-;_^Y[Q)i*>{c!=kO>~[-k;k+.>k}%R>dcl4+,5[l!h!x;._=]4:w*O2s',k:2k=s-~7'kE/H 1^H4~%ocw%)k!k~,>.=i>,F]~k0>GgMc`,Wi=.+b{kH.>*=-`gR'D,e$a=J]#,",
"^;]k^kQ'/kn^ ~0aZ&s}(kpdo[!2g5V'j5k'_k:k<k6=[kDa'/}k7+cio,q[|kp=>.6[1k2kv']/3k4kt'5k@7kbq}6k7k8k9k {!.m4C<+.0k_-%|j32!V{K{/;:24$pcC1akv3%]G'i*bkV{([Fav}i=cky^<53>@}z,s-R'`go^a^~$dkG&U{/;eku^P*3/q l!fkgkhkP{P0ikjkkklkz1mk,.m^C p=|.a&m$nkZjv25~##_(J*okQj<dS!",
"k(3~_2h0@]pkqky$J%rkJ}[^J*s4u$j3Y;}>6*sktk''->uk51vkwk--G3xkyky^1~> h6y> 4/ea1*>d.zkAk<;gk`gQ&Bkv4Lcq|Ckab>5l-PhDkEkk(/,55u}Bi}.Fkm%'2g]*>0>6(Gk$>2i->&;s)zkSjHkJ1r ]{(,Ik=bJkL3@)>.x %|x*;115Kk/ J*H'`%f;l9s ~,=43/q4^-`.]1!,%;p s4A*LkT{@=|{8~`&5[MkIgU,='r-Kk",
"g!X!I~M9d[c4Mjs-:&NkJ-04Pc2!|{OkT,ldd]Pkd##_M(QkEb_5Rk[=J n!q4SkTk}~ugS!UkS.)75/%>3&*!_hVkO/I5&=WkJ&Xk]11)x9`<^[X>n&Yke1F=T6B1ZkO'O'V{[^x'f'x{`k l+}.l%%u12*[^+lm$@l~hc[5[>584P)>.X 6=*c#lx1 ~$l%l.=|!&{h:*{&l0==**l=ll!P*C;7|C<-lz$L$;lo,<+>'U/}2I~z*%{_2I|k%,,",
"w/|~n&>l+}1bh!'3[ s9,l'l'1S>@[Z*;[p,)l!l~lG]>/Y2w=#2K$ihy$^[{lu^q47+}=]l$}[%5~5*^l>;!*8//l*'P>p2Lb#_g/`gh!'.*{&{B%c!(l^^!>W*4e_l:l<l3)w>[l`ha-}lZ^>-F/|lW*p33kT.f[1lP4Oc/2d;F)M)=.x#1~~.2l;.`=3l4lF^x;/~l24j5l-c6l7l=-8l9lu}!|0lA1Fa-lalLbTiW,H y^Y}<;~ D}r2~&B*",
"j':[o^_e(&R>p;7!O>1[='R xjp2bl#&y'L&N0cldlB1o^d0,}el}%A,flj5glp3W,#|A&s{X- ~,|@2J4i$:>p=Qa%~t&^.:8z)hl:;il<5c6/,jlf}H.[=J klllx>mlJ1Y&nl./k=olplqlU]/(9/L3p,k )e3krl`%$3ViV2(,sltlul:>S&O#x;z^ j*6V{vlwlxl4eoc_^e=` yl.&w&~,:~;=F*zlP*55AlF=r-w'Bl[*ai/+w=/~(3L;",
"ClghDlElFlGlHlR/Ilp7JlKlLlz(Mlada668Nlc9OlPlM'$5QbU=,%Z9QlRl:jB!g/w5j|o$b=Slq]&3McTlp-pbD~*%%|25R%UlE'Vl9&1[;=K$m!W/WljlD}Xl jj(Ylvg@$Z.Zl`l md<.m+m@mR%$>O2c{#m$m%mp>q 9=q&&md>*m=m kMgJ*-mXdLdtd;mM'N{>mUk,m'm12C;)m!mdj3ezcY ld~m{m]mW& ~Uc~0S=N:@hg$r 1&/;v.",
"^m/m(mr75#!__m:m<my8[mw^}m|mJf1m2m3m4m5m6m7m8mq:9m0mambmx+cmdmemq2fmgmhmim9gjmkmlmmmnmomo.pmqmrmsmtm0,X8um|$vmwmxmymzmAmBmy+CmDmEmFmGmHmImJmKmLmMm-@Nmd@OmPmQmRmSmTmUmV%VmWmXm::79Ymimx^Z{Zm`mpl n.nT#e'L.+n@n#n$n%n&n=#*n=n-n;n>n,n'n)n!n^9Wd~n{n]n^n/nv8(n_n:n",
"<n[neh5.}ng&S=|n]11n2n5:2*B8t%N#Bdh(>}l~q 3n4n =5n6n7n8n9n.:0nN_an!0 jbncndnenU_c>fngnhnin@329Gbjnknkglnmnnnonpnqnb:rnsntnunvnwnxn$[ynznAn<gU@H:BnY#e5CnDnEnFnGnY,HnInJnKn(nLnMnNnOn1#c9PnQnRnSnn6~&j TnF{UnMgg/f 14U,VnWng6Xnp -=r@YnY#q^Zn`n o:$a%^ %|.d.ob[pm",
"+oA,@=@oY D,M]32n}F]Vbx''=x##oIa{-3'f%r[5['$;~k%xb$o:2][Rg~ icw[N~B{g!6&~#*;h*j*V'q6J#/i<%!-%o&o*oA2~1D[X*_-J =o4/>.w=;7z$1l]$E*v:*>#}T|~1a^~%{;%!Z>y]-o;o>2Y-/(#)>=_ >o,oX!i5L*Pce-G.'o)oW{!o~oh]+%|5@})=i3ol{oT%-.&'B$94y4h6@%x/%>>;rb]o^o/o5=J V]P$j$j093(o_o",
":oi0<o[o5h:a}oz2|o1o) 2oH'1)m2W~K%|^'*3oe|R c~=]ri4o5o6odd7oyh%%Z*v|[&S!-{S>->i68ok>Y(S}O2Z19o0oaob*bocoe-F{j'do/;|/>{}!T]t^eo[.x'fo1[@*r]''A)gohoB4g$/0iojoO][)koU!loNcF0moH$`*6k6*)^no%i4+oo/ poH$P%5$q[qoo,,lA*F]q9j3E(roW]m5soto/-%|G.727%q4D;~ouom-U^F]vowo",
"xoFaWiyopcP*<$p36$[ozoAo9$`^ghI5H';[P$B1w|I*:f,5;.s;N BovoCok$x2;3>|&.}615e_9-t#;.ei6hDoV3Eo.3~maak1Kes]B*U!>.d 5~p3*cFoGoY/'#E/*&N %| /b/-{d(o;:2HoIo)5Ma3[JoKoLoh7Mo.4No|{pe /OoPo=;Qox:RoK@Sob*TbP4To*/Fam4Uom }iOcO{+.' :[!.UjS<S<VoWop&f[K/[|,,R>>{5^k>UiXo",
"jl1[p'3*Yoej%_g,'{U3A,Zo/;u$q4D] ;z-5[qbY(&13~I#L3 7F&r|`o pQ98+.pY1+pO2w)sck$]do,t#x#<;HbA)_,W~@pZ*E6c*2;v,#po^._h)j'$p$ml9ad%p&pc~*pC1t]0-@>R o15hoj+}~h+k=p-pn5;p>py$,p'p;p)p!pCi>2a%{j~p{px3da$19]]p/~5h^p<b!*/p4e#}(pk1F4ol_p:pSkU3=8<p[p3kn|@%:,q='=*|}p|p",
".mf;,|#|`oH~1p46>.UhZ9u|`*$ Fa:, ^76a=O#Wb`22pU,U,Q<E1,m&p<$3p`{+.:;P5z)k5Q}4p -d-5pt#%~J#y-6pJn7p+]<[r-U,L:8ph}C 9p>#N 0pap4fy^l$P*bprl'=+&9=]!Q&cpH6VedpR$ep^lq&SjfpgpF0hpO)~7|2G~W;90o^x/ip+~jp|/}46~-bQb1^kpV&lp^,3/j%^33=+d:pf%k!F)mpE,_|=;D[d/(*Y3~%'1Glnp",
"opppv.qprb}/R<Oc*,rp)7G0f%Fdsp3/2=e|7 _|tpq upG*s0m9F/tlvpw2[d@o2/M&[(L]ug;lwpQbdpo6c{9^xpv4C/ypzpW5z$b=Uhx2P[m%Ap_>/3Bp[pCpW]@0ld7iDp]lEph}i!L3Fpub 0Gp_hk `&!*pd_;--Hp:>M*+,#-a[f/'2^>[)B:Ipz>;&E)}{%;8~G*K[c[V.j|4ee/Jp1[];1 )=KpLpMpNpTlOp}kPpQpg2%2B1>24)Rp",
"SpxlCpTp*&UpK.Vpt#ZdQ{@6Wp:~E/^.q5f}FkXpl(27F(A'f-j3=7G~0=;4'#[|y!tb{{YpZp,_`pye qZ<.q-|+q(,Y;@q#qS3$q<j%q&qlk9*(h*q=qE$[o-q;q>qz%*%,qN$'qo-)q&_Z-b3h*w'P5t'{2F-!q~qv.(+p's-{qD0p3Oc5$x%M)r5%59-+}X$$,1%S.;,;;q E)|=-]i'y5i::)o^k|Hg@6=b]q%{+j*!`=)5H4G)0/l*:&^q",
"/q(q~6u]T._qEj:q<q2 fk,|[qX{I~}qUhMa&*-1ug#cVkv m5|qL&1q;*w%Uh/2=bN'%ie!6=t32qW,4$r|4o$.G~ac3q4q/@;/5q<-(f0fl46qO=>#>/`,R6;=7q{;8q-d3k9qm&|;,&2 I>K>k%S346)/r-_^X*7~3/9/X]>>ugz90qS>u]g-R~Fkr!aqKl/e-|O|~%q|bq!qcq;{AoA%kh, a%[=9-A=3'>|J'+|@+_@%_r|^ 4!`%r{Y(dq",
"eqfq&.}ogqN]w2hqiqp { !%@>gh/2kkjqye*=kqF5lq3 y&R6mq]*nqn)vge]oq)7Q'@k~%pq_,E1b$x3j(!>J qqyjL3rqsqtqn|g$/}Vitb75uq5hvqwq+2f}l4P[w|3e84/)r;<;jaw2(cO.B*h=+dB{=&d'xqb%H;n}e{q k((3T%u'~k]~H*rdyqA1C<J1@hB1v ^fO|i:+.&*+|pd#!rk,!Z=N|p6I676phU%n;zqAqUhm%Z%''BqCqDq",
"a+J-#mQ65#r(EqFqjj4eghGqKbHqq$Y(d F/~%i9mjl^rbC]IqG]x'~kr.Jq q71a&KqZ*_0#%9^K*Lq]3&#~3@$scMqk$/qNq/,14Oq>5<5a%>0e_]lPqQqRq;p_&ecx%yoB^SqB|$+X>:[#--]k}D-F>->y0 {H*t4h=dcTq~mA,i|'a4:S[*|c(j3UqD,l-6$l2Vq[_QbX<n(>om4j|<$N^+=+}Hlq4E%#l)7N[O;H<WqlhXqZdv=YqS{C~Zq",
"`q8+ r.rH J|</+rvg=]T{^k@r_;Q's #rl!$r;{%m_p^'C7O., %r:8&rh0v.1)$:n-*r=rl!@%a= 0fh`< ]-rF6--z;;r>r,rt%'rh022]%g6q}D0K'o2P.55%},k[.a5T{Jj)r|!&]O'6|G&+1Abp'3*sh!$`ga&D}--v>!rtlt%q|,%)^v}k%d/~rt^`.40c;l4F%F6u|/0wpJ%vjbqz;f[F^<dh^{rQ}@h]rf]4e;(p$lj_-W*^r+|5*/r",
"c_(rP[B%_r[_+ku%>0:rj|s)<~_~<r[r}rKc|ryo1r)4.]3>x|2r3rB rb.h4rPj5r6rm{A'x;I,+j8~x;/&'i#mN;g/j}7r8r<b9r3e0rar:pbrcr/4e'p'drerN=adA&F'h$S.fr4!1=^5k)R~{}<,u'y-,]grn^G&Z|h$:~i'hri:R~t&~1Fd:6irjrt kr1(]lw29>v22*O/Y&{{I~93/,Iq`gp3n}/!A&-!lrL;s[__Vaf}mrmqw%j*nror",
"prqrrr__9$R4*$sr/ktrrj!.Z%uru;r|M&L9vr=cwrxrj$m5yrX/zr;dArb n9BrH%:,CrEcDrO'Er=.,_<~F'l!d'55[(Fr*<R3Grs'OpiqHr4~,$8[`4h0IrwjvoyjG&Z/Jr+1^.L'3'9=Kr--,~J]F'y]>-z.I]n^5/3eVcocQdLr6242z/m4b=K]MrNr3lZ5'pOrPrL'Qrk L&i$RrD<J'1l|/`%Q}J1V +~=.#)J]-!5)*(SryeTrUr1(Vr",
"%8Rq~3Hc ,Wr$5Xrr(Ve- Yrv_o9p914Zr-j`rqqw@W& s.sGlZo+sm9@s#s$s%s&s>{>|g5*s@*$mik%jK[1%p2#{=sc6-s;sV[z(>s>#,sR!'s!_E', )s:/Yk!s3 ~s`=R/V&c!{sg!]s:[n|:;n3@hc}^sF1'&/s(s`^55Q3R |=r(G4_s_1w|8%:s`nDgS%!hlh{lmph6_|<sO|p'C)f[W*|=R3~-q}##z}[|V6s}tru3o1b*q5%>[sv3}s",
"|s].1s1cBr}fplqpQbt&U!=*2s3sb$di.~Ai+]%qh 4sI64j5sW&6sp|^ 7s9oBrC#8s.pu]x (#9ss97+u$k00sgh[^x,asbsZ=cs|=ba!h'-^sd-yeUjdsesP[hk)[t%55v_$>fs*&J-W,22gs<*%}%}.~ihhsisAoGg=.jsO)Jg[==*H>$>;>}&kslsD/n{hk<$f}msM9^fbansA,Bk,!M%%iossct^{0d m4#)v[yh8 6a`3B1psqslb[&rs",
"ss/0h:+'ts^^d .susY&7+`^vs(fwsF)O/xsZpyszs[+AsM6Xi'dlk,mBsCs[$yhDs, cjEsW]t%M**.%m-]:;0=>*z2{{FsGs=*G,$jn$HsIsJsrpKs7~LsMs5s!3*;Y2=oNsOsw%g)/,:%/,N;]34 <%, d-PsQsik9kRsapj|3 0s;d}kSs ^n![eTs/}Usv}&_n5[/n^VsM6Ws@*XsFiYsZs3=`s(hu$H  t>#<5K].tD<R|P*l9]/.h| +t",
"Fe, +84j@tu)48}~O$#t$t@0%t~k{_| > g&&t{j32q Xn*tW]h0=tba{.-tQ]:ex,x376E';t>tm$ -Li/02&,t$1Y2/2't-@)t^p/fQbf - !tC#%j tL]*;= w%~tn9N|{tlds48 90`<N;F=f[]tN#T {(<oos^t/td$r^Ci`.#2H1Q''*)-(t_tBn:tLhP*#|'*g$ed#|<t&p`gxjOcY/;j.2kh4e(hC]+]P [t}tl^Ws|th055##|!/o1t",
"2t,_lh4~_0x$3tF.4t+d5tokg5f[vjh)Khzc_hp$*;6tJ*1s7tq6_|x/zs}.8tP[9t<$pc6*`,R>Q3q|Kp[_(+zs0ta%I~atbt&;ctdtO{u$- YketftR6qhJqgt.hwkhtq${.it~>h!jtx3t3]3%}ktf}_7Y}y/F(ltn$> }=`<(hq&P&[(Dc+1mtnth8_@1[Igote pt^,'-!:o63/!^[=qtw*-|rt(_Xistb*QpttW/b$R'[&A/<(lhut##vt",
"wt sekxt^r,kyt/fkek4zt%ic[ldAtWi j&kBtT{CtNs(qg'[o}kDtNh(q*kEt}0##FtMe;;m^(eW/:lNhGt`$HtItJt<%KtLtr;o^}|1)P&qo:8o(^3HqP)MtNtFdEp^1u3I#^3OtPt` [^H*C)Q<Qtz)k{/,Rt~3StTt9%@+*;Y}_&qhW4+d[=Y/TbUtY<d4baA,`o]jb K]m5]3`%7%9d!_q,Oc$cDcs p>Vt_|Wt%jj$XtYtK3;p862iZt`k",
"'+V*`t u.u{0+u$>@u#uv Mg'r$uF6u<!h7:Phe-%unj[$&u*u=u-uP/&sf Gj% /2|^s1E^b=&.1_4/mjM[;u>uY(6$n.,u'u)uc.=#{{g5!u~u3~{u]u^u[o/u(u1'Q{Y,_ur@Fex4:us7<u1.r [u}uj03l<8|u> %s>51u(q&.X5ldqey2,mZbk5]#2uY&pcVp,5<5ko4%u$'*>.,r3un5^f4u5u6uv2S!84jjz37uCiA,V4X{DaXqv58u@#",
"9u0uF@!taubucudueufuLnguhuiujukului_mu>0W_nuoupuquJ@rusutuuuvuwuxuyu:^bp|)zuAuBuCuDuc7_.EuFuGuZ+HuIuJuKuLuMuo4-$Nu|)OuPuQuRuSu@#TuUuVuf9WuXuYuZu`uEn v.v+v@v#v$v%v&v*v=vXu-vH_;v>vH9'@x^@g,v'v)v!vI$E@9!~v{v]v^v/v(v*#)&Fm_v:vb>64_v0 <va+[v}v|v1v2vJ53v 04v5v6v",
"7v8v9vU_0vavbvcvdvC.riev[.] fvgvhvivm#jvkvlvvp'h/=}91.GlDpDrDgx~M&VnWimvNlnvov=n{.~+q4n6pvjdqvZprvC&s'p=N^{2t <lN*HowjlkOres'1svQbtvvpZ+C&uvvvwvq6u]U[G%q g)Fa5%&#]1xv*k6%B Njwh%_yvY@E*[_zv)}w|>0;qAv+$6nF~BvCv'h`o[nDvEvFvU/GvHvIvJv [5 5rKvLvMv|bNvOv vPvQnQv",
"5h2/=4Rv@hSv$mTv-uMlN]=o>[UvVvgsWvAodiXvYvXdZv'*e_1+}/`v w.w^r8]<=dai%+wu.@w30Y[d'@)y$$6B,i'b M*=oD|{kl_Q$]3v%z4#w~h~p1'zk cQsGg`su^q $w%w86+e&wm;w'*|$|A>P0^*L]N)+=: h!!hS.*w!e=wHq2%;p~$e-+vtef -w;wZ6Y5>wt4,wrp2*8~p>~0 ju$z]}i/eA*'wCp)w_hS{P&!p(_/(#|V&wk!w",
":lV.[^~wx3-tr5.v{w32]w*a^w4//wdsT{(w_w:w<w<bgh#t`ok_[w/4}wlv_8].[t|wIjn[4/i'^f)$Ya1+l^x9baw=y/2;n&/-a=:~v'ejW=j!s|T{1w|r2w [ba&*51B 3w*}`^A1x/4w/(sh`&^2-'q3._E2+wz]A$X,%;M[5wz;*}H.l4_|M)x92 Z,:hugl^#w6w==Ujb Fd2qx%)7ea7w]t.=LbJ]l9n&p|8whh9wH40w;;x/H<EsLqaw",
"Z{bw2kGehv6el9cwdw~$sc[$u$dsTeT/Ssbqewfwgw%%g(;.h+hwiw>ujwkwwj4jbg|tFdlw[_mv*=%ifsmw`=d {2%i%i9hT X*(_g'@]=-nwi(3~owo(gt;dld4jpw:jL:1 23M9x>qwrwsw jR~y)6&}2~7!2~,twubCg_ln[(hup'*ghld*bD|uw[&=wed}iB^vwjh{>h%ww}~Y/i5T%76D<&>+&--xwvsupywl9n9o95[zwmt[dK%o$7o` ",
"Awq6k^BwCwEiK|Y-N]3$Z%B#'w/s+dL]V `4r5DwEw*=].5pFw#wGwM6p HwIw;pJw$>KwJ|x;`.z$LwlqMw;pz]teq5R>a%9/b{y^P)ldC Nw=bJ*Owy J|(q!+PwQwRw;lAtj0D,M)/oSwA,l-;&p3^|f)> D<m$ZvEjv(Tw55%j`,_|C4b2S{Zj>5P/e <%zlx3'-N^&iPjT(N  %s'4jq6evi$UwHc@.@+FjC1VwWwXwteZ+khApn[@0c Qb",
"YwN.^f`3(r!.ZwI]=.7$^r'-`w+1[{<tZbXw:~ x.xl9Lkpd+bR<Vm'-%m+xn(h%h6W5@x_&##ZpNt{j#x$xf[|{F]j3L'^~!*wh-&=-D|>,Xs%xQr`4&x(2Y{{_yj*x=x=o<h2 Z. cS{-xk!g6H1j1T&n&;!`&P$-;T%U%8]n&e}lh=.t'ldv&na(_j0> s9eesoB _{;xe!;;w&x9Q<Ys14wl=' tvjw5zkw*Op[+>x>tWoH4scl9,xO/xegh",
"N[G.M[KcceTclj'x,|.&[)ciwh)xVty.____!x<:~xOcJq<~Id'.l${x]xR*Rq==Iw'1(#^x<tadba/xk4@*:;z]ZdLhf;h  ^kba-T[J*z3q5|+(x_xU,!r7tp^p .pJ|:x<x}o]1[x}x<:(4h42!W1x,Vs -S&3/teR'n|Uaq,Ed`<Pc}.ak40@hldl96l+j8qye|x/kS!F(1x2x3xz]o^4xL55xT[*w6xW4AoJcu3ft7cA%7x8x'5Q{9xm^F^",
"djL]>}9$:/0x'_axzkP*N[y(=.bxGjR/xecx|.;9dx/;2/R${qf;1sexk^. 61/2]=>;fxP5P|90=(gxo$n-[(5/q|:phxad+j-,ixT%T{7~Oc]-/sUhjxkxlxS[Yk[^(5P[j0*kmxC=nxox@2v4W Zjo6#_DkD*!22=#!B1px$cwse_H4qxrxJ*=,^r[= ~A,p()m@x&bh$^sY.sx.4j$x;4loa<,k>mq'k-|&*ed[rF=qv;ltx1q<5uxB%;p46",
"I~8|[.__&xZr=ovx;l8qwxF/L$W&Cnav!.xxf.yxgwVa9%&s5hN#B!Y}<lz3L$A<[=%>n$55zx>#Uj`^i$14KcBw|=b$R>Z,</AxBx)^Wbg&~tWlqpN Cx`*i$,kDx:qAi.h hroak]rQ%Ex^2y*uqFxx;9/s|f[a[k|F{}k% l4pdC#Gx5cBi8 Hxq,zxIxJxGg| Kx[tXt^r[]ws1[%iN|) Lx.=|4q|Mx|x&rNxh%x/Iw32VtOx{09p3u!.@x",
"$jA,zlPxQxRxE$9$iv! @+E't q  ]r5[sw|n5SxTxEbjhK=U.M.*w.4Sjr.UxXt}qd~V%VxFd&sWxx>Ar)1*;KcL31+L$(4-|Z.4%>'|.Xx'-NlNaw%T%$-c;&;8 _|T{J.i$<$5[IsYxZxd'.aHqT*V ;4j0^,u}`x y2pd4, .y+y9%DgP*y5l!:;@yXp#ym5fh]_Pjax$y}j[j)2%|n5_h32X,mi)s}q%y&yG0J*>0*yxl*s=y-yR4G{s9)5",
"nj32Edr(;y.p`.>y,y:aL]{ Vg'y(el&h$)y_|!yTc>-z8~yv_{y]y$ ihXnerO)3 ^yG./yo[hh(yar_yw2WbRx76Ci3p!.N|p|w2ed] h F0v&3=}/|/W=2%J|t$O.q,!eu|J':y~_C<q:f[}=p6p'D60>|~Q i5[dR'v|[=i|g5<y##6x-,VtNcgk!^#!s}0kl9r5qe[yU!@rod~hU%v!4%}y.4|y1yFjj^_|hh jW(3uYkLw2y3yW&>#b$4y",
"5yvgE^Y}T%'#xe6yQsghX[:q4e}o7y)18y{k9y0yayH.J'x*8+$cbyh fr.~-.fq>#_&al4(&i*$up/sa41knjJ~cy*yhh.]>[ye>;ghdy- [~ey!.__& #&io[j8[fyGljjgyhyz(@r+>;giy@+I)9k.=5=g!N|[pBk>5p(/(mb&bq ]r1s=bv2pdo$^l_pTijykyW q o6%_lyC7'kr|xek>O/l$=,K]!q%3:8my}0q nyhxoyi Gj[_F)+}| ",
";1py/fZ5:2QuqyM.i~ytryx%C 5c|no$-tsy]-tyx~}~0>7jYw(_|&,_,rQdl!64_&+br|[t_7Jk&b<5l s(uy>,!eup'-vy2/x;5rM*y.ocwyfk!6/;xy/k4jHwyyg&C#k(($4~/_;;T*zyAyP[;!-pg](,oc8~3)Nh<xf[By!6CyFa51: t(u$L3F=Dy_ }0 k*yT/R<RxYk2/u(txedr|, ur__Ey<t<tFyH1dtS.Gyh HyY<D2ydR/P[7+{j",
"m%W/#1`n+=>,(#{r,{z;Jje_X/|tf w|45Wl|&IyBew>P2;=BhJyKyhhM),]Ly8>]_o63$p>T=1)B Lp.&<lMy|+NyOcOy8|k!g&RsF=*,#wPyxkX{8s&#q rbC;siQy#_!h%_Ry%#qxT/_.k9SyF]Q Ty_eUy>.Vyz2jju$>_Dcq4LhWy+jXyO{YyW<(2OrqxZyw|`y{j8 q,ye z[^9dzxpdh u$@l|t[o*wElYk-q.zUj.yN|+zdyA& zT4=]",
"hv`^by4j@zL2ye#zQ%J>$z}7~0/4|vN^x2%z#t&oR!{+&z*zHwR/7t=z-zjy;z>z,zHw*.|kD24t'z3 r|y] =!$)xxj)zmr1%<-| C&M]u k_W~ghrb_|ns!zl_~z4+^ , % ~ter!e`3{z]zY{S!E)Apld>,<5,0r|7i2ebf^zYw3>diC&5h,k( A&<b1[{jJt1'N `{q5g(S%Q]7i/zoa4%}.Q]+b&k,k<r=={j(z8+_z= qvYoh9R>n[`3_&"};
