/* XPM */
static char * leaking_wall02_xpm[] = {
"256 256 22455 3",
"   	c #5B5549",
".  	c #565045",
"+  	c #5C564C",
"@  	c #3C352F",
"#  	c #322F22",
"$  	c #524C40",
"%  	c #47433A",
"&  	c #423F35",
"*  	c #433F38",
"=  	c #3F3A33",
"-  	c #524F46",
";  	c #696356",
">  	c #444036",
",  	c #564D46",
"'  	c #423D37",
")  	c #3E3B34",
"!  	c #464239",
"~  	c #504C44",
"{  	c #403B30",
"]  	c #36332B",
"^  	c #454139",
"/  	c #423F38",
"(  	c #3D3934",
"_  	c #35332D",
":  	c #49463E",
"<  	c #403C33",
"[  	c #33312D",
"}  	c #322F27",
"|  	c #3D3B32",
"1  	c #3A3633",
"2  	c #35312B",
"3  	c #353029",
"4  	c #3F3C36",
"5  	c #453F35",
"6  	c #383530",
"7  	c #36332C",
"8  	c #3C3832",
"9  	c #423B34",
"0  	c #26231F",
"a  	c #312C24",
"b  	c #2A2620",
"c  	c #39322F",
"d  	c #3C3830",
"e  	c #39332E",
"f  	c #322C27",
"g  	c #342F28",
"h  	c #383531",
"i  	c #3A3630",
"j  	c #3A3530",
"k  	c #37322E",
"l  	c #312D27",
"m  	c #312C25",
"n  	c #4D473F",
"o  	c #443E38",
"p  	c #464138",
"q  	c #49423D",
"r  	c #48423A",
"s  	c #504C43",
"t  	c #3B372F",
"u  	c #332E27",
"v  	c #322F2C",
"w  	c #4B443F",
"x  	c #454037",
"y  	c #34322E",
"z  	c #2E2B29",
"A  	c #3B3834",
"B  	c #544D41",
"C  	c #3A3528",
"D  	c #71685B",
"E  	c #5D5546",
"F  	c #4B4235",
"G  	c #4C4238",
"H  	c #483D34",
"I  	c #564E42",
"J  	c #4C443A",
"K  	c #292320",
"L  	c #2E2C23",
"M  	c #3E3831",
"N  	c #565047",
"O  	c #4C483D",
"P  	c #403D33",
"Q  	c #3C3932",
"R  	c #3C3A32",
"S  	c #3B332E",
"T  	c #3A342F",
"U  	c #35312C",
"V  	c #393731",
"W  	c #2F2C26",
"X  	c #38342D",
"Y  	c #332F2A",
"Z  	c #373530",
"`  	c #2E2925",
" . 	c #3C3732",
".. 	c #37342D",
"+. 	c #36352C",
"@. 	c #373129",
"#. 	c #3E3833",
"$. 	c #3A3832",
"%. 	c #323029",
"&. 	c #36322C",
"*. 	c #2E2B21",
"=. 	c #2A2822",
"-. 	c #423931",
";. 	c #413A33",
">. 	c #342E2B",
",. 	c #3D3831",
"'. 	c #403932",
"). 	c #4C463C",
"!. 	c #413834",
"~. 	c #27231B",
"{. 	c #352F27",
"]. 	c #393630",
"^. 	c #433C34",
"/. 	c #3E3930",
"(. 	c #333029",
"_. 	c #312923",
":. 	c #2B2623",
"<. 	c #393431",
"[. 	c #2C2C25",
"}. 	c #2C2924",
"|. 	c #363631",
"1. 	c #3E3734",
"2. 	c #342F27",
"3. 	c #27241F",
"4. 	c #23211C",
"5. 	c #2A2823",
"6. 	c #342E2A",
"7. 	c #383532",
"8. 	c #3A3731",
"9. 	c #433D36",
"0. 	c #3B362D",
"a. 	c #413C34",
"b. 	c #333129",
"c. 	c #35322D",
"d. 	c #403933",
"e. 	c #2C2A24",
"f. 	c #322D27",
"g. 	c #35312A",
"h. 	c #46423A",
"i. 	c #36342B",
"j. 	c #403A37",
"k. 	c #3A3933",
"l. 	c #36332A",
"m. 	c #322D26",
"n. 	c #2A2723",
"o. 	c #33302C",
"p. 	c #3A3531",
"q. 	c #37352C",
"r. 	c #38342B",
"s. 	c #3B352E",
"t. 	c #312D24",
"u. 	c #443E37",
"v. 	c #413B35",
"w. 	c #3B3831",
"x. 	c #3F3B35",
"y. 	c #2C2B26",
"z. 	c #272521",
"A. 	c #2A2927",
"B. 	c #34302A",
"C. 	c #424138",
"D. 	c #48443C",
"E. 	c #3C362F",
"F. 	c #3A372E",
"G. 	c #34322C",
"H. 	c #38332A",
"I. 	c #3F3A30",
"J. 	c #403E38",
"K. 	c #322F28",
"L. 	c #302F25",
"M. 	c #3B3630",
"N. 	c #312F2B",
"O. 	c #2D2C25",
"P. 	c #403C35",
"Q. 	c #342E29",
"R. 	c #3A352D",
"S. 	c #2F2D29",
"T. 	c #3E3A32",
"U. 	c #39352E",
"V. 	c #31302C",
"W. 	c #373531",
"X. 	c #3B3631",
"Y. 	c #2E2825",
"Z. 	c #37322F",
"`. 	c #36342D",
" + 	c #322F2B",
".+ 	c #39352F",
"++ 	c #47453D",
"@+ 	c #413A32",
"#+ 	c #4E4B42",
"$+ 	c #453D34",
"%+ 	c #342A24",
"&+ 	c #675B4E",
"*+ 	c #373026",
"=+ 	c #5C5549",
"-+ 	c #3D382D",
";+ 	c #565246",
">+ 	c #797268",
",+ 	c #585047",
"'+ 	c #545045",
")+ 	c #514B44",
"!+ 	c #3A342D",
"~+ 	c #49443D",
"{+ 	c #47423B",
"]+ 	c #3D3A33",
"^+ 	c #37322B",
"/+ 	c #2E2C2A",
"(+ 	c #36312D",
"_+ 	c #38362F",
":+ 	c #2B2A23",
"<+ 	c #3D3933",
"[+ 	c #38352D",
"}+ 	c #2E2824",
"|+ 	c #2C2B28",
"1+ 	c #343128",
"2+ 	c #31302B",
"3+ 	c #33322C",
"4+ 	c #302B26",
"5+ 	c #39352D",
"6+ 	c #3C3730",
"7+ 	c #433D34",
"8+ 	c #534C42",
"9+ 	c #534C40",
"0+ 	c #565248",
"a+ 	c #40392F",
"b+ 	c #443D31",
"c+ 	c #544D3F",
"d+ 	c #685F54",
"e+ 	c #575046",
"f+ 	c #403C36",
"g+ 	c #534B42",
"h+ 	c #474135",
"i+ 	c #585248",
"j+ 	c #595149",
"k+ 	c #5D584E",
"l+ 	c #504B3F",
"m+ 	c #443E33",
"n+ 	c #585447",
"o+ 	c #463F38",
"p+ 	c #343029",
"q+ 	c #4A463C",
"r+ 	c #433D35",
"s+ 	c #49443B",
"t+ 	c #554D44",
"u+ 	c #49433A",
"v+ 	c #564F47",
"w+ 	c #3C3B33",
"x+ 	c #3D3733",
"y+ 	c #423D39",
"z+ 	c #4C453D",
"A+ 	c #47433B",
"B+ 	c #444039",
"C+ 	c #4D4C42",
"D+ 	c #544F45",
"E+ 	c #4B443C",
"F+ 	c #404038",
"G+ 	c #433E35",
"H+ 	c #313029",
"I+ 	c #3E3B37",
"J+ 	c #413C35",
"K+ 	c #36312A",
"L+ 	c #433F39",
"M+ 	c #46413A",
"N+ 	c #38302A",
"O+ 	c #35312D",
"P+ 	c #33302A",
"Q+ 	c #383431",
"R+ 	c #3B3931",
"S+ 	c #3B3532",
"T+ 	c #3F3631",
"U+ 	c #3B382F",
"V+ 	c #2F2C24",
"W+ 	c #2D2A26",
"X+ 	c #36302D",
"Y+ 	c #36332E",
"Z+ 	c #352F2B",
"`+ 	c #352F2C",
" @ 	c #3A3931",
".@ 	c #4A4842",
"+@ 	c #6C655A",
"@@ 	c #655E54",
"#@ 	c #3F3E32",
"$@ 	c #363431",
"%@ 	c #413C38",
"&@ 	c #49433C",
"*@ 	c #48433E",
"=@ 	c #3D3932",
"-@ 	c #3D3A35",
";@ 	c #39342F",
">@ 	c #312D29",
",@ 	c #32302A",
"'@ 	c #363630",
")@ 	c #423E36",
"!@ 	c #463F35",
"~@ 	c #3E392B",
"{@ 	c #655A4D",
"]@ 	c #5F5648",
"^@ 	c #4A4235",
"/@ 	c #3E372C",
"(@ 	c #3D372F",
"_@ 	c #403B36",
":@ 	c #3B382E",
"<@ 	c #574E45",
"[@ 	c #524C46",
"}@ 	c #443F3A",
"|@ 	c #3F3B33",
"1@ 	c #3F3935",
"2@ 	c #474138",
"3@ 	c #332F29",
"4@ 	c #3A3830",
"5@ 	c #413B34",
"6@ 	c #3D3632",
"7@ 	c #3D3833",
"8@ 	c #36322D",
"9@ 	c #393230",
"0@ 	c #413C33",
"a@ 	c #403930",
"b@ 	c #37362D",
"c@ 	c #323028",
"d@ 	c #39352C",
"e@ 	c #35302B",
"f@ 	c #3C3C32",
"g@ 	c #45413A",
"h@ 	c #3E382F",
"i@ 	c #2E2B23",
"j@ 	c #3B372D",
"k@ 	c #312C27",
"l@ 	c #3C382F",
"m@ 	c #342D26",
"n@ 	c #3C352E",
"o@ 	c #403A32",
"p@ 	c #3B3930",
"q@ 	c #332D26",
"r@ 	c #38342C",
"s@ 	c #443C33",
"t@ 	c #37312C",
"u@ 	c #413A36",
"v@ 	c #2D2A24",
"w@ 	c #302D29",
"x@ 	c #3C3A36",
"y@ 	c #2B2927",
"z@ 	c #433D38",
"A@ 	c #2D2721",
"B@ 	c #24231A",
"C@ 	c #292623",
"D@ 	c #2A2623",
"E@ 	c #35302D",
"F@ 	c #312C28",
"G@ 	c #3C3931",
"H@ 	c #322D28",
"I@ 	c #312E26",
"J@ 	c #2E2B27",
"K@ 	c #25231E",
"L@ 	c #2A2621",
"M@ 	c #413D37",
"N@ 	c #38332C",
"O@ 	c #332E25",
"P@ 	c #454239",
"Q@ 	c #433E37",
"R@ 	c #454038",
"S@ 	c #34302B",
"T@ 	c #403E34",
"U@ 	c #433E38",
"V@ 	c #46443B",
"W@ 	c #38322B",
"X@ 	c #504740",
"Y@ 	c #363427",
"Z@ 	c #3E3D38",
"`@ 	c #403B35",
" # 	c #34312B",
".# 	c #2F2D28",
"+# 	c #292823",
"@# 	c #2C2B27",
"## 	c #32322B",
"$# 	c #3A352E",
"%# 	c #39362D",
"&# 	c #2F2824",
"*# 	c #36312B",
"=# 	c #46443C",
"-# 	c #2B2721",
";# 	c #3D3930",
"># 	c #3D3830",
",# 	c #3E3B33",
"'# 	c #403D39",
")# 	c #3B3732",
"!# 	c #37352D",
"~# 	c #353129",
"{# 	c #2F2823",
"]# 	c #38322F",
"^# 	c #3A3631",
"/# 	c #383631",
"(# 	c #322F29",
"_# 	c #33322D",
":# 	c #3E3C34",
"<# 	c #3E372F",
"[# 	c #37332D",
"}# 	c #39322E",
"|# 	c #4C4741",
"1# 	c #37342E",
"2# 	c #35302A",
"3# 	c #474037",
"4# 	c #39362E",
"5# 	c #353226",
"6# 	c #4B453C",
"7# 	c #4B443B",
"8# 	c #464134",
"9# 	c #4B403A",
"0# 	c #343229",
"a# 	c #464139",
"b# 	c #3D3B33",
"c# 	c #312E2A",
"d# 	c #403E35",
"e# 	c #3C3B35",
"f# 	c #363530",
"g# 	c #403B38",
"h# 	c #3B3A32",
"i# 	c #463F3A",
"j# 	c #34312D",
"k# 	c #393530",
"l# 	c #2F2B24",
"m# 	c #35332C",
"n# 	c #2C2B25",
"o# 	c #35362F",
"p# 	c #3A3833",
"q# 	c #363430",
"r# 	c #3C3835",
"s# 	c #3B3A33",
"t# 	c #413F3A",
"u# 	c #413D38",
"v# 	c #3F3A35",
"w# 	c #3F3C30",
"x# 	c #433F3B",
"y# 	c #3C352C",
"z# 	c #433C32",
"A# 	c #716C5E",
"B# 	c #433D32",
"C# 	c #4A453D",
"D# 	c #5B5346",
"E# 	c #474237",
"F# 	c #4B4539",
"G# 	c #3C372F",
"H# 	c #3A342B",
"I# 	c #464035",
"J# 	c #4C493D",
"K# 	c #5D5A4F",
"L# 	c #3D362A",
"M# 	c #504C41",
"N# 	c #5A5147",
"O# 	c #57534A",
"P# 	c #312A23",
"Q# 	c #544F46",
"R# 	c #534D40",
"S# 	c #5B534A",
"T# 	c #454137",
"U# 	c #5B544B",
"V# 	c #362F28",
"W# 	c #2A261E",
"X# 	c #454338",
"Y# 	c #453F37",
"Z# 	c #544E47",
"`# 	c #453E39",
" $ 	c #48433A",
".$ 	c #4D4A41",
"+$ 	c #58564C",
"@$ 	c #403B33",
"#$ 	c #4B473E",
"$$ 	c #4A4236",
"%$ 	c #3D392E",
"&$ 	c #313027",
"*$ 	c #453F3B",
"=$ 	c #48443E",
"-$ 	c #302E27",
";$ 	c #38322E",
">$ 	c #4E473A",
",$ 	c #333125",
"'$ 	c #403A33",
")$ 	c #504B44",
"!$ 	c #332F27",
"~$ 	c #3F3D33",
"{$ 	c #433D33",
"]$ 	c #47403A",
"^$ 	c #343129",
"/$ 	c #39332F",
"($ 	c #342D25",
"_$ 	c #3D352D",
":$ 	c #312F2A",
"<$ 	c #312E28",
"[$ 	c #37312A",
"}$ 	c #403D36",
"|$ 	c #38322C",
"1$ 	c #433F3A",
"2$ 	c #37312D",
"3$ 	c #2F2C29",
"4$ 	c #35342C",
"5$ 	c #35332B",
"6$ 	c #3D3A36",
"7$ 	c #302D27",
"8$ 	c #32312C",
"9$ 	c #3A3A35",
"0$ 	c #423D36",
"a$ 	c #544D45",
"b$ 	c #544D43",
"c$ 	c #706654",
"d$ 	c #4D3F32",
"e$ 	c #484338",
"f$ 	c #3A3028",
"g$ 	c #3B362C",
"h$ 	c #48443F",
"i$ 	c #39322C",
"j$ 	c #443F36",
"k$ 	c #3E3A35",
"l$ 	c #45403B",
"m$ 	c #43423C",
"n$ 	c #393931",
"o$ 	c #373731",
"p$ 	c #413D33",
"q$ 	c #453E3C",
"r$ 	c #474339",
"s$ 	c #3F3A34",
"t$ 	c #433A32",
"u$ 	c #484437",
"v$ 	c #38332E",
"w$ 	c #3C3933",
"x$ 	c #3C3A33",
"y$ 	c #3C3834",
"z$ 	c #35302C",
"A$ 	c #29241F",
"B$ 	c #2C2722",
"C$ 	c #3D3832",
"D$ 	c #3A382D",
"E$ 	c #454034",
"F$ 	c #3B3730",
"G$ 	c #3E3A33",
"H$ 	c #3B3632",
"I$ 	c #45403A",
"J$ 	c #39372F",
"K$ 	c #423C32",
"L$ 	c #3C3833",
"M$ 	c #393532",
"N$ 	c #35312F",
"O$ 	c #302C28",
"P$ 	c #34312F",
"Q$ 	c #373632",
"R$ 	c #37352F",
"S$ 	c #4A453E",
"T$ 	c #544D44",
"U$ 	c #403D34",
"V$ 	c #322C28",
"W$ 	c #38312A",
"X$ 	c #494036",
"Y$ 	c #413D34",
"Z$ 	c #5A5149",
"`$ 	c #464238",
" % 	c #4B443A",
".% 	c #322E28",
"+% 	c #524F45",
"@% 	c #352E2B",
"#% 	c #4C4940",
"$% 	c #302923",
"%% 	c #2F2C28",
"&% 	c #3B362E",
"*% 	c #2F2E28",
"=% 	c #3F3A31",
"-% 	c #383432",
";% 	c #353430",
">% 	c #44413A",
",% 	c #4F4F44",
"'% 	c #49443C",
")% 	c #36322A",
"!% 	c #2E2A24",
"~% 	c #39342D",
"{% 	c #4C4A45",
"]% 	c #363730",
"^% 	c #3C3734",
"/% 	c #3E3B35",
"(% 	c #3D3735",
"_% 	c #47423C",
":% 	c #3E3C35",
"<% 	c #50493F",
"[% 	c #4B4642",
"}% 	c #434139",
"|% 	c #2C2724",
"1% 	c #3D3A32",
"2% 	c #4A463E",
"3% 	c #3A372F",
"4% 	c #2E2A26",
"5% 	c #413E35",
"6% 	c #403830",
"7% 	c #2F2A26",
"8% 	c #3E3934",
"9% 	c #464137",
"0% 	c #4C463D",
"a% 	c #3E3C37",
"b% 	c #423E38",
"c% 	c #393934",
"d% 	c #3B3935",
"e% 	c #2C2922",
"f% 	c #3E3B36",
"g% 	c #31312D",
"h% 	c #413B37",
"i% 	c #3A3533",
"j% 	c #3F3A37",
"k% 	c #2F2C27",
"l% 	c #373631",
"m% 	c #35312E",
"n% 	c #413F39",
"o% 	c #48433C",
"p% 	c #4B453F",
"q% 	c #3B3833",
"r% 	c #443B30",
"s% 	c #3D382F",
"t% 	c #5A5449",
"u% 	c #696559",
"v% 	c #676558",
"w% 	c #5A534B",
"x% 	c #646156",
"y% 	c #4C483F",
"z% 	c #302C24",
"A% 	c #353229",
"B% 	c #7E776C",
"C% 	c #524C42",
"D% 	c #403B31",
"E% 	c #3D392F",
"F% 	c #4A443C",
"G% 	c #34322A",
"H% 	c #464037",
"I% 	c #423E33",
"J% 	c #342F2A",
"K% 	c #3C392F",
"L% 	c #4D4A44",
"M% 	c #544E45",
"N% 	c #504B41",
"O% 	c #564F46",
"P% 	c #4C493F",
"Q% 	c #4B453B",
"R% 	c #3D362F",
"S% 	c #38362E",
"T% 	c #3F3D36",
"U% 	c #36372E",
"V% 	c #34302D",
"W% 	c #504D43",
"X% 	c #494033",
"Y% 	c #4D473D",
"Z% 	c #453E34",
"`% 	c #474038",
" & 	c #413931",
".& 	c #433B31",
"+& 	c #433F36",
"@& 	c #453E35",
"#& 	c #343026",
"$& 	c #3F3830",
"%& 	c #49413C",
"&& 	c #3E3C33",
"*& 	c #413B36",
"=& 	c #534D43",
"-& 	c #3C3A35",
";& 	c #3D3B39",
">& 	c #3A3934",
",& 	c #32322C",
"'& 	c #363330",
")& 	c #403D38",
"!& 	c #3A3732",
"~& 	c #3A332D",
"{& 	c #4E4A3E",
"]& 	c #595349",
"^& 	c #453D35",
"/& 	c #403A2F",
"(& 	c #3B352C",
"_& 	c #383330",
":& 	c #32302C",
"<& 	c #342F2C",
"[& 	c #2E2926",
"}& 	c #2C2622",
"|& 	c #36322F",
"1& 	c #46423C",
"2& 	c #403D35",
"3& 	c #3F3C32",
"4& 	c #413A30",
"5& 	c #3F3832",
"6& 	c #36342E",
"7& 	c #383430",
"8& 	c #2F2F28",
"9& 	c #3C3631",
"0& 	c #36322E",
"a& 	c #3F3C35",
"b& 	c #35322C",
"c& 	c #38332F",
"d& 	c #3E352E",
"e& 	c #433F34",
"f& 	c #453E38",
"g& 	c #3F3833",
"h& 	c #3A3632",
"i& 	c #25221F",
"j& 	c #39362F",
"k& 	c #2E2A28",
"l& 	c #33312B",
"m& 	c #282925",
"n& 	c #302C29",
"o& 	c #332D2B",
"p& 	c #292923",
"q& 	c #2B2723",
"r& 	c #3E3A34",
"s& 	c #403B32",
"t& 	c #36342C",
"u& 	c #4C473F",
"v& 	c #423B33",
"w& 	c #554E44",
"x& 	c #4F493F",
"y& 	c #444439",
"z& 	c #3A362F",
"A& 	c #332F26",
"B& 	c #3F3932",
"C& 	c #514F42",
"D& 	c #3E3830",
"E& 	c #49453B",
"F& 	c #403E37",
"G& 	c #33342F",
"H& 	c #38342F",
"I& 	c #2E2C27",
"J& 	c #43413B",
"K& 	c #444038",
"L& 	c #4C463F",
"M& 	c #37332B",
"N& 	c #45453E",
"O& 	c #413A35",
"P& 	c #35352F",
"Q& 	c #36332D",
"R& 	c #433F35",
"S& 	c #38352F",
"T& 	c #37332F",
"U& 	c #3B352F",
"V& 	c #3C3630",
"W& 	c #423D35",
"X& 	c #554D43",
"Y& 	c #403931",
"Z& 	c #3A342E",
"`& 	c #47443B",
" * 	c #49423B",
".* 	c #4C463E",
"+* 	c #3D3C32",
"@* 	c #443F38",
"#* 	c #3C3831",
"$* 	c #474436",
"%* 	c #423F37",
"&* 	c #3C3A34",
"** 	c #403A36",
"=* 	c #443F39",
"-* 	c #433C35",
";* 	c #403F35",
">* 	c #423E35",
",* 	c #403D3A",
"'* 	c #2D2A25",
")* 	c #413E36",
"!* 	c #403E39",
"~* 	c #33322E",
"{* 	c #3A3733",
"]* 	c #373933",
"^* 	c #36352F",
"/* 	c #4A4841",
"(* 	c #36362E",
"_* 	c #4A433D",
":* 	c #434038",
"<* 	c #403C34",
"[* 	c #565148",
"}* 	c #37342B",
"|* 	c #372F28",
"1* 	c #48443A",
"2* 	c #443C32",
"3* 	c #564D43",
"4* 	c #4E463C",
"5* 	c #4E493F",
"6* 	c #4B483B",
"7* 	c #49413A",
"8* 	c #58524A",
"9* 	c #5A5349",
"0* 	c #4F4A3F",
"a* 	c #3D3732",
"b* 	c #423D34",
"c* 	c #322D29",
"d* 	c #36322B",
"e* 	c #372F2B",
"f* 	c #3B3832",
"g* 	c #554F47",
"h* 	c #47423A",
"i* 	c #4C483E",
"j* 	c #3D3C30",
"k* 	c #3C3934",
"l* 	c #393631",
"m* 	c #4B483F",
"n* 	c #423B36",
"o* 	c #433E36",
"p* 	c #3B342E",
"q* 	c #4A473C",
"r* 	c #514941",
"s* 	c #534E46",
"t* 	c #3C3930",
"u* 	c #2D2820",
"v* 	c #4B4439",
"w* 	c #494238",
"x* 	c #453E37",
"y* 	c #494039",
"z* 	c #332D29",
"A* 	c #49473F",
"B* 	c #36342F",
"C* 	c #3F3D39",
"D* 	c #373532",
"E* 	c #31322D",
"F* 	c #34302E",
"G* 	c #322F2D",
"H* 	c #2A2824",
"I* 	c #2B2A28",
"J* 	c #3E3F38",
"K* 	c #3A3834",
"L* 	c #39372E",
"M* 	c #48433B",
"N* 	c #3F3B37",
"O* 	c #2C2825",
"P* 	c #33312C",
"Q* 	c #3C3B31",
"R* 	c #3F3C37",
"S* 	c #453F39",
"T* 	c #3B362F",
"U* 	c #3A352C",
"V* 	c #413C32",
"W* 	c #3F3B2F",
"X* 	c #35342D",
"Y* 	c #565149",
"Z* 	c #3D372B",
"`* 	c #302F27",
" = 	c #2D2A27",
".= 	c #2F2D26",
"+= 	c #352E27",
"@= 	c #403A35",
"#= 	c #4A473D",
"$= 	c #2D2C27",
"%= 	c #35342E",
"&= 	c #3A3831",
"*= 	c #342F2D",
"== 	c #3B3B32",
"-= 	c #343329",
";= 	c #302E28",
">= 	c #37342F",
",= 	c #4F4C43",
"'= 	c #322E26",
")= 	c #303028",
"!= 	c #3B3932",
"~= 	c #3B3830",
"{= 	c #35342F",
"]= 	c #413E37",
"^= 	c #363229",
"/= 	c #403B34",
"(= 	c #332E29",
"_= 	c #37352E",
":= 	c #444239",
"<= 	c #322E27",
"[= 	c #2C2A20",
"}= 	c #312F28",
"|= 	c #3E3A38",
"1= 	c #413D35",
"2= 	c #312D28",
"3= 	c #34312A",
"4= 	c #4B4740",
"5= 	c #383730",
"6= 	c #2E2C26",
"7= 	c #32322E",
"8= 	c #35322B",
"9= 	c #3B352D",
"0= 	c #494940",
"a= 	c #3F3D35",
"b= 	c #302F2B",
"c= 	c #3A322D",
"d= 	c #48433D",
"e= 	c #3F3D34",
"f= 	c #423C35",
"g= 	c #464337",
"h= 	c #3D3C33",
"i= 	c #3E3932",
"j= 	c #333028",
"k= 	c #34332C",
"l= 	c #49473D",
"m= 	c #413E3A",
"n= 	c #302E25",
"o= 	c #3B3733",
"p= 	c #424039",
"q= 	c #373330",
"r= 	c #4B493E",
"s= 	c #3A3A33",
"t= 	c #444137",
"u= 	c #47443E",
"v= 	c #46433B",
"w= 	c #36312C",
"x= 	c #393833",
"y= 	c #333230",
"z= 	c #2E2F29",
"A= 	c #3F403A",
"B= 	c #47433F",
"C= 	c #3E3D35",
"D= 	c #38372F",
"E= 	c #4C4740",
"F= 	c #413C37",
"G= 	c #48433F",
"H= 	c #4F4740",
"I= 	c #514C44",
"J= 	c #484337",
"K= 	c #3E3A30",
"L= 	c #4C473A",
"M= 	c #444138",
"N= 	c #4B483A",
"O= 	c #5C584D",
"P= 	c #4A463D",
"Q= 	c #383229",
"R= 	c #514841",
"S= 	c #4A453B",
"T= 	c #504B3D",
"U= 	c #4F4A3E",
"V= 	c #6B635A",
"W= 	c #3F3933",
"X= 	c #3C3B32",
"Y= 	c #4A443B",
"Z= 	c #302A22",
"`= 	c #413B33",
" - 	c #2F2B25",
".- 	c #44413D",
"+- 	c #3E3933",
"@- 	c #42423A",
"#- 	c #484236",
"$- 	c #433C31",
"%- 	c #474439",
"&- 	c #3F382E",
"*- 	c #4F483E",
"=- 	c #383128",
"-- 	c #4C443C",
";- 	c #443E35",
">- 	c #474035",
",- 	c #484137",
"'- 	c #343127",
")- 	c #363329",
"!- 	c #3D3931",
"~- 	c #393732",
"{- 	c #4F463E",
"]- 	c #2F2D2A",
"^- 	c #2F2D2D",
"/- 	c #353330",
"(- 	c #373533",
"_- 	c #2D2C28",
":- 	c #323230",
"<- 	c #2F2E2B",
"[- 	c #33332F",
"}- 	c #373432",
"|- 	c #353533",
"1- 	c #43403B",
"2- 	c #3D3631",
"3- 	c #302D28",
"4- 	c #34322D",
"5- 	c #33312A",
"6- 	c #2E2C28",
"7- 	c #504840",
"8- 	c #463F36",
"9- 	c #4E493E",
"0- 	c #332E2B",
"a- 	c #474139",
"b- 	c #3F352C",
"c- 	c #312E29",
"d- 	c #302D2A",
"e- 	c #4B463D",
"f- 	c #555146",
"g- 	c #3D3B37",
"h- 	c #3D3B36",
"i- 	c #3B3734",
"j- 	c #48423B",
"k- 	c #4A4840",
"l- 	c #342F26",
"m- 	c #3D3734",
"n- 	c #3F3A36",
"o- 	c #34332B",
"p- 	c #2F2D25",
"q- 	c #38342E",
"r- 	c #4E463E",
"s- 	c #45453C",
"t- 	c #2B2720",
"u- 	c #35352E",
"v- 	c #423F36",
"w- 	c #29251E",
"x- 	c #2C2824",
"y- 	c #423C34",
"z- 	c #59544B",
"A- 	c #4B473D",
"B- 	c #483F3B",
"C- 	c #3E3832",
"D- 	c #312B26",
"E- 	c #3A352F",
"F- 	c #38382F",
"G- 	c #453F3C",
"H- 	c #33302B",
"I- 	c #544E44",
"J- 	c #423C33",
"K- 	c #49483E",
"L- 	c #33322A",
"M- 	c #4D4741",
"N- 	c #3A362D",
"O- 	c #413D36",
"P- 	c #433F37",
"Q- 	c #3D3834",
"R- 	c #282821",
"S- 	c #35322F",
"T- 	c #3C3733",
"U- 	c #3E3935",
"V- 	c #424037",
"W- 	c #3A3932",
"X- 	c #474540",
"Y- 	c #393730",
"Z- 	c #44423A",
"`- 	c #464339",
" ; 	c #3B3B36",
".; 	c #3B3A36",
"+; 	c #2F2F2C",
"@; 	c #393736",
"#; 	c #3B3835",
"$; 	c #434039",
"%; 	c #4A4338",
"&; 	c #5A5549",
"*; 	c #5C5749",
"=; 	c #514B42",
"-; 	c #5C584C",
";; 	c #555244",
">; 	c #3F3931",
",; 	c #5F594F",
"'; 	c #615C51",
"); 	c #3A3326",
"!; 	c #403A34",
"~; 	c #33332B",
"{; 	c #3A362E",
"]; 	c #3A3634",
"^; 	c #534C41",
"/; 	c #3C372C",
"(; 	c #3E3B32",
"_; 	c #342F2B",
":; 	c #3F3B34",
"<; 	c #4C4842",
"[; 	c #44443A",
"}; 	c #4C453C",
"|; 	c #534F46",
"1; 	c #453F38",
"2; 	c #443F37",
"3; 	c #474137",
"4; 	c #5B5348",
"5; 	c #37332E",
"6; 	c #423B35",
"7; 	c #393930",
"8; 	c #47453E",
"9; 	c #45433C",
"0; 	c #413E38",
"a; 	c #413E34",
"b; 	c #2F2E2A",
"c; 	c #30302C",
"d; 	c #3D3C37",
"e; 	c #2F2F2F",
"f; 	c #363533",
"g; 	c #433F3C",
"h; 	c #2F2D2B",
"i; 	c #3A3A37",
"j; 	c #393A34",
"k; 	c #34322F",
"l; 	c #3E3D37",
"m; 	c #3C3C35",
"n; 	c #434138",
"o; 	c #45423E",
"p; 	c #423F3A",
"q; 	c #413C36",
"r; 	c #393632",
"s; 	c #373433",
"t; 	c #2E2E28",
"u; 	c #4B423C",
"v; 	c #4C443B",
"w; 	c #312B24",
"x; 	c #4E483D",
"y; 	c #3D372C",
"z; 	c #322F2A",
"A; 	c #514B41",
"B; 	c #37302A",
"C; 	c #302B25",
"D; 	c #282524",
"E; 	c #312E27",
"F; 	c #4A483E",
"G; 	c #322D2C",
"H; 	c #3E3E39",
"I; 	c #393935",
"J; 	c #383731",
"K; 	c #3D3A37",
"L; 	c #353530",
"M; 	c #403831",
"N; 	c #332C2B",
"O; 	c #393733",
"P; 	c #403B37",
"Q; 	c #2A2724",
"R; 	c #312C26",
"S; 	c #4D4B40",
"T; 	c #2B2A21",
"U; 	c #34322B",
"V; 	c #48413B",
"W; 	c #3C3B37",
"X; 	c #2D2B27",
"Y; 	c #484339",
"Z; 	c #343529",
"`; 	c #3A3730",
" > 	c #424239",
".> 	c #4C4A43",
"+> 	c #36362F",
"@> 	c #3F3B36",
"#> 	c #3F3A2E",
"$> 	c #3B3731",
"%> 	c #423E34",
"&> 	c #3A3A34",
"*> 	c #38332D",
"=> 	c #484239",
"-> 	c #49473C",
";> 	c #4E4841",
">> 	c #332F28",
",> 	c #3E3732",
"'> 	c #403C31",
")> 	c #413F36",
"!> 	c #2F2E29",
"~> 	c #35322E",
"{> 	c #393633",
"]> 	c #38362D",
"^> 	c #3A372D",
"/> 	c #48473F",
"(> 	c #474742",
"_> 	c #43423D",
":> 	c #383734",
"<> 	c #30322E",
"[> 	c #3D3D38",
"}> 	c #2A2624",
"|> 	c #3B3A31",
"1> 	c #322D2A",
"2> 	c #403D37",
"3> 	c #403C37",
"4> 	c #4A453F",
"5> 	c #595447",
"6> 	c #554E47",
"7> 	c #504A40",
"8> 	c #383228",
"9> 	c #524D44",
"0> 	c #5F574E",
"a> 	c #5E584C",
"b> 	c #434035",
"c> 	c #4A483D",
"d> 	c #3D3730",
"e> 	c #36332F",
"f> 	c #3A362C",
"g> 	c #39342A",
"h> 	c #322B22",
"i> 	c #4B463C",
"j> 	c #2F2A24",
"k> 	c #423E39",
"l> 	c #4F4A44",
"m> 	c #39382F",
"n> 	c #37322A",
"o> 	c #484436",
"p> 	c #4B463B",
"q> 	c #363129",
"r> 	c #2E2B22",
"s> 	c #373633",
"t> 	c #302E26",
"u> 	c #393830",
"v> 	c #393531",
"w> 	c #585449",
"x> 	c #4E4740",
"y> 	c #45423A",
"z> 	c #373630",
"A> 	c #322B29",
"B> 	c #35302F",
"C> 	c #332F2B",
"D> 	c #45423B",
"E> 	c #3D3C36",
"F> 	c #352F29",
"G> 	c #3D3936",
"H> 	c #3C3935",
"I> 	c #302B27",
"J> 	c #5F574F",
"K> 	c #3E3730",
"L> 	c #605A4B",
"M> 	c #363328",
"N> 	c #46403B",
"O> 	c #3C3A31",
"P> 	c #423C36",
"Q> 	c #3F3D38",
"R> 	c #484440",
"S> 	c #44403B",
"T> 	c #2F2E26",
"U> 	c #3D3E38",
"V> 	c #47433D",
"W> 	c #2C2926",
"X> 	c #3E3B38",
"Y> 	c #312A26",
"Z> 	c #302B24",
"`> 	c #342E2D",
" , 	c #3C3B34",
"., 	c #434037",
"+, 	c #37332C",
"@, 	c #3E3C36",
"#, 	c #34312E",
"$, 	c #302F29",
"%, 	c #44413C",
"&, 	c #3F4138",
"*, 	c #352E29",
"=, 	c #3D3A31",
"-, 	c #4C4941",
";, 	c #393734",
">, 	c #3B3533",
",, 	c #414137",
"', 	c #323026",
"), 	c #393831",
"!, 	c #47433C",
"~, 	c #5C554C",
"{, 	c #443C35",
"], 	c #524D43",
"^, 	c #41403A",
"/, 	c #2C2A22",
"(, 	c #46453C",
"_, 	c #45443C",
":, 	c #56534C",
"<, 	c #3D3B34",
"[, 	c #414039",
"}, 	c #3D3731",
"|, 	c #42403B",
"1, 	c #383630",
"2, 	c #36302A",
"3, 	c #48463E",
"4, 	c #4D4B42",
"5, 	c #363731",
"6, 	c #3C3A30",
"7, 	c #2B2821",
"8, 	c #514B43",
"9, 	c #554F46",
"0, 	c #49443A",
"a, 	c #3A352B",
"b, 	c #50493E",
"c, 	c #57524A",
"d, 	c #574F44",
"e, 	c #514B3E",
"f, 	c #615B51",
"g, 	c #48453C",
"h, 	c #4A4740",
"i, 	c #413F37",
"j, 	c #2F2C25",
"k, 	c #3F3F37",
"l, 	c #322D2B",
"m, 	c #484540",
"n, 	c #4C4942",
"o, 	c #554F45",
"p, 	c #322C24",
"q, 	c #443D35",
"r, 	c #3C3530",
"s, 	c #36352D",
"t, 	c #2F2E23",
"u, 	c #3F392E",
"v, 	c #3B352A",
"w, 	c #38352E",
"x, 	c #46423B",
"y, 	c #414037",
"z, 	c #44403A",
"A, 	c #4D4841",
"B, 	c #403E36",
"C, 	c #31312E",
"D, 	c #46443E",
"E, 	c #3A3735",
"F, 	c #3C3936",
"G, 	c #54504B",
"H, 	c #403F39",
"I, 	c #3D3A34",
"J, 	c #3E3A37",
"K, 	c #403E3A",
"L, 	c #43413A",
"M, 	c #3F3C34",
"N, 	c #45433D",
"O, 	c #3A3430",
"P, 	c #3E3733",
"Q, 	c #5E5A52",
"R, 	c #58524B",
"S, 	c #3F372D",
"T, 	c #39332A",
"U, 	c #2F2F26",
"V, 	c #323027",
"W, 	c #34312C",
"X, 	c #3D3935",
"Y, 	c #3F3D32",
"Z, 	c #38352C",
"`, 	c #45423D",
" ' 	c #48453E",
".' 	c #3B3A34",
"+' 	c #2F302B",
"@' 	c #32302E",
"#' 	c #302E2A",
"$' 	c #34332E",
"%' 	c #31312C",
"&' 	c #3E3D36",
"*' 	c #3A3734",
"=' 	c #2A2924",
"-' 	c #3F3831",
";' 	c #46423F",
">' 	c #3F3E36",
",' 	c #45423C",
"'' 	c #363633",
")' 	c #494642",
"!' 	c #443F3B",
"~' 	c #3F3E38",
"{' 	c #41403D",
"]' 	c #3E3C32",
"^' 	c #48413C",
"/' 	c #35322A",
"(' 	c #413D39",
"_' 	c #49453E",
":' 	c #373732",
"<' 	c #34302C",
"[' 	c #393A33",
"}' 	c #43403A",
"|' 	c #302F2A",
"1' 	c #4A473F",
"2' 	c #514C42",
"3' 	c #5D5952",
"4' 	c #555148",
"5' 	c #44433B",
"6' 	c #453E3A",
"7' 	c #46463E",
"8' 	c #47413C",
"9' 	c #48453D",
"0' 	c #46423D",
"a' 	c #3B3C36",
"b' 	c #42423C",
"c' 	c #34332F",
"d' 	c #43423A",
"e' 	c #393936",
"f' 	c #403C32",
"g' 	c #524E46",
"h' 	c #4F493D",
"i' 	c #534E45",
"j' 	c #4D4740",
"k' 	c #585448",
"l' 	c #49433E",
"m' 	c #45443B",
"n' 	c #4B4238",
"o' 	c #514F43",
"p' 	c #4D463C",
"q' 	c #37312B",
"r' 	c #3B3531",
"s' 	c #302F28",
"t' 	c #39372D",
"u' 	c #42403A",
"v' 	c #43403C",
"w' 	c #3C3B36",
"x' 	c #4F4944",
"y' 	c #524E47",
"z' 	c #4D4A40",
"A' 	c #464038",
"B' 	c #423B2E",
"C' 	c #4C463B",
"D' 	c #595346",
"E' 	c #413B32",
"F' 	c #383129",
"G' 	c #303029",
"H' 	c #423E37",
"I' 	c #33342B",
"J' 	c #4A4541",
"K' 	c #46443D",
"L' 	c #3D3937",
"M' 	c #3E3C3B",
"N' 	c #33352B",
"O' 	c #3C362E",
"P' 	c #4C4A44",
"Q' 	c #514C43",
"R' 	c #524A41",
"S' 	c #454036",
"T' 	c #403A30",
"U' 	c #3B342B",
"V' 	c #353028",
"W' 	c #2F2B28",
"X' 	c #4C4540",
"Y' 	c #4F4B44",
"Z' 	c #3F3730",
"`' 	c #43423B",
" ) 	c #3C3C34",
".) 	c #373833",
"+) 	c #3F3C38",
"@) 	c #36352E",
"#) 	c #433E3A",
"$) 	c #464542",
"%) 	c #3E3E38",
"&) 	c #464541",
"*) 	c #2A2928",
"=) 	c #373430",
"-) 	c #3B3A38",
";) 	c #2A2622",
">) 	c #3D3B35",
",) 	c #48443D",
"') 	c #3B342F",
")) 	c #49453D",
"!) 	c #473E3C",
"~) 	c #4F4A43",
"{) 	c #504D3F",
"]) 	c #31312A",
"^) 	c #362F29",
"/) 	c #4D4842",
"() 	c #4A473E",
"_) 	c #534D45",
":) 	c #444035",
"<) 	c #625C53",
"[) 	c #4B463E",
"}) 	c #504E44",
"|) 	c #5F5C4F",
"1) 	c #39342C",
"2) 	c #413934",
"3) 	c #38342A",
"4) 	c #393430",
"5) 	c #3B372E",
"6) 	c #484038",
"7) 	c #534F45",
"8) 	c #322E2A",
"9) 	c #433D39",
"0) 	c #48463F",
"a) 	c #33302E",
"b) 	c #3A3835",
"c) 	c #2C2925",
"d) 	c #453C36",
"e) 	c #443C31",
"f) 	c #645D53",
"g) 	c #50473F",
"h) 	c #4D4A3F",
"i) 	c #4A423B",
"j) 	c #4C473C",
"k) 	c #332D27",
"l) 	c #454035",
"m) 	c #322A22",
"n) 	c #38372D",
"o) 	c #3A362B",
"p) 	c #434036",
"q) 	c #4F4A42",
"r) 	c #47403C",
"s) 	c #383732",
"t) 	c #4A4744",
"u) 	c #40392E",
"v) 	c #372E28",
"w) 	c #433C33",
"x) 	c #585247",
"y) 	c #4A443F",
"z) 	c #333228",
"A) 	c #57544C",
"B) 	c #4E4940",
"C) 	c #403936",
"D) 	c #302C2B",
"E) 	c #47463D",
"F) 	c #514C46",
"G) 	c #3F3E35",
"H) 	c #49463D",
"I) 	c #46403C",
"J) 	c #5A554C",
"K) 	c #504F47",
"L) 	c #494640",
"M) 	c #3B3C32",
"N) 	c #4F4D44",
"O) 	c #4A443E",
"P) 	c #46413D",
"Q) 	c #5E5B4F",
"R) 	c #524942",
"S) 	c #605B51",
"T) 	c #4D493E",
"U) 	c #585348",
"V) 	c #45413D",
"W) 	c #3F3D37",
"X) 	c #3F3C33",
"Y) 	c #4C4A42",
"Z) 	c #45433B",
"`) 	c #48453F",
" ! 	c #4E4C43",
".! 	c #49453C",
"+! 	c #3A3B34",
"@! 	c #2F2C2A",
"#! 	c #262423",
"$! 	c #41392E",
"%! 	c #322F26",
"&! 	c #3A382E",
"*! 	c #37312F",
"=! 	c #404039",
"-! 	c #3E4036",
";! 	c #343230",
">! 	c #30302B",
",! 	c #2E2C29",
"'! 	c #3D3835",
")! 	c #31332D",
"!! 	c #3A3B38",
"~! 	c #3C3735",
"{! 	c #4B4742",
"]! 	c #3B362B",
"^! 	c #4E473E",
"/! 	c #4D4B3E",
"(! 	c #3C3633",
"_! 	c #5A554A",
":! 	c #48463C",
"<! 	c #4F4940",
"[! 	c #4B493F",
"}! 	c #39342E",
"|! 	c #47443C",
"1! 	c #443D36",
"2! 	c #484138",
"3! 	c #646055",
"4! 	c #4A453C",
"5! 	c #5E5650",
"6! 	c #3E362E",
"7! 	c #575348",
"8! 	c #4A4639",
"9! 	c #4B473C",
"0! 	c #575249",
"a! 	c #3F4134",
"b! 	c #4D493F",
"c! 	c #413D32",
"d! 	c #434137",
"e! 	c #49433D",
"f! 	c #49483F",
"g! 	c #494641",
"h! 	c #3D3D34",
"i! 	c #33332D",
"j! 	c #33322B",
"k! 	c #46413E",
"l! 	c #3D3B3A",
"m! 	c #464034",
"n! 	c #645E54",
"o! 	c #514C41",
"p! 	c #5C564D",
"q! 	c #4E4C42",
"r! 	c #444337",
"s! 	c #5B564C",
"t! 	c #3E3731",
"u! 	c #403630",
"v! 	c #2E2C25",
"w! 	c #463D35",
"x! 	c #3D382E",
"y! 	c #342E26",
"z! 	c #4A4641",
"A! 	c #423F3B",
"B! 	c #47463C",
"C! 	c #504A43",
"D! 	c #4A4940",
"E! 	c #4D483E",
"F! 	c #49463B",
"G! 	c #453F36",
"H! 	c #413933",
"I! 	c #443D38",
"J! 	c #47413E",
"K! 	c #393933",
"L! 	c #383932",
"M! 	c #3F3E3A",
"N! 	c #574F45",
"O! 	c #524E44",
"P! 	c #504B42",
"Q! 	c #4B4640",
"R! 	c #4E4742",
"S! 	c #4C473E",
"T! 	c #414036",
"U! 	c #3E3931",
"V! 	c #3C3731",
"W! 	c #49443E",
"X! 	c #5A574A",
"Y! 	c #514A3F",
"Z! 	c #443F34",
"`! 	c #514A46",
" ~ 	c #514E44",
".~ 	c #454138",
"+~ 	c #625D54",
"@~ 	c #332D2A",
"#~ 	c #362F2A",
"$~ 	c #443D3A",
"%~ 	c #3C3A37",
"&~ 	c #302A28",
"*~ 	c #3C372E",
"=~ 	c #34342A",
"-~ 	c #2E2A27",
";~ 	c #403E3B",
">~ 	c #413F38",
",~ 	c #413E3B",
"'~ 	c #383931",
")~ 	c #443C38",
"!~ 	c #47403B",
"~~ 	c #4B433A",
"{~ 	c #565249",
"]~ 	c #3C3632",
"^~ 	c #4E4840",
"/~ 	c #48443B",
"(~ 	c #534D42",
"_~ 	c #736C62",
":~ 	c #504C42",
"<~ 	c #676256",
"[~ 	c #716B62",
"}~ 	c #4E493D",
"|~ 	c #56514A",
"1~ 	c #605C51",
"2~ 	c #525043",
"3~ 	c #4F4C44",
"4~ 	c #47413B",
"5~ 	c #473F38",
"6~ 	c #504B43",
"7~ 	c #342D27",
"8~ 	c #47453F",
"9~ 	c #41413B",
"0~ 	c #3B3933",
"a~ 	c #433E39",
"b~ 	c #3F3736",
"c~ 	c #383831",
"d~ 	c #3D3E34",
"e~ 	c #4D4C41",
"f~ 	c #2A2820",
"g~ 	c #443E36",
"h~ 	c #564F45",
"i~ 	c #5C594A",
"j~ 	c #504A41",
"k~ 	c #605B4E",
"l~ 	c #685F57",
"m~ 	c #4E463D",
"n~ 	c #423A33",
"o~ 	c #2E2B24",
"p~ 	c #312A25",
"q~ 	c #342E27",
"r~ 	c #373328",
"s~ 	c #3F362D",
"t~ 	c #4D453C",
"u~ 	c #4D453E",
"v~ 	c #312925",
"w~ 	c #4D4A43",
"x~ 	c #524D45",
"y~ 	c #2D2B25",
"z~ 	c #4C4B41",
"A~ 	c #36312F",
"B~ 	c #3B3A30",
"C~ 	c #555048",
"D~ 	c #5F5C50",
"E~ 	c #4E4B3F",
"F~ 	c #555144",
"G~ 	c #5C574F",
"H~ 	c #4B4B42",
"I~ 	c #5C584E",
"J~ 	c #656056",
"K~ 	c #4A433B",
"L~ 	c #464039",
"M~ 	c #433E34",
"N~ 	c #433F33",
"O~ 	c #58554A",
"P~ 	c #5A564B",
"Q~ 	c #514B40",
"R~ 	c #423F34",
"S~ 	c #403E33",
"T~ 	c #424139",
"U~ 	c #312F2D",
"V~ 	c #383633",
"W~ 	c #494139",
"X~ 	c #33312E",
"Y~ 	c #4D4840",
"Z~ 	c #514F46",
"`~ 	c #393231",
" { 	c #423D3B",
".{ 	c #32312B",
"+{ 	c #403F3B",
"@{ 	c #32332B",
"#{ 	c #3B3B35",
"${ 	c #3E3E37",
"%{ 	c #484539",
"&{ 	c #6C675E",
"*{ 	c #413C30",
"={ 	c #49463C",
"-{ 	c #514E46",
";{ 	c #4E4B44",
">{ 	c #4F4941",
",{ 	c #453F3A",
"'{ 	c #464439",
"){ 	c #595147",
"!{ 	c #444238",
"~{ 	c #4B453E",
"{{ 	c #3A3930",
"]{ 	c #363029",
"^{ 	c #4D4944",
"/{ 	c #5B554A",
"({ 	c #6D685C",
"_{ 	c #645F53",
":{ 	c #746F61",
"<{ 	c #5E5B51",
"[{ 	c #555248",
"}{ 	c #4C4A40",
"|{ 	c #473F33",
"1{ 	c #6C675A",
"2{ 	c #524D46",
"3{ 	c #3E3C31",
"4{ 	c #56514B",
"5{ 	c #46413C",
"6{ 	c #413D31",
"7{ 	c #4B433C",
"8{ 	c #3F3A32",
"9{ 	c #454039",
"0{ 	c #494740",
"a{ 	c #525149",
"b{ 	c #332D28",
"c{ 	c #32312A",
"d{ 	c #3E3D33",
"e{ 	c #35332E",
"f{ 	c #393832",
"g{ 	c #312E2D",
"h{ 	c #403D3B",
"i{ 	c #48463D",
"j{ 	c #555348",
"k{ 	c #646154",
"l{ 	c #4A463F",
"m{ 	c #555046",
"n{ 	c #575346",
"o{ 	c #494239",
"p{ 	c #3F3930",
"q{ 	c #3F3A2F",
"r{ 	c #3D362D",
"s{ 	c #37312E",
"t{ 	c #433B34",
"u{ 	c #4D4942",
"v{ 	c #3F3B32",
"w{ 	c #49453F",
"x{ 	c #4B4841",
"y{ 	c #363228",
"z{ 	c #3C3836",
"A{ 	c #44413B",
"B{ 	c #46433D",
"C{ 	c #342F29",
"D{ 	c #44443E",
"E{ 	c #3F3F39",
"F{ 	c #4A443D",
"G{ 	c #666059",
"H{ 	c #49433B",
"I{ 	c #59544A",
"J{ 	c #3D3D31",
"K{ 	c #5D574E",
"L{ 	c #514B45",
"M{ 	c #524F4A",
"N{ 	c #615B50",
"O{ 	c #504A3E",
"P{ 	c #443C37",
"Q{ 	c #3F3834",
"R{ 	c #4F4A3C",
"S{ 	c #69665D",
"T{ 	c #4F4C41",
"U{ 	c #4E4A44",
"V{ 	c #67655B",
"W{ 	c #57514A",
"X{ 	c #302E2B",
"Y{ 	c #2D2C2A",
"Z{ 	c #373830",
"`{ 	c #45443A",
" ] 	c #4E4941",
".] 	c #504A45",
"+] 	c #413D3A",
"@] 	c #433E3B",
"#] 	c #414038",
"$] 	c #32302B",
"%] 	c #43433C",
"&] 	c #454339",
"*] 	c #514B46",
"=] 	c #514940",
"-] 	c #59554C",
";] 	c #4D4940",
">] 	c #4F483F",
",] 	c #424036",
"'] 	c #584F47",
")] 	c #726D61",
"!] 	c #5C574C",
"~] 	c #554E45",
"{] 	c #5F5A51",
"]] 	c #4D4A42",
"^] 	c #524F44",
"/] 	c #6D6960",
"(] 	c #474239",
"_] 	c #4F4D43",
":] 	c #3E3A2F",
"<] 	c #373227",
"[] 	c #403833",
"}] 	c #3E3A31",
"|] 	c #39312B",
"1] 	c #342E28",
"2] 	c #4E4B41",
"3] 	c #4F4B42",
"4] 	c #383830",
"5] 	c #424438",
"6] 	c #423F3C",
"7] 	c #4B473F",
"8] 	c #403F37",
"9] 	c #3F3B30",
"0] 	c #4E453C",
"a] 	c #4A433C",
"b] 	c #545047",
"c] 	c #5D5448",
"d] 	c #3B3633",
"e] 	c #3E3B31",
"f] 	c #3D342E",
"g] 	c #332C25",
"h] 	c #46433A",
"i] 	c #3F3B31",
"j] 	c #504D44",
"k] 	c #3D3C31",
"l] 	c #4A4941",
"m] 	c #44403E",
"n] 	c #4B483D",
"o] 	c #38352B",
"p] 	c #26201D",
"q] 	c #433C38",
"r] 	c #403F36",
"s] 	c #494540",
"t] 	c #5A5750",
"u] 	c #484139",
"v] 	c #5E5A51",
"w] 	c #5A5A4E",
"x] 	c #666056",
"y] 	c #44423B",
"z] 	c #3F3F36",
"A] 	c #5C5852",
"B] 	c #534F47",
"C] 	c #2D2B23",
"D] 	c #453E36",
"E] 	c #45443D",
"F] 	c #5A5649",
"G] 	c #686156",
"H] 	c #39322D",
"I] 	c #545246",
"J] 	c #59544C",
"K] 	c #6A655B",
"L] 	c #736F63",
"M] 	c #59554B",
"N] 	c #46413B",
"O] 	c #39392F",
"P] 	c #46453A",
"Q] 	c #4F4D41",
"R] 	c #423F39",
"S] 	c #4E4A43",
"T] 	c #3F3F38",
"U] 	c #34342C",
"V] 	c #2B2B23",
"W] 	c #2F2F2B",
"X] 	c #313028",
"Y] 	c #39342B",
"Z] 	c #47473B",
"`] 	c #564E46",
" ^ 	c #45413B",
".^ 	c #3F3E37",
"+^ 	c #46423E",
"@^ 	c #45433E",
"#^ 	c #544F48",
"$^ 	c #47413A",
"%^ 	c #2E2D26",
"&^ 	c #413E39",
"*^ 	c #45443F",
"=^ 	c #4B4744",
"-^ 	c #363334",
";^ 	c #2C2A26",
">^ 	c #443F3C",
",^ 	c #524E48",
"'^ 	c #545046",
")^ 	c #4F4B43",
"!^ 	c #282621",
"~^ 	c #57524B",
"{^ 	c #403C2F",
"]^ 	c #58554C",
"^^ 	c #6A665C",
"/^ 	c #6F6C61",
"(^ 	c #4A473B",
"_^ 	c #575649",
":^ 	c #4F4C3F",
"<^ 	c #4F473F",
"[^ 	c #403D32",
"}^ 	c #463F39",
"|^ 	c #4B443E",
"1^ 	c #4F473E",
"2^ 	c #3C392C",
"3^ 	c #474238",
"4^ 	c #373028",
"5^ 	c #534B44",
"6^ 	c #49423C",
"7^ 	c #302B28",
"8^ 	c #393932",
"9^ 	c #2D2B24",
"0^ 	c #524A40",
"a^ 	c #555043",
"b^ 	c #544D46",
"c^ 	c #38312B",
"d^ 	c #2F2926",
"e^ 	c #2D2824",
"f^ 	c #4D483F",
"g^ 	c #413B2F",
"h^ 	c #352E25",
"i^ 	c #39332B",
"j^ 	c #3A3331",
"k^ 	c #484640",
"l^ 	c #453E33",
"m^ 	c #2E2924",
"n^ 	c #5A544A",
"o^ 	c #423C38",
"p^ 	c #2A2923",
"q^ 	c #46433E",
"r^ 	c #59534D",
"s^ 	c #646057",
"t^ 	c #5A564A",
"u^ 	c #524F41",
"v^ 	c #565244",
"w^ 	c #443E34",
"x^ 	c #535047",
"y^ 	c #4F4A45",
"z^ 	c #4D4943",
"A^ 	c #4B453D",
"B^ 	c #4E4C41",
"C^ 	c #4E453A",
"D^ 	c #48423C",
"E^ 	c #4C453F",
"F^ 	c #5D594E",
"G^ 	c #5B584F",
"H^ 	c #4C4539",
"I^ 	c #4A483B",
"J^ 	c #534C46",
"K^ 	c #4A4643",
"L^ 	c #373431",
"M^ 	c #342F2E",
"N^ 	c #2E2D28",
"O^ 	c #534D41",
"P^ 	c #3C362B",
"Q^ 	c #5B594E",
"R^ 	c #37322D",
"S^ 	c #42413B",
"T^ 	c #403938",
"U^ 	c #4B463F",
"V^ 	c #4B4842",
"W^ 	c #3E3938",
"X^ 	c #555047",
"Y^ 	c #42423E",
"Z^ 	c #463F3C",
"`^ 	c #363529",
" / 	c #666159",
"./ 	c #4A483C",
"+/ 	c #4D463F",
"@/ 	c #696358",
"#/ 	c #605C4E",
"$/ 	c #6B675E",
"%/ 	c #868075",
"&/ 	c #525045",
"*/ 	c #5A594D",
"=/ 	c #473F36",
"-/ 	c #676356",
";/ 	c #5E594F",
">/ 	c #4C493E",
",/ 	c #524D42",
"'/ 	c #585549",
")/ 	c #444339",
"!/ 	c #3E3D34",
"~/ 	c #423E32",
"{/ 	c #514D45",
"]/ 	c #4C4437",
"^/ 	c #605951",
"// 	c #615B4E",
"(/ 	c #5F594D",
"_/ 	c #36302B",
":/ 	c #534B47",
"</ 	c #3E3835",
"[/ 	c #383533",
"}/ 	c #535144",
"|/ 	c #48453A",
"1/ 	c #444135",
"2/ 	c #5C564B",
"3/ 	c #4C4841",
"4/ 	c #443D33",
"5/ 	c #4D463E",
"6/ 	c #3D3A2F",
"7/ 	c #4F4C42",
"8/ 	c #504D42",
"9/ 	c #4E4C46",
"0/ 	c #524F43",
"a/ 	c #524D47",
"b/ 	c #3E3D31",
"c/ 	c #4D473E",
"d/ 	c #5A524B",
"e/ 	c #565146",
"f/ 	c #4E4B43",
"g/ 	c #4A433E",
"h/ 	c #504D45",
"i/ 	c #404037",
"j/ 	c #4F4D45",
"k/ 	c #48473D",
"l/ 	c #686259",
"m/ 	c #636054",
"n/ 	c #736F64",
"o/ 	c #605852",
"p/ 	c #534D46",
"q/ 	c #3B332F",
"r/ 	c #444139",
"s/ 	c #535045",
"t/ 	c #5E5951",
"u/ 	c #35352C",
"v/ 	c #5E584D",
"w/ 	c #545048",
"x/ 	c #59534C",
"y/ 	c #5A564C",
"z/ 	c #534D44",
"A/ 	c #514E45",
"B/ 	c #5B574D",
"C/ 	c #55514A",
"D/ 	c #3B3936",
"E/ 	c #3E3B39",
"F/ 	c #36312E",
"G/ 	c #33302D",
"H/ 	c #2C2928",
"I/ 	c #322A24",
"J/ 	c #2A2725",
"K/ 	c #5B564B",
"L/ 	c #434339",
"M/ 	c #434236",
"N/ 	c #494841",
"O/ 	c #645F56",
"P/ 	c #5A574C",
"Q/ 	c #3C3938",
"R/ 	c #3B3C38",
"S/ 	c #4A4942",
"T/ 	c #413F3B",
"U/ 	c #3D3C35",
"V/ 	c #575248",
"W/ 	c #403F38",
"X/ 	c #676556",
"Y/ 	c #514B3F",
"Z/ 	c #6C675B",
"`/ 	c #746D63",
" ( 	c #565346",
".( 	c #554F49",
"+( 	c #5B574C",
"@( 	c #5B544E",
"#( 	c #686155",
"$( 	c #6A625A",
"%( 	c #545346",
"&( 	c #4C483C",
"*( 	c #7E796E",
"=( 	c #766F63",
"-( 	c #4D4B41",
";( 	c #4D483D",
">( 	c #474236",
",( 	c #544C45",
"'( 	c #4E483B",
")( 	c #534E41",
"!( 	c #433B32",
"~( 	c #4E463B",
"{( 	c #504B3E",
"]( 	c #766E65",
"^( 	c #39352B",
"/( 	c #716D61",
"(( 	c #49473B",
"_( 	c #444341",
":( 	c #2B2A29",
"<( 	c #3C3C31",
"[( 	c #454238",
"}( 	c #534E47",
"|( 	c #3B3A2C",
"1( 	c #4F4B40",
"2( 	c #4F4A3D",
"3( 	c #383329",
"4( 	c #39302B",
"5( 	c #312F27",
"6( 	c #37362E",
"7( 	c #544A43",
"8( 	c #625A52",
"9( 	c #3D362C",
"0( 	c #4D4641",
"a( 	c #37322C",
"b( 	c #4E4A42",
"c( 	c #3F3837",
"d( 	c #54504A",
"e( 	c #47443D",
"f( 	c #3D3433",
"g( 	c #524B41",
"h( 	c #4F4A41",
"i( 	c #6D675B",
"j( 	c #625F53",
"k( 	c #4F4840",
"l( 	c #736B60",
"m( 	c #747267",
"n( 	c #4F4946",
"o( 	c #4F4843",
"p( 	c #56524A",
"q( 	c #56544A",
"r( 	c #444037",
"s( 	c #574F46",
"t( 	c #474140",
"u( 	c #5D5A52",
"v( 	c #6E695E",
"w( 	c #656155",
"x( 	c #676155",
"y( 	c #342D29",
"z( 	c #333027",
"A( 	c #666154",
"B( 	c #4D4941",
"C( 	c #5D5653",
"D( 	c #45463C",
"E( 	c #383834",
"F( 	c #32322D",
"G( 	c #2C2C28",
"H( 	c #30322C",
"I( 	c #322E2C",
"J( 	c #332E28",
"K( 	c #4A4439",
"L( 	c #58544A",
"M( 	c #56544C",
"N( 	c #4A4642",
"O( 	c #5E5B54",
"P( 	c #37352A",
"Q( 	c #403C38",
"R( 	c #3D3630",
"S( 	c #424038",
"T( 	c #504F44",
"U( 	c #4B4743",
"V( 	c #302C2A",
"W( 	c #44423C",
"X( 	c #443F3D",
"Y( 	c #34332D",
"Z( 	c #47443F",
"`( 	c #39332D",
" _ 	c #676055",
"._ 	c #5D5850",
"+_ 	c #524F47",
"@_ 	c #37342C",
"#_ 	c #514A41",
"$_ 	c #58534A",
"%_ 	c #787467",
"&_ 	c #454337",
"*_ 	c #5A554B",
"=_ 	c #756F63",
"-_ 	c #726C62",
";_ 	c #8A8577",
">_ 	c #706760",
",_ 	c #686255",
"'_ 	c #656053",
")_ 	c #5F584D",
"!_ 	c #403A31",
"~_ 	c #656255",
"{_ 	c #625C52",
"]_ 	c #302C27",
"^_ 	c #49473E",
"/_ 	c #5E584F",
"(_ 	c #433D37",
"__ 	c #545044",
":_ 	c #666256",
"<_ 	c #423932",
"[_ 	c #4D4439",
"}_ 	c #4B4339",
"|_ 	c #605B4D",
"1_ 	c #4F4B3F",
"2_ 	c #4E463A",
"3_ 	c #544E46",
"4_ 	c #46453D",
"5_ 	c #2B2922",
"6_ 	c #3E3834",
"7_ 	c #4B4741",
"8_ 	c #322E25",
"9_ 	c #4C4A3E",
"0_ 	c #514E43",
"a_ 	c #343228",
"b_ 	c #47443A",
"c_ 	c #605B52",
"d_ 	c #6C695F",
"e_ 	c #5A5048",
"f_ 	c #544D42",
"g_ 	c #504945",
"h_ 	c #575047",
"i_ 	c #686057",
"j_ 	c #716A5F",
"k_ 	c #60594F",
"l_ 	c #565145",
"m_ 	c #4A453A",
"n_ 	c #3B322B",
"o_ 	c #413B38",
"p_ 	c #615D54",
"q_ 	c #58514A",
"r_ 	c #5C5850",
"s_ 	c #89827A",
"t_ 	c #777466",
"u_ 	c #47423D",
"v_ 	c #747067",
"w_ 	c #403C39",
"x_ 	c #817B6F",
"y_ 	c #625D4F",
"z_ 	c #4E4842",
"A_ 	c #373730",
"B_ 	c #443F35",
"C_ 	c #58574B",
"D_ 	c #5D574D",
"E_ 	c #47403D",
"F_ 	c #343431",
"G_ 	c #3B3430",
"H_ 	c #353331",
"I_ 	c #3A342C",
"J_ 	c #3A3431",
"K_ 	c #706D63",
"L_ 	c #46433C",
"M_ 	c #4C4840",
"N_ 	c #3E3B30",
"O_ 	c #5D5A4E",
"P_ 	c #504C45",
"Q_ 	c #514D44",
"R_ 	c #4C4B3E",
"S_ 	c #3E3C38",
"T_ 	c #45453A",
"U_ 	c #4A4843",
"V_ 	c #4C4744",
"W_ 	c #4E4B47",
"X_ 	c #3F3934",
"Y_ 	c #5F5C54",
"Z_ 	c #383331",
"`_ 	c #544B46",
" : 	c #49463F",
".: 	c #454136",
"+: 	c #7A7167",
"@: 	c #67635A",
"#: 	c #484238",
"$: 	c #6D665D",
"%: 	c #5C574D",
"&: 	c #777267",
"*: 	c #736D61",
"=: 	c #767165",
"-: 	c #5E5850",
";: 	c #484742",
">: 	c #5D564D",
",: 	c #555246",
"': 	c #554E42",
"): 	c #565242",
"!: 	c #5D594A",
"~: 	c #423C30",
"{: 	c #645F50",
"]: 	c #5E594E",
"^: 	c #696357",
"/: 	c #3F3D30",
"(: 	c #38322D",
"_: 	c #48473E",
":: 	c #2F2B23",
"<: 	c #544F43",
"[: 	c #575146",
"}: 	c #35332F",
"|: 	c #2E2A23",
"1: 	c #696157",
"2: 	c #504C3F",
"3: 	c #575345",
"4: 	c #686357",
"5: 	c #5B574E",
"6: 	c #423D32",
"7: 	c #4C4439",
"8: 	c #302D22",
"9: 	c #38332B",
"0: 	c #3E3E36",
"a: 	c #3B3330",
"b: 	c #4F4942",
"c: 	c #46403D",
"d: 	c #3D3C34",
"e: 	c #4B4A41",
"f: 	c #58534C",
"g: 	c #554F48",
"h: 	c #726F62",
"i: 	c #767268",
"j: 	c #757266",
"k: 	c #868174",
"l: 	c #6A655A",
"m: 	c #524B3E",
"n: 	c #636056",
"o: 	c #59544D",
"p: 	c #635D53",
"q: 	c #716B63",
"r: 	c #504C40",
"s: 	c #5D594D",
"t: 	c #5D594F",
"u: 	c #4B443D",
"v: 	c #5A5A4F",
"w: 	c #494840",
"x: 	c #2D2B26",
"y: 	c #322D24",
"z: 	c #5B5C4F",
"A: 	c #5D5A50",
"B: 	c #5F5A4F",
"C: 	c #4F4C45",
"D: 	c #5A544D",
"E: 	c #615A4F",
"F: 	c #615C54",
"G: 	c #3A3A31",
"H: 	c #45453B",
"I: 	c #4C4642",
"J: 	c #5B554E",
"K: 	c #5D574C",
"L: 	c #403832",
"M: 	c #564E48",
"N: 	c #565247",
"O: 	c #646056",
"P: 	c #4B4A40",
"Q: 	c #5C5A4E",
"R: 	c #6E6862",
"S: 	c #5A544B",
"T: 	c #736E63",
"U: 	c #7A7469",
"V: 	c #5B5147",
"W: 	c #585048",
"X: 	c #48413A",
"Y: 	c #58554D",
"Z: 	c #2D2924",
"`: 	c #48473C",
" < 	c #4F4842",
".< 	c #535048",
"+< 	c #555344",
"@< 	c #5E5A4E",
"#< 	c #5C5A4B",
"$< 	c #6E685B",
"%< 	c #2E2A1F",
"&< 	c #534A41",
"*< 	c #52493F",
"=< 	c #625B51",
"-< 	c #4E4741",
";< 	c #4E4944",
">< 	c #46403A",
",< 	c #463F34",
"'< 	c #33352F",
")< 	c #403E32",
"!< 	c #6A6254",
"~< 	c #645A52",
"{< 	c #60574E",
"]< 	c #58544B",
"^< 	c #2F2B27",
"/< 	c #575045",
"(< 	c #3B342D",
"_< 	c #504741",
":< 	c #524F3F",
"<< 	c #575145",
"[< 	c #3D372D",
"}< 	c #58544C",
"|< 	c #524C43",
"1< 	c #37302B",
"2< 	c #4E473F",
"3< 	c #4F4A40",
"4< 	c #454439",
"5< 	c #4A4138",
"6< 	c #635F56",
"7< 	c #5A584C",
"8< 	c #625E54",
"9< 	c #58554B",
"0< 	c #6D675C",
"a< 	c #5B5648",
"b< 	c #786F67",
"c< 	c #6D685F",
"d< 	c #8C887E",
"e< 	c #54554B",
"f< 	c #37352B",
"g< 	c #5A574B",
"h< 	c #837E73",
"i< 	c #655E52",
"j< 	c #3D3531",
"k< 	c #373329",
"l< 	c #6F6B5D",
"m< 	c #4A4A3E",
"n< 	c #4E4A41",
"o< 	c #504B45",
"p< 	c #343028",
"q< 	c #3A3128",
"r< 	c #524C45",
"s< 	c #635D54",
"t< 	c #575349",
"u< 	c #514C45",
"v< 	c #443E39",
"w< 	c #857C72",
"x< 	c #615A50",
"y< 	c #4A4741",
"z< 	c #37362F",
"A< 	c #49443F",
"B< 	c #5A554F",
"C< 	c #5B5A4F",
"D< 	c #4D4B44",
"E< 	c #47423E",
"F< 	c #545147",
"G< 	c #676058",
"H< 	c #48463B",
"I< 	c #555249",
"J< 	c #66605A",
"K< 	c #716C65",
"L< 	c #6B655A",
"M< 	c #555147",
"N< 	c #544B43",
"O< 	c #575347",
"P< 	c #80796C",
"Q< 	c #49493E",
"R< 	c #776F63",
"S< 	c #5B544D",
"T< 	c #5D5950",
"U< 	c #514C40",
"V< 	c #4E4D42",
"W< 	c #545049",
"X< 	c #5F5B51",
"Y< 	c #4B473B",
"Z< 	c #565046",
"`< 	c #5C5649",
" [ 	c #635A4E",
".[ 	c #403D31",
"+[ 	c #635C4F",
"@[ 	c #4F473B",
"#[ 	c #615E53",
"$[ 	c #575449",
"%[ 	c #4C473D",
"&[ 	c #2A261F",
"*[ 	c #322E29",
"=[ 	c #524A43",
"-[ 	c #4C4A3D",
";[ 	c #5C564A",
">[ 	c #544C46",
",[ 	c #626053",
"'[ 	c #565144",
")[ 	c #393429",
"![ 	c #4D463D",
"~[ 	c #686256",
"{[ 	c #535046",
"][ 	c #494338",
"^[ 	c #524A3F",
"/[ 	c #352F2A",
"([ 	c #4C4843",
"_[ 	c #423C37",
":[ 	c #666158",
"<[ 	c #4A4540",
"[[ 	c #4F4B41",
"}[ 	c #5A564E",
"|[ 	c #605950",
"1[ 	c #716E63",
"2[ 	c #928B81",
"3[ 	c #555346",
"4[ 	c #625F56",
"5[ 	c #797568",
"6[ 	c #363126",
"7[ 	c #6C6561",
"8[ 	c #616054",
"9[ 	c #635D55",
"0[ 	c #5D5B53",
"a[ 	c #544F44",
"b[ 	c #39372C",
"c[ 	c #5F5951",
"d[ 	c #5F5A52",
"e[ 	c #57534C",
"f[ 	c #47463F",
"g[ 	c #5F5B52",
"h[ 	c #3B3B31",
"i[ 	c #352F24",
"j[ 	c #3C382D",
"k[ 	c #747166",
"l[ 	c #55554B",
"m[ 	c #767366",
"n[ 	c #635F51",
"o[ 	c #7E786D",
"p[ 	c #5B534B",
"q[ 	c #4D4B43",
"r[ 	c #424238",
"s[ 	c #5C5A51",
"t[ 	c #434239",
"u[ 	c #504F46",
"v[ 	c #57544B",
"w[ 	c #6B675C",
"x[ 	c #625A50",
"y[ 	c #4D483C",
"z[ 	c #423A32",
"A[ 	c #555045",
"B[ 	c #4E4942",
"C[ 	c #4A463A",
"D[ 	c #655F55",
"E[ 	c #6C695E",
"F[ 	c #746E65",
"G[ 	c #5F5A50",
"H[ 	c #5B574F",
"I[ 	c #454135",
"J[ 	c #57554A",
"K[ 	c #5C574A",
"L[ 	c #59534A",
"M[ 	c #58504A",
"N[ 	c #575247",
"O[ 	c #645E55",
"P[ 	c #49463A",
"Q[ 	c #4C4C43",
"R[ 	c #4F4C40",
"S[ 	c #443C3A",
"T[ 	c #575147",
"U[ 	c #514A40",
"V[ 	c #5F594A",
"W[ 	c #484438",
"X[ 	c #5D5549",
"Y[ 	c #6A6658",
"Z[ 	c #645B51",
"`[ 	c #3C3B30",
" } 	c #4B4940",
".} 	c #2A2A23",
"+} 	c #4B483E",
"@} 	c #5B5349",
"#} 	c #69645A",
"$} 	c #6B655B",
"%} 	c #5E5C51",
"&} 	c #524E45",
"*} 	c #2F2A23",
"=} 	c #5B5650",
"-} 	c #615D53",
";} 	c #463F37",
">} 	c #605F55",
",} 	c #5A5548",
"'} 	c #4F493C",
")} 	c #484037",
"!} 	c #2A2721",
"~} 	c #3B3534",
"{} 	c #2F2D27",
"]} 	c #424136",
"^} 	c #403935",
"/} 	c #656354",
"(} 	c #544F47",
"_} 	c #57554C",
":} 	c #56534B",
"<} 	c #514F47",
"[} 	c #5F5B4E",
"}} 	c #69685E",
"|} 	c #4C4640",
"1} 	c #68625A",
"2} 	c #636053",
"3} 	c #7E796D",
"4} 	c #58534B",
"5} 	c #5F5950",
"6} 	c #58574C",
"7} 	c #635F54",
"8} 	c #666156",
"9} 	c #5E5A4F",
"0} 	c #504D41",
"a} 	c #565548",
"b} 	c #4E483F",
"c} 	c #5A554D",
"d} 	c #524C41",
"e} 	c #5D584F",
"f} 	c #3D3B30",
"g} 	c #312D25",
"h} 	c #424035",
"i} 	c #5E5A50",
"j} 	c #474840",
"k} 	c #68655E",
"l} 	c #3A3426",
"m} 	c #7A766B",
"n} 	c #595548",
"o} 	c #656159",
"p} 	c #4C4A41",
"q} 	c #69655A",
"r} 	c #6A6359",
"s} 	c #7D796F",
"t} 	c #4F4D42",
"u} 	c #615B55",
"v} 	c #4C4B42",
"w} 	c #48453B",
"x} 	c #515045",
"y} 	c #514C47",
"z} 	c #7B766B",
"A} 	c #6E675C",
"B} 	c #666058",
"C} 	c #6A645B",
"D} 	c #625D51",
"E} 	c #747266",
"F} 	c #605E52",
"G} 	c #6D685D",
"H} 	c #626055",
"I} 	c #5E5C50",
"J} 	c #6B675D",
"K} 	c #727067",
"L} 	c #5D564C",
"M} 	c #6C665A",
"N} 	c #5C594D",
"O} 	c #565347",
"P} 	c #2F2C20",
"Q} 	c #514D46",
"R} 	c #5F584F",
"S} 	c #424034",
"T} 	c #716D60",
"U} 	c #575446",
"V} 	c #474539",
"W} 	c #494437",
"X} 	c #60574B",
"Y} 	c #524940",
"Z} 	c #666054",
"`} 	c #3C342B",
" | 	c #6A6758",
".| 	c #6B6659",
"+| 	c #555044",
"@| 	c #3A382F",
"#| 	c #706D62",
"$| 	c #4C443D",
"%| 	c #767369",
"&| 	c #5A5347",
"*| 	c #433E33",
"=| 	c #595049",
"-| 	c #5B594C",
";| 	c #5C584F",
">| 	c #625F55",
",| 	c #312B28",
"'| 	c #575148",
")| 	c #48413D",
"!| 	c #4C4541",
"~| 	c #2E2B26",
"{| 	c #474438",
"]| 	c #5B5649",
"^| 	c #514D47",
"/| 	c #5B584E",
"(| 	c #565349",
"_| 	c #5A574E",
":| 	c #66625B",
"<| 	c #746D62",
"[| 	c #786D62",
"}| 	c #6D665F",
"|| 	c #6F695F",
"1| 	c #857E74",
"2| 	c #696459",
"3| 	c #655D55",
"4| 	c #625D50",
"5| 	c #514D42",
"6| 	c #423B32",
"7| 	c #625E52",
"8| 	c #625F54",
"9| 	c #6B665D",
"0| 	c #555049",
"a| 	c #4A463B",
"b| 	c #625D53",
"c| 	c #6F6B5F",
"d| 	c #716F64",
"e| 	c #585249",
"f| 	c #635F57",
"g| 	c #2D2B21",
"h| 	c #353227",
"i| 	c #352F25",
"j| 	c #464236",
"k| 	c #59574C",
"l| 	c #4F4B45",
"m| 	c #655D58",
"n| 	c #7C766C",
"o| 	c #7B786D",
"p| 	c #7F786D",
"q| 	c #524F48",
"r| 	c #656257",
"s| 	c #4B4942",
"t| 	c #44433D",
"u| 	c #414138",
"v| 	c #5F5D52",
"w| 	c #626255",
"x| 	c #5B554D",
"y| 	c #66625A",
"z| 	c #5E564C",
"A| 	c #5B554B",
"B| 	c #5B564D",
"C| 	c #837D73",
"D| 	c #676056",
"E| 	c #646258",
"F| 	c #767068",
"G| 	c #5B5447",
"H| 	c #5C574E",
"I| 	c #726E62",
"J| 	c #7E7971",
"K| 	c #6B695B",
"L| 	c #646158",
"M| 	c #706B61",
"N| 	c #535147",
"O| 	c #595348",
"P| 	c #534E44",
"Q| 	c #4E4B40",
"R| 	c #5F5B4F",
"S| 	c #464036",
"T| 	c #4C493C",
"U| 	c #463E32",
"V| 	c #494136",
"W| 	c #585446",
"X| 	c #6A6255",
"Y| 	c #5A5348",
"Z| 	c #4B4B40",
"`| 	c #3F3E33",
" 1 	c #514D40",
".1 	c #413F35",
"+1 	c #2D2D26",
"@1 	c #3F3B38",
"#1 	c #413B31",
"$1 	c #443F32",
"%1 	c #565448",
"&1 	c #676053",
"*1 	c #565348",
"=1 	c #3D352E",
"-1 	c #807A6C",
";1 	c #585246",
">1 	c #524B42",
",1 	c #4F4741",
"'1 	c #585046",
")1 	c #585044",
"!1 	c #464136",
"~1 	c #32332C",
"{1 	c #383332",
"]1 	c #413935",
"^1 	c #615D52",
"/1 	c #5C5950",
"(1 	c #58564D",
"_1 	c #555149",
":1 	c #4E4A3F",
"<1 	c #6F6A61",
"[1 	c #817E6F",
"}1 	c #676257",
"|1 	c #58584E",
"11 	c #70685D",
"21 	c #58564B",
"31 	c #474136",
"41 	c #5A574D",
"51 	c #5A584B",
"61 	c #35332A",
"71 	c #68675B",
"81 	c #302A21",
"91 	c #3A382B",
"01 	c #67655A",
"a1 	c #635E56",
"b1 	c #887F75",
"c1 	c #4E4A40",
"d1 	c #666259",
"e1 	c #4B4941",
"f1 	c #32322A",
"g1 	c #545249",
"h1 	c #312F26",
"i1 	c #787568",
"j1 	c #726B64",
"k1 	c #68635B",
"l1 	c #4D4B48",
"m1 	c #44453C",
"n1 	c #574F4C",
"o1 	c #666157",
"p1 	c #46433F",
"q1 	c #656256",
"r1 	c #5E5B50",
"s1 	c #44433A",
"t1 	c #5B5750",
"u1 	c #4F4E42",
"v1 	c #59574E",
"w1 	c #6C6A5F",
"x1 	c #514D41",
"y1 	c #5B564A",
"z1 	c #827E6F",
"A1 	c #605C55",
"B1 	c #666255",
"C1 	c #585148",
"D1 	c #363128",
"E1 	c #585346",
"F1 	c #7A746B",
"G1 	c #625E53",
"H1 	c #6C675D",
"I1 	c #7B7669",
"J1 	c #6C6759",
"K1 	c #847E71",
"L1 	c #615C52",
"M1 	c #898474",
"N1 	c #656157",
"O1 	c #5D574A",
"P1 	c #605E51",
"Q1 	c #525044",
"R1 	c #6E655F",
"S1 	c #393A32",
"T1 	c #524E43",
"U1 	c #656359",
"V1 	c #5E574D",
"W1 	c #514E42",
"X1 	c #6B665A",
"Y1 	c #686456",
"Z1 	c #656054",
"`1 	c #736E60",
" 2 	c #7A7568",
".2 	c #534C43",
"+2 	c #564F48",
"@2 	c #403934",
"#2 	c #534E43",
"$2 	c #5B554C",
"%2 	c #635A4F",
"&2 	c #706E60",
"*2 	c #3B372B",
"=2 	c #464235",
"-2 	c #554F44",
";2 	c #3E3A2E",
">2 	c #59554D",
",2 	c #2F2925",
"'2 	c #58534E",
")2 	c #605C53",
"!2 	c #535246",
"~2 	c #4C4A3F",
"{2 	c #868279",
"]2 	c #757464",
"^2 	c #676359",
"/2 	c #545247",
"(2 	c #6B685E",
"_2 	c #726F64",
":2 	c #797166",
"<2 	c #645F57",
"[2 	c #6E685C",
"}2 	c #6D695F",
"|2 	c #625B52",
"12 	c #585149",
"22 	c #434136",
"32 	c #575149",
"42 	c #5F5D51",
"52 	c #6F6A60",
"62 	c #545248",
"72 	c #514A42",
"82 	c #675E57",
"92 	c #5A534C",
"02 	c #646053",
"a2 	c #504B46",
"b2 	c #625C54",
"c2 	c #6E6A5F",
"d2 	c #79736B",
"e2 	c #868377",
"f2 	c #777265",
"g2 	c #292B23",
"h2 	c #3B3530",
"i2 	c #5A564D",
"j2 	c #6A685E",
"k2 	c #4B4A3E",
"l2 	c #312820",
"m2 	c #69655B",
"n2 	c #4B4840",
"o2 	c #5B5B50",
"p2 	c #484740",
"q2 	c #534F49",
"r2 	c #5C5851",
"s2 	c #706E63",
"t2 	c #525247",
"u2 	c #4B4844",
"v2 	c #4D4843",
"w2 	c #55524A",
"x2 	c #676357",
"y2 	c #656258",
"z2 	c #7F7C71",
"A2 	c #6B6B61",
"B2 	c #504E45",
"C2 	c #746E67",
"D2 	c #7A756B",
"E2 	c #787368",
"F2 	c #68645A",
"G2 	c #555245",
"H2 	c #858075",
"I2 	c #7F796E",
"J2 	c #6C685D",
"K2 	c #736D65",
"L2 	c #6B665C",
"M2 	c #69645B",
"N2 	c #5E5950",
"O2 	c #686359",
"P2 	c #5B564E",
"Q2 	c #3B3B30",
"R2 	c #403B2F",
"S2 	c #595048",
"T2 	c #696558",
"U2 	c #4C4436",
"V2 	c #605A50",
"W2 	c #5F5F52",
"X2 	c #3D3A30",
"Y2 	c #38312E",
"Z2 	c #706D64",
"`2 	c #5F5B50",
" 3 	c #504E46",
".3 	c #666055",
"+3 	c #838072",
"@3 	c #716C61",
"#3 	c #6D675D",
"$3 	c #4F483D",
"%3 	c #716C62",
"&3 	c #332F25",
"*3 	c #645E50",
"=3 	c #726D60",
"-3 	c #665E57",
";3 	c #3F392F",
">3 	c #554E48",
",3 	c #43433B",
"'3 	c #393B32",
")3 	c #323128",
"!3 	c #544E43",
"~3 	c #595448",
"{3 	c #68665D",
"]3 	c #5F5B54",
"^3 	c #6D695D",
"/3 	c #8C897D",
"(3 	c #868077",
"_3 	c #7B776B",
":3 	c #56564A",
"<3 	c #5B584D",
"[3 	c #514F44",
"}3 	c #4B4A3F",
"|3 	c #5E5B4C",
"13 	c #5A5148",
"23 	c #6B685D",
"33 	c #908F80",
"43 	c #716E62",
"53 	c #4D4B45",
"63 	c #5C594E",
"73 	c #252117",
"83 	c #6E6A5E",
"93 	c #69635B",
"03 	c #4F4F45",
"a3 	c #5D5752",
"b3 	c #858074",
"c3 	c #6B645A",
"d3 	c #767168",
"e3 	c #727066",
"f3 	c #403F34",
"g3 	c #615C56",
"h3 	c #68635A",
"i3 	c #78736B",
"j3 	c #6E695C",
"k3 	c #4C4B43",
"l3 	c #6A695E",
"m3 	c #5D5C50",
"n3 	c #645D54",
"o3 	c #716D63",
"p3 	c #878376",
"q3 	c #636355",
"r3 	c #787366",
"s3 	c #6E6A60",
"t3 	c #6A655C",
"u3 	c #70695E",
"v3 	c #6C675C",
"w3 	c #595347",
"x3 	c #5D574F",
"y3 	c #635D52",
"z3 	c #59594E",
"A3 	c #59574D",
"B3 	c #55534A",
"C3 	c #4E4D46",
"D3 	c #4E4C40",
"E3 	c #696257",
"F3 	c #676259",
"G3 	c #736C60",
"H3 	c #605B4F",
"I3 	c #6F6A5B",
"J3 	c #50483E",
"K3 	c #716A5C",
"L3 	c #6A6558",
"M3 	c #69675A",
"N3 	c #605D52",
"O3 	c #535043",
"P3 	c #77716A",
"Q3 	c #4A4944",
"R3 	c #4D4C46",
"S3 	c #575246",
"T3 	c #625E51",
"U3 	c #3C3331",
"V3 	c #68665B",
"W3 	c #6A685A",
"X3 	c #767167",
"Y3 	c #5A524A",
"Z3 	c #514A44",
"`3 	c #373231",
" 4 	c #524E41",
".4 	c #6C6A60",
"+4 	c #6F6B64",
"@4 	c #847E76",
"#4 	c #7A776B",
"$4 	c #6C685E",
"%4 	c #605F53",
"&4 	c #78756B",
"*4 	c #7E7A6E",
"=4 	c #615A53",
"-4 	c #676355",
";4 	c #746F65",
">4 	c #463E34",
",4 	c #7F796D",
"'4 	c #6D6761",
")4 	c #68655B",
"!4 	c #59554A",
"~4 	c #75736A",
"{4 	c #7C776D",
"]4 	c #848276",
"^4 	c #5D5852",
"/4 	c #342D20",
"(4 	c #605A51",
"_4 	c #3D372E",
":4 	c #6A6A5D",
"<4 	c #878277",
"[4 	c #504C47",
"}4 	c #4E4943",
"|4 	c #676254",
"14 	c #615B54",
"24 	c #6C695C",
"34 	c #464437",
"44 	c #4C443E",
"54 	c #615D51",
"64 	c #7D7B6F",
"74 	c #848076",
"84 	c #756F65",
"94 	c #818072",
"04 	c #5D564B",
"a4 	c #5D584B",
"b4 	c #595549",
"c4 	c #675F56",
"d4 	c #6A665F",
"e4 	c #5D5350",
"f4 	c #69685B",
"g4 	c #534F41",
"h4 	c #565245",
"i4 	c #4E473D",
"j4 	c #6E6758",
"k4 	c #5E5B4D",
"l4 	c #443C39",
"m4 	c #665C54",
"n4 	c #524C44",
"o4 	c #3A3B2F",
"p4 	c #625F51",
"q4 	c #57514B",
"r4 	c #655E53",
"s4 	c #736C61",
"t4 	c #59564E",
"u4 	c #2F2B26",
"v4 	c #4A4943",
"w4 	c #57554B",
"x4 	c #7C756B",
"y4 	c #525046",
"z4 	c #4B4A3B",
"A4 	c #444438",
"B4 	c #535146",
"C4 	c #312F29",
"D4 	c #47473F",
"E4 	c #534F44",
"F4 	c #747064",
"G4 	c #534F43",
"H4 	c #807B71",
"I4 	c #7D776D",
"J4 	c #848174",
"K4 	c #989589",
"L4 	c #656457",
"M4 	c #615851",
"N4 	c #807D73",
"O4 	c #5B5851",
"P4 	c #716D62",
"Q4 	c #5B5850",
"R4 	c #6A685D",
"S4 	c #6C685F",
"T4 	c #605952",
"U4 	c #7B7769",
"V4 	c #7D7A70",
"W4 	c #828274",
"X4 	c #4B4540",
"Y4 	c #514E47",
"Z4 	c #777169",
"`4 	c #615F54",
" 5 	c #514F45",
".5 	c #6E6C60",
"+5 	c #6D6760",
"@5 	c #514E48",
"#5 	c #525048",
"$5 	c #615B53",
"%5 	c #565345",
"&5 	c #5F5A4D",
"*5 	c #3E3E35",
"=5 	c #8A8378",
"-5 	c #847F72",
";5 	c #58554E",
">5 	c #57554D",
",5 	c #4B4944",
"'5 	c #63645B",
")5 	c #57524C",
"!5 	c #67645A",
"~5 	c #544E49",
"{5 	c #6E6961",
"]5 	c #736D63",
"^5 	c #6E675E",
"/5 	c #565049",
"(5 	c #534B43",
"_5 	c #676358",
":5 	c #4A433A",
"<5 	c #56534A",
"[5 	c #6A675A",
"}5 	c #7F7B6F",
"|5 	c #666358",
"15 	c #726D62",
"25 	c #777163",
"35 	c #666155",
"45 	c #7F7D6E",
"55 	c #7F7E71",
"65 	c #6A675E",
"75 	c #635D56",
"85 	c #797468",
"95 	c #7E796F",
"05 	c #5E5C4F",
"a5 	c #5F584E",
"b5 	c #57544A",
"c5 	c #5D5A51",
"d5 	c #5F584B",
"e5 	c #484136",
"f5 	c #70695D",
"g5 	c #635B4F",
"h5 	c #6A6256",
"i5 	c #524B43",
"j5 	c #605A4F",
"k5 	c #645F54",
"l5 	c #555349",
"m5 	c #4E463F",
"n5 	c #494339",
"o5 	c #656357",
"p5 	c #565147",
"q5 	c #423D38",
"r5 	c #6A6459",
"s5 	c #59564B",
"t5 	c #747061",
"u5 	c #4C453E",
"v5 	c #46443A",
"w5 	c #4D493D",
"x5 	c #3A362A",
"y5 	c #35342B",
"z5 	c #332C27",
"A5 	c #4E493C",
"B5 	c #57554E",
"C5 	c #706A63",
"D5 	c #9A958B",
"E5 	c #989488",
"F5 	c #948E81",
"G5 	c #7A766A",
"H5 	c #706961",
"I5 	c #545244",
"J5 	c #605F54",
"K5 	c #827D73",
"L5 	c #777368",
"M5 	c #5D5A53",
"N5 	c #48423D",
"O5 	c #514D43",
"P5 	c #5F5A53",
"Q5 	c #847E75",
"R5 	c #6A665A",
"S5 	c #6B695F",
"T5 	c #8A867C",
"U5 	c #69635A",
"V5 	c #615A4E",
"W5 	c #747065",
"X5 	c #787268",
"Y5 	c #7C786E",
"Z5 	c #69665B",
"`5 	c #757164",
" 6 	c #414139",
".6 	c #534F48",
"+6 	c #312B22",
"@6 	c #635E53",
"#6 	c #504C46",
"$6 	c #676159",
"%6 	c #636156",
"&6 	c #6B685C",
"*6 	c #706B64",
"=6 	c #56504B",
"-6 	c #3D3B31",
";6 	c #6F675F",
">6 	c #4B4A42",
",6 	c #55534C",
"'6 	c #6F675B",
")6 	c #7B776E",
"!6 	c #424137",
"~6 	c #5C594F",
"{6 	c #58584B",
"]6 	c #56524B",
"^6 	c #848074",
"/6 	c #766E62",
"(6 	c #615D56",
"_6 	c #756D64",
":6 	c #585349",
"<6 	c #676459",
"[6 	c #777467",
"}6 	c #8B867F",
"|6 	c #746E64",
"16 	c #89867B",
"26 	c #706D60",
"36 	c #6F685C",
"46 	c #757063",
"56 	c #656058",
"66 	c #3C382E",
"76 	c #46453F",
"86 	c #665F57",
"96 	c #524A3E",
"06 	c #6A635B",
"a6 	c #494237",
"b6 	c #8D8779",
"c6 	c #3C382C",
"d6 	c #373128",
"e6 	c #6C655C",
"f6 	c #6D655B",
"g6 	c #504A44",
"h6 	c #565243",
"i6 	c #666053",
"j6 	c #646153",
"k6 	c #625E55",
"l6 	c #58524C",
"m6 	c #635E51",
"n6 	c #696557",
"o6 	c #59564C",
"p6 	c #26241C",
"q6 	c #6D6861",
"r6 	c #5C554D",
"s6 	c #847E74",
"t6 	c #61594E",
"u6 	c #353125",
"v6 	c #4E4E45",
"w6 	c #434135",
"x6 	c #68635C",
"y6 	c #79766B",
"z6 	c #726C64",
"A6 	c #726F60",
"B6 	c #746D61",
"C6 	c #706C63",
"D6 	c #737167",
"E6 	c #61584F",
"F6 	c #726C60",
"G6 	c #777065",
"H6 	c #69635C",
"I6 	c #787567",
"J6 	c #807E73",
"K6 	c #767368",
"L6 	c #888477",
"M6 	c #7B766C",
"N6 	c #787269",
"O6 	c #535145",
"P6 	c #7E7C70",
"Q6 	c #6D655D",
"R6 	c #827C70",
"S6 	c #545148",
"T6 	c #55514B",
"U6 	c #302B21",
"V6 	c #7F7870",
"W6 	c #5F5C55",
"X6 	c #6F6E5F",
"Y6 	c #7B7467",
"Z6 	c #44433C",
"`6 	c #4F4D47",
" 7 	c #6F6A5D",
".7 	c #6D685B",
"+7 	c #706D61",
"@7 	c #7C7A6D",
"#7 	c #6A675D",
"$7 	c #6A665B",
"%7 	c #8D877B",
"&7 	c #686658",
"*7 	c #837D71",
"=7 	c #6E6760",
"-7 	c #827D72",
";7 	c #656055",
">7 	c #6F6A5F",
",7 	c #716B60",
"'7 	c #79746A",
")7 	c #7C756A",
"!7 	c #918B80",
"~7 	c #615F53",
"{7 	c #868073",
"]7 	c #595449",
"^7 	c #4B453A",
"/7 	c #4E483E",
"(7 	c #535044",
"_7 	c #343227",
":7 	c #575144",
"<7 	c #646152",
"[7 	c #4D4C3F",
"}7 	c #635C52",
"|7 	c #655D52",
"17 	c #5C5647",
"27 	c #615C4F",
"37 	c #504F42",
"47 	c #59584B",
"57 	c #454237",
"67 	c #797469",
"77 	c #675F55",
"87 	c #535349",
"97 	c #5B574A",
"07 	c #676458",
"a7 	c #605B50",
"b7 	c #4B4438",
"c7 	c #2D2923",
"d7 	c #2A2925",
"e7 	c #413A31",
"f7 	c #342B24",
"g7 	c #453F33",
"h7 	c #494138",
"i7 	c #50483B",
"j7 	c #5E574C",
"k7 	c #5C594B",
"l7 	c #423E3A",
"m7 	c #57534B",
"n7 	c #79736A",
"o7 	c #666359",
"p7 	c #646157",
"q7 	c #807C73",
"r7 	c #605E53",
"s7 	c #6F6962",
"t7 	c #59584E",
"u7 	c #57544D",
"v7 	c #938F85",
"w7 	c #79746B",
"x7 	c #7C776E",
"y7 	c #676157",
"z7 	c #605C56",
"A7 	c #565449",
"B7 	c #595345",
"C7 	c #908E81",
"D7 	c #868278",
"E7 	c #746F62",
"F7 	c #7B756B",
"G7 	c #6D685E",
"H7 	c #706963",
"I7 	c #736F61",
"J7 	c #525047",
"K7 	c #5B5B53",
"L7 	c #4F4D46",
"M7 	c #5D584C",
"N7 	c #2D261E",
"O7 	c #373229",
"P7 	c #78756A",
"Q7 	c #969186",
"R7 	c #6B675B",
"S7 	c #5B554F",
"T7 	c #6F6B5E",
"U7 	c #8E8780",
"V7 	c #7B796E",
"W7 	c #514D4A",
"X7 	c #686459",
"Y7 	c #69645E",
"Z7 	c #535049",
"`7 	c #7D7B6D",
" 8 	c #635F59",
".8 	c #726E61",
"+8 	c #515044",
"@8 	c #7C786D",
"#8 	c #7F7C6F",
"$8 	c #7A776D",
"%8 	c #868376",
"&8 	c #8B837D",
"*8 	c #8F8B7D",
"=8 	c #797A6B",
"-8 	c #666057",
";8 	c #79716A",
">8 	c #7F7B6E",
",8 	c #959389",
"'8 	c #585347",
")8 	c #423E3B",
"!8 	c #6F685F",
"~8 	c #49453A",
"{8 	c #4B483C",
"]8 	c #645C52",
"^8 	c #4A4239",
"/8 	c #605D50",
"(8 	c #5C554B",
"_8 	c #41372F",
":8 	c #6C695A",
"<8 	c #4E4D40",
"[8 	c #676258",
"}8 	c #787466",
"|8 	c #696455",
"18 	c #686257",
"28 	c #504E3F",
"38 	c #7E786C",
"48 	c #7F7A70",
"58 	c #575245",
"68 	c #695F55",
"78 	c #3B392F",
"88 	c #59534B",
"98 	c #797466",
"08 	c #3C3A2E",
"a8 	c #65594A",
"b8 	c #3A3228",
"c8 	c #40372C",
"d8 	c #443C30",
"e8 	c #6E685E",
"f8 	c #757268",
"g8 	c #7C796B",
"h8 	c #7F7B70",
"i8 	c #86837A",
"j8 	c #747165",
"k8 	c #545347",
"l8 	c #6D6C60",
"m8 	c #545145",
"n8 	c #525144",
"o8 	c #6D675F",
"p8 	c #757166",
"q8 	c #605C54",
"r8 	c #8A8379",
"s8 	c #7D786E",
"t8 	c #403D30",
"u8 	c #777469",
"v8 	c #656051",
"w8 	c #686458",
"x8 	c #787367",
"y8 	c #605A52",
"z8 	c #443D37",
"A8 	c #363125",
"B8 	c #6E6861",
"C8 	c #807C70",
"D8 	c #747164",
"E8 	c #78766B",
"F8 	c #636358",
"G8 	c #726E63",
"H8 	c #746F66",
"I8 	c #6B665E",
"J8 	c #98938C",
"K8 	c #878379",
"L8 	c #3B3C35",
"M8 	c #47453B",
"N8 	c #56534E",
"O8 	c #625B53",
"P8 	c #706D66",
"Q8 	c #545449",
"R8 	c #6F6F63",
"S8 	c #7B766A",
"T8 	c #4A483A",
"U8 	c #69675B",
"V8 	c #8A867B",
"W8 	c #7F7A6F",
"X8 	c #8D8A7D",
"Y8 	c #605D53",
"Z8 	c #6F6C5F",
"`8 	c #7A756A",
" 9 	c #716C64",
".9 	c #5E5D51",
"+9 	c #6F6960",
"@9 	c #797465",
"#9 	c #736F60",
"$9 	c #5C5A50",
"%9 	c #4D453D",
"&9 	c #5B574B",
"*9 	c #443F30",
"=9 	c #443D34",
"-9 	c #534E40",
";9 	c #6B6459",
">9 	c #656156",
",9 	c #554F43",
"'9 	c #767162",
")9 	c #514E40",
"!9 	c #5D584D",
"~9 	c #44443D",
"{9 	c #726D65",
"]9 	c #615D50",
"^9 	c #504842",
"/9 	c #5B584B",
"(9 	c #5E574B",
"_9 	c #635E52",
":9 	c #423A31",
"<9 	c #2E2A21",
"[9 	c #5F584C",
"}9 	c #3B3B33",
"|9 	c #69665E",
"19 	c #353328",
"29 	c #A09D92",
"39 	c #77756A",
"49 	c #666357",
"59 	c #6E695F",
"69 	c #5A5550",
"79 	c #757066",
"89 	c #736F67",
"99 	c #8B8479",
"09 	c #635F55",
"a9 	c #605C50",
"b9 	c #575049",
"c9 	c #7C776C",
"d9 	c #847E72",
"e9 	c #6E6B60",
"f9 	c #615D55",
"g9 	c #66645A",
"h9 	c #7D7C6E",
"i9 	c #676158",
"j9 	c #8E877C",
"k9 	c #807C74",
"l9 	c #4D4C43",
"m9 	c #5F5B53",
"n9 	c #6D6A5E",
"o9 	c #262016",
"p9 	c #777164",
"q9 	c #58574A",
"r9 	c #6E6860",
"s9 	c #6C6660",
"t9 	c #706B60",
"u9 	c #66655A",
"v9 	c #625B56",
"w9 	c #77706A",
"x9 	c #78766A",
"y9 	c #666459",
"z9 	c #69645D",
"A9 	c #515048",
"B9 	c #2F2B21",
"C9 	c #655F57",
"D9 	c #6F6C62",
"E9 	c #737064",
"F9 	c #7D756B",
"G9 	c #6E6B5E",
"H9 	c #777167",
"I9 	c #847E73",
"J9 	c #6F675D",
"K9 	c #777367",
"L9 	c #7B776C",
"M9 	c #9D998B",
"N9 	c #797267",
"O9 	c #7F7C70",
"P9 	c #3E3630",
"Q9 	c #444136",
"R9 	c #4A4437",
"S9 	c #37332A",
"T9 	c #3E3632",
"U9 	c #413A34",
"V9 	c #615C4E",
"W9 	c #646054",
"X9 	c #726C63",
"Y9 	c #4C4338",
"Z9 	c #4C453B",
"`9 	c #6B675A",
" 0 	c #605F50",
".0 	c #868576",
"+0 	c #615F56",
"@0 	c #504D40",
"#0 	c #54514A",
"$0 	c #545149",
"%0 	c #605D4F",
"&0 	c #504841",
"*0 	c #726F63",
"=0 	c #4E4640",
"-0 	c #4F4B47",
";0 	c #5B544C",
">0 	c #423F33",
",0 	c #4F4841",
"'0 	c #6F6B60",
")0 	c #686559",
"!0 	c #2B2923",
"~0 	c #646159",
"{0 	c #6E6D62",
"]0 	c #7E7A6F",
"^0 	c #6B655D",
"/0 	c #706F66",
"(0 	c #979085",
"_0 	c #726D64",
":0 	c #777066",
"<0 	c #7E7A70",
"[0 	c #797467",
"}0 	c #817C72",
"|0 	c #827E72",
"10 	c #7F7D74",
"20 	c #6E6C62",
"30 	c #68645B",
"40 	c #7A796E",
"50 	c #312B1E",
"60 	c #5D5C4E",
"70 	c #837F74",
"80 	c #6F6A62",
"90 	c #6D6B60",
"00 	c #585649",
"a0 	c #6C665D",
"b0 	c #7B786B",
"c0 	c #857E77",
"d0 	c #807B72",
"e0 	c #5F5E56",
"f0 	c #625E57",
"g0 	c #5E5B52",
"h0 	c #6A665D",
"i0 	c #605A53",
"j0 	c #4B493B",
"k0 	c #696355",
"l0 	c #827C72",
"m0 	c #636055",
"n0 	c #837D6F",
"o0 	c #655F58",
"p0 	c #918B7F",
"q0 	c #837C74",
"r0 	c #7C746A",
"s0 	c #5B5548",
"t0 	c #7D796C",
"u0 	c #69675E",
"v0 	c #55544A",
"w0 	c #51504A",
"x0 	c #5B5951",
"y0 	c #504E41",
"z0 	c #413C31",
"A0 	c #575445",
"B0 	c #666153",
"C0 	c #494539",
"D0 	c #5A5749",
"E0 	c #625B50",
"F0 	c #423F32",
"G0 	c #645F52",
"H0 	c #524D40",
"I0 	c #5E584B",
"J0 	c #615E50",
"K0 	c #656254",
"L0 	c #5A5651",
"M0 	c #504C3D",
"N0 	c #7C736C",
"O0 	c #6A675B",
"P0 	c #363028",
"Q0 	c #444338",
"R0 	c #57554F",
"S0 	c #736E62",
"T0 	c #3C392E",
"U0 	c #555145",
"V0 	c #574F47",
"W0 	c #3D3A2E",
"X0 	c #5B594F",
"Y0 	c #635C54",
"Z0 	c #3E392E",
"`0 	c #756E65",
" a 	c #817B70",
".a 	c #504E43",
"+a 	c #757167",
"@a 	c #65635B",
"#a 	c #605E55",
"$a 	c #747167",
"%a 	c #605D51",
"&a 	c #727267",
"*a 	c #807A72",
"=a 	c #979485",
"-a 	c #5C5951",
";a 	c #4E4D44",
">a 	c #56514D",
",a 	c #504A42",
"'a 	c #5A584D",
")a 	c #66665C",
"!a 	c #726D63",
"~a 	c #706A61",
"{a 	c #837A72",
"]a 	c #77736C",
"^a 	c #767467",
"/a 	c #817C71",
"(a 	c #746E63",
"_a 	c #787668",
":a 	c #726B61",
"<a 	c #726F65",
"[a 	c #757669",
"}a 	c #5D5951",
"|a 	c #3A392E",
"1a 	c #6C6D63",
"2a 	c #342E24",
"3a 	c #757368",
"4a 	c #7C786C",
"5a 	c #746F63",
"6a 	c #5E5851",
"7a 	c #8C897C",
"8a 	c #7D7D73",
"9a 	c #645E53",
"0a 	c #6F6E63",
"aa 	c #57564C",
"ba 	c #6A695A",
"ca 	c #807B6F",
"da 	c #847C72",
"ea 	c #747066",
"fa 	c #6E695D",
"ga 	c #837C71",
"ha 	c #868378",
"ia 	c #6F685D",
"ja 	c #918C7F",
"ka 	c #7D796E",
"la 	c #7A756E",
"ma 	c #8A8578",
"na 	c #918D7F",
"oa 	c #938F82",
"pa 	c #8D8D81",
"qa 	c #5C5B50",
"ra 	c #5F564C",
"sa 	c #535347",
"ta 	c #5D544C",
"ua 	c #3E372D",
"va 	c #7A7466",
"wa 	c #7B7368",
"xa 	c #878175",
"ya 	c #625E50",
"za 	c #494235",
"Aa 	c #71685D",
"Ba 	c #7A7669",
"Ca 	c #6D665C",
"Da 	c #4C4739",
"Ea 	c #47453C",
"Fa 	c #433D3A",
"Ga 	c #504942",
"Ha 	c #635F52",
"Ia 	c #767466",
"Ja 	c #6F6D62",
"Ka 	c #515043",
"La 	c #362E28",
"Ma 	c #404035",
"Na 	c #645C53",
"Oa 	c #2E2923",
"Pa 	c #5F5C52",
"Qa 	c #77756B",
"Ra 	c #726D68",
"Sa 	c #5D5B50",
"Ta 	c #5F5953",
"Ua 	c #66655B",
"Va 	c #7E796C",
"Wa 	c #847F76",
"Xa 	c #898376",
"Ya 	c #69665C",
"Za 	c #605E54",
"`a 	c #6F6861",
" b 	c #959087",
".b 	c #8F8B81",
"+b 	c #655D57",
"@b 	c #6F6B62",
"#b 	c #68655F",
"$b 	c #736E65",
"%b 	c #706A62",
"&b 	c #888679",
"*b 	c #7A776E",
"=b 	c #7C776B",
"-b 	c #88857B",
";b 	c #726B62",
">b 	c #757267",
",b 	c #827C71",
"'b 	c #7E7B6F",
")b 	c #59574B",
"!b 	c #69645C",
"~b 	c #292418",
"{b 	c #4A4542",
"]b 	c #5D5750",
"^b 	c #5C5B4D",
"/b 	c #6F6C60",
"(b 	c #767262",
"_b 	c #6A645D",
":b 	c #817D75",
"<b 	c #8E8B82",
"[b 	c #615D4E",
"}b 	c #8B8A7D",
"|b 	c #696659",
"1b 	c #5F594E",
"2b 	c #737067",
"3b 	c #928E82",
"4b 	c #777568",
"5b 	c #706C61",
"6b 	c #747265",
"7b 	c #5F5C51",
"8b 	c #5F5E52",
"9b 	c #757466",
"0b 	c #7B776A",
"ab 	c #636052",
"bb 	c #7D766C",
"cb 	c #726E64",
"db 	c #575549",
"eb 	c #757467",
"fb 	c #716F65",
"gb 	c #4F4F42",
"hb 	c #3C332D",
"ib 	c #363331",
"jb 	c #625F59",
"kb 	c #5B544A",
"lb 	c #615C50",
"mb 	c #6A6457",
"nb 	c #645F51",
"ob 	c #544F40",
"pb 	c #777263",
"qb 	c #5E5B4E",
"rb 	c #595247",
"sb 	c #504A3F",
"tb 	c #7A776C",
"ub 	c #514B3C",
"vb 	c #5E594A",
"wb 	c #4C4B40",
"xb 	c #827D70",
"yb 	c #545043",
"zb 	c #656158",
"Ab 	c #777366",
"Bb 	c #3E3A2D",
"Cb 	c #635E54",
"Db 	c #312D23",
"Eb 	c #564F49",
"Fb 	c #312C23",
"Gb 	c #2B2722",
"Hb 	c #686158",
"Ib 	c #605D54",
"Jb 	c #565048",
"Kb 	c #878178",
"Lb 	c #53504A",
"Mb 	c #655F54",
"Nb 	c #58544D",
"Ob 	c #626158",
"Pb 	c #716D64",
"Qb 	c #4E4E43",
"Rb 	c #838275",
"Sb 	c #70685F",
"Tb 	c #7A7468",
"Ub 	c #838074",
"Vb 	c #8B887E",
"Wb 	c #737262",
"Xb 	c #615B52",
"Yb 	c #918E7F",
"Zb 	c #8B887C",
"`b 	c #68655C",
" c 	c #555347",
".c 	c #727063",
"+c 	c #5D5C4F",
"@c 	c #8D897E",
"#c 	c #635E55",
"$c 	c #736A62",
"%c 	c #5E574E",
"&c 	c #4A483F",
"*c 	c #5F5D54",
"=c 	c #31291F",
"-c 	c #3B3B2E",
";c 	c #837C72",
">c 	c #766F65",
",c 	c #7C796D",
"'c 	c #777166",
")c 	c #736E64",
"!c 	c #6F685B",
"~c 	c #968E84",
"{c 	c #6E6C61",
"]c 	c #7D776F",
"^c 	c #67645B",
"/c 	c #636057",
"(c 	c #66635A",
"_c 	c #6A655D",
":c 	c #59524C",
"<c 	c #776F65",
"[c 	c #807C72",
"}c 	c #8A867A",
"|c 	c #837F72",
"1c 	c #6D675E",
"2c 	c #80786E",
"3c 	c #6D695C",
"4c 	c #6D6A60",
"5c 	c #8A877C",
"6c 	c #79756A",
"7c 	c #8A857C",
"8c 	c #767367",
"9c 	c #827E70",
"0c 	c #686657",
"ac 	c #706C5F",
"bc 	c #878176",
"cc 	c #5E594D",
"dc 	c #7A766C",
"ec 	c #6C6B5F",
"fc 	c #494438",
"gc 	c #696154",
"hc 	c #757161",
"ic 	c #6C665B",
"jc 	c #70695C",
"kc 	c #312E24",
"lc 	c #605E50",
"mc 	c #666258",
"nc 	c #494336",
"oc 	c #48463A",
"pc 	c #544D48",
"qc 	c #6B6859",
"rc 	c #868175",
"sc 	c #747063",
"tc 	c #655E55",
"uc 	c #7C7B6F",
"vc 	c #3F3F32",
"wc 	c #696359",
"xc 	c #353027",
"yc 	c #4D493B",
"zc 	c #89877B",
"Ac 	c #777468",
"Bc 	c #9F988D",
"Cc 	c #948F82",
"Dc 	c #89857D",
"Ec 	c #7F7B72",
"Fc 	c #898678",
"Gc 	c #656057",
"Hc 	c #52514A",
"Ic 	c #78786D",
"Jc 	c #6A675C",
"Kc 	c #6B695C",
"Lc 	c #8F8881",
"Mc 	c #858175",
"Nc 	c #737265",
"Oc 	c #716F66",
"Pc 	c #7E7970",
"Qc 	c #827E71",
"Rc 	c #827B72",
"Sc 	c #7F7D70",
"Tc 	c #9B968A",
"Uc 	c #605B54",
"Vc 	c #787166",
"Wc 	c #56554B",
"Xc 	c #767067",
"Yc 	c #332B1F",
"Zc 	c #6E6D61",
"`c 	c #696458",
" d 	c #6E6B61",
".d 	c #575448",
"+d 	c #939386",
"@d 	c #7D7971",
"#d 	c #928E83",
"$d 	c #918C83",
"%d 	c #928C82",
"&d 	c #8E8B7F",
"*d 	c #626056",
"=d 	c #535346",
"-d 	c #504941",
";d 	c #88867B",
">d 	c #636058",
",d 	c #706C60",
"'d 	c #817D71",
")d 	c #837E70",
"!d 	c #8D887C",
"~d 	c #6D6A5F",
"{d 	c #777569",
"]d 	c #7D786D",
"^d 	c #6B6A5E",
"/d 	c #78786A",
"(d 	c #807A6D",
"_d 	c #666458",
":d 	c #807D70",
"<d 	c #797669",
"[d 	c #716F62",
"}d 	c #9A948B",
"|d 	c #848176",
"1d 	c #78786C",
"2d 	c #878577",
"3d 	c #3A3529",
"4d 	c #4D4640",
"5d 	c #6B655C",
"6d 	c #5D5849",
"7d 	c #6B6559",
"8d 	c #676255",
"9d 	c #4F4D3F",
"0d 	c #4D473C",
"ad 	c #4D4A3D",
"bd 	c #625C51",
"cd 	c #544C41",
"dd 	c #7E786B",
"ed 	c #6E685D",
"fd 	c #847D6C",
"gd 	c #646051",
"hd 	c #787164",
"id 	c #666557",
"jd 	c #646257",
"kd 	c #6E685A",
"ld 	c #4F4E40",
"md 	c #706D5F",
"nd 	c #827F73",
"od 	c #8C887C",
"pd 	c #6C665E",
"qd 	c #655D54",
"rd 	c #615E54",
"sd 	c #56524C",
"td 	c #817C74",
"ud 	c #696457",
"vd 	c #989287",
"wd 	c #817F73",
"xd 	c #A09D91",
"yd 	c #878076",
"zd 	c #6D6A5D",
"Ad 	c #898478",
"Bd 	c #817D6F",
"Cd 	c #5E5B53",
"Dd 	c #69655C",
"Ed 	c #4C4C42",
"Fd 	c #6C6A5E",
"Gd 	c #928C84",
"Hd 	c #A49E94",
"Id 	c #969286",
"Jd 	c #979487",
"Kd 	c #6C6960",
"Ld 	c #858376",
"Md 	c #5C5C4E",
"Nd 	c #9F9991",
"Od 	c #99938B",
"Pd 	c #858178",
"Qd 	c #5C574B",
"Rd 	c #78776D",
"Sd 	c #7C7A6E",
"Td 	c #6D695A",
"Ud 	c #66665A",
"Vd 	c #756F67",
"Wd 	c #5D5B52",
"Xd 	c #535149",
"Yd 	c #57504A",
"Zd 	c #261E15",
"`d 	c #8D877D",
" e 	c #7F7A71",
".e 	c #686258",
"+e 	c #78756D",
"@e 	c #908B81",
"#e 	c #80796E",
"$e 	c #9F9C94",
"%e 	c #8E8D81",
"&e 	c #615F52",
"*e 	c #787365",
"=e 	c #7E7B71",
"-e 	c #5E5E50",
";e 	c #7D7A6E",
">e 	c #706C62",
",e 	c #8F8A80",
"'e 	c #747367",
")e 	c #888379",
"!e 	c #686557",
"~e 	c #807E70",
"{e 	c #847D75",
"]e 	c #3C3430",
"^e 	c #5F5A4E",
"/e 	c #4C493B",
"(e 	c #59564A",
"_e 	c #7E796A",
":e 	c #7D7568",
"<e 	c #625C50",
"[e 	c #706A5F",
"}e 	c #746C61",
"|e 	c #4B4338",
"1e 	c #676353",
"2e 	c #7E7B69",
"3e 	c #6F6C5E",
"4e 	c #7F7668",
"5e 	c #6E665B",
"6e 	c #595246",
"7e 	c #4F4641",
"8e 	c #797269",
"9e 	c #767266",
"0e 	c #5B564F",
"ae 	c #474338",
"be 	c #696657",
"ce 	c #6A645C",
"de 	c #5B594D",
"ee 	c #91897C",
"fe 	c #474235",
"ge 	c #636155",
"he 	c #4D4C44",
"ie 	c #3B3B34",
"je 	c #7F7E72",
"ke 	c #716F63",
"le 	c #807B73",
"me 	c #7C7970",
"ne 	c #69655D",
"oe 	c #7D7770",
"pe 	c #928E84",
"qe 	c #9E9C90",
"re 	c #847F74",
"se 	c #A49F96",
"te 	c #837E76",
"ue 	c #666559",
"ve 	c #5D5953",
"we 	c #605C52",
"xe 	c #A19F92",
"ye 	c #9A9589",
"ze 	c #8B867C",
"Ae 	c #848073",
"Be 	c #89877D",
"Ce 	c #888578",
"De 	c #898378",
"Ee 	c #8D887E",
"Fe 	c #78726A",
"Ge 	c #6B695D",
"He 	c #87837A",
"Ie 	c #5E5D50",
"Je 	c #8F897C",
"Ke 	c #615E52",
"Le 	c #989188",
"Me 	c #656356",
"Ne 	c #77776C",
"Oe 	c #79776A",
"Pe 	c #58564A",
"Qe 	c #676156",
"Re 	c #2A231B",
"Se 	c #888175",
"Te 	c #828078",
"Ue 	c #777268",
"Ve 	c #7C7A70",
"We 	c #777369",
"Xe 	c #47463A",
"Ye 	c #938F84",
"Ze 	c #7E7B70",
"`e 	c #A8A599",
" f 	c #767269",
".f 	c #605953",
"+f 	c #69675D",
"@f 	c #8A857B",
"#f 	c #5C5B52",
"$f 	c #464535",
"%f 	c #7A7569",
"&f 	c #6F6E61",
"*f 	c #8E887E",
"=f 	c #78746A",
"-f 	c #737266",
";f 	c #645E51",
">f 	c #817F72",
",f 	c #8C8881",
"'f 	c #656358",
")f 	c #8A8679",
"!f 	c #7F7A6D",
"~f 	c #838177",
"{f 	c #8C877C",
"]f 	c #949184",
"^f 	c #565143",
"/f 	c #8A8676",
"(f 	c #534A42",
"_f 	c #5B5749",
":f 	c #4D483B",
"<f 	c #888474",
"[f 	c #675E54",
"}f 	c #686358",
"|f 	c #575048",
"1f 	c #494538",
"2f 	c #827A6C",
"3f 	c #5D564A",
"4f 	c #62594E",
"5f 	c #6C685C",
"6f 	c #5C554A",
"7f 	c #554C41",
"8f 	c #4B463A",
"9f 	c #5A584A",
"0f 	c #878578",
"af 	c #534C45",
"bf 	c #302A26",
"cf 	c #6D6A61",
"df 	c #45433A",
"ef 	c #989288",
"ff 	c #847F73",
"gf 	c #848171",
"hf 	c #797369",
"if 	c #A29B90",
"jf 	c #928D82",
"kf 	c #A7A598",
"lf 	c #969188",
"mf 	c #948D84",
"nf 	c #716A61",
"of 	c #69675C",
"pf 	c #776E64",
"qf 	c #5D564E",
"rf 	c #86847B",
"sf 	c #595A4C",
"tf 	c #7F7B71",
"uf 	c #B3ADA2",
"vf 	c #999689",
"wf 	c #7B786C",
"xf 	c #767065",
"yf 	c #736E67",
"zf 	c #5D5B51",
"Af 	c #8D897F",
"Bf 	c #828072",
"Cf 	c #959184",
"Df 	c #8C867C",
"Ef 	c #696556",
"Ff 	c #837D74",
"Gf 	c #858076",
"Hf 	c #3F3C31",
"If 	c #7E7870",
"Jf 	c #5C5B4E",
"Kf 	c #2A211A",
"Lf 	c #716B64",
"Mf 	c #78746C",
"Nf 	c #766F67",
"Of 	c #79796A",
"Pf 	c #625F52",
"Qf 	c #88847A",
"Rf 	c #ADAA9C",
"Sf 	c #A3A097",
"Tf 	c #7A766D",
"Uf 	c #737062",
"Vf 	c #6D695E",
"Wf 	c #57574F",
"Xf 	c #4D4742",
"Yf 	c #45413C",
"Zf 	c #8C877A",
"`f 	c #6B6960",
" g 	c #7B756A",
".g 	c #686558",
"+g 	c #8C887F",
"@g 	c #69625B",
"#g 	c #5A584E",
"$g 	c #8B887D",
"%g 	c #8D877C",
"&g 	c #98928A",
"*g 	c #767365",
"=g 	c #827D71",
"-g 	c #979587",
";g 	c #787369",
">g 	c #888277",
",g 	c #555247",
"'g 	c #999286",
")g 	c #5B5A4D",
"!g 	c #5B524B",
"~g 	c #3D372A",
"{g 	c #757064",
"]g 	c #5A5146",
"^g 	c #6E6E62",
"/g 	c #554E41",
"(g 	c #807A6F",
"_g 	c #6A6357",
":g 	c #615F51",
"<g 	c #5D594B",
"[g 	c #5D574B",
"}g 	c #585147",
"|g 	c #6E6F64",
"1g 	c #58574E",
"2g 	c #868478",
"3g 	c #7C766B",
"4g 	c #4D4D40",
"5g 	c #4F4E43",
"6g 	c #5A564F",
"7g 	c #625E58",
"8g 	c #5F5851",
"9g 	c #504944",
"0g 	c #79766D",
"ag 	c #625C4F",
"bg 	c #504943",
"cg 	c #5C5952",
"dg 	c #858275",
"eg 	c #7D7A72",
"fg 	c #8B897C",
"gg 	c #8C877F",
"hg 	c #898778",
"ig 	c #706E62",
"jg 	c #706863",
"kg 	c #75746B",
"lg 	c #908D82",
"mg 	c #615E55",
"ng 	c #747169",
"og 	c #6B645C",
"pg 	c #6B6259",
"qg 	c #76756C",
"rg 	c #5D554D",
"sg 	c #625C56",
"tg 	c #78736D",
"ug 	c #928D85",
"vg 	c #938D84",
"wg 	c #6D6C5F",
"xg 	c #7C796C",
"yg 	c #241F12",
"zg 	c #6D6B5F",
"Ag 	c #645F55",
"Bg 	c #7E7C73",
"Cg 	c #646457",
"Dg 	c #ADA99B",
"Eg 	c #888076",
"Fg 	c #9E9A8E",
"Gg 	c #646254",
"Hg 	c #4C4B3F",
"Ig 	c #686159",
"Jg 	c #7D796A",
"Kg 	c #928D80",
"Lg 	c #968F87",
"Mg 	c #969289",
"Ng 	c #888479",
"Og 	c #888179",
"Pg 	c #534B40",
"Qg 	c #65635A",
"Rg 	c #7A7366",
"Sg 	c #7D7A6D",
"Tg 	c #A8A398",
"Ug 	c #767265",
"Vg 	c #807C71",
"Wg 	c #9E9B90",
"Xg 	c #77736A",
"Yg 	c #7F7D72",
"Zg 	c #757468",
"`g 	c #676656",
" h 	c #706C5D",
".h 	c #89867E",
"+h 	c #48473A",
"@h 	c #4E4440",
"#h 	c #5A5448",
"$h 	c #6C695B",
"%h 	c #716D5D",
"&h 	c #696054",
"*h 	c #6E6859",
"=h 	c #655F53",
"-h 	c #7D7B6C",
";h 	c #5E584E",
">h 	c #635D4F",
",h 	c #71685F",
"'h 	c #626156",
")h 	c #4E4A3B",
"!h 	c #767163",
"~h 	c #726F5F",
"{h 	c #595446",
"]h 	c #5E5749",
"^h 	c #615A4D",
"/h 	c #575548",
"(h 	c #797368",
"_h 	c #575749",
":h 	c #646058",
"<h 	c #666257",
"[h 	c #655D56",
"}h 	c #6F6A5E",
"|h 	c #605C4F",
"1h 	c #62584D",
"2h 	c #858176",
"3h 	c #666356",
"4h 	c #645D52",
"5h 	c #554D46",
"6h 	c #524D41",
"7h 	c #3E3F35",
"8h 	c #343027",
"9h 	c #65655A",
"0h 	c #726D66",
"ah 	c #6E6A62",
"bh 	c #89857B",
"ch 	c #9A988D",
"dh 	c #9A978D",
"eh 	c #918E84",
"fh 	c #858277",
"gh 	c #77776B",
"hh 	c #585547",
"ih 	c #545245",
"jh 	c #857F76",
"kh 	c #7A756D",
"lh 	c #8D8A80",
"mh 	c #989389",
"nh 	c #625E56",
"oh 	c #352B20",
"ph 	c #6E665F",
"qh 	c #565447",
"rh 	c #868176",
"sh 	c #877F73",
"th 	c #928F82",
"uh 	c #7B7870",
"vh 	c #ACAD9F",
"wh 	c #787469",
"xh 	c #848476",
"yh 	c #5C5B51",
"zh 	c #535348",
"Ah 	c #838075",
"Bh 	c #807A70",
"Ch 	c #7B786F",
"Dh 	c #818171",
"Eh 	c #717063",
"Fh 	c #747366",
"Gh 	c #787165",
"Hh 	c #A19D93",
"Ih 	c #817B71",
"Jh 	c #9B998C",
"Kh 	c #858477",
"Lh 	c #817D72",
"Mh 	c #807F70",
"Nh 	c #817E71",
"Oh 	c #585145",
"Ph 	c #49423A",
"Qh 	c #504B40",
"Rh 	c #4F473D",
"Sh 	c #60584B",
"Th 	c #71695D",
"Uh 	c #494637",
"Vh 	c #6D6559",
"Wh 	c #5A5247",
"Xh 	c #635D50",
"Yh 	c #6F665B",
"Zh 	c #726F61",
"`h 	c #747062",
" i 	c #767264",
".i 	c #616055",
"+i 	c #787468",
"@i 	c #726A64",
"#i 	c #4E4E44",
"$i 	c #3C3A2F",
"%i 	c #504F43",
"&i 	c #6C6C61",
"*i 	c #56544D",
"=i 	c #585850",
"-i 	c #67645E",
";i 	c #6D6C5E",
">i 	c #5C5C53",
",i 	c #7A736C",
"'i 	c #AFAAA0",
")i 	c #969389",
"!i 	c #8E8C80",
"~i 	c #99978C",
"{i 	c #7B7A6C",
"]i 	c #918E85",
"^i 	c #818177",
"/i 	c #7B7468",
"(i 	c #908980",
"_i 	c #4E4D41",
":i 	c #837F73",
"<i 	c #767166",
"[i 	c #7A766F",
"}i 	c #4A493C",
"|i 	c #817E72",
"1i 	c #918C82",
"2i 	c #938E85",
"3i 	c #5F5D53",
"4i 	c #645E57",
"5i 	c #30261C",
"6i 	c #7D7B70",
"7i 	c #8B877E",
"8i 	c #4D4D3F",
"9i 	c #595749",
"0i 	c #9D9B8F",
"ai 	c #7B746A",
"bi 	c #918E81",
"ci 	c #7C756C",
"di 	c #5A594F",
"ei 	c #8B867A",
"fi 	c #646458",
"gi 	c #676559",
"hi 	c #454236",
"ii 	c #79766C",
"ji 	c #908F84",
"ki 	c #9A958A",
"li 	c #716F61",
"mi 	c #766E63",
"ni 	c #6F6D61",
"oi 	c #9C998E",
"pi 	c #878477",
"qi 	c #645E56",
"ri 	c #7D7B6B",
"si 	c #7E7D71",
"ti 	c #9A978A",
"ui 	c #807B74",
"vi 	c #525142",
"wi 	c #646256",
"xi 	c #706F64",
"yi 	c #7E7C72",
"zi 	c #807D71",
"Ai 	c #828173",
"Bi 	c #949084",
"Ci 	c #706E61",
"Di 	c #4E4A3D",
"Ei 	c #524C3F",
"Fi 	c #4A493F",
"Gi 	c #635F50",
"Hi 	c #6A6458",
"Ii 	c #514C3F",
"Ji 	c #5E574F",
"Ki 	c #847D70",
"Li 	c #5A5648",
"Mi 	c #585548",
"Ni 	c #5D594C",
"Oi 	c #585146",
"Pi 	c #5E5A4D",
"Qi 	c #5E5C4E",
"Ri 	c #848071",
"Si 	c #5D5A4D",
"Ti 	c #807B75",
"Ui 	c #999788",
"Vi 	c #9F9C91",
"Wi 	c #756F64",
"Xi 	c #5E594C",
"Yi 	c #848077",
"Zi 	c #58514B",
"`i 	c #6F6B61",
" j 	c #4E4B3E",
".j 	c #434238",
"+j 	c #2D2823",
"@j 	c #6D6961",
"#j 	c #615C53",
"$j 	c #6B695E",
"%j 	c #848278",
"&j 	c #6B6A5D",
"*j 	c #58574D",
"=j 	c #79776C",
"-j 	c #908A82",
";j 	c #8F8B80",
">j 	c #837D72",
",j 	c #B7B2A8",
"'j 	c #89857A",
")j 	c #6E6B5D",
"!j 	c #878478",
"~j 	c #69665A",
"{j 	c #8E8A80",
"]j 	c #827E73",
"^j 	c #767169",
"/j 	c #6D6C63",
"(j 	c #69695E",
"_j 	c #60594E",
":j 	c #8E867D",
"<j 	c #59594C",
"[j 	c #392E24",
"}j 	c #6A685B",
"|j 	c #736D64",
"1j 	c #878274",
"2j 	c #848179",
"3j 	c #89867C",
"4j 	c #888478",
"5j 	c #878479",
"6j 	c #8F8A7E",
"7j 	c #827E74",
"8j 	c #7A7369",
"9j 	c #5A514B",
"0j 	c #77726A",
"aj 	c #626054",
"bj 	c #979387",
"cj 	c #8E8B81",
"dj 	c #9F9C8F",
"ej 	c #878174",
"fj 	c #898379",
"gj 	c #847F75",
"hj 	c #898577",
"ij 	c #7C7469",
"jj 	c #8D8E80",
"kj 	c #888178",
"lj 	c #9C988E",
"mj 	c #A19C8E",
"nj 	c #888278",
"oj 	c #929083",
"pj 	c #6A6559",
"qj 	c #79766A",
"rj 	c #5B5A50",
"sj 	c #60594D",
"tj 	c #605A4D",
"uj 	c #605850",
"vj 	c #635F53",
"wj 	c #605D4A",
"xj 	c #7B7262",
"yj 	c #767164",
"zj 	c #473F35",
"Aj 	c #464338",
"Bj 	c #676054",
"Cj 	c #797266",
"Dj 	c #676456",
"Ej 	c #6C6359",
"Fj 	c #6B6558",
"Gj 	c #484538",
"Hj 	c #777161",
"Ij 	c #6C6557",
"Jj 	c #59594D",
"Kj 	c #514A43",
"Lj 	c #868275",
"Mj 	c #898279",
"Nj 	c #A29C91",
"Oj 	c #5E5A4B",
"Pj 	c #665F56",
"Qj 	c #545146",
"Rj 	c #7B776D",
"Sj 	c #6B6A5C",
"Tj 	c #64605A",
"Uj 	c #787069",
"Vj 	c #7D7870",
"Wj 	c #949086",
"Xj 	c #908C82",
"Yj 	c #606056",
"Zj 	c #958E84",
"`j 	c #8C857B",
" k 	c #6C645B",
".k 	c #837E75",
"+k 	c #837F71",
"@k 	c #77746B",
"#k 	c #807B70",
"$k 	c #5C564F",
"%k 	c #7B7B71",
"&k 	c #7C786F",
"*k 	c #8F8B7E",
"=k 	c #9C958E",
"-k 	c #868277",
";k 	c #837E77",
">k 	c #818076",
",k 	c #57574C",
"'k 	c #4D4B3F",
")k 	c #756E62",
"!k 	c #6C6A5C",
"~k 	c #656459",
"{k 	c #999288",
"]k 	c #898476",
"^k 	c #78766C",
"/k 	c #7B796D",
"(k 	c #6A695D",
"_k 	c #858072",
":k 	c #636157",
"<k 	c #8D897C",
"[k 	c #635A50",
"}k 	c #625D52",
"|k 	c #858278",
"1k 	c #86827A",
"2k 	c #A29E94",
"3k 	c #A19C91",
"4k 	c #949286",
"5k 	c #7D786B",
"6k 	c #727062",
"7k 	c #8B8679",
"8k 	c #858077",
"9k 	c #65645A",
"0k 	c #938C80",
"ak 	c #7F7970",
"bk 	c #9C988D",
"ck 	c #7C7870",
"dk 	c #999387",
"ek 	c #939286",
"fk 	c #706B5E",
"gk 	c #6E6C5F",
"hk 	c #6F6D63",
"ik 	c #8D887F",
"jk 	c #655F52",
"kk 	c #6B685A",
"lk 	c #5F5A4C",
"mk 	c #444237",
"nk 	c #9E968B",
"ok 	c #473F34",
"pk 	c #7F7A6E",
"qk 	c #7D7666",
"rk 	c #625A53",
"sk 	c #7F7C6C",
"tk 	c #4F4B3B",
"uk 	c #757465",
"vk 	c #3B392D",
"wk 	c #5C5A4F",
"xk 	c #666757",
"yk 	c #67645C",
"zk 	c #67655D",
"Ak 	c #868076",
"Bk 	c #857E75",
"Ck 	c #838076",
"Dk 	c #515147",
"Ek 	c #979488",
"Fk 	c #747269",
"Gk 	c #817F76",
"Hk 	c #757366",
"Ik 	c #65625A",
"Jk 	c #4D4D43",
"Kk 	c #828076",
"Lk 	c #7C7B71",
"Mk 	c #898A7B",
"Nk 	c #A9A59D",
"Ok 	c #757065",
"Pk 	c #8C877E",
"Qk 	c #847D77",
"Rk 	c #9A968A",
"Sk 	c #969387",
"Tk 	c #656259",
"Uk 	c #888279",
"Vk 	c #8A867D",
"Wk 	c #A6A398",
"Xk 	c #787267",
"Yk 	c #8A847A",
"Zk 	c #989387",
"`k 	c #969086",
" l 	c #79786A",
".l 	c #6C6A5A",
"+l 	c #68645C",
"@l 	c #67665B",
"#l 	c #85847C",
"$l 	c #7C7A6F",
"%l 	c #646358",
"&l 	c #392F23",
"*l 	c #5D5A4C",
"=l 	c #877E75",
"-l 	c #7A7670",
";l 	c #716D65",
">l 	c #8A887A",
",l 	c #807E71",
"'l 	c #8C867D",
")l 	c #9B968C",
"!l 	c #9C988A",
"~l 	c #555143",
"{l 	c #514B47",
"]l 	c #9D988A",
"^l 	c #8F897F",
"/l 	c #8F8A7B",
"(l 	c #625D55",
"_l 	c #736C64",
":l 	c #7F796F",
"<l 	c #6A625B",
"[l 	c #9D978A",
"}l 	c #918A81",
"|l 	c #A9A096",
"1l 	c #5C5849",
"2l 	c #979389",
"3l 	c #8B8678",
"4l 	c #737063",
"5l 	c #7D7B71",
"6l 	c #8D887D",
"7l 	c #8E897E",
"8l 	c #8D897D",
"9l 	c #948F84",
"0l 	c #848277",
"al 	c #8F8A7F",
"bl 	c #959186",
"cl 	c #807C6E",
"dl 	c #877F74",
"el 	c #534B3F",
"fl 	c #908A7E",
"gl 	c #928B80",
"hl 	c #78746B",
"il 	c #797367",
"jl 	c #5C594C",
"kl 	c #3C362D",
"ll 	c #757062",
"ml 	c #63604F",
"nl 	c #8C8678",
"ol 	c #757165",
"pl 	c #817B6C",
"ql 	c #645E52",
"rl 	c #6C6156",
"sl 	c #70685A",
"tl 	c #5B584C",
"ul 	c #6C665C",
"vl 	c #5C544B",
"wl 	c #5F5C53",
"xl 	c #686457",
"yl 	c #6A6356",
"zl 	c #655E56",
"Al 	c #8B877B",
"Bl 	c #86847A",
"Cl 	c #352F28",
"Dl 	c #7D756D",
"El 	c #68655A",
"Fl 	c #575447",
"Gl 	c #5D5C52",
"Hl 	c #7E7D75",
"Il 	c #5C564E",
"Jl 	c #979188",
"Kl 	c #7C766F",
"Ll 	c #948F86",
"Ml 	c #979289",
"Nl 	c #817E73",
"Ol 	c #7B766D",
"Pl 	c #595750",
"Ql 	c #727167",
"Rl 	c #646456",
"Sl 	c #9F9A8E",
"Tl 	c #938D80",
"Ul 	c #969284",
"Vl 	c #8E897F",
"Wl 	c #828074",
"Xl 	c #69655E",
"Yl 	c #7F7B73",
"Zl 	c #53524A",
"`l 	c #39382D",
" m 	c #6D6A5C",
".m 	c #7C786A",
"+m 	c #3B3122",
"@m 	c #857F74",
"#m 	c #747268",
"$m 	c #A0978F",
"%m 	c #726C5E",
"&m 	c #837F75",
"*m 	c #434237",
"=m 	c #716D5F",
"-m 	c #655E57",
";m 	c #746F64",
">m 	c #797569",
",m 	c #737166",
"'m 	c #4F4E3F",
")m 	c #69625A",
"!m 	c #9B958C",
"~m 	c #A8A296",
"{m 	c #766F66",
"]m 	c #7B736A",
"^m 	c #918D83",
"/m 	c #88857A",
"(m 	c #999386",
"_m 	c #868179",
":m 	c #9A928A",
"<m 	c #959187",
"[m 	c #A39B94",
"}m 	c #8C8D80",
"|m 	c #777364",
"1m 	c #9D998C",
"2m 	c #9A968B",
"3m 	c #8B857C",
"4m 	c #787167",
"5m 	c #746E66",
"6m 	c #595249",
"7m 	c #3E392F",
"8m 	c #837F70",
"9m 	c #878276",
"0m 	c #5A5748",
"am 	c #8F8C7E",
"bm 	c #797668",
"cm 	c #5C544D",
"dm 	c #5C584B",
"em 	c #858073",
"fm 	c #6D6B5E",
"gm 	c #5A5647",
"hm 	c #61594F",
"im 	c #5C5A4D",
"jm 	c #6C6859",
"km 	c #716B5D",
"lm 	c #706A5E",
"mm 	c #5A574F",
"nm 	c #5D5B4F",
"om 	c #5F5E55",
"pm 	c #777165",
"qm 	c #7A7A6C",
"rm 	c #62594D",
"sm 	c #6E655C",
"tm 	c #6E6B5F",
"um 	c #464237",
"vm 	c #6B6660",
"wm 	c #39382E",
"xm 	c #363127",
"ym 	c #89877C",
"zm 	c #908982",
"Am 	c #726F67",
"Bm 	c #6F6B63",
"Cm 	c #8F8C80",
"Dm 	c #908D83",
"Em 	c #A29F93",
"Fm 	c #615F57",
"Gm 	c #90897E",
"Hm 	c #878377",
"Im 	c #8F857C",
"Jm 	c #908D81",
"Km 	c #7D786C",
"Lm 	c #746D64",
"Mm 	c #6A665E",
"Nm 	c #59554E",
"Om 	c #756E63",
"Pm 	c #8E8A7F",
"Qm 	c #545349",
"Rm 	c #959286",
"Sm 	c #6F695C",
"Tm 	c #807A71",
"Um 	c #7D796D",
"Vm 	c #8D8A81",
"Wm 	c #908C7F",
"Xm 	c #7B796F",
"Ym 	c #7F7F72",
"Zm 	c #7C786B",
"`m 	c #A49E90",
" n 	c #7A786C",
".n 	c #7A786A",
"+n 	c #706A5D",
"@n 	c #ACA99C",
"#n 	c #514F41",
"$n 	c #625E4F",
"%n 	c #928B83",
"&n 	c #595649",
"*n 	c #756F68",
"=n 	c #89867D",
"-n 	c #727064",
";n 	c #817C70",
">n 	c #999589",
",n 	c #979287",
"'n 	c #878378",
")n 	c #ACA59B",
"!n 	c #CFC8BD",
"~n 	c #8C8A7D",
"{n 	c #837F78",
"]n 	c #AAA79B",
"^n 	c #8E887D",
"/n 	c #928F80",
"(n 	c #A8A099",
"_n 	c #544C40",
":n 	c #726D5F",
"<n 	c #696258",
"[n 	c #686659",
"}n 	c #837D70",
"|n 	c #716C60",
"1n 	c #7D7969",
"2n 	c #777566",
"3n 	c #373228",
"4n 	c #6F675E",
"5n 	c #6A6759",
"6n 	c #6C6558",
"7n 	c #5A524D",
"8n 	c #6D695B",
"9n 	c #6C655B",
"0n 	c #757263",
"an 	c #5D5A49",
"bn 	c #696255",
"cn 	c #524E42",
"dn 	c #636158",
"en 	c #70685C",
"fn 	c #6A695B",
"gn 	c #49483D",
"hn 	c #6F695D",
"in 	c #544F49",
"jn 	c #635C53",
"kn 	c #37362B",
"ln 	c #888078",
"mn 	c #89887D",
"nn 	c #929087",
"on 	c #6D6C61",
"pn 	c #78766D",
"qn 	c #989586",
"rn 	c #726C61",
"sn 	c #878077",
"tn 	c #7E7A6C",
"un 	c #7D7A6F",
"vn 	c #6C6760",
"wn 	c #928D83",
"xn 	c #615F55",
"yn 	c #6B6A5F",
"zn 	c #2E2A1C",
"An 	c #8B877D",
"Bn 	c #8B8579",
"Cn 	c #A7A597",
"Dn 	c #787264",
"En 	c #78736A",
"Fn 	c #A9A698",
"Gn 	c #858078",
"Hn 	c #838175",
"In 	c #898477",
"Jn 	c #908A80",
"Kn 	c #7A7869",
"Ln 	c #7A796C",
"Mn 	c #AAA99B",
"Nn 	c #7E7C6F",
"On 	c #706E65",
"Pn 	c #746E61",
"Qn 	c #363025",
"Rn 	c #6C6761",
"Sn 	c #787364",
"Tn 	c #9C978E",
"Un 	c #7D7D6D",
"Vn 	c #7F8072",
"Wn 	c #8B887F",
"Xn 	c #878679",
"Yn 	c #7D7769",
"Zn 	c #7B7569",
"`n 	c #8C8A7E",
" o 	c #7E766D",
".o 	c #928C81",
"+o 	c #9C9890",
"@o 	c #A09D90",
"#o 	c #959085",
"$o 	c #939085",
"%o 	c #A6A293",
"&o 	c #A49F93",
"*o 	c #79756B",
"=o 	c #969287",
"-o 	c #979284",
";o 	c #716E65",
">o 	c #6B6B5D",
",o 	c #A4A195",
"'o 	c #938E80",
")o 	c #908C80",
"!o 	c #8E8A7E",
"~o 	c #959183",
"{o 	c #727068",
"]o 	c #615C55",
"^o 	c #636154",
"/o 	c #6E665E",
"(o 	c #8D897A",
"_o 	c #878074",
":o 	c #6A6556",
"<o 	c #827F70",
"[o 	c #838174",
"}o 	c #848274",
"|o 	c #6D665B",
"1o 	c #656052",
"2o 	c #7C7667",
"3o 	c #595146",
"4o 	c #736D60",
"5o 	c #5D5A4B",
"6o 	c #8D8879",
"7o 	c #7E7A6B",
"8o 	c #706C5E",
"9o 	c #636259",
"0o 	c #615A51",
"ao 	c #898479",
"bo 	c #867E74",
"co 	c #5A594B",
"do 	c #7B7367",
"eo 	c #6E665D",
"fo 	c #817E75",
"go 	c #898880",
"ho 	c #928D86",
"io 	c #67685B",
"jo 	c #8E8880",
"ko 	c #59504A",
"lo 	c #827D75",
"mo 	c #939084",
"no 	c #7C766A",
"oo 	c #8C857A",
"po 	c #8B8979",
"qo 	c #B0AAA2",
"ro 	c #938E81",
"so 	c #817D74",
"to 	c #665F58",
"uo 	c #8B897D",
"vo 	c #32291F",
"wo 	c #838073",
"xo 	c #746F68",
"yo 	c #75716A",
"zo 	c #9E9C91",
"Ao 	c #A19B8F",
"Bo 	c #989189",
"Co 	c #8C867F",
"Do 	c #8E8C7E",
"Eo 	c #A69F97",
"Fo 	c #938C82",
"Go 	c #ABA79C",
"Ho 	c #938F86",
"Io 	c #A59F95",
"Jo 	c #949288",
"Ko 	c #9D998F",
"Lo 	c #8D897B",
"Mo 	c #6C6B60",
"No 	c #8D877E",
"Oo 	c #8F8D80",
"Po 	c #979286",
"Qo 	c #A09B90",
"Ro 	c #837D75",
"So 	c #8E8A7D",
"To 	c #989388",
"Uo 	c #AFAAA1",
"Vo 	c #B6B0A4",
"Wo 	c #868276",
"Xo 	c #A9A598",
"Yo 	c #898276",
"Zo 	c #6D6B5D",
"`o 	c #716960",
" p 	c #9C9586",
".p 	c #8B887B",
"+p 	c #6E6A61",
"@p 	c #7E7B6B",
"#p 	c #726A5D",
"$p 	c #868177",
"%p 	c #8A8678",
"&p 	c #827D6F",
"*p 	c #888376",
"=p 	c #6B6456",
"-p 	c #9C9487",
";p 	c #757364",
">p 	c #746F60",
",p 	c #7B7568",
"'p 	c #766F60",
")p 	c #646356",
"!p 	c #6E675D",
"~p 	c #4F4B3E",
"{p 	c #67625A",
"]p 	c #5F5B4B",
"^p 	c #817D70",
"/p 	c #6B6961",
"(p 	c #716E61",
"_p 	c #665F54",
":p 	c #716B61",
"<p 	c #5E5E51",
"[p 	c #5C5C4C",
"}p 	c #777067",
"|p 	c #857F77",
"1p 	c #89847A",
"2p 	c #7E7A72",
"3p 	c #9B988C",
"4p 	c #A09B8D",
"5p 	c #939086",
"6p 	c #B3AFA7",
"7p 	c #6D6E62",
"8p 	c #8B8881",
"9p 	c #6C6A5D",
"0p 	c #322D23",
"ap 	c #838077",
"bp 	c #8A867E",
"cp 	c #706B62",
"dp 	c #8D8A7F",
"ep 	c #7E7771",
"fp 	c #767267",
"gp 	c #959386",
"hp 	c #9B9889",
"ip 	c #979288",
"jp 	c #827C73",
"kp 	c #959086",
"lp 	c #868577",
"mp 	c #9E978E",
"np 	c #BDB9AE",
"op 	c #7B796A",
"pp 	c #59574A",
"qp 	c #857E73",
"rp 	c #A29F92",
"sp 	c #848075",
"tp 	c #C2BCB2",
"up 	c #A3A194",
"vp 	c #A39E94",
"wp 	c #797768",
"xp 	c #948F85",
"yp 	c #777266",
"zp 	c #7C7B6E",
"Ap 	c #736F62",
"Bp 	c #9A9689",
"Cp 	c #626155",
"Dp 	c #6F6D5D",
"Ep 	c #625D56",
"Fp 	c #A4A396",
"Gp 	c #A6A094",
"Hp 	c #7F7C73",
"Ip 	c #7E766B",
"Jp 	c #BDB7AC",
"Kp 	c #948D81",
"Lp 	c #9D988C",
"Mp 	c #9E988C",
"Np 	c #9D9D91",
"Op 	c #B2AFA2",
"Pp 	c #A09E92",
"Qp 	c #ACA89B",
"Rp 	c #928A7D",
"Sp 	c #7D7D6F",
"Tp 	c #655E50",
"Up 	c #827D74",
"Vp 	c #6A6859",
"Wp 	c #464133",
"Xp 	c #6B625A",
"Yp 	c #7D7868",
"Zp 	c #6F6A5C",
"`p 	c #959384",
" q 	c #7B7469",
".q 	c #6C685A",
"+q 	c #746D60",
"@q 	c #7F7B6C",
"#q 	c #747163",
"$q 	c #504E42",
"%q 	c #7E786A",
"&q 	c #7B7869",
"*q 	c #595044",
"=q 	c #7B7268",
"-q 	c #4E483C",
";q 	c #615E56",
">q 	c #6B645B",
",q 	c #616056",
"'q 	c #555549",
")q 	c #544D47",
"!q 	c #7D7B72",
"~q 	c #8C877B",
"{q 	c #969085",
"]q 	c #848177",
"^q 	c #757264",
"/q 	c #65605A",
"(q 	c #717167",
"_q 	c #A5A196",
":q 	c #89867A",
"<q 	c #969388",
"[q 	c #7E7A73",
"}q 	c #ABA49C",
"|q 	c #4A493D",
"1q 	c #878275",
"2q 	c #7F7D71",
"3q 	c #717164",
"4q 	c #626154",
"5q 	c #38372C",
"6q 	c #7E7A6D",
"7q 	c #423E30",
"8q 	c #5B594B",
"9q 	c #787068",
"0q 	c #6B665B",
"aq 	c #AAA69A",
"bq 	c #A49E93",
"cq 	c #A5A299",
"dq 	c #727165",
"eq 	c #858173",
"fq 	c #898579",
"gq 	c #807F73",
"hq 	c #B4AFA4",
"iq 	c #B7B4AA",
"jq 	c #A5A194",
"kq 	c #8A827B",
"lq 	c #767064",
"mq 	c #9A938B",
"nq 	c #979285",
"oq 	c #4D4A3E",
"pq 	c #7B756D",
"qq 	c #827B6F",
"rq 	c #9E9D90",
"sq 	c #857F73",
"tq 	c #A5A399",
"uq 	c #B3AEA4",
"vq 	c #848175",
"wq 	c #999488",
"xq 	c #89817B",
"yq 	c #948C83",
"zq 	c #9E998D",
"Aq 	c #B0AB9C",
"Bq 	c #9C978C",
"Cq 	c #959081",
"Dq 	c #8C867B",
"Eq 	c #9C968A",
"Fq 	c #908E82",
"Gq 	c #867F74",
"Hq 	c #353329",
"Iq 	c #696658",
"Jq 	c #5C5B4F",
"Kq 	c #79786B",
"Lq 	c #939185",
"Mq 	c #938E82",
"Nq 	c #8F8B7F",
"Oq 	c #9D998E",
"Pq 	c #969083",
"Qq 	c #665E53",
"Rq 	c #595444",
"Sq 	c #504940",
"Tq 	c #757060",
"Uq 	c #6C685B",
"Vq 	c #7C746C",
"Wq 	c #7F7C6E",
"Xq 	c #585445",
"Yq 	c #777262",
"Zq 	c #827B71",
"`q 	c #7A7A6E",
" r 	c #8F8A7D",
".r 	c #616256",
"+r 	c #454437",
"@r 	c #727164",
"#r 	c #6C6B5C",
"$r 	c #37372C",
"%r 	c #605B53",
"&r 	c #6C655F",
"*r 	c #757265",
"=r 	c #6F6C63",
"-r 	c #7B766E",
";r 	c #737163",
">r 	c #817F74",
",r 	c #A4A196",
"'r 	c #777168",
")r 	c #8F8B82",
"!r 	c #6B6A60",
"~r 	c #65645B",
"{r 	c #706F61",
"]r 	c #847D74",
"^r 	c #67615B",
"/r 	c #424135",
"(r 	c #352E22",
"_r 	c #6B685F",
":r 	c #737066",
"<r 	c #88837A",
"[r 	c #B1AA9F",
"}r 	c #9D978C",
"|r 	c #909084",
"1r 	c #79756C",
"2r 	c #9F9A8D",
"3r 	c #939082",
"4r 	c #A39F93",
"5r 	c #B7B3A7",
"6r 	c #A7A095",
"7r 	c #979388",
"8r 	c #7A7769",
"9r 	c #8F8D82",
"0r 	c #8E897B",
"ar 	c #9D968E",
"br 	c #817E74",
"cr 	c #969185",
"dr 	c #6E675A",
"er 	c #9D9890",
"fr 	c #87847A",
"gr 	c #7C776A",
"hr 	c #979688",
"ir 	c #99978B",
"jr 	c #57564A",
"kr 	c #9D978D",
"lr 	c #403E31",
"mr 	c #312E21",
"nr 	c #7A7467",
"or 	c #9C968C",
"pr 	c #837C6F",
"qr 	c #8A8979",
"rr 	c #615C4D",
"sr 	c #7D776A",
"tr 	c #AFA999",
"ur 	c #999182",
"vr 	c #6D6A5B",
"wr 	c #7C7569",
"xr 	c #434134",
"yr 	c #656154",
"zr 	c #5C5949",
"Ar 	c #817E6E",
"Br 	c #646357",
"Cr 	c #535247",
"Dr 	c #6C6A61",
"Er 	c #746D66",
"Fr 	c #827F72",
"Gr 	c #6B685B",
"Hr 	c #6F6963",
"Ir 	c #79746D",
"Jr 	c #7F7A72",
"Kr 	c #959284",
"Lr 	c #76766A",
"Mr 	c #716A62",
"Nr 	c #534C44",
"Or 	c #948D82",
"Pr 	c #99958B",
"Qr 	c #9A978E",
"Rr 	c #655F56",
"Sr 	c #878177",
"Tr 	c #9D9C8D",
"Ur 	c #969588",
"Vr 	c #67625B",
"Wr 	c #6E6B62",
"Xr 	c #7B7770",
"Yr 	c #59564F",
"Zr 	c #848377",
"`r 	c #615E57",
" s 	c #433A30",
".s 	c #6D6860",
"+s 	c #949185",
"@s 	c #857C75",
"#s 	c #736E61",
"$s 	c #9A958C",
"%s 	c #9F9A91",
"&s 	c #AFABA0",
"*s 	c #5F5D56",
"=s 	c #99938A",
"-s 	c #928D81",
";s 	c #D3CEC3",
">s 	c #B3B1A3",
",s 	c #A19C8F",
"'s 	c #989587",
")s 	c #585344",
"!s 	c #999487",
"~s 	c #544E41",
"{s 	c #B2ACA2",
"]s 	c #948E84",
"^s 	c #777269",
"/s 	c #929084",
"(s 	c #9A9289",
"_s 	c #9D9288",
":s 	c #928B84",
"<s 	c #928F84",
"[s 	c #959188",
"}s 	c #A7A397",
"|s 	c #A09F94",
"1s 	c #8F8D81",
"2s 	c #979386",
"3s 	c #949083",
"4s 	c #98968A",
"5s 	c #7D776C",
"6s 	c #8E887C",
"7s 	c #4A4438",
"8s 	c #868274",
"9s 	c #8C847A",
"0s 	c #868074",
"as 	c #8A8A7B",
"bs 	c #7C7568",
"cs 	c #6B6758",
"ds 	c #585045",
"es 	c #584F45",
"fs 	c #6C6658",
"gs 	c #6E675B",
"hs 	c #736B61",
"is 	c #5C5947",
"js 	c #2F2B22",
"ks 	c #6A6456",
"ls 	c #666354",
"ms 	c #706E64",
"ns 	c #7E7C71",
"os 	c #8D8980",
"ps 	c #757168",
"qs 	c #7F786F",
"rs 	c #888579",
"ss 	c #8E8881",
"ts 	c #6A695C",
"us 	c #8B857A",
"vs 	c #736F66",
"ws 	c #777667",
"xs 	c #5F5E50",
"ys 	c #9E9B91",
"zs 	c #969288",
"As 	c #76766D",
"Bs 	c #64645A",
"Cs 	c #7D7970",
"Ds 	c #A29E90",
"Es 	c #717064",
"Fs 	c #463D32",
"Gs 	c #86837B",
"Hs 	c #9A978B",
"Is 	c #A5A396",
"Js 	c #666457",
"Ks 	c #858174",
"Ls 	c #89847B",
"Ms 	c #8D8781",
"Ns 	c #717061",
"Os 	c #868474",
"Ps 	c #999687",
"Qs 	c #847D72",
"Rs 	c #756F62",
"Ss 	c #89887C",
"Ts 	c #7E7D72",
"Us 	c #8C8B7C",
"Vs 	c #88847B",
"Ws 	c #A09C8F",
"Xs 	c #949085",
"Ys 	c #A4A292",
"Zs 	c #9D998D",
"`s 	c #ADA69D",
" t 	c #98938A",
".t 	c #868477",
"+t 	c #848072",
"@t 	c #97968B",
"#t 	c #858274",
"$t 	c #6E6C5C",
"%t 	c #A4A095",
"&t 	c #8A877A",
"*t 	c #9A9489",
"=t 	c #999587",
"-t 	c #554E46",
";t 	c #979185",
">t 	c #787465",
",t 	c #757160",
"'t 	c #8D877A",
")t 	c #2F2A20",
"!t 	c #777567",
"~t 	c #4C483B",
"{t 	c #595545",
"]t 	c #746E60",
"^t 	c #5D534A",
"/t 	c #80786B",
"(t 	c #8F8C7C",
"_t 	c #857F6F",
":t 	c #656458",
"<t 	c #656555",
"[t 	c #757367",
"}t 	c #787265",
"|t 	c #706B63",
"1t 	c #898578",
"2t 	c #7A7567",
"3t 	c #756D65",
"4t 	c #858276",
"5t 	c #3F3733",
"6t 	c #605B55",
"7t 	c #565549",
"8t 	c #938F83",
"9t 	c #8C867E",
"0t 	c #9A968D",
"at 	c #3E3D32",
"bt 	c #A2A195",
"ct 	c #A2A097",
"dt 	c #827A73",
"et 	c #87837C",
"ft 	c #676557",
"gt 	c #8F8D83",
"ht 	c #535148",
"it 	c #706D65",
"jt 	c #7B796C",
"kt 	c #4C4237",
"lt 	c #8C8779",
"mt 	c #7C776F",
"nt 	c #A7A398",
"ot 	c #7C7668",
"pt 	c #70695F",
"qt 	c #958F84",
"rt 	c #8A837B",
"st 	c #8E8C7F",
"tt 	c #7A736B",
"ut 	c #9E9A8B",
"vt 	c #9C978B",
"wt 	c #807B6E",
"xt 	c #726E65",
"yt 	c #817D73",
"zt 	c #B5AEA5",
"At 	c #A19B91",
"Bt 	c #7E776D",
"Ct 	c #777465",
"Dt 	c #706B5F",
"Et 	c #A09E8F",
"Ft 	c #9A968C",
"Gt 	c #969285",
"Ht 	c #928D84",
"It 	c #A6A499",
"Jt 	c #7F786E",
"Kt 	c #787168",
"Lt 	c #716B5F",
"Mt 	c #918B7E",
"Nt 	c #524B40",
"Ot 	c #5A5447",
"Pt 	c #6A6557",
"Qt 	c #6A6056",
"Rt 	c #5E5A4C",
"St 	c #5E564A",
"Tt 	c #A39C90",
"Ut 	c #3E352A",
"Vt 	c #615E4E",
"Wt 	c #6A6155",
"Xt 	c #7C796E",
"Yt 	c #7F7E6F",
"Zt 	c #6A685F",
"`t 	c #706962",
" u 	c #8A847B",
".u 	c #9F9B90",
"+u 	c #726E66",
"@u 	c #7C766E",
"#u 	c #7A756C",
"$u 	c #76736A",
"%u 	c #838277",
"&u 	c #62605B",
"*u 	c #7B756C",
"=u 	c #616052",
"-u 	c #7A786D",
";u 	c #9C998F",
">u 	c #787569",
",u 	c #9F9D92",
"'u 	c #8C8A7F",
")u 	c #7D7A71",
"!u 	c #3D3B2F",
"~u 	c #7A786E",
"{u 	c #A6A399",
"]u 	c #545348",
"^u 	c #656059",
"/u 	c #3C3726",
"(u 	c #807F71",
"_u 	c #8D8A7E",
":u 	c #A29C8F",
"<u 	c #8A877B",
"[u 	c #939087",
"}u 	c #8F8A81",
"|u 	c #918F82",
"1u 	c #6E685F",
"2u 	c #7B746B",
"3u 	c #96938A",
"4u 	c #89857C",
"5u 	c #706A60",
"6u 	c #948F83",
"7u 	c #857E72",
"8u 	c #6E6D60",
"9u 	c #9E988E",
"0u 	c #8B877A",
"au 	c #938E83",
"bu 	c #8F887E",
"cu 	c #9C978A",
"du 	c #989486",
"eu 	c #A5A091",
"fu 	c #8D8579",
"gu 	c #736D62",
"hu 	c #6D665A",
"iu 	c #777666",
"ju 	c #767568",
"ku 	c #383227",
"lu 	c #60594A",
"mu 	c #8F8C79",
"nu 	c #90877A",
"ou 	c #868072",
"pu 	c #625A4C",
"qu 	c #6F6859",
"ru 	c #8D8778",
"su 	c #969082",
"tu 	c #7F7A6C",
"uu 	c #575044",
"vu 	c #757363",
"wu 	c #545142",
"xu 	c #5A5644",
"yu 	c #52483C",
"zu 	c #584F40",
"Au 	c #5A534D",
"Bu 	c #524B44",
"Cu 	c #5A544C",
"Du 	c #3F372E",
"Eu 	c #817A73",
"Fu 	c #6D6B61",
"Gu 	c #646155",
"Hu 	c #565446",
"Iu 	c #757269",
"Ju 	c #908C84",
"Ku 	c #928E85",
"Lu 	c #8C897E",
"Mu 	c #636258",
"Nu 	c #87847B",
"Ou 	c #656556",
"Pu 	c #8B897E",
"Qu 	c #8F8E81",
"Ru 	c #827F75",
"Su 	c #918B81",
"Tu 	c #7B786E",
"Uu 	c #A29F95",
"Vu 	c #8F8B83",
"Wu 	c #959185",
"Xu 	c #857B72",
"Yu 	c #5D5B4D",
"Zu 	c #3C3629",
"`u 	c #716C5F",
" v 	c #97958B",
".v 	c #A6A29A",
"+v 	c #868078",
"@v 	c #B7B7A9",
"#v 	c #938C85",
"$v 	c #8E8F81",
"%v 	c #908B7F",
"&v 	c #78776E",
"*v 	c #A2A196",
"=v 	c #A6A196",
"-v 	c #767161",
";v 	c #868178",
">v 	c #B5B1A3",
",v 	c #6F6B5C",
"'v 	c #89847C",
")v 	c #888276",
"!v 	c #61584E",
"~v 	c #9F998F",
"{v 	c #737465",
"]v 	c #958E86",
"^v 	c #AEAC9E",
"/v 	c #807F74",
"(v 	c #979588",
"_v 	c #B8B2A5",
":v 	c #878278",
"<v 	c #A09A8F",
"[v 	c #9C938A",
"}v 	c #989185",
"|v 	c #969187",
"1v 	c #554D42",
"2v 	c #5B5448",
"3v 	c #767066",
"4v 	c #453F34",
"5v 	c #615E51",
"6v 	c #635C4E",
"7v 	c #6F695A",
"8v 	c #726A5E",
"9v 	c #827F71",
"0v 	c #766E64",
"av 	c #918A7E",
"bv 	c #7E7C6B",
"cv 	c #948D7E",
"dv 	c #706A5C",
"ev 	c #6E695A",
"fv 	c #7C7969",
"gv 	c #6E6A5D",
"hv 	c #6A6659",
"iv 	c #534B41",
"jv 	c #5C5449",
"kv 	c #7C7061",
"lv 	c #59544E",
"mv 	c #564D45",
"nv 	c #615A55",
"ov 	c #6A645A",
"pv 	c #6B6860",
"qv 	c #716E64",
"rv 	c #76726B",
"sv 	c #8E897D",
"tv 	c #8B8A7E",
"uv 	c #736B64",
"vv 	c #8B887A",
"wv 	c #898679",
"xv 	c #837E71",
"yv 	c #7E786E",
"zv 	c #888377",
"Av 	c #A4A094",
"Bv 	c #706F62",
"Cv 	c #9A988C",
"Dv 	c #918C80",
"Ev 	c #6C6862",
"Fv 	c #959089",
"Gv 	c #6D6C62",
"Hv 	c #636159",
"Iv 	c #282316",
"Jv 	c #AAA89C",
"Kv 	c #6F6D60",
"Lv 	c #A9A69A",
"Mv 	c #979689",
"Nv 	c #A59F94",
"Ov 	c #837E74",
"Pv 	c #666456",
"Qv 	c #4A473A",
"Rv 	c #797167",
"Sv 	c #707061",
"Tv 	c #3A3729",
"Uv 	c #928E81",
"Vv 	c #A69E93",
"Wv 	c #6A6358",
"Xv 	c #847D71",
"Yv 	c #837B71",
"Zv 	c #878075",
"`v 	c #8F897D",
" w 	c #737263",
".w 	c #AAA59B",
"+w 	c #8C8B7E",
"@w 	c #838274",
"#w 	c #8A887C",
"$w 	c #60584F",
"%w 	c #878476",
"&w 	c #818071",
"*w 	c #706860",
"=w 	c #4D4A3C",
"-w 	c #504D3E",
";w 	c #6F695E",
">w 	c #524F42",
",w 	c #494638",
"'w 	c #696758",
")w 	c #5F594B",
"!w 	c #8E8675",
"~w 	c #7D7C6A",
"{w 	c #91897B",
"]w 	c #71695C",
"^w 	c #666254",
"/w 	c #8D887B",
"(w 	c #8A8478",
"_w 	c #777363",
":w 	c #676657",
"<w 	c #737061",
"[w 	c #6B6557",
"}w 	c #4B4739",
"|w 	c #726862",
"1w 	c #7F7F73",
"2w 	c #68665C",
"3w 	c #67645D",
"4w 	c #807D6F",
"5w 	c #817B75",
"6w 	c #79776E",
"7w 	c #6C675F",
"8w 	c #958F85",
"9w 	c #B5B3A9",
"0w 	c #7C796F",
"aw 	c #97968D",
"bw 	c #817F75",
"cw 	c #8D8C82",
"dw 	c #69685C",
"ew 	c #9A988A",
"fw 	c #646459",
"gw 	c #423A2C",
"hw 	c #A09A90",
"iw 	c #89837A",
"jw 	c #989489",
"kw 	c #7E7A71",
"lw 	c #99948C",
"mw 	c #8F887C",
"nw 	c #808072",
"ow 	c #6D675A",
"pw 	c #6E6C5E",
"qw 	c #B2B0A2",
"rw 	c #A6A397",
"sw 	c #636257",
"tw 	c #848275",
"uw 	c #4F4C3E",
"vw 	c #A39D8F",
"ww 	c #8A887F",
"xw 	c #A4A494",
"yw 	c #97968A",
"zw 	c #59584C",
"Aw 	c #9C988C",
"Bw 	c #9F978E",
"Cw 	c #8C887A",
"Dw 	c #8A8479",
"Ew 	c #928C80",
"Fw 	c #888575",
"Gw 	c #8D8B7F",
"Hw 	c #656152",
"Iw 	c #8F897B",
"Jw 	c #827A72",
"Kw 	c #666253",
"Lw 	c #706D5C",
"Mw 	c #757162",
"Nw 	c #92897E",
"Ow 	c #80766B",
"Pw 	c #727166",
"Qw 	c #514A3C",
"Rw 	c #7C7366",
"Sw 	c #7D7A6C",
"Tw 	c #626050",
"Uw 	c #767364",
"Vw 	c #2E261A",
"Ww 	c #918C81",
"Xw 	c #5E5751",
"Yw 	c #69685D",
"Zw 	c #726B5F",
"`w 	c #736E66",
" x 	c #7E796B",
".x 	c #7F7973",
"+x 	c #918D81",
"@x 	c #868379",
"#x 	c #635E57",
"$x 	c #78736C",
"%x 	c #8A8881",
"&x 	c #68675A",
"*x 	c #59584D",
"=x 	c #828075",
"-x 	c #A7A399",
";x 	c #A49D94",
">x 	c #A6A098",
",x 	c #B2ACA6",
"'x 	c #7F7B6D",
")x 	c #8E8C81",
"!x 	c #77766A",
"~x 	c #696759",
"{x 	c #47463B",
"]x 	c #857E76",
"^x 	c #453C30",
"/x 	c #A09E93",
"(x 	c #8F8C82",
"_x 	c #A5A195",
":x 	c #918E82",
"<x 	c #8D867C",
"[x 	c #817B74",
"}x 	c #535248",
"|x 	c #817971",
"1x 	c #7D7B6E",
"2x 	c #868476",
"3x 	c #98958B",
"4x 	c #797A69",
"5x 	c #A49F95",
"6x 	c #AAA79C",
"7x 	c #A9A297",
"8x 	c #8E8B80",
"9x 	c #9E9A90",
"0x 	c #9C9790",
"ax 	c #898278",
"bx 	c #9F978D",
"cx 	c #A69D95",
"dx 	c #A7A499",
"ex 	c #848078",
"fx 	c #393728",
"gx 	c #6D685A",
"hx 	c #8C8978",
"ix 	c #605A4C",
"jx 	c #807D6E",
"kx 	c #A39E8E",
"lx 	c #7F7A6B",
"mx 	c #8E8A7A",
"nx 	c #8F8D7E",
"ox 	c #605D4E",
"px 	c #858273",
"qx 	c #9B9587",
"rx 	c #847D6E",
"sx 	c #7E7969",
"tx 	c #736D5F",
"ux 	c #969088",
"vx 	c #7A796A",
"wx 	c #726E5E",
"xx 	c #7A7165",
"yx 	c #554A42",
"zx 	c #6A5E4E",
"Ax 	c #413A28",
"Bx 	c #645B54",
"Cx 	c #3D3D30",
"Dx 	c #645D56",
"Ex 	c #46453B",
"Fx 	c #908F83",
"Gx 	c #56564B",
"Hx 	c #6D6B62",
"Ix 	c #6F6E62",
"Jx 	c #868479",
"Kx 	c #716C66",
"Lx 	c #76716A",
"Mx 	c #8D8D80",
"Nx 	c #747466",
"Ox 	c #968F89",
"Px 	c #7D7C6F",
"Qx 	c #8A887D",
"Rx 	c #959387",
"Sx 	c #787669",
"Tx 	c #88857C",
"Ux 	c #47453A",
"Vx 	c #2F281C",
"Wx 	c #68655D",
"Xx 	c #8E887F",
"Yx 	c #A19A91",
"Zx 	c #A19C92",
"`x 	c #958E85",
" y 	c #A89F96",
".y 	c #737065",
"+y 	c #9C968D",
"@y 	c #9C9B8E",
"#y 	c #A49E95",
"$y 	c #888378",
"%y 	c #7D776B",
"&y 	c #B7B1A5",
"*y 	c #A7A194",
"=y 	c #807E72",
"-y 	c #8B877F",
";y 	c #989487",
">y 	c #9F9B91",
",y 	c #9C978D",
"'y 	c #898078",
")y 	c #6D665E",
"!y 	c #7A7368",
"~y 	c #989588",
"{y 	c #99958A",
"]y 	c #837C73",
"^y 	c #8D8B79",
"/y 	c #59584A",
"(y 	c #8E8E7E",
"_y 	c #5F574D",
":y 	c #989485",
"<y 	c #706C5C",
"[y 	c #80796B",
"}y 	c #8F8D7F",
"|y 	c #8A8477",
"1y 	c #797566",
"2y 	c #8B8878",
"3y 	c #999486",
"4y 	c #8B8376",
"5y 	c #696155",
"6y 	c #9D988D",
"7y 	c #857F72",
"8y 	c #8A8779",
"9y 	c #565042",
"0y 	c #7B7668",
"ay 	c #6A635A",
"by 	c #565043",
"cy 	c #514943",
"dy 	c #544A40",
"ey 	c #675D4B",
"fy 	c #58472D",
"gy 	c #807C6F",
"hy 	c #5B5449",
"iy 	c #6F6961",
"jy 	c #646359",
"ky 	c #8C897F",
"ly 	c #68635D",
"my 	c #726B65",
"ny 	c #838477",
"oy 	c #8E8981",
"py 	c #8F887D",
"qy 	c #1D1A0F",
"ry 	c #868579",
"sy 	c #6D6E60",
"ty 	c #9B998E",
"uy 	c #5F5E51",
"vy 	c #827C74",
"wy 	c #938D83",
"xy 	c #8F887F",
"yy 	c #6B6959",
"zy 	c #78716A",
"Ay 	c #747368",
"By 	c #67635C",
"Cy 	c #777464",
"Dy 	c #413C2A",
"Ey 	c #928F88",
"Fy 	c #A29D94",
"Gy 	c #7A7169",
"Hy 	c #999388",
"Iy 	c #A6A498",
"Jy 	c #818075",
"Ky 	c #A19D91",
"Ly 	c #918D82",
"My 	c #9F998E",
"Ny 	c #ACA69C",
"Oy 	c #766F64",
"Py 	c #949082",
"Qy 	c #9E9A8D",
"Ry 	c #9F988E",
"Sy 	c #8B857B",
"Ty 	c #827B75",
"Uy 	c #898475",
"Vy 	c #6E6960",
"Wy 	c #564E44",
"Xy 	c #494639",
"Yy 	c #8C887B",
"Zy 	c #7E7C6D",
"`y 	c #89887B",
" z 	c #716A5E",
".z 	c #898375",
"+z 	c #8A857A",
"@z 	c #9A9487",
"#z 	c #686353",
"$z 	c #635B53",
"%z 	c #746D5D",
"&z 	c #5B5043",
"*z 	c #312719",
"=z 	c #474337",
"-z 	c #837C6E",
";z 	c #716A63",
">z 	c #757068",
",z 	c #756F66",
"'z 	c #9F9B8E",
")z 	c #79776D",
"!z 	c #5E5D53",
"~z 	c #918E87",
"{z 	c #7A776F",
"]z 	c #828176",
"^z 	c #999186",
"/z 	c #646259",
"(z 	c #A29C92",
"_z 	c #97948A",
":z 	c #A8A497",
"<z 	c #A49B92",
"[z 	c #918F84",
"}z 	c #858177",
"|z 	c #8C887D",
"1z 	c #9C958A",
"2z 	c #9E9A8F",
"3z 	c #2D2415",
"4z 	c #877F76",
"5z 	c #8D8B7D",
"6z 	c #7F7D6F",
"7z 	c #BAB6A8",
"8z 	c #717065",
"9z 	c #6D655E",
"0z 	c #898178",
"az 	c #817A71",
"bz 	c #60584C",
"cz 	c #7D7C72",
"dz 	c #908A7D",
"ez 	c #918F85",
"fz 	c #928D7F",
"gz 	c #706E5E",
"hz 	c #726B60",
"iz 	c #A19A8E",
"jz 	c #867F73",
"kz 	c #928C83",
"lz 	c #878576",
"mz 	c #A8A39A",
"nz 	c #9B958A",
"oz 	c #9B9689",
"pz 	c #7A7367",
"qz 	c #8F8980",
"rz 	c #7F786C",
"sz 	c #7F796C",
"tz 	c #A49B8E",
"uz 	c #999285",
"vz 	c #9C9787",
"wz 	c #9B948A",
"xz 	c #706D5D",
"yz 	c #797366",
"zz 	c #989083",
"Az 	c #898573",
"Bz 	c #797667",
"Cz 	c #928E80",
"Dz 	c #7E766A",
"Ez 	c #726C5F",
"Fz 	c #666252",
"Gz 	c #61574A",
"Hz 	c #5C5445",
"Iz 	c #776D5B",
"Jz 	c #4D493C",
"Kz 	c #595547",
"Lz 	c #555447",
"Mz 	c #555444",
"Nz 	c #6A675F",
"Oz 	c #706C64",
"Pz 	c #81796E",
"Qz 	c #505043",
"Rz 	c #767468",
"Sz 	c #787566",
"Tz 	c #8F8C83",
"Uz 	c #AAA49A",
"Vz 	c #3B382C",
"Wz 	c #5F5E4E",
"Xz 	c #958F87",
"Yz 	c #98968C",
"Zz 	c #9F9D90",
"`z 	c #A3A094",
" A 	c #A8A69B",
".A 	c #A5A094",
"+A 	c #979385",
"@A 	c #87897E",
"#A 	c #96908A",
"$A 	c #939088",
"%A 	c #98968B",
"&A 	c #8B8477",
"*A 	c #908F82",
"=A 	c #2D2316",
"-A 	c #808074",
";A 	c #B7B3A8",
">A 	c #9E9C8E",
",A 	c #8F8E7E",
"'A 	c #726A5F",
")A 	c #A59C8F",
"!A 	c #AEA89E",
"~A 	c #8F8C7F",
"{A 	c #928F83",
"]A 	c #838376",
"^A 	c #585244",
"/A 	c #8A8278",
"(A 	c #BFBAB2",
"_A 	c #ACA79B",
":A 	c #949282",
"<A 	c #81796C",
"[A 	c #908D80",
"}A 	c #817F71",
"|A 	c #A3A093",
"1A 	c #888576",
"2A 	c #848172",
"3A 	c #6B6759",
"4A 	c #4F483C",
"5A 	c #817A6C",
"6A 	c #959180",
"7A 	c #969183",
"8A 	c #949080",
"9A 	c #686354",
"0A 	c #817C6E",
"aA 	c #737162",
"bA 	c #908E7F",
"cA 	c #9D9588",
"dA 	c #918B7C",
"eA 	c #8E897A",
"fA 	c #8A8879",
"gA 	c #90897A",
"hA 	c #827C6F",
"iA 	c #8E867A",
"jA 	c #3F3731",
"kA 	c #5B5149",
"lA 	c #727162",
"mA 	c #9C978F",
"nA 	c #918C7C",
"oA 	c #5A5650",
"pA 	c #7C746E",
"qA 	c #949087",
"rA 	c #6C6B5D",
"sA 	c #736F65",
"tA 	c #8C877D",
"uA 	c #9C988F",
"vA 	c #87827A",
"wA 	c #ADAA9F",
"xA 	c #69605A",
"yA 	c #848173",
"zA 	c #8D8A7C",
"AA 	c #99968A",
"BA 	c #939183",
"CA 	c #857F75",
"DA 	c #A9A49C",
"EA 	c #ACA89D",
"FA 	c #8A897B",
"GA 	c #8E8C82",
"HA 	c #7A786B",
"IA 	c #382D22",
"JA 	c #6F6D5F",
"KA 	c #9A968E",
"LA 	c #AEAB9C",
"MA 	c #918D84",
"NA 	c #7C736A",
"OA 	c #6D6A5A",
"PA 	c #999283",
"QA 	c #908B80",
"RA 	c #A8A395",
"SA 	c #9D9A8D",
"TA 	c #A8A397",
"UA 	c #6B635B",
"VA 	c #8B8478",
"WA 	c #AFAB9D",
"XA 	c #948F81",
"YA 	c #595648",
"ZA 	c #A29E8E",
"`A 	c #7C7A6A",
" B 	c #938C81",
".B 	c #888779",
"+B 	c #989386",
"@B 	c #676052",
"#B 	c #908C7E",
"$B 	c #665F52",
"%B 	c #847D6A",
"&B 	c #565041",
"*B 	c #5D5548",
"=B 	c #777264",
"-B 	c #67655C",
";B 	c #454639",
">B 	c #5D5B4E",
",B 	c #686356",
"'B 	c #605E56",
")B 	c #5C5A52",
"!B 	c #79776B",
"~B 	c #6B675F",
"{B 	c #625F57",
"]B 	c #A29D92",
"^B 	c #56544B",
"/B 	c #8D8B7E",
"(B 	c #929085",
"_B 	c #B7B3AC",
":B 	c #4F4F40",
"<B 	c #8C8B81",
"[B 	c #948D83",
"}B 	c #979089",
"|B 	c #9E9D92",
"1B 	c #76716B",
"2B 	c #756D63",
"3B 	c #78796E",
"4B 	c #44392C",
"5B 	c #7F7D73",
"6B 	c #7B7B6E",
"7B 	c #616154",
"8B 	c #AFABA5",
"9B 	c #7E786F",
"0B 	c #817B6E",
"aB 	c #969385",
"bB 	c #A69F96",
"cB 	c #A5A395",
"dB 	c #A3A193",
"eB 	c #717062",
"fB 	c #B2ADA0",
"gB 	c #908F85",
"hB 	c #8C8679",
"iB 	c #3D392B",
"jB 	c #878579",
"kB 	c #9C948A",
"lB 	c #7D766A",
"mB 	c #9B9488",
"nB 	c #848374",
"oB 	c #626150",
"pB 	c #6C695D",
"qB 	c #7D7469",
"rB 	c #A7A195",
"sB 	c #979086",
"tB 	c #7A7464",
"uB 	c #5E5A53",
"vB 	c #888274",
"wB 	c #716C5D",
"xB 	c #878374",
"yB 	c #74705F",
"zB 	c #827F74",
"AB 	c #787969",
"BB 	c #757261",
"CB 	c #636051",
"DB 	c #7B7567",
"EB 	c #60584D",
"FB 	c #7A7264",
"GB 	c #948F7F",
"HB 	c #4A4134",
"IB 	c #9B9486",
"JB 	c #7F7C72",
"KB 	c #77746A",
"LB 	c #777365",
"MB 	c #9A948C",
"NB 	c #6D645D",
"OB 	c #747263",
"PB 	c #A39C8E",
"QB 	c #636456",
"RB 	c #5B5C52",
"SB 	c #847B75",
"TB 	c #939186",
"UB 	c #89837B",
"VB 	c #716C63",
"WB 	c #A7A299",
"XB 	c #98958D",
"YB 	c #959288",
"ZB 	c #99948E",
"`B 	c #9E9B8F",
" C 	c #A1A194",
".C 	c #9C9891",
"+C 	c #9E9B8E",
"@C 	c #928E87",
"#C 	c #8F877E",
"$C 	c #7B7970",
"%C 	c #372F23",
"&C 	c #87857B",
"*C 	c #6B6861",
"=C 	c #B1ACA0",
"-C 	c #7A786F",
";C 	c #7D796B",
">C 	c #8D8981",
",C 	c #747469",
"'C 	c #8D867D",
")C 	c #ADA79D",
"!C 	c #9B988D",
"~C 	c #A8A297",
"{C 	c #847D73",
"]C 	c #80786D",
"^C 	c #464336",
"/C 	c #716A5D",
"(C 	c #90887D",
"_C 	c #6F6860",
":C 	c #828071",
"<C 	c #383627",
"[C 	c #8E887A",
"}C 	c #908A7A",
"|C 	c #8C8A79",
"1C 	c #4A4538",
"2C 	c #938F81",
"3C 	c #8B867B",
"4C 	c #5D5D51",
"5C 	c #847E70",
"6C 	c #8E8D7E",
"7C 	c #8C897A",
"8C 	c #505047",
"9C 	c #403B2E",
"0C 	c #746F67",
"aC 	c #747162",
"bC 	c #626157",
"cC 	c #5A5849",
"dC 	c #6D6A62",
"eC 	c #4F4E41",
"fC 	c #8B877C",
"gC 	c #817C73",
"hC 	c #9C9A8B",
"iC 	c #8C8880",
"jC 	c #A4A194",
"kC 	c #8E8B7D",
"lC 	c #89857E",
"mC 	c #9C988B",
"nC 	c #908C83",
"oC 	c #8E8980",
"pC 	c #A29D95",
"qC 	c #9D9A8F",
"rC 	c #7F7F76",
"sC 	c #807F75",
"tC 	c #A5A097",
"uC 	c #5A5A4D",
"vC 	c #5D5C53",
"wC 	c #3A3625",
"xC 	c #262117",
"yC 	c #A5A093",
"zC 	c #908881",
"AC 	c #9E998E",
"BC 	c #777063",
"CC 	c #958F83",
"DC 	c #958F82",
"EC 	c #A39E92",
"FC 	c #6A6656",
"GC 	c #5F5C4C",
"HC 	c #A39F94",
"IC 	c #87877A",
"JC 	c #8E8A7B",
"KC 	c #B0ACA0",
"LC 	c #9C998D",
"MC 	c #767063",
"NC 	c #898377",
"OC 	c #817870",
"PC 	c #5A5747",
"QC 	c #7D7A6B",
"RC 	c #70695B",
"SC 	c #9B978C",
"TC 	c #A19F8F",
"UC 	c #919184",
"VC 	c #838070",
"WC 	c #7A726A",
"XC 	c #686055",
"YC 	c #818070",
"ZC 	c #8E8A7C",
"`C 	c #797769",
" D 	c #736C63",
".D 	c #90897D",
"+D 	c #3A332C",
"@D 	c #4E433A",
"#D 	c #6C655D",
"$D 	c #665F59",
"%D 	c #A5A296",
"&D 	c #4A4339",
"*D 	c #6C6860",
"=D 	c #747068",
"-D 	c #76746B",
";D 	c #848273",
">D 	c #989186",
",D 	c #ACA69B",
"'D 	c #918E83",
")D 	c #989289",
"!D 	c #A5A095",
"~D 	c #9C968B",
"{D 	c #A2A096",
"]D 	c #ACA99B",
"^D 	c #3E372B",
"/D 	c #B1AEA1",
"(D 	c #79726B",
"_D 	c #5F5850",
":D 	c #777068",
"<D 	c #7B7B6F",
"[D 	c #9E9A91",
"}D 	c #918D80",
"|D 	c #817970",
"1D 	c #8F8C81",
"2D 	c #90877F",
"3D 	c #968F85",
"4D 	c #919185",
"5D 	c #9E978A",
"6D 	c #7D7B68",
"7D 	c #9B9586",
"8D 	c #756E61",
"9D 	c #535143",
"0D 	c #746D65",
"aD 	c #605E4F",
"bD 	c #656253",
"cD 	c #979383",
"dD 	c #989286",
"eD 	c #989184",
"fD 	c #A49D92",
"gD 	c #756B61",
"hD 	c #787867",
"iD 	c #69695A",
"jD 	c #4F493B",
"kD 	c #46453E",
"lD 	c #7C7A6C",
"mD 	c #564C3C",
"nD 	c #76756A",
"oD 	c #464537",
"pD 	c #655D53",
"qD 	c #686056",
"rD 	c #67665A",
"sD 	c #7A7A6A",
"tD 	c #807972",
"uD 	c #807D72",
"vD 	c #8C847D",
"wD 	c #A6A297",
"xD 	c #666659",
"yD 	c #676457",
"zD 	c #515244",
"AD 	c #ABA39B",
"BD 	c #36342A",
"CD 	c #777768",
"DD 	c #6A695F",
"ED 	c #9B958B",
"FD 	c #9B968B",
"GD 	c #888577",
"HD 	c #6D6759",
"ID 	c #8C8C7F",
"JD 	c #8B897A",
"KD 	c #959084",
"LD 	c #848376",
"MD 	c #9D9B8E",
"ND 	c #9E988F",
"OD 	c #7D7B73",
"PD 	c #878179",
"QD 	c #838378",
"RD 	c #3C3123",
"SD 	c #959388",
"TD 	c #939184",
"UD 	c #ADA99E",
"VD 	c #7A7A6D",
"WD 	c #938E86",
"XD 	c #7D786F",
"YD 	c #949183",
"ZD 	c #9C9789",
"`D 	c #A29D91",
" E 	c #6D6459",
".E 	c #4D463B",
"+E 	c #8F877D",
"@E 	c #827F76",
"#E 	c #6F685E",
"$E 	c #999688",
"%E 	c #A9A599",
"&E 	c #616053",
"*E 	c #696256",
"=E 	c #706B5C",
"-E 	c #575547",
";E 	c #8D867A",
">E 	c #817E70",
",E 	c #878373",
"'E 	c #585144",
")E 	c #534E3F",
"!E 	c #312C21",
"~E 	c #77736B",
"{E 	c #585647",
"]E 	c #6A6259",
"^E 	c #5D5D4E",
"/E 	c #838176",
"(E 	c #807E76",
"_E 	c #837C76",
":E 	c #726F66",
"<E 	c #717265",
"[E 	c #838276",
"}E 	c #7E766C",
"|E 	c #A39F96",
"1E 	c #727061",
"2E 	c #969189",
"3E 	c #A09B8E",
"4E 	c #97918B",
"5E 	c #888375",
"6E 	c #737165",
"7E 	c #707062",
"8E 	c #76736C",
"9E 	c #30291C",
"0E 	c #888476",
"aE 	c #A4A397",
"bE 	c #626153",
"cE 	c #A0998F",
"dE 	c #948E85",
"eE 	c #959289",
"fE 	c #AEA99E",
"gE 	c #88887B",
"hE 	c #A09A8E",
"iE 	c #615F50",
"jE 	c #585345",
"kE 	c #979084",
"lE 	c #9A9187",
"mE 	c #818172",
"nE 	c #898374",
"oE 	c #747264",
"pE 	c #968E86",
"qE 	c #968F83",
"rE 	c #A8A699",
"sE 	c #919085",
"tE 	c #A4A192",
"uE 	c #7B786A",
"vE 	c #888373",
"wE 	c #888174",
"xE 	c #7A796D",
"yE 	c #8D8876",
"zE 	c #534E42",
"AE 	c #625A51",
"BE 	c #7F7C6A",
"CE 	c #696055",
"DE 	c #726C5C",
"EE 	c #544C42",
"FE 	c #757469",
"GE 	c #655E58",
"HE 	c #99968C",
"IE 	c #666355",
"JE 	c #AFAEA0",
"KE 	c #9D9990",
"LE 	c #36352A",
"ME 	c #948E86",
"NE 	c #908B7D",
"OE 	c #9B968E",
"PE 	c #78776B",
"QE 	c #736B63",
"RE 	c #BAB4A8",
"SE 	c #9D9A8C",
"TE 	c #908C81",
"UE 	c #929187",
"VE 	c #A3A091",
"WE 	c #827B70",
"XE 	c #6E6963",
"YE 	c #433A31",
"ZE 	c #A09C90",
"`E 	c #8F897E",
" F 	c #B5AFA4",
".F 	c #727163",
"+F 	c #818175",
"@F 	c #797567",
"#F 	c #807A73",
"$F 	c #9E988B",
"%F 	c #969084",
"&F 	c #B0AEA4",
"*F 	c #8D867E",
"=F 	c #857D74",
"-F 	c #9F998C",
";F 	c #877E72",
">F 	c #A9A39B",
",F 	c #B6B2A6",
"'F 	c #252016",
")F 	c #6F6C5C",
"!F 	c #979184",
"~F 	c #959587",
"{F 	c #837B73",
"]F 	c #747365",
"^F 	c #868273",
"/F 	c #B0AA9F",
"(F 	c #9E998B",
"_F 	c #898277",
":F 	c #868374",
"<F 	c #7E7B6E",
"[F 	c #98958A",
"}F 	c #867C73",
"|F 	c #8C847B",
"1F 	c #837B6E",
"2F 	c #777463",
"3F 	c #524E3E",
"4F 	c #544D3E",
"5F 	c #534A3F",
"6F 	c #544E42",
"7F 	c #706861",
"8F 	c #665F55",
"9F 	c #656153",
"0F 	c #7C7669",
"aF 	c #A9A496",
"bF 	c #4A493E",
"cF 	c #A09B91",
"dF 	c #6A6258",
"eF 	c #7D7C71",
"fF 	c #89877A",
"gF 	c #857D77",
"hF 	c #A19B90",
"iF 	c #ABA69A",
"jF 	c #89877E",
"kF 	c #979589",
"lF 	c #6A685C",
"mF 	c #C2BBB3",
"nF 	c #938C84",
"oF 	c #9C9B8F",
"pF 	c #68665A",
"qF 	c #8A8377",
"rF 	c #928E86",
"sF 	c #52493B",
"tF 	c #928B7F",
"uF 	c #888073",
"vF 	c #96928A",
"wF 	c #897963",
"xF 	c #453727",
"yF 	c #A39E91",
"zF 	c #968F82",
"AF 	c #B3B0A4",
"BF 	c #8F8E7F",
"CF 	c #AFA8A0",
"DF 	c #A5A193",
"EF 	c #99948B",
"FF 	c #80796F",
"GF 	c #9E9A8C",
"HF 	c #928E7F",
"IF 	c #B2ABA2",
"JF 	c #ADA79C",
"KF 	c #AAA597",
"LF 	c #9B968D",
"MF 	c #A9A498",
"NF 	c #757067",
"OF 	c #969488",
"PF 	c #908A81",
"QF 	c #959586",
"RF 	c #797265",
"SF 	c #8E877E",
"TF 	c #807E6E",
"UF 	c #574F43",
"VF 	c #7B7265",
"WF 	c #5B5550",
"XF 	c #79786E",
"YF 	c #8A8579",
"ZF 	c #87877B",
"`F 	c #858476",
" G 	c #706F63",
".G 	c #80786F",
"+G 	c #7F776D",
"@G 	c #828174",
"#G 	c #938D82",
"$G 	c #9E9990",
"%G 	c #878279",
"&G 	c #8A8476",
"*G 	c #8C8981",
"=G 	c #BBB7AC",
"-G 	c #A39E96",
";G 	c #857F79",
">G 	c #6E6D5F",
",G 	c #332D20",
"'G 	c #9D9786",
")G 	c #958775",
"!G 	c #DED8C7",
"~G 	c #8A887B",
"{G 	c #333023",
"]G 	c #857D73",
"^G 	c #848279",
"/G 	c #A8A197",
"(G 	c #9A9588",
"_G 	c #979186",
":G 	c #867F75",
"<G 	c #A9A298",
"[G 	c #969489",
"}G 	c #BDB5AD",
"|G 	c #9B9487",
"1G 	c #99968B",
"2G 	c #959283",
"3G 	c #AFAA9D",
"4G 	c #564F41",
"5G 	c #918B82",
"6G 	c #9A9287",
"7G 	c #9F9C8D",
"8G 	c #BAB4A9",
"9G 	c #918A7F",
"0G 	c #9F9C92",
"aG 	c #474437",
"bG 	c #7C766D",
"cG 	c #787266",
"dG 	c #918E7E",
"eG 	c #7F776C",
"fG 	c #746D5E",
"gG 	c #79726A",
"hG 	c #443D32",
"iG 	c #5A534A",
"jG 	c #454335",
"kG 	c #A19F94",
"lG 	c #656252",
"mG 	c #757369",
"nG 	c #9E998F",
"oG 	c #928C7E",
"pG 	c #767469",
"qG 	c #615A54",
"rG 	c #A6A197",
"sG 	c #A8A498",
"tG 	c #87887B",
"uG 	c #A6A199",
"vG 	c #3F3629",
"wG 	c #676057",
"xG 	c #777062",
"yG 	c #A2A094",
"zG 	c #7A7668",
"AG 	c #AEAA9C",
"BG 	c #8E8D82",
"CG 	c #726C65",
"DG 	c #737267",
"EG 	c #878375",
"FG 	c #A29B91",
"GG 	c #B0A89F",
"HG 	c #867F76",
"IG 	c #ADAA9E",
"JG 	c #9F9B8F",
"KG 	c #B2AEA0",
"LG 	c #87857C",
"MG 	c #B1ABA0",
"NG 	c #959182",
"OG 	c #7E776E",
"PG 	c #949285",
"QG 	c #8B8476",
"RG 	c #686759",
"SG 	c #5D554B",
"TG 	c #8B8578",
"UG 	c #7D786A",
"VG 	c #4C453A",
"WG 	c #525145",
"XG 	c #83796D",
"YG 	c #504E48",
"ZG 	c #6C6B61",
"`G 	c #797B6F",
" H 	c #867F72",
".H 	c #717264",
"+H 	c #68685B",
"@H 	c #5B5A4E",
"#H 	c #949284",
"$H 	c #98948A",
"%H 	c #8C847C",
"&H 	c #847F78",
"*H 	c #99988D",
"=H 	c #89887E",
"-H 	c #6D6D61",
";H 	c #7D7869",
">H 	c #AEA79E",
",H 	c #737268",
"'H 	c #3C352A",
")H 	c #737068",
"!H 	c #8B867D",
"~H 	c #B8B2A8",
"{H 	c #8E8B7E",
"]H 	c #676352",
"^H 	c #636256",
"/H 	c #ABA69B",
"(H 	c #828073",
"_H 	c #858377",
":H 	c #A39D93",
"<H 	c #C7C4B6",
"[H 	c #A9A499",
"}H 	c #A4A097",
"|H 	c #96918A",
"1H 	c #8D8777",
"2H 	c #666455",
"3H 	c #87857A",
"4H 	c #7D746A",
"5H 	c #727263",
"6H 	c #423C31",
"7H 	c #7E7D6B",
"8H 	c #646052",
"9H 	c #938D86",
"0H 	c #726E60",
"aH 	c #61594B",
"bH 	c #746F5E",
"cH 	c #898275",
"dH 	c #676659",
"eH 	c #7A746A",
"fH 	c #484035",
"gH 	c #858071",
"hH 	c #5A5248",
"iH 	c #2B251E",
"jH 	c #67665C",
"kH 	c #8E8A81",
"lH 	c #7A7767",
"mH 	c #6E6B63",
"nH 	c #938E84",
"oH 	c #686157",
"pH 	c #9C9589",
"qH 	c #918F81",
"rH 	c #B2ACA3",
"sH 	c #898777",
"tH 	c #B1ACA2",
"uH 	c #827A6F",
"vH 	c #ABA499",
"wH 	c #ABA69D",
"xH 	c #969587",
"yH 	c #858378",
"zH 	c #B0AEA5",
"AH 	c #ABA599",
"BH 	c #97948B",
"CH 	c #68685F",
"DH 	c #3B3523",
"EH 	c #837E72",
"FH 	c #A19E91",
"GH 	c #A7A899",
"HH 	c #999389",
"IH 	c #BAB5A9",
"JH 	c #9F9B8D",
"KH 	c #918F87",
"LH 	c #939083",
"MH 	c #A29D90",
"NH 	c #989384",
"OH 	c #7B776F",
"PH 	c #A6A097",
"QH 	c #ABA69E",
"RH 	c #B4B0A4",
"SH 	c #A8A093",
"TH 	c #A69F92",
"UH 	c #474234",
"VH 	c #958F86",
"WH 	c #817B72",
"XH 	c #A19E92",
"YH 	c #969087",
"ZH 	c #605C4D",
"`H 	c #5F574C",
" I 	c #514C3E",
".I 	c #737264",
"+I 	c #6C6559",
"@I 	c #68615A",
"#I 	c #717066",
"$I 	c #AAA499",
"%I 	c #6E655E",
"&I 	c #737467",
"*I 	c #8C867A",
"=I 	c #B0ADA2",
"-I 	c #8D8D83",
";I 	c #ABA79E",
">I 	c #B0ACA1",
",I 	c #828278",
"'I 	c #706F67",
")I 	c #939387",
"!I 	c #3E3627",
"~I 	c #6A6760",
"{I 	c #928A7E",
"]I 	c #828272",
"^I 	c #B9B3A8",
"/I 	c #B4B1A6",
"(I 	c #B4AFA5",
"_I 	c #878078",
":I 	c #928C7F",
"<I 	c #908A7F",
"[I 	c #B9B5A9",
"}I 	c #C2BCB1",
"|I 	c #B1AB9F",
"1I 	c #9C9A8F",
"2I 	c #91897F",
"3I 	c #3B3B2A",
"4I 	c #9B948D",
"5I 	c #D0C8BF",
"6I 	c #B0ABA1",
"7I 	c #BCB5AB",
"8I 	c #A19E93",
"9I 	c #827B73",
"0I 	c #9C998B",
"aI 	c #7E7D70",
"bI 	c #5B5B4E",
"cI 	c #888275",
"dI 	c #4F473A",
"eI 	c #706960",
"fI 	c #999489",
"gI 	c #868375",
"hI 	c #908E83",
"iI 	c #949186",
"jI 	c #5E564E",
"kI 	c #625A4F",
"lI 	c #858575",
"mI 	c #979189",
"nI 	c #747568",
"oI 	c #8C8D7E",
"pI 	c #A7A396",
"qI 	c #736F69",
"rI 	c #928A81",
"sI 	c #8D8E81",
"tI 	c #959088",
"uI 	c #807F72",
"vI 	c #6A655F",
"wI 	c #4C4136",
"xI 	c #959385",
"yI 	c #B2ABA0",
"zI 	c #949386",
"AI 	c #8B8577",
"BI 	c #968F84",
"CI 	c #868079",
"DI 	c #ADA69C",
"EI 	c #939081",
"FI 	c #A59F93",
"GI 	c #AAA69B",
"HI 	c #898179",
"II 	c #888879",
"JI 	c #797364",
"KI 	c #1C1812",
"LI 	c #1A170C",
"MI 	c #B4AEA4",
"NI 	c #B8B0A5",
"OI 	c #A09F90",
"PI 	c #ADAB9D",
"QI 	c #9E9B8D",
"RI 	c #979486",
"SI 	c #9C958B",
"TI 	c #7A796B",
"UI 	c #2F2820",
"VI 	c #908F7F",
"WI 	c #665B4D",
"XI 	c #938B82",
"YI 	c #393229",
"ZI 	c #5C524A",
"`I 	c #848375",
" J 	c #676154",
".J 	c #7C7C6F",
"+J 	c #726961",
"@J 	c #707064",
"#J 	c #8F8C84",
"$J 	c #88827B",
"%J 	c #9C998C",
"&J 	c #A9A69B",
"*J 	c #443B2D",
"=J 	c #3C372D",
"-J 	c #A8A396",
";J 	c #ADA89D",
">J 	c #474034",
",J 	c #ABA69C",
"'J 	c #8C8A7B",
")J 	c #353127",
"!J 	c #5C554E",
"~J 	c #928F85",
"{J 	c #9D978E",
"]J 	c #9E9D8F",
"^J 	c #887F73",
"/J 	c #9B9388",
"(J 	c #A7A297",
"_J 	c #AFAA9E",
":J 	c #B8B4A5",
"<J 	c #575545",
"[J 	c #A49D95",
"}J 	c #938A82",
"|J 	c #918C84",
"1J 	c #999284",
"2J 	c #4A4234",
"3J 	c #71624A",
"4J 	c #635136",
"5J 	c #0E0700",
"6J 	c #787667",
"7J 	c #8B8A7C",
"8J 	c #958D84",
"9J 	c #787768",
"0J 	c #908B82",
"aJ 	c #9B978D",
"bJ 	c #7F7C6D",
"cJ 	c #A4A198",
"dJ 	c #4B4638",
"eJ 	c #222118",
"fJ 	c #746C67",
"gJ 	c #4F483B",
"hJ 	c #938D85",
"iJ 	c #545143",
"jJ 	c #4B4035",
"kJ 	c #939187",
"lJ 	c #5E5D52",
"mJ 	c #696757",
"nJ 	c #9E998C",
"oJ 	c #AEA99F",
"pJ 	c #A5A298",
"qJ 	c #A39A8D",
"rJ 	c #C4C1B3",
"sJ 	c #8B8A7F",
"tJ 	c #737164",
"uJ 	c #A19B8D",
"vJ 	c #736B5F",
"wJ 	c #90897F",
"xJ 	c #8B897B",
"yJ 	c #9F9280",
"zJ 	c #857255",
"AJ 	c #786447",
"BJ 	c #343023",
"CJ 	c #7B7A6E",
"DJ 	c #716D5E",
"EJ 	c #9B9990",
"FJ 	c #7B7B70",
"GJ 	c #A4A093",
"HJ 	c #777064",
"IJ 	c #615751",
"JJ 	c #919081",
"KJ 	c #7E7E74",
"LJ 	c #A8A096",
"MJ 	c #949287",
"NJ 	c #9B958E",
"OJ 	c #8E8E82",
"PJ 	c #908A83",
"QJ 	c #767569",
"RJ 	c #8E877B",
"SJ 	c #77766C",
"TJ 	c #958E88",
"UJ 	c #463C2F",
"VJ 	c #8C8980",
"WJ 	c #A6A296",
"XJ 	c #9B978A",
"YJ 	c #B3AFA8",
"ZJ 	c #A7A498",
"`J 	c #ABA79A",
" K 	c #959285",
".K 	c #7E7E72",
"+K 	c #949384",
"@K 	c #9D9A8E",
"#K 	c #504B3C",
"$K 	c #A49F91",
"%K 	c #A2A091",
"&K 	c #B1AC9F",
"*K 	c #9D9789",
"=K 	c #969688",
"-K 	c #A09C8D",
";K 	c #989187",
">K 	c #776F5F",
",K 	c #847562",
"'K 	c #433A2E",
")K 	c #948E83",
"!K 	c #737366",
"~K 	c #A59F96",
"{K 	c #827E76",
"]K 	c #A39E93",
"^K 	c #837F76",
"/K 	c #7E776A",
"(K 	c #6B695A",
"_K 	c #A7A198",
":K 	c #9B998D",
"<K 	c #9B988F",
"[K 	c #555345",
"}K 	c #7D7A74",
"|K 	c #807A6E",
"1K 	c #ADA59C",
"2K 	c #736B65",
"3K 	c #6B6359",
"4K 	c #3F372B",
"5K 	c #7E7E70",
"6K 	c #97928A",
"7K 	c #7A776A",
"8K 	c #87827B",
"9K 	c #69635D",
"0K 	c #6E665C",
"aK 	c #A29F96",
"bK 	c #8E8D80",
"cK 	c #9B9790",
"dK 	c #938B85",
"eK 	c #A7A395",
"fK 	c #8A837C",
"gK 	c #9A9186",
"hK 	c #A29D96",
"iK 	c #8D8C80",
"jK 	c #736C65",
"kK 	c #AFACA4",
"lK 	c #9B9A8B",
"mK 	c #ADAA9D",
"nK 	c #AEAA9E",
"oK 	c #A9A49A",
"pK 	c #AAA697",
"qK 	c #A19C90",
"rK 	c #756E64",
"sK 	c #58524E",
"tK 	c #7E7D6D",
"uK 	c #636153",
"vK 	c #8F8D7D",
"wK 	c #8D8B81",
"xK 	c #6E675F",
"yK 	c #5D5851",
"zK 	c #9B9589",
"AK 	c #8A897F",
"BK 	c #7F7B74",
"CK 	c #5E5952",
"DK 	c #8E877D",
"EK 	c #9C9A8D",
"FK 	c #A7A296",
"GK 	c #7F7E73",
"HK 	c #C7C3B9",
"IK 	c #2C2819",
"JK 	c #9C9590",
"KK 	c #7A796F",
"LK 	c #918F83",
"MK 	c #938C83",
"NK 	c #837B70",
"OK 	c #5E5852",
"PK 	c #473E32",
"QK 	c #C2C0B4",
"RK 	c #BBB6AB",
"SK 	c #B5B0A7",
"TK 	c #BCB7A9",
"UK 	c #B1ADA1",
"VK 	c #969386",
"WK 	c #6E6A5C",
"XK 	c #828077",
"YK 	c #525146",
"ZK 	c #6D6558",
"`K 	c #7B7A6B",
" L 	c #737168",
".L 	c #858677",
"+L 	c #8C857C",
"@L 	c #827E75",
"#L 	c #B0ACA2",
"$L 	c #A69F95",
"%L 	c #969384",
"&L 	c #9E9B93",
"*L 	c #A6A198",
"=L 	c #BFB9B0",
"-L 	c #8D877F",
";L 	c #8B8880",
">L 	c #6B645D",
",L 	c #A09F92",
"'L 	c #787769",
")L 	c #727065",
"!L 	c #463C31",
"~L 	c #847B74",
"{L 	c #A59E95",
"]L 	c #888677",
"^L 	c #9A938A",
"/L 	c #5E5F53",
"(L 	c #9B9A8F",
"_L 	c #7D756C",
":L 	c #9E9A92",
"<L 	c #A09990",
"[L 	c #928F86",
"}L 	c #A49C94",
"|L 	c #A0988C",
"1L 	c #A7A59B",
"2L 	c #B5AEA4",
"3L 	c #7C7B70",
"4L 	c #817B6D",
"5L 	c #4E4E42",
"6L 	c #727366",
"7L 	c #777669",
"8L 	c #64635A",
"9L 	c #888177",
"0L 	c #898576",
"aL 	c #77766B",
"bL 	c #747669",
"cL 	c #919083",
"dL 	c #6E6E61",
"eL 	c #666558",
"fL 	c #858478",
"gL 	c #B1AB9E",
"hL 	c #646558",
"iL 	c #5F5D50",
"jL 	c #8B8981",
"kL 	c #AEA69F",
"lL 	c #66615A",
"mL 	c #7D7972",
"nL 	c #919182",
"oL 	c #4E493B",
"pL 	c #9F9A90",
"qL 	c #64625A",
"rL 	c #707163",
"sL 	c #423A2D",
"tL 	c #817D76",
"uL 	c #868578",
"vL 	c #BAB5AB",
"wL 	c #A6A195",
"xL 	c #A8A89A",
"yL 	c #AAA59C",
"zL 	c #929086",
"AL 	c #858375",
"BL 	c #8A877F",
"CL 	c #C2BDB2",
"DL 	c #A29E92",
"EL 	c #969485",
"FL 	c #67675B",
"GL 	c #958D86",
"HL 	c #7A766E",
"IL 	c #807E75",
"JL 	c #9A9488",
"KL 	c #8D857B",
"LL 	c #818376",
"ML 	c #858578",
"NL 	c #7F7972",
"OL 	c #858479",
"PL 	c #85817A",
"QL 	c #A29D93",
"RL 	c #B8B2A9",
"SL 	c #ACA79C",
"TL 	c #635E50",
"UL 	c #60594C",
"VL 	c #63615B",
"WL 	c #6A6159",
"XL 	c #443C2E",
"YL 	c #A39C93",
"ZL 	c #A59E92",
"`L 	c #7C7770",
" M 	c #918F80",
".M 	c #5F5C4E",
"+M 	c #837A71",
"@M 	c #7E7B72",
"#M 	c #88837B",
"$M 	c #B5B1A5",
"%M 	c #ACAA9D",
"&M 	c #B2A9A1",
"*M 	c #BAB7AC",
"=M 	c #BFBAB0",
"-M 	c #A29E93",
";M 	c #9B938A",
">M 	c #908D7F",
",M 	c #A49E92",
"'M 	c #6B665F",
")M 	c #7D756A",
"!M 	c #AAA699",
"~M 	c #79786C",
"{M 	c #5E5C4D",
"]M 	c #484439",
"^M 	c #838375",
"/M 	c #76746A",
"(M 	c #7E7972",
"_M 	c #A29A92",
":M 	c #8E877F",
"<M 	c #726C66",
"[M 	c #7B7A6D",
"}M 	c #96948A",
"|M 	c #A5A295",
"1M 	c #6A6B5D",
"2M 	c #95938A",
"3M 	c #969487",
"4M 	c #625D4E",
"5M 	c #726E67",
"6M 	c #9B988E",
"7M 	c #A7A699",
"8M 	c #99968E",
"9M 	c #9D958C",
"0M 	c #828179",
"aM 	c #A6A093",
"bM 	c #78776C",
"cM 	c #6F6F64",
"dM 	c #87867B",
"eM 	c #6A6961",
"fM 	c #5C5B53",
"gM 	c #3E3727",
"hM 	c #807D74",
"iM 	c #5F5C56",
"jM 	c #938D81",
"kM 	c #908D84",
"lM 	c #959287",
"mM 	c #A7A196",
"nM 	c #99968D",
"oM 	c #A29E91",
"pM 	c #8F8880",
"qM 	c #6D6658",
"rM 	c #A8A797",
"sM 	c #808172",
"tM 	c #9B9688",
"uM 	c #99958C",
"vM 	c #A4A297",
"wM 	c #9C958C",
"xM 	c #88867A",
"yM 	c #A3A096",
"zM 	c #827D76",
"AM 	c #958E83",
"BM 	c #ABA49A",
"CM 	c #A39D97",
"DM 	c #8A857E",
"EM 	c #7D7C70",
"FM 	c #8B847A",
"GM 	c #747168",
"HM 	c #50493B",
"IM 	c #908B83",
"JM 	c #6D6962",
"KM 	c #A09C94",
"LM 	c #98978D",
"MM 	c #928F81",
"NM 	c #8A8279",
"OM 	c #767668",
"PM 	c #A29A90",
"QM 	c #8E8982",
"RM 	c #9A9388",
"SM 	c #9D968D",
"TM 	c #9B998F",
"UM 	c #9E9B8C",
"VM 	c #A8A69A",
"WM 	c #B3B0A5",
"XM 	c #7A736D",
"YM 	c #7E7B6D",
"ZM 	c #9F9D8F",
"`M 	c #808070",
" N 	c #807B6D",
".N 	c #716962",
"+N 	c #807D75",
"@N 	c #A69F94",
"#N 	c #97958A",
"$N 	c #858179",
"%N 	c #959189",
"&N 	c #646255",
"*N 	c #B2AFA4",
"=N 	c #9A9787",
"-N 	c #756C62",
";N 	c #746E5F",
">N 	c #7B796B",
",N 	c #5F5F53",
"'N 	c #616057",
")N 	c #ADA8A1",
"!N 	c #A5A199",
"~N 	c #908981",
"{N 	c #88877C",
"]N 	c #9A958D",
"^N 	c #69685F",
"/N 	c #4F453A",
"(N 	c #A9A69C",
"_N 	c #7B736D",
":N 	c #7C7D6D",
"<N 	c #645A55",
"[N 	c #A7A199",
"}N 	c #71695E",
"|N 	c #8C8B80",
"1N 	c #B6B2A5",
"2N 	c #747467",
"3N 	c #9F988F",
"4N 	c #6E6D63",
"5N 	c #14140F",
"6N 	c #7D776E",
"7N 	c #99938D",
"8N 	c #888676",
"9N 	c #847F77",
"0N 	c #5E5C52",
"aN 	c #9E988D",
"bN 	c #464438",
"cN 	c #9C9688",
"dN 	c #AAA498",
"eN 	c #6B6760",
"fN 	c #504738",
"gN 	c #9C9C8F",
"hN 	c #AEACA0",
"iN 	c #A39F91",
"jN 	c #8F8981",
"kN 	c #A4A193",
"lN 	c #7D766E",
"mN 	c #A19E95",
"nN 	c #908E84",
"oN 	c #908B7E",
"pN 	c #424032",
"qN 	c #9D988F",
"rN 	c #9E9790",
"sN 	c #ABA59A",
"tN 	c #7A736A",
"uN 	c #817B76",
"vN 	c #918B83",
"wN 	c #A1988E",
"xN 	c #7D7C6D",
"yN 	c #7F7C74",
"zN 	c #7A7768",
"AN 	c #7A7269",
"BN 	c #888074",
"CN 	c #898779",
"DN 	c #919183",
"EN 	c #828373",
"FN 	c #717266",
"GN 	c #585749",
"HN 	c #4C493A",
"IN 	c #807E74",
"JN 	c #A8A79A",
"KN 	c #9C998A",
"LN 	c #99988C",
"MN 	c #7B766F",
"NN 	c #79796E",
"ON 	c #88877A",
"PN 	c #413A2D",
"QN 	c #76756B",
"RN 	c #A49F94",
"SN 	c #ABAA9F",
"TN 	c #A8A198",
"UN 	c #8F8F83",
"VN 	c #777668",
"WN 	c #A19D90",
"XN 	c #939287",
"YN 	c #A09B8F",
"ZN 	c #A39E90",
"`N 	c #999187",
" O 	c #A5A092",
".O 	c #9A9189",
"+O 	c #9D9B8D",
"@O 	c #7F7E74",
"#O 	c #817A6D",
"$O 	c #120E08",
"%O 	c #322B21",
"&O 	c #948F87",
"*O 	c #7B7B6D",
"=O 	c #9D988B",
"-O 	c #A09F93",
";O 	c #8D867B",
">O 	c #817A70",
",O 	c #86867A",
"'O 	c #7D7C73",
")O 	c #867E75",
"!O 	c #837A6E",
"~O 	c #90887F",
"{O 	c #9F9A92",
"]O 	c #6A6660",
"^O 	c #A4A096",
"/O 	c #C8C2B7",
"(O 	c #A8A196",
"_O 	c #99978A",
":O 	c #8C8B7D",
"<O 	c #6B6B5F",
"[O 	c #908F81",
"}O 	c #615D58",
"|O 	c #423A2A",
"1O 	c #8D8C81",
"2O 	c #9F9A8F",
"3O 	c #938A80",
"4O 	c #7A7A6F",
"5O 	c #898077",
"6O 	c #656456",
"7O 	c #B0ACA3",
"8O 	c #716E60",
"9O 	c #A9A59A",
"0O 	c #ACA59E",
"aO 	c #87837B",
"bO 	c #8D8B80",
"cO 	c #858374",
"dO 	c #9D9C90",
"eO 	c #7D7871",
"fO 	c #8A8075",
"gO 	c #716B5E",
"hO 	c #817D77",
"iO 	c #8B867E",
"jO 	c #877F75",
"kO 	c #818173",
"lO 	c #A29F94",
"mO 	c #8D8880",
"nO 	c #838172",
"oO 	c #A5A297",
"pO 	c #A5A198",
"qO 	c #919084",
"rO 	c #95918A",
"sO 	c #8F8E82",
"tO 	c #5B5950",
"uO 	c #342C1D",
"vO 	c #8A837A",
"wO 	c #626051",
"xO 	c #615E4F",
"yO 	c #6E695B",
"zO 	c #8A847D",
"AO 	c #A6A298",
"BO 	c #9A998C",
"CO 	c #787064",
"DO 	c #8B857D",
"EO 	c #4B493C",
"FO 	c #221E17",
"GO 	c #69695B",
"HO 	c #444032",
"IO 	c #797169",
"JO 	c #818074",
"KO 	c #605D55",
"LO 	c #7A746C",
"MO 	c #8B847C",
"NO 	c #C0BAAF",
"OO 	c #A9A396",
"PO 	c #9F9B93",
"QO 	c #B7B2A4",
"RO 	c #545447",
"SO 	c #AEAAA0",
"TO 	c #848477",
"UO 	c #9D978B",
"VO 	c #66635B",
"WO 	c #564D40",
"XO 	c #838078",
"YO 	c #7A7267",
"ZO 	c #3C362C",
"`O 	c #2F2D21",
" P 	c #9F978C",
".P 	c #7E756D",
"+P 	c #7D7D70",
"@P 	c #8D8679",
"#P 	c #A4A293",
"$P 	c #322E22",
"%P 	c #342F24",
"&P 	c #635D51",
"*P 	c #8C8B7F",
"=P 	c #6C6959",
"-P 	c #6D6D62",
";P 	c #818073",
">P 	c #A19A8F",
",P 	c #8B8B7F",
"'P 	c #757569",
")P 	c #99978E",
"!P 	c #9D9E91",
"~P 	c #97938A",
"{P 	c #9F9990",
"]P 	c #9A9A8B",
"^P 	c #9E9C8F",
"/P 	c #A9A89F",
"(P 	c #99988B",
"_P 	c #50483F",
":P 	c #8A877E",
"<P 	c #574D3E",
"[P 	c #75726B",
"}P 	c #A09B93",
"|P 	c #938D7F",
"1P 	c #A29B8F",
"2P 	c #949385",
"3P 	c #827C75",
"4P 	c #949081",
"5P 	c #B1AEA4",
"6P 	c #87867A",
"7P 	c #959486",
"8P 	c #95928A",
"9P 	c #949486",
"0P 	c #6A6A5C",
"aP 	c #2B2819",
"bP 	c #AFA9A2",
"cP 	c #746E62",
"dP 	c #ABA59B",
"eP 	c #A39D95",
"fP 	c #666657",
"gP 	c #5E5750",
"hP 	c #3D3A2D",
"iP 	c #ABA99D",
"jP 	c #86857A",
"kP 	c #99928A",
"lP 	c #A7A097",
"mP 	c #5C5A4C",
"nP 	c #89897F",
"oP 	c #5B5C53",
"pP 	c #6F6D5E",
"qP 	c #4B4132",
"rP 	c #8E8E7D",
"sP 	c #A5A098",
"tP 	c #B1ACA3",
"uP 	c #88877B",
"vP 	c #A6A396",
"wP 	c #A49F92",
"xP 	c #A0988F",
"yP 	c #7F7E70",
"zP 	c #9A9688",
"AP 	c #948D80",
"BP 	c #7A7268",
"CP 	c #7D766B",
"DP 	c #332D21",
"EP 	c #393128",
"FP 	c #8A817A",
"GP 	c #79756D",
"HP 	c #848178",
"IP 	c #727367",
"JP 	c #848478",
"KP 	c #9D9A90",
"LP 	c #5E5C55",
"MP 	c #99968F",
"NP 	c #9A998B",
"OP 	c #ABA89F",
"PP 	c #58584A",
"QP 	c #838273",
"RP 	c #9D9C8E",
"SP 	c #A8A698",
"TP 	c #726B5E",
"UP 	c #575041",
"VP 	c #837A73",
"WP 	c #756F69",
"XP 	c #5D5C51",
"YP 	c #A19E90",
"ZP 	c #9B978B",
"`P 	c #A6A096",
" Q 	c #929185",
".Q 	c #867F77",
"+Q 	c #858279",
"@Q 	c #4D4C40",
"#Q 	c #80766D",
"$Q 	c #484334",
"%Q 	c #706E5F",
"&Q 	c #98928B",
"*Q 	c #353126",
"=Q 	c #7D7872",
"-Q 	c #77786B",
";Q 	c #929186",
">Q 	c #817F6F",
",Q 	c #7A7A73",
"'Q 	c #9D988E",
")Q 	c #78756C",
"!Q 	c #7E7871",
"~Q 	c #888678",
"{Q 	c #756E66",
"]Q 	c #9E9D91",
"^Q 	c #736D67",
"/Q 	c #8D8E83",
"(Q 	c #8B8779",
"_Q 	c #74736A",
":Q 	c #9B978E",
"<Q 	c #ACA99A",
"[Q 	c #A19A90",
"}Q 	c #8A877D",
"|Q 	c #AFA99D",
"1Q 	c #797066",
"2Q 	c #AAA59D",
"3Q 	c #6A6D5F",
"4Q 	c #9F968D",
"5Q 	c #ABA198",
"6Q 	c #52493A",
"7Q 	c #808073",
"8Q 	c #46473D",
"9Q 	c #979187",
"0Q 	c #8B8A7B",
"aQ 	c #9D938B",
"bQ 	c #88847C",
"cQ 	c #B9B4AA",
"dQ 	c #6C6D60",
"eQ 	c #ACAC9E",
"fQ 	c #B4B0A2",
"gQ 	c #7D766D",
"hQ 	c #A19991",
"iQ 	c #A49A8F",
"jQ 	c #A39D92",
"kQ 	c #9E978F",
"lQ 	c #9D9B90",
"mQ 	c #635D4E",
"nQ 	c #7A7A70",
"oQ 	c #8C8B7B",
"pQ 	c #757365",
"qQ 	c #817A72",
"rQ 	c #A0998D",
"sQ 	c #77756C",
"tQ 	c #908E80",
"uQ 	c #6F7061",
"vQ 	c #6D6F62",
"wQ 	c #929284",
"xQ 	c #848378",
"yQ 	c #9F9E8F",
"zQ 	c #5C5349",
"AQ 	c #7E7C74",
"BQ 	c #8B8278",
"CQ 	c #949187",
"DQ 	c #564F3E",
"EQ 	c #747364",
"FQ 	c #A9A49B",
"GQ 	c #6A6158",
"HQ 	c #88827A",
"IQ 	c #A29A8F",
"JQ 	c #B8B5A7",
"KQ 	c #949387",
"LQ 	c #828172",
"MQ 	c #A3A294",
"NQ 	c #959281",
"OQ 	c #737367",
"PQ 	c #86807B",
"QQ 	c #65615A",
"RQ 	c #8A8576",
"SQ 	c #8F8679",
"TQ 	c #7B7A6A",
"UQ 	c #888077",
"VQ 	c #9E9890",
"WQ 	c #858379",
"XQ 	c #9E9992",
"YQ 	c #7F7772",
"ZQ 	c #636255",
"`Q 	c #8A887E",
" R 	c #A8A59B",
".R 	c #665D56",
"+R 	c #69665F",
"@R 	c #ADAAA1",
"#R 	c #78766E",
"$R 	c #7B7E71",
"%R 	c #948B83",
"&R 	c #8A857D",
"*R 	c #574F40",
"=R 	c #828175",
"-R 	c #696859",
";R 	c #757169",
">R 	c #ABAA9B",
",R 	c #918A82",
"'R 	c #A19A92",
")R 	c #ADAAA0",
"!R 	c #887F76",
"~R 	c #B4ACA2",
"{R 	c #94938A",
"]R 	c #6B6658",
"^R 	c #ACA9A0",
"/R 	c #665D53",
"(R 	c #6B6457",
"_R 	c #8C8578",
":R 	c #646059",
"<R 	c #958F80",
"[R 	c #7B756E",
"}R 	c #5F5F50",
"|R 	c #756E67",
"1R 	c #7A7870",
"2R 	c #928F87",
"3R 	c #97968C",
"4R 	c #282319",
"5R 	c #918A80",
"6R 	c #8A8980",
"7R 	c #A29B92",
"8R 	c #959489",
"9R 	c #737269",
"0R 	c #9A9587",
"aR 	c #9C958F",
"bR 	c #504337",
"cR 	c #867D77",
"dR 	c #8D857C",
"eR 	c #A5A598",
"fR 	c #A19C94",
"gR 	c #7F776B",
"hR 	c #B0AAA0",
"iR 	c #9E9B8B",
"jR 	c #B3B0A6",
"kR 	c #8C8A7C",
"lR 	c #B6B1A6",
"mR 	c #7F7971",
"nR 	c #615B4F",
"oR 	c #A1A095",
"pR 	c #675F52",
"qR 	c #606053",
"rR 	c #626152",
"sR 	c #76695A",
"tR 	c #6F655B",
"uR 	c #81796A",
"vR 	c #686355",
"wR 	c #9D998A",
"xR 	c #797868",
"yR 	c #949488",
"zR 	c #B3AEA3",
"AR 	c #7B746C",
"BR 	c #8A897E",
"CR 	c #7C7971",
"DR 	c #97938C",
"ER 	c #9A9B8E",
"FR 	c #5C5242",
"GR 	c #949088",
"HR 	c #948C81",
"IR 	c #ADA9A2",
"JR 	c #B3AFA6",
"KR 	c #C3C0B4",
"LR 	c #8E8F84",
"MR 	c #91897E",
"NR 	c #595240",
"OR 	c #A29C95",
"PR 	c #B2AEA2",
"QR 	c #A09A92",
"RR 	c #A29C8E",
"SR 	c #ABAB9E",
"TR 	c #999289",
"UR 	c #7F776F",
"VR 	c #958F88",
"WR 	c #7A746D",
"XR 	c #A09C8E",
"YR 	c #625C55",
"ZR 	c #626052",
"`R 	c #9E9889",
" S 	c #40392C",
".S 	c #594F42",
"+S 	c #6B6256",
"@S 	c #645C51",
"#S 	c #7D7767",
"$S 	c #BEBBAF",
"%S 	c #615648",
"&S 	c #574F49",
"*S 	c #7A7A71",
"=S 	c #868679",
"-S 	c #A49C96",
";S 	c #979489",
">S 	c #615A4C",
",S 	c #5F5447",
"'S 	c #A8A39B",
")S 	c #A19D8F",
"!S 	c #8B837C",
"~S 	c #949587",
"{S 	c #918E86",
"]S 	c #97958C",
"^S 	c #A4A398",
"/S 	c #2C2A21",
"(S 	c #41362C",
"_S 	c #6F6A63",
":S 	c #8D8B82",
"<S 	c #A7A497",
"[S 	c #89897B",
"}S 	c #A9A49D",
"|S 	c #AAA399",
"1S 	c #ABA89C",
"2S 	c #A29E95",
"3S 	c #2C291F",
"4S 	c #A8A29A",
"5S 	c #98938B",
"6S 	c #676655",
"7S 	c #786F62",
"8S 	c #57493D",
"9S 	c #757163",
"0S 	c #726B63",
"aS 	c #7A7364",
"bS 	c #1B130A",
"cS 	c #78786B",
"dS 	c #63605A",
"eS 	c #6F6E60",
"fS 	c #69655F",
"gS 	c #3D3422",
"hS 	c #81786F",
"iS 	c #A2A197",
"jS 	c #9D978F",
"kS 	c #786F61",
"lS 	c #A19B8E",
"mS 	c #88837C",
"nS 	c #736E5F",
"oS 	c #A19F95",
"pS 	c #4D4338",
"qS 	c #77756D",
"rS 	c #9E978D",
"sS 	c #88887D",
"tS 	c #AEA89C",
"uS 	c #99958D",
"vS 	c #8A847C",
"wS 	c #ACAB9C",
"xS 	c #9A978C",
"yS 	c #413E33",
"zS 	c #77746C",
"AS 	c #251F18",
"BS 	c #939285",
"CS 	c #A19D92",
"DS 	c #635C51",
"ES 	c #70675E",
"FS 	c #847B73",
"GS 	c #685F51",
"HS 	c #8B8276",
"IS 	c #6C6456",
"JS 	c #6F6554",
"KS 	c #7C7766",
"LS 	c #5D584A",
"MS 	c #4F3929",
"NS 	c #5E5E56",
"OS 	c #7D694F",
"PS 	c #24221E",
"QS 	c #968F86",
"RS 	c #B4B4AB",
"SS 	c #272213",
"TS 	c #848475",
"US 	c #B3B1A6",
"VS 	c #A39D91",
"WS 	c #958D82",
"XS 	c #736E68",
"YS 	c #67675D",
"ZS 	c #5F5E53",
"`S 	c #4A4332",
" T 	c #A3A296",
".T 	c #B1ADA5",
"+T 	c #9D9B91",
"@T 	c #918A7D",
"#T 	c #B8B8AB",
"$T 	c #B5B3A6",
"%T 	c #A2A193",
"&T 	c #414233",
"*T 	c #878678",
"=T 	c #776F64",
"-T 	c #776F66",
";T 	c #A6A095",
">T 	c #746C63",
",T 	c #666052",
"'T 	c #584E3D",
")T 	c #756D5A",
"!T 	c #696456",
"~T 	c #3A372A",
"{T 	c #503E25",
"]T 	c #50412D",
"^T 	c #534332",
"/T 	c #2E281C",
"(T 	c #5F594C",
"_T 	c #6E6E5C",
":T 	c #817C6D",
"<T 	c #5A4531",
"[T 	c #453323",
"}T 	c #95866F",
"|T 	c #564637",
"1T 	c #3A2E23",
"2T 	c #17110B",
"3T 	c #838279",
"4T 	c #84837A",
"5T 	c #A1A195",
"6T 	c #737365",
"7T 	c #948E87",
"8T 	c #B1ABA3",
"9T 	c #989789",
"0T 	c #B0AA9E",
"aT 	c #655C4D",
"bT 	c #88817A",
"cT 	c #898677",
"dT 	c #7B7C70",
"eT 	c #8C8A80",
"fT 	c #A09C91",
"gT 	c #ACABA0",
"hT 	c #A8A59D",
"iT 	c #75726A",
"jT 	c #929081",
"kT 	c #635B51",
"lT 	c #616152",
"mT 	c #918981",
"nT 	c #949181",
"oT 	c #4C4638",
"pT 	c #665C51",
"qT 	c #625B4C",
"rT 	c #655846",
"sT 	c #585648",
"tT 	c #5D5747",
"uT 	c #40331E",
"vT 	c #695034",
"wT 	c #4E3B29",
"xT 	c #4E3B2A",
"yT 	c #2B2719",
"zT 	c #51483F",
"AT 	c #57432F",
"BT 	c #4E4537",
"CT 	c #918E80",
"DT 	c #7C7467",
"ET 	c #8A8674",
"FT 	c #BDB6AD",
"GT 	c #8D857A",
"HT 	c #9B998B",
"IT 	c #A4A294",
"JT 	c #ABA79D",
"KT 	c #9F9C90",
"LT 	c #838173",
"MT 	c #7F7C75",
"NT 	c #6D6D60",
"OT 	c #717166",
"PT 	c #52483A",
"QT 	c #8E8A82",
"RT 	c #B5B0A3",
"ST 	c #8B857E",
"TT 	c #9E9C92",
"UT 	c #A9A399",
"VT 	c #989689",
"WT 	c #87847D",
"XT 	c #7C746D",
"YT 	c #979083",
"ZT 	c #766F61",
"`T 	c #7A7266",
" U 	c #675E52",
".U 	c #675538",
"+U 	c #6B5839",
"@U 	c #9E978C",
"#U 	c #827B6D",
"$U 	c #524435",
"%U 	c #57422C",
"&U 	c #725B40",
"*U 	c #5F4A32",
"=U 	c #4A3B28",
"-U 	c #4A392A",
";U 	c #8C8A81",
">U 	c #717165",
",U 	c #6A6257",
"'U 	c #B9B7AB",
")U 	c #6B6655",
"!U 	c #574D3B",
"~U 	c #71695B",
"{U 	c #A8A399",
"]U 	c #A3A092",
"^U 	c #BCB6AC",
"/U 	c #8E867C",
"(U 	c #8D857D",
"_U 	c #999185",
":U 	c #ADA395",
"<U 	c #8D8B7C",
"[U 	c #8B847B",
"}U 	c #89837C",
"|U 	c #5B5140",
"1U 	c #9C9B90",
"2U 	c #8E857C",
"3U 	c #8E8A83",
"4U 	c #959488",
"5U 	c #B9B6A8",
"6U 	c #A9A39C",
"7U 	c #948C85",
"8U 	c #96938B",
"9U 	c #837F77",
"0U 	c #A09C92",
"aU 	c #A8A298",
"bU 	c #99948A",
"cU 	c #78756E",
"dU 	c #847D76",
"eU 	c #6A6351",
"fU 	c #8A8070",
"gU 	c #664E2E",
"hU 	c #6C5437",
"iU 	c #5A5343",
"jU 	c #5E5349",
"kU 	c #353025",
"lU 	c #796544",
"mU 	c #6D583F",
"nU 	c #553F2B",
"oU 	c #4B3925",
"pU 	c #6A6A60",
"qU 	c #685E4F",
"rU 	c #78726B",
"sU 	c #484132",
"tU 	c #564E45",
"uU 	c #707066",
"vU 	c #797062",
"wU 	c #89837D",
"xU 	c #76736B",
"yU 	c #8F877C",
"zU 	c #615850",
"AU 	c #969585",
"BU 	c #86827B",
"CU 	c #999588",
"DU 	c #4E473B",
"EU 	c #89897D",
"FU 	c #999087",
"GU 	c #AAA69D",
"HU 	c #504638",
"IU 	c #8F8F81",
"JU 	c #817E76",
"KU 	c #B0ADA0",
"LU 	c #C4C0B5",
"MU 	c #979789",
"NU 	c #8C8379",
"OU 	c #7A7365",
"PU 	c #7C7665",
"QU 	c #867B6B",
"RU 	c #776248",
"SU 	c #563E23",
"TU 	c #64523D",
"UU 	c #5E4E3F",
"VU 	c #969184",
"WU 	c #81756A",
"XU 	c #6E5A40",
"YU 	c #725F42",
"ZU 	c #4C3B26",
"`U 	c #514534",
" V 	c #453F31",
".V 	c #847C74",
"+V 	c #7F7E6C",
"@V 	c #30291D",
"#V 	c #231F19",
"$V 	c #848479",
"%V 	c #989585",
"&V 	c #BAB7AD",
"*V 	c #918A84",
"=V 	c #837C77",
"-V 	c #8C8780",
";V 	c #63594B",
">V 	c #8C857D",
",V 	c #7E7B73",
"'V 	c #767566",
")V 	c #5A594A",
"!V 	c #A19B92",
"~V 	c #958D85",
"{V 	c #807870",
"]V 	c #A19D8D",
"^V 	c #7E776F",
"/V 	c #9E9B92",
"(V 	c #959687",
"_V 	c #8A8275",
":V 	c #6F6F61",
"<V 	c #7D766F",
"[V 	c #8F877A",
"}V 	c #846F56",
"|V 	c #675033",
"1V 	c #625038",
"2V 	c #685640",
"3V 	c #938B81",
"4V 	c #615645",
"5V 	c #4A3E2A",
"6V 	c #87715A",
"7V 	c #4E3C2A",
"8V 	c #807E6F",
"9V 	c #2F2819",
"0V 	c #42311F",
"aV 	c #473A29",
"bV 	c #78796A",
"cV 	c #302A20",
"dV 	c #6E6A63",
"eV 	c #444034",
"fV 	c #505245",
"gV 	c #5C5953",
"hV 	c #727264",
"iV 	c #2E2C20",
"jV 	c #555449",
"kV 	c #747069",
"lV 	c #76726A",
"mV 	c #8C8579",
"nV 	c #5D5242",
"oV 	c #8B8A80",
"pV 	c #656558",
"qV 	c #A2A296",
"rV 	c #B7B5A7",
"sV 	c #ADA89F",
"tV 	c #ACA89C",
"uV 	c #A8A299",
"vV 	c #423F31",
"wV 	c #8F877B",
"xV 	c #665E52",
"yV 	c #857D6F",
"zV 	c #4E3F32",
"AV 	c #291E13",
"BV 	c #857F71",
"CV 	c #787163",
"DV 	c #6B6653",
"EV 	c #685C49",
"FV 	c #816D55",
"GV 	c #433824",
"HV 	c #453828",
"IV 	c #7B7566",
"JV 	c #8A827A",
"KV 	c #57574A",
"LV 	c #726550",
"MV 	c #645339",
"NV 	c #6E5E47",
"OV 	c #636457",
"PV 	c #675F57",
"QV 	c #5D5749",
"RV 	c #6E6250",
"SV 	c #5D4D38",
"TV 	c #5A4832",
"UV 	c #2E271B",
"VV 	c #19160E",
"WV 	c #636356",
"XV 	c #706B5D",
"YV 	c #665E54",
"ZV 	c #ACA99E",
"`V 	c #635F58",
" W 	c #949388",
".W 	c #645D55",
"+W 	c #79756E",
"@W 	c #C1BBB0",
"#W 	c #9A988E",
"$W 	c #9F9D93",
"%W 	c #716E66",
"&W 	c #6C665F",
"*W 	c #847C75",
"=W 	c #68675E",
"-W 	c #5E5442",
";W 	c #A5A19A",
">W 	c #6B6357",
",W 	c #9D968B",
"'W 	c #88807A",
")W 	c #827A6E",
"!W 	c #574E46",
"~W 	c #5A5142",
"{W 	c #5A5948",
"]W 	c #726A61",
"^W 	c #6F6755",
"/W 	c #4A4030",
"(W 	c #2D2418",
"_W 	c #AEAC9A",
":W 	c #433722",
"<W 	c #5F5240",
"[W 	c #595343",
"}W 	c #585142",
"|W 	c #60574C",
"1W 	c #746E5D",
"2W 	c #716A59",
"3W 	c #524D48",
"4W 	c #747369",
"5W 	c #555547",
"6W 	c #6C655E",
"7W 	c #2C261B",
"8W 	c #5A493A",
"9W 	c #6A5944",
"0W 	c #64503B",
"aW 	c #4D3A2A",
"bW 	c #4E4133",
"cW 	c #655C54",
"dW 	c #6E6E63",
"eW 	c #8C8575",
"fW 	c #352C20",
"gW 	c #5C5B55",
"hW 	c #AFAC9F",
"iW 	c #A8A59A",
"jW 	c #1B0D01",
"kW 	c #20190E",
"lW 	c #9F9E92",
"mW 	c #88867D",
"nW 	c #7B7A70",
"oW 	c #7D7A73",
"pW 	c #828377",
"qW 	c #4C4133",
"rW 	c #7C7871",
"sW 	c #656658",
"tW 	c #AAA29A",
"uW 	c #A1A295",
"vW 	c #999287",
"wW 	c #858577",
"xW 	c #A5A49A",
"yW 	c #858172",
"zW 	c #787263",
"AW 	c #544B3E",
"BW 	c #837B6C",
"CW 	c #978975",
"DW 	c #736A5A",
"EW 	c #7C796A",
"FW 	c #857E70",
"GW 	c #635744",
"HW 	c #685E49",
"IW 	c #6A6757",
"JW 	c #8D8478",
"KW 	c #887E71",
"LW 	c #7C7767",
"MW 	c #67635B",
"NW 	c #574D3C",
"OW 	c #6D614C",
"PW 	c #473E2E",
"QW 	c #4E3824",
"RW 	c #4E3D29",
"SW 	c #938F87",
"TW 	c #383226",
"UW 	c #8A8274",
"VW 	c #6B6554",
"WW 	c #9F9E91",
"XW 	c #ACA59A",
"YW 	c #949089",
"ZW 	c #816748",
"`W 	c #76695D",
" X 	c #96958A",
".X 	c #B6B0A6",
"+X 	c #7E7F72",
"@X 	c #6C604F",
"#X 	c #87847C",
"$X 	c #ADAB9E",
"%X 	c #7F7A73",
"&X 	c #7C7769",
"*X 	c #77726C",
"=X 	c #766E66",
"-X 	c #928B7D",
";X 	c #656050",
">X 	c #A19990",
",X 	c #90887C",
"'X 	c #9F998D",
")X 	c #645C4F",
"!X 	c #5C5244",
"~X 	c #7D6F5E",
"{X 	c #544837",
"]X 	c #4B3E2A",
"^X 	c #4F3F2C",
"/X 	c #2E241B",
"(X 	c #151310",
"_X 	c #616156",
":X 	c #67685F",
"<X 	c #8B897F",
"[X 	c #88877F",
"}X 	c #8D765A",
"|X 	c #928373",
"1X 	c #A09D94",
"2X 	c #828277",
"3X 	c #A09B92",
"4X 	c #767669",
"5X 	c #635C4D",
"6X 	c #737368",
"7X 	c #7F7670",
"8X 	c #413F33",
"9X 	c #A29C93",
"0X 	c #A19F93",
"aX 	c #8A8A7C",
"bX 	c #ABA89B",
"cX 	c #A4A295",
"dX 	c #AEACA1",
"eX 	c #9C9A90",
"fX 	c #756D66",
"gX 	c #9A9889",
"hX 	c #6C6A5B",
"iX 	c #878475",
"jX 	c #686154",
"kX 	c #817F70",
"lX 	c #8F8B7C",
"mX 	c #443B2E",
"nX 	c #655840",
"oX 	c #5F5D4E",
"pX 	c #5E574A",
"qX 	c #797263",
"rX 	c #4C4432",
"sX 	c #6F624E",
"tX 	c #604E3C",
"uX 	c #473727",
"vX 	c #584735",
"wX 	c #17120D",
"xX 	c #171208",
"yX 	c #393026",
"zX 	c #7C7A6B",
"AX 	c #665D4F",
"BX 	c #545040",
"CX 	c #908A84",
"DX 	c #95958B",
"EX 	c #786C56",
"FX 	c #80786C",
"GX 	c #99978F",
"HX 	c #93928A",
"IX 	c #9D9790",
"JX 	c #A5A096",
"KX 	c #909082",
"LX 	c #7D7566",
"MX 	c #807E77",
"NX 	c #9E9891",
"OX 	c #B6AFA4",
"PX 	c #A49E96",
"QX 	c #929385",
"RX 	c #8C8E81",
"SX 	c #7F7E6E",
"TX 	c #9A9789",
"UX 	c #A7A298",
"VX 	c #9A988B",
"WX 	c #565044",
"XX 	c #837F6F",
"YX 	c #3E372E",
"ZX 	c #978E87",
"`X 	c #867E6F",
" Y 	c #716858",
".Y 	c #685E58",
"+Y 	c #70695A",
"@Y 	c #5C5141",
"#Y 	c #665B4F",
"$Y 	c #3F3825",
"%Y 	c #564937",
"&Y 	c #4B3F2E",
"*Y 	c #3B2D1B",
"=Y 	c #3E3022",
"-Y 	c #372E1E",
";Y 	c #504333",
">Y 	c #98988C",
",Y 	c #A39C91",
"'Y 	c #9D9B92",
")Y 	c #A39A95",
"!Y 	c #6C6B5E",
"~Y 	c #828275",
"{Y 	c #7C756E",
"]Y 	c #5A5B4D",
"^Y 	c #AFADA2",
"/Y 	c #484638",
"(Y 	c #9D958E",
"_Y 	c #78776A",
":Y 	c #A7A69B",
"<Y 	c #89877F",
"[Y 	c #9F978B",
"}Y 	c #79786D",
"|Y 	c #928881",
"1Y 	c #888374",
"2Y 	c #928B82",
"3Y 	c #221A12",
"4Y 	c #2D2A20",
"5Y 	c #241C13",
"6Y 	c #1D170D",
"7Y 	c #574F42",
"8Y 	c #6C6C5F",
"9Y 	c #574C3E",
"0Y 	c #524B3F",
"aY 	c #61574B",
"bY 	c #74726A",
"cY 	c #635C56",
"dY 	c #6A5F51",
"eY 	c #5B5242",
"fY 	c #776A56",
"gY 	c #594C3B",
"hY 	c #705F4C",
"iY 	c #584737",
"jY 	c #4F3F2E",
"kY 	c #423424",
"lY 	c #5A5044",
"mY 	c #342E23",
"nY 	c #7B7971",
"oY 	c #A6A597",
"pY 	c #8A897C",
"qY 	c #746A65",
"rY 	c #8D8B7B",
"sY 	c #525245",
"tY 	c #4C4233",
"uY 	c #A8A499",
"vY 	c #A9A799",
"wY 	c #575244",
"xY 	c #7E7D6E",
"yY 	c #827E6D",
"zY 	c #736C5E",
"AY 	c #5B5244",
"BY 	c #989082",
"CY 	c #746B5D",
"DY 	c #706C5B",
"EY 	c #827F6F",
"FY 	c #999484",
"GY 	c #837C70",
"HY 	c #959083",
"IY 	c #7C756D",
"JY 	c #6F6758",
"KY 	c #3E3B2D",
"LY 	c #73685C",
"MY 	c #6B625B",
"NY 	c #918A7B",
"OY 	c #514431",
"PY 	c #564634",
"QY 	c #685543",
"RY 	c #4D3F28",
"SY 	c #705D4B",
"TY 	c #6C5E52",
"UY 	c #453B34",
"VY 	c #807871",
"WY 	c #6B6A62",
"XY 	c #918D85",
"YY 	c #837E78",
"ZY 	c #2C251C",
"`Y 	c #8F8D84",
" Z 	c #858579",
".Z 	c #615948",
"+Z 	c #5D5D52",
"@Z 	c #B4B2A3",
"#Z 	c #8A837D",
"$Z 	c #8D8C7F",
"%Z 	c #8B8677",
"&Z 	c #545141",
"*Z 	c #A19F8E",
"=Z 	c #655F51",
"-Z 	c #978F85",
";Z 	c #3C2F21",
">Z 	c #6C6150",
",Z 	c #231C14",
"'Z 	c #787169",
")Z 	c #797163",
"!Z 	c #726755",
"~Z 	c #584D3C",
"{Z 	c #71614E",
"]Z 	c #60513E",
"^Z 	c #675A47",
"/Z 	c #6E5E4C",
"(Z 	c #6F6450",
"_Z 	c #0C0807",
":Z 	c #686555",
"<Z 	c #6C635D",
"[Z 	c #655D4F",
"}Z 	c #4B493D",
"|Z 	c #A19E96",
"1Z 	c #ABA99F",
"2Z 	c #ACA69A",
"3Z 	c #ACA79D",
"4Z 	c #8B837A",
"5Z 	c #807971",
"6Z 	c #A2A093",
"7Z 	c #646455",
"8Z 	c #5D4C32",
"9Z 	c #473A28",
"0Z 	c #594F44",
"aZ 	c #6A655E",
"bZ 	c #65635D",
"cZ 	c #96958C",
"dZ 	c #625C4C",
"eZ 	c #776E5A",
"fZ 	c #7C6E5C",
"gZ 	c #6B624A",
"hZ 	c #6A5F49",
"iZ 	c #594B3B",
"jZ 	c #493A2D",
"kZ 	c #85827B",
"lZ 	c #9D968A",
"mZ 	c #2D241B",
"nZ 	c #291D13",
"oZ 	c #1A1A17",
"pZ 	c #B8B5A8",
"qZ 	c #77796C",
"rZ 	c #807C75",
"sZ 	c #9D9994",
"tZ 	c #787464",
"uZ 	c #696858",
"vZ 	c #A7A197",
"wZ 	c #958E87",
"xZ 	c #645B4E",
"yZ 	c #676658",
"zZ 	c #6F6C65",
"AZ 	c #8E8781",
"BZ 	c #B0B0A5",
"CZ 	c #3F3C2F",
"DZ 	c #ADA59D",
"EZ 	c #AAA59A",
"FZ 	c #929184",
"GZ 	c #665C4F",
"HZ 	c #99998C",
"IZ 	c #706759",
"JZ 	c #383126",
"KZ 	c #614D3A",
"LZ 	c #746B59",
"MZ 	c #322D22",
"NZ 	c #756D61",
"OZ 	c #6A6455",
"PZ 	c #736B5E",
"QZ 	c #968B7A",
"RZ 	c #7C6E57",
"SZ 	c #91846D",
"TZ 	c #5A4B38",
"UZ 	c #554B3C",
"VZ 	c #2C251E",
"WZ 	c #978D84",
"XZ 	c #8F9083",
"YZ 	c #A1A096",
"ZZ 	c #685F56",
"`Z 	c #5D5148",
" ` 	c #31241B",
".` 	c #4C392A",
"+` 	c #422B19",
"@` 	c #2E1F11",
"#` 	c #B6B3AB",
"$` 	c #9D9891",
"%` 	c #ACA89F",
"&` 	c #99928F",
"*` 	c #3A372C",
"=` 	c #87867C",
"-` 	c #727161",
";` 	c #5A554E",
">` 	c #88857D",
",` 	c #3F382B",
"'` 	c #5F5A54",
")` 	c #727069",
"!` 	c #8D847A",
"~` 	c #79726C",
"{` 	c #6A635C",
"]` 	c #5D5446",
"^` 	c #B3AEA0",
"/` 	c #8C8377",
"(` 	c #6D655A",
"_` 	c #534A3A",
":` 	c #918D7E",
"<` 	c #5D4F39",
"[` 	c #443526",
"}` 	c #655C50",
"|` 	c #645D50",
"1` 	c #1F1C15",
"2` 	c #6C6158",
"3` 	c #322D25",
"4` 	c #211B16",
"5` 	c #766E5E",
"6` 	c #564C42",
"7` 	c #6E6654",
"8` 	c #897D66",
"9` 	c #736554",
"0` 	c #67604D",
"a` 	c #594D40",
"b` 	c #5B5A51",
"c` 	c #85837A",
"d` 	c #8A8680",
"e` 	c #A6A29B",
"f` 	c #958E81",
"g` 	c #4A351F",
"h` 	c #5A442F",
"i` 	c #533A1D",
"j` 	c #5A4025",
"k` 	c #573E25",
"l` 	c #0B0600",
"m` 	c #919086",
"n` 	c #858079",
"o` 	c #A19D94",
"p` 	c #585049",
"q` 	c #17130C",
"r` 	c #57574B",
"s` 	c #88847D",
"t` 	c #B3AFA5",
"u` 	c #6B655E",
"v` 	c #555040",
"w` 	c #4F5043",
"x` 	c #696660",
"y` 	c #9D9A92",
"z` 	c #79796C",
"A` 	c #85837B",
"B` 	c #989688",
"C` 	c #323126",
"D` 	c #535041",
"E` 	c #9B9588",
"F` 	c #ABA89A",
"G` 	c #8D8B83",
"H` 	c #B4AEA2",
"I` 	c #8B8B7E",
"J` 	c #A3A095",
"K` 	c #ADA99C",
"L` 	c #A4A296",
"M` 	c #807766",
"N` 	c #3C372A",
"O` 	c #4F493E",
"P` 	c #7B736C",
"Q` 	c #545144",
"R` 	c #44382A",
"S` 	c #594331",
"T` 	c #675E56",
"U` 	c #575648",
"V` 	c #2C2923",
"W` 	c #716D69",
"X` 	c #676059",
"Y` 	c #2F2922",
"Z` 	c #21180E",
"`` 	c #271D0F",
"  .	c #2C1B0E",
". .	c #181108",
"+ .	c #2E281D",
"@ .	c #332C24",
"# .	c #322F24",
"$ .	c #1B1710",
"% .	c #2F2821",
"& .	c #60564A",
"* .	c #625449",
"= .	c #67594D",
"- .	c #70665A",
"; .	c #312922",
"> .	c #18130C",
", .	c #201E19",
"' .	c #1F1A11",
") .	c #322F25",
"! .	c #615951",
"~ .	c #3B3329",
"{ .	c #3A3024",
"] .	c #25170C",
"^ .	c #201106",
"/ .	c #140702",
"( .	c #150B02",
"_ .	c #060000",
": .	c #1F170F",
"< .	c #484541",
"[ .	c #342E25",
"} .	c #2B251C",
"| .	c #19140D",
"1 .	c #242017",
"2 .	c #3D3B2C",
"3 .	c #372F27",
"4 .	c #383328",
"5 .	c #343126",
"6 .	c #211D11",
"7 .	c #2F2822",
"8 .	c #1C150D",
"9 .	c #242018",
"0 .	c #2A241D",
"a .	c #1B170D",
"b .	c #221C15",
"c .	c #1D1B15",
"d .	c #221D18",
"e .	c #14110A",
"f .	c #1A170D",
"g .	c #2E281F",
"h .	c #27231E",
"i .	c #1D1713",
"j .	c #1F1D15",
"k .	c #1E1813",
"l .	c #0F0E05",
"m .	c #1E1A11",
"n .	c #1A150B",
"o .	c #2A2619",
"p .	c #0A0800",
"q .	c #2C271E",
"r .	c #140C07",
"s .	c #15120C",
"t .	c #0E0905",
"u .	c #12130B",
"v .	c #1E1A12",
"w .	c #17120E",
"x .	c #55503F",
"y .	c #373429",
"z .	c #171610",
"A .	c #1B190E",
"B .	c #0C0D05",
"C .	c #1E1913",
"D .	c #201D19",
"E .	c #1E1910",
"F .	c #231F14",
"G .	c #201B12",
"H .	c #241E16",
"I .	c #221C14",
"J .	c #150D07",
"K .	c #151009",
"L .	c #1A130B",
"M .	c #0F0901",
"N .	c #181711",
"O .	c #110A05",
"P .	c #18160B",
"Q .	c #231E17",
"R .	c #1C1810",
"S .	c #24201A",
"T .	c #252118",
"U .	c #272119",
"V .	c #251F15",
"W .	c #1E190E",
"X .	c #2D2B22",
"Y .	c #1B1A11",
"Z .	c #221D16",
"` .	c #1D140D",
" ..	c #2A231C",
"...	c #251E17",
"+..	c #272418",
"@..	c #261D14",
"#..	c #1A130D",
"$..	c #141108",
"%..	c #1F1B11",
"&..	c #2C231A",
"*..	c #261F16",
"=..	c #2E261C",
"-..	c #6B6458",
";..	c #252218",
">..	c #1B160D",
",..	c #322E23",
"'..	c #1F1810",
")..	c #0E0E04",
"!..	c #25211A",
"~..	c #312B21",
"{..	c #262116",
"]..	c #1B1510",
"^..	c #302921",
"/..	c #2B2924",
"(..	c #25221C",
"_..	c #222218",
":..	c #2D2822",
"<..	c #463F33",
"[..	c #4B4432",
"}..	c #3A3327",
"|..	c #342D23",
"1..	c #5B5545",
"2..	c #1C160E",
"3..	c #2B2219",
"4..	c #222016",
"5..	c #312F24",
"6..	c #251F16",
"7..	c #4A4237",
"8..	c #312A22",
"9..	c #332E26",
"0..	c #373024",
"a..	c #2F291F",
"b..	c #201C15",
"c..	c #3D362E",
"d..	c #150C07",
"e..	c #201A15",
"f..	c #1C190F",
"g..	c #2D261D",
"h..	c #352E26",
"i..	c #363027",
"j..	c #434034",
"k..	c #15150C",
"l..	c #2B251F",
"m..	c #19140E",
"n..	c #27241E",
"o..	c #231D19",
"p..	c #070300",
"q..	c #120D07",
"r..	c #0D0600",
"s..	c #372616",
"t..	c #473F32",
"u..	c #5D5748",
"v..	c #3A2F24",
"w..	c #362F26",
"x..	c #322210",
"y..	c #3C2716",
"z..	c #45321E",
"A..	c #9A8164",
"B..	c #604E35",
"C..	c #3C2815",
"D..	c #6F6354",
"E..	c #846E4D",
"F..	c #5E482B",
"G..	c #867054",
"H..	c #A69E8C",
"I..	c #6C6757",
"J..	c #716656",
"K..	c #9E907C",
"L..	c #665C4A",
"M..	c #88806F",
"N..	c #8D836F",
"O..	c #695A48",
"P..	c #41342A",
"Q..	c #A8A59C",
"R..	c #BBB8AC",
"S..	c #322E21",
"T..	c #655E4C",
"U..	c #3B2D1C",
"V..	c #685945",
"W..	c #3F2B16",
"X..	c #4C3522",
"Y..	c #4E3B27",
"Z..	c #412C15",
"`..	c #B8B4A9",
" +.	c #534D3F",
".+.	c #4D4B3D",
"++.	c #696159",
"@+.	c #59564D",
"#+.	c #656559",
"$+.	c #918A83",
"%+.	c #625949",
"&+.	c #55534B",
"*+.	c #A39E95",
"=+.	c #8C8677",
"-+.	c #898274",
";+.	c #A6A69A",
">+.	c #8C857E",
",+.	c #383123",
"'+.	c #262111",
")+.	c #979283",
"!+.	c #79766E",
"~+.	c #645B4C",
"{+.	c #443C2F",
"]+.	c #564C3E",
"^+.	c #54483B",
"/+.	c #150D05",
"(+.	c #807B6C",
"_+.	c #5B5A4B",
":+.	c #332C22",
"<+.	c #5D5447",
"[+.	c #796D59",
"}+.	c #5C5548",
"|+.	c #66635C",
"1+.	c #70675C",
"2+.	c #5F452E",
"3+.	c #472B12",
"4+.	c #563924",
"5+.	c #4C311B",
"6+.	c #563C26",
"7+.	c #402A17",
"8+.	c #21140B",
"9+.	c #6C5F4F",
"0+.	c #896C45",
"a+.	c #67482B",
"b+.	c #53412C",
"c+.	c #8D8473",
"d+.	c #9C917E",
"e+.	c #978C76",
"f+.	c #786A54",
"g+.	c #574733",
"h+.	c #605643",
"i+.	c #726652",
"j+.	c #554A3A",
"k+.	c #705F4F",
"l+.	c #26231A",
"m+.	c #75706A",
"n+.	c #857D70",
"o+.	c #231A0F",
"p+.	c #221D1B",
"q+.	c #A19C8C",
"r+.	c #9B948C",
"s+.	c #342619",
"t+.	c #534A40",
"u+.	c #4A3F32",
"v+.	c #402D17",
"w+.	c #483323",
"x+.	c #6B4B2E",
"y+.	c #513418",
"z+.	c #634629",
"A+.	c #715234",
"B+.	c #958E8A",
"C+.	c #73695A",
"D+.	c #71675B",
"E+.	c #514436",
"F+.	c #7A726C",
"G+.	c #B0AC9F",
"H+.	c #ACA39A",
"I+.	c #8C897B",
"J+.	c #808173",
"K+.	c #817C6F",
"L+.	c #838071",
"M+.	c #959082",
"N+.	c #837A6F",
"O+.	c #8E867F",
"P+.	c #534A43",
"Q+.	c #5C5446",
"R+.	c #686252",
"S+.	c #544A3C",
"T+.	c #A29B94",
"U+.	c #777968",
"V+.	c #393328",
"W+.	c #3D322B",
"X+.	c #453D33",
"Y+.	c #2C2619",
"Z+.	c #7A7160",
"`+.	c #86867B",
" @.	c #949189",
".@.	c #644423",
"+@.	c #62472A",
"@@.	c #4B331C",
"#@.	c #472A12",
"$@.	c #4F361D",
"%@.	c #5D4127",
"&@.	c #4A3217",
"*@.	c #8B6A42",
"=@.	c #7D5C38",
"-@.	c #614623",
";@.	c #604220",
">@.	c #6C4E33",
",@.	c #594935",
"'@.	c #897A65",
")@.	c #6D5D43",
"!@.	c #4F3F26",
"~@.	c #6C593E",
"{@.	c #79674E",
"]@.	c #665741",
"^@.	c #594C35",
"/@.	c #7A6854",
"(@.	c #736350",
"_@.	c #2A221A",
":@.	c #938E87",
"<@.	c #B2B0A8",
"[@.	c #594430",
"}@.	c #4F3B23",
"|@.	c #4E3E2D",
"1@.	c #261B12",
"2@.	c #292218",
"3@.	c #392617",
"4@.	c #3B2715",
"5@.	c #523B28",
"6@.	c #523B25",
"7@.	c #513B23",
"8@.	c #6C4F2F",
"9@.	c #543920",
"0@.	c #593D21",
"a@.	c #6D502F",
"b@.	c #5E3D1E",
"c@.	c #4B3019",
"d@.	c #827A71",
"e@.	c #707065",
"f@.	c #76766B",
"g@.	c #848079",
"h@.	c #6A6861",
"i@.	c #544A3B",
"j@.	c #757668",
"k@.	c #9D958B",
"l@.	c #757667",
"m@.	c #3C372B",
"n@.	c #A6A092",
"o@.	c #A4A394",
"p@.	c #868173",
"q@.	c #827B6B",
"r@.	c #7C7265",
"s@.	c #79796B",
"t@.	c #8A8878",
"u@.	c #5A4F42",
"v@.	c #483A2B",
"w@.	c #372D1F",
"x@.	c #645E4F",
"y@.	c #89887A",
"z@.	c #8D8A82",
"A@.	c #827C6B",
"B@.	c #775943",
"C@.	c #482C13",
"D@.	c #5A3E23",
"E@.	c #644628",
"F@.	c #5E4226",
"G@.	c #7B5B39",
"H@.	c #5E4020",
"I@.	c #8C6E47",
"J@.	c #614324",
"K@.	c #765530",
"L@.	c #462C13",
"M@.	c #806449",
"N@.	c #685B4B",
"O@.	c #7A644D",
"P@.	c #8D7857",
"Q@.	c #947F62",
"R@.	c #7E694F",
"S@.	c #786648",
"T@.	c #776750",
"U@.	c #675642",
"V@.	c #63563F",
"W@.	c #6E573D",
"X@.	c #584329",
"Y@.	c #5D472F",
"Z@.	c #5F4934",
"`@.	c #50361D",
" #.	c #5A4327",
".#.	c #694F30",
"+#.	c #65472C",
"@#.	c #6C4F31",
"##.	c #573C20",
"$#.	c #785836",
"%#.	c #644524",
"&#.	c #604222",
"*#.	c #5B3F25",
"=#.	c #78583A",
"-#.	c #907050",
";#.	c #979483",
">#.	c #B7B0AA",
",#.	c #736B62",
"'#.	c #A6A19A",
")#.	c #797B6E",
"!#.	c #9D9993",
"~#.	c #787161",
"{#.	c #636254",
"]#.	c #8C8279",
"^#.	c #312112",
"/#.	c #6D6857",
"(#.	c #8B8374",
"_#.	c #88887E",
":#.	c #B5B1A8",
"<#.	c #BBB5AD",
"[#.	c #676354",
"}#.	c #443B2C",
"|#.	c #5F5847",
"1#.	c #716F60",
"2#.	c #989385",
"3#.	c #6C6657",
"4#.	c #776B5D",
"5#.	c #6D5E4D",
"6#.	c #5E5548",
"7#.	c #6A6054",
"8#.	c #747363",
"9#.	c #47483A",
"0#.	c #28231F",
"a#.	c #5D554C",
"b#.	c #B3AEA1",
"c#.	c #6F7066",
"d#.	c #3C2E20",
"e#.	c #2F2519",
"f#.	c #958A78",
"g#.	c #4C3518",
"h#.	c #65462D",
"i#.	c #5E4329",
"j#.	c #7D5C39",
"k#.	c #6C4D2B",
"l#.	c #6F5033",
"m#.	c #765535",
"n#.	c #72502E",
"o#.	c #684927",
"p#.	c #624120",
"q#.	c #624121",
"r#.	c #664829",
"s#.	c #82674A",
"t#.	c #745D3D",
"u#.	c #897252",
"v#.	c #78613F",
"w#.	c #A18968",
"x#.	c #8F7857",
"y#.	c #7A6341",
"z#.	c #6B573D",
"A#.	c #73604B",
"B#.	c #554733",
"C#.	c #483F36",
"D#.	c #796B5A",
"E#.	c #755E46",
"F#.	c #655039",
"G#.	c #806A50",
"H#.	c #755B3F",
"I#.	c #563D26",
"J#.	c #593F28",
"K#.	c #6E4F2F",
"L#.	c #4E3211",
"M#.	c #613E1B",
"N#.	c #5C3D25",
"O#.	c #4D3217",
"P#.	c #745737",
"Q#.	c #624421",
"R#.	c #543B1E",
"S#.	c #6B4E31",
"T#.	c #362714",
"U#.	c #A29A91",
"V#.	c #9A948A",
"W#.	c #A9A89B",
"X#.	c #8E8C83",
"Y#.	c #97988C",
"Z#.	c #675E4F",
"`#.	c #5D564F",
" $.	c #87867D",
".$.	c #A19E94",
"+$.	c #766F68",
"@$.	c #89897C",
"#$.	c #A39B92",
"$$.	c #646556",
"%$.	c #4B4535",
"&$.	c #9C927C",
"*$.	c #534737",
"=$.	c #847F71",
"-$.	c #8F8B7B",
";$.	c #5B5746",
">$.	c #746D59",
",$.	c #484235",
"'$.	c #9F9A8C",
")$.	c #A29C94",
"!$.	c #473C32",
"~$.	c #2F261B",
"{$.	c #6B5D50",
"]$.	c #675F4E",
"^$.	c #595145",
"/$.	c #5D5345",
"($.	c #8D826F",
"_$.	c #857D71",
":$.	c #6C6556",
"<$.	c #63533C",
"[$.	c #604832",
"}$.	c #50341F",
"|$.	c #5F442C",
"1$.	c #5B3D25",
"2$.	c #694D2E",
"3$.	c #6D4D2D",
"4$.	c #816141",
"5$.	c #5F4122",
"6$.	c #553818",
"7$.	c #7D5A3B",
"8$.	c #56391C",
"9$.	c #5F4120",
"0$.	c #583C1E",
"a$.	c #75593C",
"b$.	c #836748",
"c$.	c #796042",
"d$.	c #876D4D",
"e$.	c #7E6647",
"f$.	c #8D714C",
"g$.	c #7E6141",
"h$.	c #6A4E38",
"i$.	c #655239",
"j$.	c #735D43",
"k$.	c #584434",
"l$.	c #696156",
"m$.	c #282115",
"n$.	c #705F4B",
"o$.	c #715D42",
"p$.	c #513D26",
"q$.	c #513F27",
"r$.	c #755C46",
"s$.	c #553E1F",
"t$.	c #694E30",
"u$.	c #654521",
"v$.	c #71502F",
"w$.	c #73512B",
"x$.	c #53381F",
"y$.	c #6F5335",
"z$.	c #60401E",
"A$.	c #9C7D59",
"B$.	c #826243",
"C$.	c #B1AA97",
"D$.	c #9E9D93",
"E$.	c #A6A497",
"F$.	c #9F9B92",
"G$.	c #B3B0A0",
"H$.	c #877F71",
"I$.	c #A09D96",
"J$.	c #958D87",
"K$.	c #979788",
"L$.	c #77796D",
"M$.	c #9A978F",
"N$.	c #564A3B",
"O$.	c #9E9991",
"P$.	c #8A817B",
"Q$.	c #8F867E",
"R$.	c #B8B6A9",
"S$.	c #A8A49A",
"T$.	c #A39B91",
"U$.	c #433C2E",
"V$.	c #8E8879",
"W$.	c #2C241E",
"X$.	c #241B17",
"Y$.	c #877F6F",
"Z$.	c #16100A",
"`$.	c #7C7066",
" %.	c #827C69",
".%.	c #81796F",
"+%.	c #8F897A",
"@%.	c #686050",
"#%.	c #827C6D",
"$%.	c #B5B2A4",
"%%.	c #898074",
"&%.	c #4A3E30",
"*%.	c #73644E",
"=%.	c #6D6355",
"-%.	c #736C5D",
";%.	c #7F7A69",
">%.	c #574E3D",
",%.	c #4B4436",
"'%.	c #99978D",
")%.	c #7B7768",
"!%.	c #463526",
"~%.	c #4C351D",
"{%.	c #40280F",
"]%.	c #4C2F18",
"^%.	c #54391C",
"/%.	c #84643D",
"(%.	c #55351A",
"_%.	c #755631",
":%.	c #735230",
"<%.	c #795836",
"[%.	c #71512D",
"}%.	c #81613B",
"|%.	c #694B2F",
"1%.	c #5B3B17",
"2%.	c #72543A",
"3%.	c #584024",
"4%.	c #694C30",
"5%.	c #593B1B",
"6%.	c #7F613F",
"7%.	c #705334",
"8%.	c #886D47",
"9%.	c #75583B",
"0%.	c #684D30",
"a%.	c #574121",
"b%.	c #755B3C",
"c%.	c #573E27",
"d%.	c #1D160F",
"e%.	c #B6B2A8",
"f%.	c #2B251D",
"g%.	c #3A2D23",
"h%.	c #6A5C47",
"i%.	c #33281B",
"j%.	c #494440",
"k%.	c #2F2B1F",
"l%.	c #8F7E66",
"m%.	c #725F44",
"n%.	c #7A6348",
"o%.	c #6C5639",
"p%.	c #785F3E",
"q%.	c #765B36",
"r%.	c #6F4E2C",
"s%.	c #714D2D",
"t%.	c #6F4D2D",
"u%.	c #644124",
"v%.	c #462A13",
"w%.	c #74512F",
"x%.	c #74512E",
"y%.	c #594227",
"z%.	c #AAA396",
"A%.	c #ACAA9E",
"B%.	c #423F2E",
"C%.	c #161207",
"D%.	c #64594A",
"E%.	c #8F8A82",
"F%.	c #786D67",
"G%.	c #877F72",
"H%.	c #A09E91",
"I%.	c #887F6C",
"J%.	c #604F3C",
"K%.	c #392315",
"L%.	c #4E3620",
"M%.	c #7A7564",
"N%.	c #908D7E",
"O%.	c #6E6755",
"P%.	c #7C7157",
"Q%.	c #584F43",
"R%.	c #645C50",
"S%.	c #928B79",
"T%.	c #928878",
"U%.	c #685C4C",
"V%.	c #6A6554",
"W%.	c #534B3D",
"X%.	c #262219",
"Y%.	c #49473A",
"Z%.	c #9A9385",
"`%.	c #3D301A",
" &.	c #6E5335",
".&.	c #51391B",
"+&.	c #583B22",
"@&.	c #614423",
"#&.	c #5D3C20",
"$&.	c #61452A",
"%&.	c #5A3B1C",
"&&.	c #6D4A2E",
"*&.	c #694B26",
"=&.	c #6C4E2F",
"-&.	c #725430",
";&.	c #7A5E3F",
">&.	c #7E6343",
",&.	c #816342",
"'&.	c #76593A",
")&.	c #583A1A",
"!&.	c #6B4C2B",
"~&.	c #806140",
"{&.	c #6B4D29",
"]&.	c #876B48",
"^&.	c #836A4C",
"/&.	c #6F5A3D",
"(&.	c #674A2A",
"_&.	c #967655",
":&.	c #856441",
"<&.	c #7D6345",
"[&.	c #33251D",
"}&.	c #110900",
"|&.	c #241A0D",
"1&.	c #433520",
"2&.	c #4F4230",
"3&.	c #5D4935",
"4&.	c #6F604B",
"5&.	c #574B3A",
"6&.	c #574937",
"7&.	c #483D2F",
"8&.	c #503E2A",
"9&.	c #6D5941",
"0&.	c #624E36",
"a&.	c #563E27",
"b&.	c #5C442A",
"c&.	c #5C4028",
"d&.	c #765C39",
"e&.	c #7F5E3B",
"f&.	c #623F1B",
"g&.	c #523419",
"h&.	c #603E19",
"i&.	c #523515",
"j&.	c #6D4F31",
"k&.	c #664428",
"l&.	c #4B3010",
"m&.	c #B0AAA1",
"n&.	c #7F7F71",
"o&.	c #8B8379",
"p&.	c #B5B3A7",
"q&.	c #98978B",
"r&.	c #787160",
"s&.	c #746E68",
"t&.	c #7A7970",
"u&.	c #6F6F62",
"v&.	c #959487",
"w&.	c #A5A099",
"x&.	c #AFAAA2",
"y&.	c #9C9990",
"z&.	c #A39E8D",
"A&.	c #837B75",
"B&.	c #B9B4A8",
"C&.	c #6A615A",
"D&.	c #756D5E",
"E&.	c #908974",
"F&.	c #533E21",
"G&.	c #503C23",
"H&.	c #706653",
"I&.	c #64584A",
"J&.	c #5B5546",
"K&.	c #544B41",
"L&.	c #928A7A",
"M&.	c #605647",
"N&.	c #796C5C",
"O&.	c #888173",
"P&.	c #645D51",
"Q&.	c #6F695B",
"R&.	c #7C7468",
"S&.	c #817B73",
"T&.	c #7A6A53",
"U&.	c #6A4F31",
"V&.	c #694D2A",
"W&.	c #64472A",
"X&.	c #845F3F",
"Y&.	c #73522E",
"Z&.	c #684C28",
"`&.	c #836345",
" *.	c #735334",
".*.	c #604223",
"+*.	c #664822",
"@*.	c #85643C",
"#*.	c #6C543C",
"$*.	c #6A4724",
"%*.	c #8D6D45",
"&*.	c #81613C",
"**.	c #6D512D",
"=*.	c #604123",
"-*.	c #886C4C",
";*.	c #715432",
">*.	c #6F5637",
",*.	c #604628",
"'*.	c #8E7153",
")*.	c #58402A",
"!*.	c #644725",
"~*.	c #715530",
"{*.	c #6B5231",
"]*.	c #3E2B17",
"^*.	c #524130",
"/*.	c #5C4833",
"(*.	c #52402A",
"_*.	c #55452E",
":*.	c #766853",
"<*.	c #8A7C65",
"[*.	c #5C4E39",
"}*.	c #82735C",
"|*.	c #63523E",
"1*.	c #74644D",
"2*.	c #918165",
"3*.	c #87755F",
"4*.	c #755D44",
"5*.	c #82694D",
"6*.	c #6B5337",
"7*.	c #806842",
"8*.	c #72542D",
"9*.	c #7B5B37",
"0*.	c #734D2C",
"a*.	c #6A4827",
"b*.	c #6F4F2B",
"c*.	c #59391B",
"d*.	c #6D4B2E",
"e*.	c #9B815F",
"f*.	c #939288",
"g*.	c #2B271F",
"h*.	c #7D7669",
"i*.	c #8B8778",
"j*.	c #AEABA1",
"k*.	c #979087",
"l*.	c #827A74",
"m*.	c #827867",
"n*.	c #767069",
"o*.	c #9A948D",
"p*.	c #68665E",
"q*.	c #686556",
"r*.	c #A0988E",
"s*.	c #B2ABA1",
"t*.	c #675E4E",
"u*.	c #A9A59C",
"v*.	c #8D8982",
"w*.	c #A9A79D",
"x*.	c #A5A197",
"y*.	c #D7D3C4",
"z*.	c #7D6547",
"A*.	c #6F563C",
"B*.	c #1F160D",
"C*.	c #A29D8D",
"D*.	c #6D6C5D",
"E*.	c #6E6D5E",
"F*.	c #A59F92",
"G*.	c #6A583D",
"H*.	c #7F705A",
"I*.	c #7B705E",
"J*.	c #716657",
"K*.	c #534C3E",
"L*.	c #70675B",
"M*.	c #716760",
"N*.	c #5D5650",
"O*.	c #797065",
"P*.	c #4E3E2B",
"Q*.	c #4E3823",
"R*.	c #664D2C",
"S*.	c #7C5D3A",
"T*.	c #705032",
"U*.	c #64421E",
"V*.	c #684523",
"W*.	c #634524",
"X*.	c #725431",
"Y*.	c #735436",
"Z*.	c #886B4A",
"`*.	c #513822",
" =.	c #785434",
".=.	c #7B5A34",
"+=.	c #866644",
"@=.	c #9A7C55",
"#=.	c #704F2E",
"$=.	c #6D4F2F",
"%=.	c #997C5F",
"&=.	c #917852",
"*=.	c #684D2F",
"==.	c #735737",
"-=.	c #573B24",
";=.	c #624429",
">=.	c #674B29",
",=.	c #6E4F2D",
"'=.	c #594027",
")=.	c #432C19",
"!=.	c #574129",
"~=.	c #7B6653",
"{=.	c #5B4732",
"]=.	c #7C6750",
"^=.	c #6B5D46",
"/=.	c #594C36",
"(=.	c #8E826D",
"_=.	c #655742",
":=.	c #6F5E47",
"<=.	c #6F5E49",
"[=.	c #846E5B",
"}=.	c #8A775B",
"|=.	c #6B553C",
"1=.	c #816A4B",
"2=.	c #543E25",
"3=.	c #806341",
"4=.	c #8E7048",
"5=.	c #69492A",
"6=.	c #6D4D2A",
"7=.	c #654426",
"8=.	c #694727",
"9=.	c #6E4C2C",
"0=.	c #694B29",
"a=.	c #4F3C26",
"b=.	c #9A958E",
"c=.	c #98918A",
"d=.	c #988F87",
"e=.	c #ABA99C",
"f=.	c #413E32",
"g=.	c #A0998E",
"h=.	c #6E6352",
"i=.	c #79786F",
"j=.	c #A3A195",
"k=.	c #807663",
"l=.	c #A79178",
"m=.	c #655B53",
"n=.	c #201C10",
"o=.	c #795C42",
"p=.	c #876B46",
"q=.	c #675238",
"r=.	c #37281B",
"s=.	c #8E887B",
"t=.	c #72614C",
"u=.	c #7A705E",
"v=.	c #7B705D",
"w=.	c #6C6151",
"x=.	c #797064",
"y=.	c #796E62",
"z=.	c #201911",
"A=.	c #878273",
"B=.	c #7A7166",
"C=.	c #8A8475",
"D=.	c #19160F",
"E=.	c #2B2316",
"F=.	c #4F4231",
"G=.	c #7C715D",
"H=.	c #948465",
"I=.	c #80633F",
"J=.	c #775831",
"K=.	c #896339",
"L=.	c #6A4826",
"M=.	c #806643",
"N=.	c #583D28",
"O=.	c #46311D",
"P=.	c #503927",
"Q=.	c #4C3423",
"R=.	c #654F35",
"S=.	c #805B32",
"T=.	c #7E5D37",
"U=.	c #72542F",
"V=.	c #6D4A23",
"W=.	c #674726",
"X=.	c #84643C",
"Y=.	c #AF9370",
"Z=.	c #604526",
"`=.	c #806240",
" -.	c #765C40",
".-.	c #7C6145",
"+-.	c #785935",
"@-.	c #745738",
"#-.	c #70593C",
"$-.	c #654E31",
"%-.	c #644A2D",
"&-.	c #64503A",
"*-.	c #836B4D",
"=-.	c #857155",
"--.	c #67553C",
";-.	c #7E6C54",
">-.	c #6C5E45",
",-.	c #625035",
"'-.	c #635238",
")-.	c #5A4A30",
"!-.	c #88775D",
"~-.	c #9C8B70",
"{-.	c #887156",
"]-.	c #917D60",
"^-.	c #6B5539",
"/-.	c #775A3A",
"(-.	c #886C45",
"_-.	c #63462A",
":-.	c #52371D",
"<-.	c #603D1F",
"[-.	c #8B6B42",
"}-.	c #937550",
"|-.	c #694D36",
"1-.	c #2A1F13",
"2-.	c #4F504B",
"3-.	c #BCB7AD",
"4-.	c #99998D",
"5-.	c #828177",
"6-.	c #9E968D",
"7-.	c #5C5C4D",
"8-.	c #605947",
"9-.	c #A6A799",
"0-.	c #B5B0A5",
"a-.	c #4F4938",
"b-.	c #897D67",
"c-.	c #8E8273",
"d-.	c #ADA89C",
"e-.	c #9E9E92",
"f-.	c #6D6B5C",
"g-.	c #3E362B",
"h-.	c #6B6857",
"i-.	c #A99F8C",
"j-.	c #685639",
"k-.	c #65492C",
"l-.	c #4C3018",
"m-.	c #39220A",
"n-.	c #5E4831",
"o-.	c #1F1712",
"p-.	c #706855",
"q-.	c #796F60",
"r-.	c #7F7464",
"s-.	c #948D7F",
"t-.	c #625A4E",
"u-.	c #544C44",
"v-.	c #B3ABA1",
"w-.	c #7B736B",
"x-.	c #6A614F",
"y-.	c #B6AC9C",
"z-.	c #6C6355",
"A-.	c #2B2822",
"B-.	c #AAA79D",
"C-.	c #565342",
"D-.	c #675E50",
"E-.	c #7B7264",
"F-.	c #806F54",
"G-.	c #5F4124",
"H-.	c #60482F",
"I-.	c #594127",
"J-.	c #67482A",
"K-.	c #664729",
"L-.	c #6A5239",
"M-.	c #5A3E1E",
"N-.	c #5D442A",
"O-.	c #7C5C36",
"P-.	c #8F6E45",
"Q-.	c #886843",
"R-.	c #7A5835",
"S-.	c #846037",
"T-.	c #6B4B2D",
"U-.	c #654727",
"V-.	c #755735",
"W-.	c #765735",
"X-.	c #63472A",
"Y-.	c #5C3E22",
"Z-.	c #735535",
"`-.	c #6C4929",
" ;.	c #674C2C",
".;.	c #785A40",
"+;.	c #7C5F3B",
"@;.	c #4D3A1F",
"#;.	c #765D45",
"$;.	c #6C553B",
"%;.	c #847258",
"&;.	c #76654C",
"*;.	c #87765E",
"=;.	c #816E55",
"-;.	c #6F5E46",
";;.	c #766149",
">;.	c #817056",
",;.	c #86735A",
"';.	c #534327",
");.	c #7A654A",
"!;.	c #412C17",
"~;.	c #664825",
"{;.	c #6E4722",
"];.	c #8B683D",
"^;.	c #947147",
"/;.	c #6E4A23",
"(;.	c #664323",
"_;.	c #85633C",
":;.	c #775434",
"<;.	c #654423",
"[;.	c #452E16",
"};.	c #1D1605",
"|;.	c #BBBAAC",
"1;.	c #97978C",
"2;.	c #6A6252",
"3;.	c #9F9789",
"4;.	c #8C8977",
"5;.	c #B0A99F",
"6;.	c #90877C",
"7;.	c #5C5246",
"8;.	c #928067",
"9;.	c #59442B",
"0;.	c #644D2F",
"a;.	c #7C5E38",
"b;.	c #7A5F3C",
"c;.	c #705437",
"d;.	c #45301A",
"e;.	c #211A13",
"f;.	c #A09E90",
"g;.	c #5E594B",
"h;.	c #81796D",
"i;.	c #645D4D",
"j;.	c #A59C91",
"k;.	c #80796D",
"l;.	c #9A9387",
"m;.	c #3C3528",
"n;.	c #8E897C",
"o;.	c #7F786B",
"p;.	c #5E5849",
"q;.	c #797365",
"r;.	c #958978",
"s;.	c #4C321A",
"t;.	c #725435",
"u;.	c #6B4E38",
"v;.	c #715638",
"w;.	c #5F4829",
"x;.	c #5D442F",
"y;.	c #5E3E1E",
"z;.	c #7C5933",
"A;.	c #75522E",
"B;.	c #8A6A45",
"C;.	c #795835",
"D;.	c #68482A",
"E;.	c #6D4F2E",
"F;.	c #957552",
"G;.	c #7A5D3E",
"H;.	c #624625",
"I;.	c #7B5B38",
"J;.	c #6D4D29",
"K;.	c #7A5934",
"L;.	c #81603F",
"M;.	c #826745",
"N;.	c #826546",
"O;.	c #685332",
"P;.	c #604A2E",
"Q;.	c #785F44",
"R;.	c #70583E",
"S;.	c #6F5A40",
"T;.	c #67573B",
"U;.	c #A29379",
"V;.	c #77644D",
"W;.	c #624F37",
"X;.	c #6E5D43",
"Y;.	c #7D644D",
"Z;.	c #8C7A5C",
"`;.	c #978367",
" >.	c #786546",
".>.	c #715D3F",
"+>.	c #694B25",
"@>.	c #855B34",
"#>.	c #7A5931",
"$>.	c #6F4C2B",
"%>.	c #7E5E36",
"&>.	c #7A5830",
"*>.	c #64401B",
"=>.	c #815F3B",
"->.	c #7C5B36",
";>.	c #7C603D",
">>.	c #644A31",
",>.	c #443325",
"'>.	c #9D9992",
")>.	c #7A746E",
"!>.	c #6E6D64",
"~>.	c #3F3B2E",
"{>.	c #444033",
"]>.	c #BAB5AC",
"^>.	c #776D64",
"/>.	c #726A5A",
"(>.	c #6E6A5B",
"_>.	c #8D8677",
":>.	c #ABA79B",
"<>.	c #604F34",
"[>.	c #8C7659",
"}>.	c #8D7558",
"|>.	c #907553",
"1>.	c #8B7354",
"2>.	c #664F34",
"3>.	c #7E6850",
"4>.	c #4D3C26",
"5>.	c #AAA39A",
"6>.	c #AAA698",
"7>.	c #868676",
"8>.	c #A1978D",
"9>.	c #525042",
"0>.	c #958E7D",
"a>.	c #413D30",
"b>.	c #655F4F",
"c>.	c #817B6A",
"d>.	c #858171",
"e>.	c #625548",
"f>.	c #766F62",
"g>.	c #514A3D",
"h>.	c #7A664E",
"i>.	c #62482D",
"j>.	c #493219",
"k>.	c #3C2816",
"l>.	c #342319",
"m>.	c #7B654C",
"n>.	c #765E41",
"o>.	c #937E65",
"p>.	c #48341C",
"q>.	c #7C5C37",
"r>.	c #9C7C53",
"s>.	c #775936",
"t>.	c #6E4D29",
"u>.	c #6E512F",
"v>.	c #765936",
"w>.	c #977A5C",
"x>.	c #61482C",
"y>.	c #886A47",
"z>.	c #83633F",
"A>.	c #876844",
"B>.	c #5C401A",
"C>.	c #6A4B27",
"D>.	c #836645",
"E>.	c #876B4D",
"F>.	c #604933",
"G>.	c #654E33",
"H>.	c #70573F",
"I>.	c #786349",
"J>.	c #695237",
"K>.	c #826D54",
"L>.	c #9A8A6C",
"M>.	c #93836A",
"N>.	c #9A886D",
"O>.	c #594732",
"P>.	c #7A6747",
"Q>.	c #7D684C",
"R>.	c #8C7456",
"S>.	c #624726",
"T>.	c #8B6A44",
"U>.	c #896333",
"V>.	c #89643C",
"W>.	c #664019",
"X>.	c #815B32",
"Y>.	c #694B2C",
"Z>.	c #704A27",
"`>.	c #6F4E2A",
" ,.	c #5D3B1B",
".,.	c #705535",
"+,.	c #674D2C",
"@,.	c #8E8A85",
"#,.	c #9F9E93",
"$,.	c #B1ADA3",
"%,.	c #9B9788",
"&,.	c #7B7C6C",
"*,.	c #706F60",
"=,.	c #52483B",
"-,.	c #474336",
";,.	c #A49E8F",
">,.	c #635345",
",,.	c #AAA89D",
"',.	c #A3A099",
"),.	c #A29994",
"!,.	c #6C6659",
"~,.	c #7F7B6B",
"{,.	c #878676",
"],.	c #A9A299",
"^,.	c #949188",
"/,.	c #C2BDB3",
"(,.	c #5B4A35",
"_,.	c #4C3824",
":,.	c #826F51",
"<,.	c #9E8465",
"[,.	c #7F6548",
"},.	c #42331E",
"|,.	c #443423",
"1,.	c #8E8878",
"2,.	c #969383",
"3,.	c #554F42",
"4,.	c #655E51",
"5,.	c #8D8272",
"6,.	c #6F6456",
"7,.	c #82796B",
"8,.	c #60574D",
"9,.	c #3F362E",
"0,.	c #7A7566",
"a,.	c #877F70",
"b,.	c #605747",
"c,.	c #736B5C",
"d,.	c #4C3C2F",
"e,.	c #483B24",
"f,.	c #624C36",
"g,.	c #4B3623",
"h,.	c #423224",
"i,.	c #372F21",
"j,.	c #604A35",
"k,.	c #6A5035",
"l,.	c #463421",
"m,.	c #634A2B",
"n,.	c #755B3D",
"o,.	c #795A3A",
"p,.	c #705136",
"q,.	c #735637",
"r,.	c #735739",
"s,.	c #5A4024",
"t,.	c #765737",
"u,.	c #7F6647",
"v,.	c #876942",
"w,.	c #856741",
"x,.	c #795B38",
"y,.	c #735735",
"z,.	c #8F6E48",
"A,.	c #A88960",
"B,.	c #856C4B",
"C,.	c #806540",
"D,.	c #614B2E",
"E,.	c #82694F",
"F,.	c #635134",
"G,.	c #6C583E",
"H,.	c #907F60",
"I,.	c #7E6D55",
"J,.	c #817257",
"K,.	c #93826C",
"L,.	c #554127",
"M,.	c #55432D",
"N,.	c #705D42",
"O,.	c #A38D73",
"P,.	c #897354",
"Q,.	c #886D4D",
"R,.	c #705131",
"S,.	c #744E2B",
"T,.	c #7D5A32",
"U,.	c #906943",
"V,.	c #7A5530",
"W,.	c #6B4E2D",
"X,.	c #5D3E17",
"Y,.	c #694A28",
"Z,.	c #725133",
"`,.	c #6A4C28",
" '.	c #7B5E38",
".'.	c #765532",
"+'.	c #686253",
"@'.	c #58584C",
"#'.	c #9F9D91",
"$'.	c #838171",
"%'.	c #4E4D43",
"&'.	c #B0ABA2",
"*'.	c #A8A69C",
"='.	c #85827A",
"-'.	c #8A8A80",
";'.	c #4C4537",
">'.	c #85755F",
",'.	c #6E5A41",
"''.	c #827B6E",
")'.	c #82796D",
"!'.	c #50493C",
"~'.	c #AFABA1",
"{'.	c #978C78",
"]'.	c #86715A",
"^'.	c #6B5640",
"/'.	c #5B452E",
"('.	c #3E2B15",
"_'.	c #5E4833",
":'.	c #634E36",
"<'.	c #54402D",
"['.	c #312A1E",
"}'.	c #2F2924",
"|'.	c #938E7F",
"1'.	c #2C281E",
"2'.	c #6B6053",
"3'.	c #655C4F",
"4'.	c #736B5A",
"5'.	c #A49C91",
"6'.	c #8D8A7B",
"7'.	c #635F4F",
"8'.	c #6E6555",
"9'.	c #817D6C",
"0'.	c #4E3E2E",
"a'.	c #6D563D",
"b'.	c #5E482D",
"c'.	c #5A3F22",
"d'.	c #4F3D27",
"e'.	c #433222",
"f'.	c #4F3824",
"g'.	c #776751",
"h'.	c #7C6851",
"i'.	c #685538",
"j'.	c #634A31",
"k'.	c #6C5135",
"l'.	c #7D6340",
"m'.	c #5B4227",
"n'.	c #6D5132",
"o'.	c #50371D",
"p'.	c #644B2C",
"q'.	c #745935",
"r'.	c #8F724E",
"s'.	c #785834",
"t'.	c #896B48",
"u'.	c #745731",
"v'.	c #7D603B",
"w'.	c #8A6E49",
"x'.	c #705430",
"y'.	c #826849",
"z'.	c #8E7556",
"A'.	c #796147",
"B'.	c #8E785B",
"C'.	c #68573E",
"D'.	c #746247",
"E'.	c #766549",
"F'.	c #857152",
"G'.	c #725C3F",
"H'.	c #867256",
"I'.	c #634C38",
"J'.	c #725D42",
"K'.	c #7A5E41",
"L'.	c #655036",
"M'.	c #634627",
"N'.	c #846237",
"O'.	c #805831",
"P'.	c #6A451E",
"Q'.	c #AD8454",
"R'.	c #6D4C26",
"S'.	c #523619",
"T'.	c #4F2D0A",
"U'.	c #846542",
"V'.	c #6C4B28",
"W'.	c #83613D",
"X'.	c #6E5332",
"Y'.	c #31200F",
"Z'.	c #948F8A",
"`'.	c #898780",
" ).	c #4E4435",
".).	c #8F8E83",
"+).	c #9A988F",
"@).	c #AB9F90",
"#).	c #8B7E6D",
"$).	c #81765F",
"%).	c #999785",
"&).	c #A4A092",
"*).	c #B9B5A8",
"=).	c #A6A39A",
"-).	c #817871",
";).	c #9D9A8A",
">).	c #8B8576",
",).	c #605A49",
"').	c #756D60",
")).	c #766E5B",
"!).	c #8F7D61",
"~).	c #7E694B",
"{).	c #998970",
"]).	c #664E34",
"^).	c #998167",
"/).	c #79654B",
"().	c #705C42",
"_).	c #4C3C28",
":).	c #281C10",
"<).	c #2F271C",
"[).	c #55422E",
"}).	c #3D2B1D",
"|).	c #33251B",
"1).	c #150F07",
"2).	c #A29A8E",
"3).	c #090702",
"4).	c #382F23",
"5).	c #6A583F",
"6).	c #8E8574",
"7).	c #675E55",
"8).	c #968E83",
"9).	c #989086",
"0).	c #766E60",
"a).	c #878073",
"b).	c #948E80",
"c).	c #63584C",
"d).	c #755A41",
"e).	c #634C32",
"f).	c #604626",
"g).	c #7C5F44",
"h).	c #614431",
"i).	c #4F3927",
"j).	c #5F462A",
"k).	c #36271B",
"l).	c #857D67",
"m).	c #755F42",
"n).	c #6A5232",
"o).	c #705534",
"p).	c #654C30",
"q).	c #6A502F",
"r).	c #6E5334",
"s).	c #6F5333",
"t).	c #66472C",
"u).	c #614826",
"v).	c #81643F",
"w).	c #A28461",
"x).	c #8D704B",
"y).	c #8C6C47",
"z).	c #846843",
"A).	c #927555",
"B).	c #7B6241",
"C).	c #927A5C",
"D).	c #776044",
"E).	c #867156",
"F).	c #AFA07F",
"G).	c #867155",
"H).	c #523B26",
"I).	c #806C4F",
"J).	c #7D6648",
"K).	c #736046",
"L).	c #7E664C",
"M).	c #55452D",
"N).	c #61472D",
"O).	c #5F462C",
"P).	c #9E7B56",
"Q).	c #9A7446",
"R).	c #7F592E",
"S).	c #916945",
"T).	c #976D3D",
"U).	c #754D23",
"V).	c #937751",
"W).	c #957652",
"X).	c #92704C",
"Y).	c #AD8F66",
"Z).	c #B1936B",
"`).	c #70512F",
" !.	c #392812",
".!.	c #686455",
"+!.	c #454436",
"@!.	c #918880",
"#!.	c #9A9389",
"$!.	c #8A897D",
"%!.	c #685D50",
"&!.	c #94918A",
"*!.	c #625A4A",
"=!.	c #A8A195",
"-!.	c #9F998B",
";!.	c #5A5446",
">!.	c #747262",
",!.	c #9B948B",
"'!.	c #868071",
")!.	c #A49C93",
"!!.	c #ACA596",
"~!.	c #969589",
"{!.	c #938D7B",
"]!.	c #938164",
"^!.	c #9F8F73",
"/!.	c #7E6F54",
"(!.	c #6E5B44",
"_!.	c #705A42",
":!.	c #6C573B",
"<!.	c #6E583F",
"[!.	c #5A4A32",
"}!.	c #503E26",
"|!.	c #523C26",
"1!.	c #61472C",
"2!.	c #67513B",
"3!.	c #4C3A24",
"4!.	c #4B3729",
"5!.	c #30271D",
"6!.	c #20170A",
"7!.	c #2F2217",
"8!.	c #675237",
"9!.	c #4C3114",
"0!.	c #231907",
"a!.	c #787162",
"b!.	c #4D4938",
"c!.	c #2A261B",
"d!.	c #6E6659",
"e!.	c #302A23",
"f!.	c #533F2B",
"g!.	c #51361F",
"h!.	c #563B1B",
"i!.	c #563C20",
"j!.	c #69523B",
"k!.	c #513A20",
"l!.	c #795E40",
"m!.	c #684F35",
"n!.	c #221C10",
"o!.	c #919180",
"p!.	c #7A694C",
"q!.	c #846C4D",
"r!.	c #7F6848",
"s!.	c #715739",
"t!.	c #775D3D",
"u!.	c #5A4325",
"v!.	c #634828",
"w!.	c #967A57",
"x!.	c #755A3B",
"y!.	c #593B1A",
"z!.	c #6F532D",
"A!.	c #907350",
"B!.	c #684E30",
"C!.	c #614628",
"D!.	c #987D5D",
"E!.	c #4E381C",
"F!.	c #B1987E",
"G!.	c #54422E",
"H!.	c #7D6A4F",
"I!.	c #816949",
"J!.	c #886D4E",
"K!.	c #604528",
"L!.	c #806646",
"M!.	c #917A5B",
"N!.	c #614A31",
"O!.	c #775A3C",
"P!.	c #7C5831",
"Q!.	c #6E4C2E",
"R!.	c #805630",
"S!.	c #684218",
"T!.	c #6C4418",
"U!.	c #6A441D",
"V!.	c #774F27",
"W!.	c #63411F",
"X!.	c #674926",
"Y!.	c #9E7E54",
"Z!.	c #9F7F52",
"`!.	c #755E40",
" ~.	c #63573F",
".~.	c #BCB8AD",
"+~.	c #AFA9A0",
"@~.	c #97988B",
"#~.	c #837B74",
"$~.	c #706662",
"%~.	c #5A523B",
"&~.	c #827B74",
"*~.	c #928C86",
"=~.	c #75716B",
"-~.	c #645C4E",
";~.	c #83786D",
">~.	c #929082",
",~.	c #ADA698",
"'~.	c #A9A89A",
")~.	c #9D968C",
"!~.	c #767565",
"~~.	c #726653",
"{~.	c #736047",
"]~.	c #664F37",
"^~.	c #4E391E",
"/~.	c #553C21",
"(~.	c #988160",
"_~.	c #836D50",
":~.	c #6D593C",
"<~.	c #725C41",
"[~.	c #5C4729",
"}~.	c #856B4C",
"|~.	c #806141",
"1~.	c #72583D",
"2~.	c #4E351F",
"3~.	c #261D12",
"4~.	c #0E0C04",
"5~.	c #221F1A",
"6~.	c #3F2E20",
"7~.	c #62492F",
"8~.	c #674F37",
"9~.	c #5F482E",
"0~.	c #20180E",
"a~.	c #64553F",
"b~.	c #6C4925",
"c~.	c #371F15",
"d~.	c #51483D",
"e~.	c #686251",
"f~.	c #988B78",
"g~.	c #493D2D",
"h~.	c #48301D",
"i~.	c #6D4D31",
"j~.	c #7C5F3C",
"k~.	c #674929",
"l~.	c #614A2B",
"m~.	c #6E5739",
"n~.	c #735D3F",
"o~.	c #4A3521",
"p~.	c #2F2012",
"q~.	c #817D6D",
"r~.	c #695640",
"s~.	c #695739",
"t~.	c #6B5B3B",
"u~.	c #7F674C",
"v~.	c #816544",
"w~.	c #745C3F",
"x~.	c #4C351F",
"y~.	c #7A5B3D",
"z~.	c #6A5135",
"A~.	c #6D4E2A",
"B~.	c #91764E",
"C~.	c #48331D",
"D~.	c #705A3F",
"E~.	c #573F20",
"F~.	c #856A4A",
"G~.	c #A38965",
"H~.	c #8C7152",
"I~.	c #856E57",
"J~.	c #635139",
"K~.	c #877351",
"L~.	c #907C5D",
"M~.	c #A48865",
"N~.	c #7E6545",
"O~.	c #705841",
"P~.	c #705636",
"Q~.	c #775937",
"R~.	c #805C34",
"S~.	c #876340",
"T~.	c #6C4829",
"U~.	c #5F3E1E",
"V~.	c #6E4A29",
"W~.	c #8F6338",
"X~.	c #A67D52",
"Y~.	c #8A6035",
"Z~.	c #5D3B10",
"`~.	c #967348",
" {.	c #916D46",
".{.	c #755834",
"+{.	c #9E9482",
"@{.	c #B2AEA3",
"#{.	c #797869",
"${.	c #7A7B6C",
"%{.	c #B3ADA3",
"&{.	c #5F5843",
"*{.	c #8E8B7B",
"={.	c #ABA49B",
"-{.	c #888778",
";{.	c #B5B2A3",
">{.	c #A9A196",
",{.	c #97978A",
"'{.	c #877F77",
"){.	c #8C816F",
"!{.	c #987F5F",
"~{.	c #624525",
"{{.	c #7C5D3C",
"]{.	c #87704E",
"^{.	c #816B48",
"/{.	c #7E6644",
"({.	c #6D5333",
"_{.	c #7F6947",
":{.	c #7F613B",
"<{.	c #7A5D38",
"[{.	c #745C3E",
"}{.	c #6C5539",
"|{.	c #533E26",
"1{.	c #4A3A25",
"2{.	c #3B2E1C",
"3{.	c #503921",
"4{.	c #6A543A",
"5{.	c #69553A",
"6{.	c #51391F",
"7{.	c #4F3B26",
"8{.	c #3E2A1A",
"9{.	c #5A3F1F",
"0{.	c #6A4A2E",
"a{.	c #5D3E26",
"b{.	c #271B0F",
"c{.	c #2D2519",
"d{.	c #23221B",
"e{.	c #524C3E",
"f{.	c #685F50",
"g{.	c #5C5648",
"h{.	c #796952",
"i{.	c #796D56",
"j{.	c #75746A",
"k{.	c #4F3E2D",
"l{.	c #4B3217",
"m{.	c #5B4023",
"n{.	c #6D5334",
"o{.	c #5B4225",
"p{.	c #7F6244",
"q{.	c #392512",
"r{.	c #8D785A",
"s{.	c #55391A",
"t{.	c #37281D",
"u{.	c #998E75",
"v{.	c #53412A",
"w{.	c #776244",
"x{.	c #7C674A",
"y{.	c #665035",
"z{.	c #68563E",
"A{.	c #685334",
"B{.	c #7E6447",
"C{.	c #5D452A",
"D{.	c #694D2F",
"E{.	c #563D1F",
"F{.	c #8B7252",
"G{.	c #9A8362",
"H{.	c #856E4D",
"I{.	c #7F6949",
"J{.	c #837052",
"K{.	c #6A5640",
"L{.	c #7E6A4D",
"M{.	c #94805F",
"N{.	c #826B50",
"O{.	c #6D5D45",
"P{.	c #4B3724",
"Q{.	c #725937",
"R{.	c #906F48",
"S{.	c #734F27",
"T{.	c #704F2B",
"U{.	c #604227",
"V{.	c #7D532C",
"W{.	c #936A45",
"X{.	c #9B724D",
"Y{.	c #9E774A",
"Z{.	c #96734A",
"`{.	c #86643E",
" ].	c #795D3F",
".].	c #90866C",
"+].	c #A9A597",
"@].	c #6E6B64",
"#].	c #676455",
"$].	c #6F6E64",
"%].	c #786B58",
"&].	c #AFAE9F",
"*].	c #796F65",
"=].	c #898176",
"-].	c #BAB4A6",
";].	c #BEB8AD",
">].	c #C1BEB2",
",].	c #898879",
"'].	c #705E3F",
")].	c #6B5333",
"!].	c #7E5E3B",
"~].	c #8F6F4D",
"{].	c #82673E",
"]].	c #816845",
"^].	c #796241",
"/].	c #8A714E",
"(].	c #907751",
"_].	c #93734E",
":].	c #745632",
"<].	c #85673F",
"[].	c #765B37",
"}].	c #5C452A",
"|].	c #432B14",
"1].	c #694E33",
"2].	c #5F4930",
"3].	c #5A462F",
"4].	c #6F573A",
"5].	c #614B33",
"6].	c #745A3D",
"7].	c #7D6041",
"8].	c #6E5433",
"9].	c #604327",
"0].	c #624328",
"a].	c #3B2718",
"b].	c #2E2210",
"c].	c #201A17",
"d].	c #332A1D",
"e].	c #666152",
"f].	c #605545",
"g].	c #96917F",
"h].	c #686254",
"i].	c #80715B",
"j].	c #806C4C",
"k].	c #857760",
"l].	c #6F7065",
"m].	c #A59882",
"n].	c #795E3E",
"o].	c #5D4625",
"p].	c #695236",
"q].	c #59482E",
"r].	c #6B5738",
"s].	c #7C6140",
"t].	c #7E7666",
"u].	c #767567",
"v].	c #8A8376",
"w].	c #756753",
"x].	c #776348",
"y].	c #513E26",
"z].	c #7F694F",
"A].	c #554027",
"B].	c #675035",
"C].	c #4F3B20",
"D].	c #5F4B32",
"E].	c #856E4E",
"F].	c #755D3F",
"G].	c #634D35",
"H].	c #977D5A",
"I].	c #9F8663",
"J].	c #7D6A4A",
"K].	c #6E5939",
"L].	c #816A4C",
"M].	c #776652",
"N].	c #766247",
"O].	c #6B5137",
"P].	c #765C3C",
"Q].	c #654D35",
"R].	c #90795C",
"S].	c #452D14",
"T].	c #8A6941",
"U].	c #60401D",
"V].	c #6E5232",
"W].	c #5F4026",
"X].	c #6E4C28",
"Y].	c #8C6139",
"Z].	c #58310D",
"`].	c #74532F",
" ^.	c #7B542A",
".^.	c #80603A",
"+^.	c #664624",
"@^.	c #745D47",
"#^.	c #8C8478",
"$^.	c #8A8277",
"%^.	c #6E655B",
"&^.	c #A29C90",
"*^.	c #828276",
"=^.	c #7B7670",
"-^.	c #8A847E",
";^.	c #999888",
">^.	c #877F78",
",^.	c #968F8A",
"'^.	c #615949",
")^.	c #9F988C",
"!^.	c #ADA797",
"~^.	c #A09A8C",
"{^.	c #A8A495",
"]^.	c #C0BBB0",
"^^.	c #766D64",
"/^.	c #887C6A",
"(^.	c #958060",
"_^.	c #8C7354",
":^.	c #856543",
"<^.	c #8F7048",
"[^.	c #937651",
"}^.	c #947954",
"|^.	c #826A4C",
"1^.	c #5E4527",
"2^.	c #6F5432",
"3^.	c #886B45",
"4^.	c #765C38",
"5^.	c #A3865E",
"6^.	c #493019",
"7^.	c #422A17",
"8^.	c #594128",
"9^.	c #6C5336",
"0^.	c #4D3B21",
"a^.	c #55432F",
"b^.	c #766047",
"c^.	c #4F3C22",
"d^.	c #5E4327",
"e^.	c #684B2A",
"f^.	c #634426",
"g^.	c #77593D",
"h^.	c #573A1C",
"i^.	c #5B3A1D",
"j^.	c #5D3F21",
"k^.	c #3F2812",
"l^.	c #362718",
"m^.	c #3F3123",
"n^.	c #604932",
"o^.	c #392D1C",
"p^.	c #A49C92",
"q^.	c #737160",
"r^.	c #6B6253",
"s^.	c #A28B71",
"t^.	c #937C5F",
"u^.	c #AFA188",
"v^.	c #726B5A",
"w^.	c #6F7062",
"x^.	c #775A3B",
"y^.	c #715538",
"z^.	c #735B40",
"A^.	c #71604A",
"B^.	c #958B81",
"C^.	c #7F735C",
"D^.	c #8B8173",
"E^.	c #7B7465",
"F^.	c #978A76",
"G^.	c #826E53",
"H^.	c #7B664D",
"I^.	c #746148",
"J^.	c #644F35",
"K^.	c #9A8162",
"L^.	c #897456",
"M^.	c #624A31",
"N^.	c #6F5A3B",
"O^.	c #563E2A",
"P^.	c #6C553D",
"Q^.	c #644C32",
"R^.	c #8D765E",
"S^.	c #7E6342",
"T^.	c #8D7356",
"U^.	c #8C7556",
"V^.	c #776249",
"W^.	c #564227",
"X^.	c #846C4B",
"Y^.	c #896B4D",
"Z^.	c #684E2A",
"`^.	c #AD936E",
" /.	c #5F4725",
"./.	c #624627",
"+/.	c #543617",
"@/.	c #644326",
"#/.	c #512F12",
"$/.	c #8C6B46",
"%/.	c #946C43",
"&/.	c #74502D",
"*/.	c #5F3B1A",
"=/.	c #9A7A54",
"-/.	c #785732",
";/.	c #6E5027",
">/.	c #8D7253",
",/.	c #85847A",
"'/.	c #BCB9AD",
")/.	c #A39C94",
"!/.	c #7D756E",
"~/.	c #6F6754",
"{/.	c #292318",
"]/.	c #7A7868",
"^/.	c #B1AAA0",
"//.	c #CAC6B6",
"(/.	c #A9A296",
"_/.	c #92887B",
":/.	c #69563E",
"</.	c #614C30",
"[/.	c #816140",
"}/.	c #7F6443",
"|/.	c #5D4429",
"1/.	c #876D4F",
"2/.	c #6D5436",
"3/.	c #7A5E3D",
"4/.	c #674D31",
"5/.	c #6F5733",
"6/.	c #755A39",
"7/.	c #614B31",
"8/.	c #6B533D",
"9/.	c #412E1A",
"0/.	c #715E43",
"a/.	c #73624B",
"b/.	c #644E35",
"c/.	c #533B24",
"d/.	c #694C2F",
"e/.	c #5F4228",
"f/.	c #64472D",
"g/.	c #563B1C",
"h/.	c #725233",
"i/.	c #54371C",
"j/.	c #6A4F30",
"k/.	c #645440",
"l/.	c #898170",
"m/.	c #726E5F",
"n/.	c #8A8372",
"o/.	c #847A70",
"p/.	c #887A66",
"q/.	c #5D4F3A",
"r/.	c #897A5F",
"s/.	c #837E6E",
"t/.	c #99998A",
"u/.	c #928068",
"v/.	c #7E6B56",
"w/.	c #928D7B",
"x/.	c #6B6454",
"y/.	c #776850",
"z/.	c #635643",
"A/.	c #806F51",
"B/.	c #917E63",
"C/.	c #948264",
"D/.	c #847154",
"E/.	c #6F583B",
"F/.	c #664E33",
"G/.	c #6D5536",
"H/.	c #7E6445",
"I/.	c #806644",
"J/.	c #887255",
"K/.	c #4B3620",
"L/.	c #9D8466",
"M/.	c #8D7451",
"N/.	c #655233",
"O/.	c #6F5C40",
"P/.	c #7D6548",
"Q/.	c #7A6040",
"R/.	c #876F4F",
"S/.	c #7D6748",
"T/.	c #896844",
"U/.	c #8C6D4A",
"V/.	c #5C3E1F",
"W/.	c #4F3113",
"X/.	c #65492E",
"Y/.	c #4E3212",
"Z/.	c #7C5A3D",
"`/.	c #977147",
" (.	c #6F4C29",
".(.	c #79572F",
"+(.	c #7D5C3B",
"@(.	c #684D27",
"#(.	c #7C613C",
"$(.	c #8D7450",
"%(.	c #77705C",
"&(.	c #C0B9AE",
"*(.	c #A29D97",
"=(.	c #AEAAA2",
"-(.	c #1C180F",
";(.	c #948F89",
">(.	c #999789",
",(.	c #96948B",
"'(.	c #9A998E",
")(.	c #C2BEB6",
"!(.	c #A9A59B",
"~(.	c #ADA59E",
"{(.	c #79796D",
"](.	c #625948",
"^(.	c #544B40",
"/(.	c #484336",
"((.	c #544F41",
"_(.	c #B5B1A6",
":(.	c #79644D",
"<(.	c #886E53",
"[(.	c #73583B",
"}(.	c #775839",
"|(.	c #6A5233",
"1(.	c #8E7553",
"2(.	c #755C3D",
"3(.	c #A28562",
"4(.	c #7C603F",
"5(.	c #553E24",
"6(.	c #624326",
"7(.	c #866D4F",
"8(.	c #795F41",
"9(.	c #614E37",
"0(.	c #403325",
"a(.	c #79684E",
"b(.	c #604C2E",
"c(.	c #806A52",
"d(.	c #836A51",
"e(.	c #685238",
"f(.	c #54371D",
"g(.	c #694A2B",
"h(.	c #6C4F33",
"i(.	c #775D3F",
"j(.	c #614221",
"k(.	c #553C1E",
"l(.	c #52371E",
"m(.	c #5F4628",
"n(.	c #52432A",
"o(.	c #5A5546",
"p(.	c #524E3F",
"q(.	c #655C51",
"r(.	c #6C6655",
"s(.	c #867B63",
"t(.	c #7D7265",
"u(.	c #665F53",
"v(.	c #837662",
"w(.	c #6D563E",
"x(.	c #685A4A",
"y(.	c #5A4C37",
"z(.	c #998B73",
"A(.	c #75634C",
"B(.	c #493A20",
"C(.	c #786248",
"D(.	c #776549",
"E(.	c #715939",
"F(.	c #877356",
"G(.	c #8D7858",
"H(.	c #765F40",
"I(.	c #8B7456",
"J(.	c #4F3926",
"K(.	c #5B4833",
"L(.	c #59452E",
"M(.	c #948263",
"N(.	c #9D8C70",
"O(.	c #7E6543",
"P(.	c #745B39",
"Q(.	c #543E24",
"R(.	c #634D33",
"S(.	c #896F4A",
"T(.	c #715435",
"U(.	c #886B4E",
"V(.	c #7A5E3E",
"W(.	c #765839",
"X(.	c #56391B",
"Y(.	c #694929",
"Z(.	c #825F38",
"`(.	c #88683F",
" _.	c #A7875E",
"._.	c #A0835C",
"+_.	c #7C6340",
"@_.	c #A6916D",
"#_.	c #8A7D67",
"$_.	c #ABA799",
"%_.	c #958A77",
"&_.	c #B3ADA5",
"*_.	c #9F9C8E",
"=_.	c #C2BEB3",
"-_.	c #9C948E",
";_.	c #A9A79B",
">_.	c #A39D94",
",_.	c #A7A39A",
"'_.	c #A6A49A",
")_.	c #69615A",
"!_.	c #75736B",
"~_.	c #79644A",
"{_.	c #4E4B3C",
"]_.	c #686758",
"^_.	c #4E4335",
"/_.	c #8E867B",
"(_.	c #A49D93",
"__.	c #827F77",
":_.	c #2C271C",
"<_.	c #291E16",
"[_.	c #898068",
"}_.	c #7A6142",
"|_.	c #563E22",
"1_.	c #745736",
"2_.	c #987B56",
"3_.	c #85694A",
"4_.	c #846C50",
"5_.	c #735434",
"6_.	c #7B5D3C",
"7_.	c #795A38",
"8_.	c #674E32",
"9_.	c #554330",
"0_.	c #635543",
"a_.	c #5C4A33",
"b_.	c #7B684C",
"c_.	c #5B4930",
"d_.	c #594733",
"e_.	c #5F4329",
"f_.	c #745638",
"g_.	c #624629",
"h_.	c #5B3F21",
"i_.	c #78583B",
"j_.	c #644626",
"k_.	c #7E6146",
"l_.	c #8A7355",
"m_.	c #736C5C",
"n_.	c #6D6357",
"o_.	c #3F372C",
"p_.	c #4B4334",
"q_.	c #7E7560",
"r_.	c #605845",
"s_.	c #786F68",
"t_.	c #847D6F",
"u_.	c #979380",
"v_.	c #60523D",
"w_.	c #443B31",
"x_.	c #4F4D40",
"y_.	c #ACA79E",
"z_.	c #908879",
"A_.	c #695841",
"B_.	c #685942",
"C_.	c #6B5940",
"D_.	c #645039",
"E_.	c #3A2B17",
"F_.	c #624E35",
"G_.	c #8E7757",
"H_.	c #866F52",
"I_.	c #6A5537",
"J_.	c #6D573B",
"K_.	c #7F6C55",
"L_.	c #5F5039",
"M_.	c #5E4C39",
"N_.	c #98846E",
"O_.	c #69583C",
"P_.	c #755C42",
"Q_.	c #7F6445",
"R_.	c #866B4A",
"S_.	c #71583E",
"T_.	c #4B391E",
"U_.	c #675036",
"V_.	c #705533",
"W_.	c #90734E",
"X_.	c #5A3B23",
"Y_.	c #664A2D",
"Z_.	c #816440",
"`_.	c #87653D",
" :.	c #99744B",
".:.	c #816035",
"+:.	c #958164",
"@:.	c #837D6D",
"#:.	c #AEAA9B",
"$:.	c #6A6156",
"%:.	c #251E18",
"&:.	c #827F78",
"*:.	c #B8B3A9",
"=:.	c #A3A295",
"-:.	c #88877E",
";:.	c #67695C",
">:.	c #B7B2AB",
",:.	c #ADA79B",
"':.	c #5D5648",
"):.	c #9B958D",
"!:.	c #A69C94",
"~:.	c #737364",
"{:.	c #717268",
"]:.	c #181005",
"^:.	c #585442",
"/:.	c #978E85",
"(:.	c #2D1E12",
"_:.	c #847C6F",
"::.	c #AEAB9F",
"<:.	c #23221D",
"[:.	c #6D6758",
"}:.	c #9A968F",
"|:.	c #745D42",
"1:.	c #674F2C",
"2:.	c #7C6447",
"3:.	c #7B5E3A",
"4:.	c #987C58",
"5:.	c #866941",
"6:.	c #886D4B",
"7:.	c #533B21",
"8:.	c #71502B",
"9:.	c #80633C",
"0:.	c #705630",
"a:.	c #786142",
"b:.	c #574633",
"c:.	c #6D5D4A",
"d:.	c #5C503C",
"e:.	c #7E6C56",
"f:.	c #7C654B",
"g:.	c #57442B",
"h:.	c #614D34",
"i:.	c #5C4528",
"j:.	c #7F6444",
"k:.	c #402911",
"l:.	c #553B1E",
"m:.	c #50351C",
"n:.	c #7E603F",
"o:.	c #584022",
"p:.	c #463521",
"q:.	c #544B3A",
"r:.	c #969182",
"s:.	c #8C8879",
"t:.	c #939283",
"u:.	c #959181",
"v:.	c #92897C",
"w:.	c #796E5F",
"x:.	c #4A3F2E",
"y:.	c #7C7361",
"z:.	c #645B4F",
"A:.	c #6C6861",
"B:.	c #927D65",
"C:.	c #938065",
"D:.	c #8C7C60",
"E:.	c #655639",
"F:.	c #9B8C71",
"G:.	c #6A5A43",
"H:.	c #8C785F",
"I:.	c #8C7658",
"J:.	c #624931",
"K:.	c #43351D",
"L:.	c #5D4A39",
"M:.	c #8C7E65",
"N:.	c #695940",
"O:.	c #8A7962",
"P:.	c #97826A",
"Q:.	c #806C51",
"R:.	c #6B5033",
"S:.	c #897053",
"T:.	c #836E50",
"U:.	c #9D8461",
"V:.	c #65482B",
"W:.	c #513818",
"X:.	c #765939",
"Y:.	c #7B5B3B",
"Z:.	c #583619",
"`:.	c #6C4C2E",
" <.	c #5A3B22",
".<.	c #85653F",
"+<.	c #613F1B",
"@<.	c #856643",
"#<.	c #24150D",
"$<.	c #A1A093",
"%<.	c #BEB9AD",
"&<.	c #7D756F",
"*<.	c #221E16",
"=<.	c #B0ABA0",
"-<.	c #8B8581",
";<.	c #928A84",
"><.	c #5E5545",
",<.	c #252015",
"'<.	c #0C0501",
")<.	c #968C87",
"!<.	c #706B66",
"~<.	c #827B6A",
"{<.	c #AA9F90",
"]<.	c #A5A497",
"^<.	c #4D4639",
"/<.	c #5E4328",
"(<.	c #533B26",
"_<.	c #282218",
":<.	c #312B1F",
"<<.	c #43331E",
"[<.	c #120B03",
"}<.	c #A4A298",
"|<.	c #9F9689",
"1<.	c #675E51",
"2<.	c #8F7657",
"3<.	c #987F5E",
"4<.	c #6F5437",
"5<.	c #74553A",
"6<.	c #896A43",
"7<.	c #866843",
"8<.	c #5E4520",
"9<.	c #836648",
"0<.	c #94734B",
"a<.	c #6E5534",
"b<.	c #533C21",
"c<.	c #745E44",
"d<.	c #5A4C3B",
"e<.	c #7E715C",
"f<.	c #877967",
"g<.	c #907F68",
"h<.	c #534228",
"i<.	c #6D583C",
"j<.	c #8E795C",
"k<.	c #5E4526",
"l<.	c #6B5135",
"m<.	c #715439",
"n<.	c #685036",
"o<.	c #6D5135",
"p<.	c #5D462D",
"q<.	c #473724",
"r<.	c #9F988A",
"s<.	c #7B7868",
"t<.	c #8D8C7E",
"u<.	c #686352",
"v<.	c #8E8D7F",
"w<.	c #383528",
"x<.	c #2F2E27",
"y<.	c #746E5C",
"z<.	c #5D5547",
"A<.	c #4A4337",
"B<.	c #86857C",
"C<.	c #7D7667",
"D<.	c #635A52",
"E<.	c #746653",
"F<.	c #806B4A",
"G<.	c #7C6041",
"H<.	c #776447",
"I<.	c #775F44",
"J<.	c #8E7C5D",
"K<.	c #6F573D",
"L<.	c #4A371F",
"M<.	c #5B442B",
"N<.	c #988364",
"O<.	c #796049",
"P<.	c #75674D",
"Q<.	c #837359",
"R<.	c #7A6954",
"S<.	c #7A6D57",
"T<.	c #968A6D",
"U<.	c #635334",
"V<.	c #CCBC99",
"W<.	c #846941",
"X<.	c #8D6F47",
"Y<.	c #8F6F46",
"Z<.	c #684931",
"`<.	c #614525",
" [.	c #7D5F3F",
".[.	c #65462A",
"+[.	c #624529",
"@[.	c #764E22",
"#[.	c #432F18",
"$[.	c #45311A",
"%[.	c #523D26",
"&[.	c #5B5451",
"*[.	c #98948E",
"=[.	c #726A62",
"-[.	c #7C7869",
";[.	c #171009",
">[.	c #9B968F",
",[.	c #241C12",
"'[.	c #3F322B",
")[.	c #60625B",
"![.	c #AFA9A1",
"~[.	c #8F8F85",
"{[.	c #BAB6AF",
"][.	c #98958C",
"^[.	c #A7A59A",
"/[.	c #97948E",
"([.	c #494130",
"_[.	c #4F4433",
":[.	c #3D352B",
"<[.	c #53514B",
"[[.	c #252119",
"}[.	c #4C3F30",
"|[.	c #8C8778",
"1[.	c #4F4B3D",
"2[.	c #5D5649",
"3[.	c #AEA9A0",
"4[.	c #7B7364",
"5[.	c #716856",
"6[.	c #A19B8C",
"7[.	c #8B8781",
"8[.	c #878372",
"9[.	c #A39E8F",
"0[.	c #896A4C",
"a[.	c #54391E",
"b[.	c #5B4028",
"c[.	c #58412A",
"d[.	c #4A341E",
"e[.	c #583F27",
"f[.	c #6C5334",
"g[.	c #4D341A",
"h[.	c #20170D",
"i[.	c #2F261A",
"j[.	c #3C2A17",
"k[.	c #57402E",
"l[.	c #332617",
"m[.	c #816543",
"n[.	c #8A6D47",
"o[.	c #7D6240",
"p[.	c #735531",
"q[.	c #725531",
"r[.	c #896842",
"s[.	c #826541",
"t[.	c #7B6036",
"u[.	c #977750",
"v[.	c #8A6C43",
"w[.	c #735938",
"x[.	c #796344",
"y[.	c #836F52",
"z[.	c #62513B",
"A[.	c #665F4F",
"B[.	c #4D4332",
"C[.	c #837057",
"D[.	c #634F39",
"E[.	c #615138",
"F[.	c #7E6B4F",
"G[.	c #685234",
"H[.	c #624729",
"I[.	c #71573B",
"J[.	c #786043",
"K[.	c #6E573C",
"L[.	c #725639",
"M[.	c #847966",
"N[.	c #989284",
"O[.	c #837B6F",
"P[.	c #303127",
"Q[.	c #6E6959",
"R[.	c #554D3D",
"S[.	c #61594D",
"T[.	c #171008",
"U[.	c #1A1206",
"V[.	c #20201A",
"W[.	c #786650",
"X[.	c #7E6444",
"Y[.	c #705738",
"Z[.	c #5D492A",
"`[.	c #7B6445",
" }.	c #6B593D",
".}.	c #796346",
"+}.	c #7B684D",
"@}.	c #6E5E45",
"#}.	c #857051",
"$}.	c #654D2F",
"%}.	c #A18A69",
"&}.	c #604E36",
"*}.	c #80705A",
"=}.	c #776B55",
"-}.	c #60503A",
";}.	c #7D6F56",
">}.	c #7D6B52",
",}.	c #524432",
"'}.	c #716048",
")}.	c #7B6449",
"!}.	c #A2875D",
"~}.	c #8A6B48",
"{}.	c #7F613A",
"]}.	c #6A4C2B",
"^}.	c #634124",
"/}.	c #664A31",
"(}.	c #492D16",
"_}.	c #4F361E",
":}.	c #644C33",
"<}.	c #533826",
"[}.	c #442813",
"}}.	c #4A3B2A",
"|}.	c #261C12",
"1}.	c #45371E",
"2}.	c #3C2B1E",
"3}.	c #534330",
"4}.	c #7B6F59",
"5}.	c #615544",
"6}.	c #372C1F",
"7}.	c #ADAC9F",
"8}.	c #9D9B93",
"9}.	c #5F5543",
"0}.	c #99948D",
"a}.	c #97948C",
"b}.	c #98948C",
"c}.	c #605A47",
"d}.	c #393127",
"e}.	c #443D30",
"f}.	c #867E73",
"g}.	c #585042",
"h}.	c #514437",
"i}.	c #635A4D",
"j}.	c #A49E91",
"k}.	c #99938C",
"l}.	c #867F78",
"m}.	c #867052",
"n}.	c #6F4E2E",
"o}.	c #563514",
"p}.	c #6C5033",
"q}.	c #7D5E3B",
"r}.	c #84643F",
"s}.	c #6B4D2E",
"t}.	c #896946",
"u}.	c #4A321C",
"v}.	c #62452A",
"w}.	c #7A5A37",
"x}.	c #715333",
"y}.	c #95764F",
"z}.	c #7D623E",
"A}.	c #7C6142",
"B}.	c #71522C",
"C}.	c #A6855C",
"D}.	c #9D7C52",
"E}.	c #957651",
"F}.	c #6E5130",
"G}.	c #846749",
"H}.	c #745937",
"I}.	c #4F3724",
"J}.	c #6E5C3E",
"K}.	c #786E5A",
"L}.	c #5E5241",
"M}.	c #5B4E3D",
"N}.	c #503C2C",
"O}.	c #7F6B50",
"P}.	c #5B4B36",
"Q}.	c #665136",
"R}.	c #624A2D",
"S}.	c #675133",
"T}.	c #4E3A20",
"U}.	c #745F42",
"V}.	c #6B593F",
"W}.	c #665643",
"X}.	c #90887A",
"Y}.	c #928D7E",
"Z}.	c #7B746D",
"`}.	c #403D2F",
" |.	c #918879",
".|.	c #908A7C",
"+|.	c #403731",
"@|.	c #564D42",
"#|.	c #756956",
"$|.	c #231B0F",
"%|.	c #826A4D",
"&|.	c #685336",
"*|.	c #937859",
"=|.	c #675135",
"-|.	c #8F7654",
";|.	c #7D684A",
">|.	c #8D7656",
",|.	c #937E61",
"'|.	c #7B6746",
")|.	c #9D886E",
"!|.	c #756247",
"~|.	c #77654B",
"{|.	c #80705B",
"]|.	c #807360",
"^|.	c #9D907D",
"/|.	c #655A46",
"(|.	c #8A7C6A",
"_|.	c #82755B",
":|.	c #5C4F3B",
"<|.	c #655441",
"[|.	c #715F47",
"}|.	c #7D6342",
"||.	c #816442",
"1|.	c #5B4022",
"2|.	c #543821",
"3|.	c #4F331D",
"4|.	c #614323",
"5|.	c #6F4E30",
"6|.	c #4D3624",
"7|.	c #432E1E",
"8|.	c #412D1C",
"9|.	c #392618",
"0|.	c #362B20",
"a|.	c #AFACA5",
"b|.	c #929189",
"c|.	c #201A0D",
"d|.	c #705E49",
"e|.	c #5C4D37",
"f|.	c #4F3F2D",
"g|.	c #473924",
"h|.	c #271710",
"i|.	c #0D0D07",
"j|.	c #A09A8D",
"k|.	c #7E766F",
"l|.	c #655945",
"m|.	c #5D4830",
"n|.	c #B9B7AC",
"o|.	c #575647",
"p|.	c #47402E",
"q|.	c #A7A59D",
"r|.	c #5A5544",
"s|.	c #847767",
"t|.	c #51483E",
"u|.	c #3D3122",
"v|.	c #373021",
"w|.	c #A79E96",
"x|.	c #4F4A3B",
"y|.	c #807965",
"z|.	c #74694F",
"A|.	c #130C04",
"B|.	c #939188",
"C|.	c #969081",
"D|.	c #927559",
"E|.	c #76532E",
"F|.	c #8D6D4B",
"G|.	c #947349",
"H|.	c #7B5936",
"I|.	c #482B11",
"J|.	c #553416",
"K|.	c #593E1B",
"L|.	c #795935",
"M|.	c #6A492B",
"N|.	c #614427",
"O|.	c #624225",
"P|.	c #7C5B3D",
"Q|.	c #8A6D48",
"R|.	c #664928",
"S|.	c #795C3B",
"T|.	c #775C3F",
"U|.	c #856841",
"V|.	c #61401D",
"W|.	c #A7835B",
"X|.	c #765933",
"Y|.	c #634825",
"Z|.	c #7D5E38",
"`|.	c #63472E",
" 1.	c #7A6344",
".1.	c #6C553A",
"+1.	c #715F46",
"@1.	c #6A5D4A",
"#1.	c #6B604C",
"$1.	c #5D5139",
"%1.	c #5A5043",
"&1.	c #5A4A34",
"*1.	c #82745C",
"=1.	c #7D6C54",
"-1.	c #7D6B4E",
";1.	c #766448",
">1.	c #6C5B42",
",1.	c #8F7D5D",
"'1.	c #503E2F",
")1.	c #30200F",
"!1.	c #766D59",
"~1.	c #84806E",
"{1.	c #675F51",
"]1.	c #939182",
"^1.	c #868373",
"/1.	c #776F67",
"(1.	c #595848",
"_1.	c #7E756B",
":1.	c #6D5C48",
"<1.	c #7B603E",
"[1.	c #6A5437",
"}1.	c #786247",
"|1.	c #6E5336",
"11.	c #806A49",
"21.	c #6C573D",
"31.	c #897257",
"41.	c #65513A",
"51.	c #55412B",
"61.	c #948269",
"71.	c #7B6B51",
"81.	c #57432D",
"91.	c #877763",
"01.	c #726754",
"a1.	c #736955",
"b1.	c #918372",
"c1.	c #625845",
"d1.	c #7A6E5B",
"e1.	c #4D3F30",
"f1.	c #675C49",
"g1.	c #5B4A34",
"h1.	c #7D684B",
"i1.	c #5B4427",
"j1.	c #533E27",
"k1.	c #493418",
"l1.	c #624425",
"m1.	c #503217",
"n1.	c #5D4024",
"o1.	c #644C2F",
"p1.	c #3F2D19",
"q1.	c #402B17",
"r1.	c #443217",
"s1.	c #292219",
"t1.	c #A39F95",
"u1.	c #55524B",
"v1.	c #797A71",
"w1.	c #5F4A33",
"x1.	c #51402E",
"y1.	c #6D5B46",
"z1.	c #594632",
"A1.	c #5C4C37",
"B1.	c #584834",
"C1.	c #503D2A",
"D1.	c #413627",
"E1.	c #2E2418",
"F1.	c #555649",
"G1.	c #AEA8A0",
"H1.	c #796F5C",
"I1.	c #6A6253",
"J1.	c #6B5F51",
"K1.	c #55544B",
"L1.	c #626159",
"M1.	c #7C7C6D",
"N1.	c #786E5C",
"O1.	c #808171",
"P1.	c #908880",
"Q1.	c #8C8270",
"R1.	c #706251",
"S1.	c #7C6F5A",
"T1.	c #4C4435",
"U1.	c #1A1817",
"V1.	c #1F1B19",
"W1.	c #5D4328",
"X1.	c #603F1E",
"Y1.	c #73502D",
"Z1.	c #936E41",
"`1.	c #8C6945",
" 2.	c #644526",
".2.	c #533317",
"+2.	c #5A3916",
"@2.	c #785735",
"#2.	c #503312",
"$2.	c #604325",
"%2.	c #78593B",
"&2.	c #5B3E21",
"*2.	c #5B3E27",
"=2.	c #6D4E2B",
"-2.	c #614A2F",
";2.	c #775B3B",
">2.	c #644827",
",2.	c #805E36",
"'2.	c #91734F",
")2.	c #A5855E",
"!2.	c #856948",
"~2.	c #654E34",
"{2.	c #87765C",
"]2.	c #746049",
"^2.	c #685C46",
"/2.	c #6C634D",
"(2.	c #8C826E",
"_2.	c #584E3F",
":2.	c #918063",
"<2.	c #8B795E",
"[2.	c #5E492F",
"}2.	c #5B4D39",
"|2.	c #69563F",
"12.	c #654F36",
"22.	c #624D33",
"32.	c #3E2916",
"42.	c #3F2B12",
"52.	c #7B7664",
"62.	c #595543",
"72.	c #847B72",
"82.	c #5B5347",
"92.	c #291F14",
"02.	c #524D3F",
"a2.	c #717060",
"b2.	c #6C5D49",
"c2.	c #654F34",
"d2.	c #705C3F",
"e2.	c #9D8768",
"f2.	c #9E8968",
"g2.	c #563E20",
"h2.	c #786149",
"i2.	c #8B7555",
"j2.	c #7F6C52",
"k2.	c #63553A",
"l2.	c #72664E",
"m2.	c #695B46",
"n2.	c #70654C",
"o2.	c #635642",
"p2.	c #968D77",
"q2.	c #8D806B",
"r2.	c #827865",
"s2.	c #726452",
"t2.	c #5F5341",
"u2.	c #685F4B",
"v2.	c #776C59",
"w2.	c #5C4A35",
"x2.	c #867053",
"y2.	c #563F24",
"z2.	c #725B44",
"A2.	c #756142",
"B2.	c #644D31",
"C2.	c #5D4326",
"D2.	c #4D3B29",
"E2.	c #413121",
"F2.	c #644C3A",
"G2.	c #48351F",
"H2.	c #71553C",
"I2.	c #4A301A",
"J2.	c #322418",
"K2.	c #2C2217",
"L2.	c #2E1E13",
"M2.	c #140F0B",
"N2.	c #9E978B",
"O2.	c #5A4429",
"P2.	c #775E47",
"Q2.	c #796A53",
"R2.	c #786852",
"S2.	c #604F3E",
"T2.	c #7C6D54",
"U2.	c #6C5941",
"V2.	c #89775C",
"W2.	c #352D21",
"X2.	c #7B7A72",
"Y2.	c #17140C",
"Z2.	c #766E5D",
"`2.	c #61503A",
" 3.	c #4C4030",
".3.	c #867C68",
"+3.	c #6A5C4B",
"@3.	c #80776B",
"#3.	c #646253",
"$3.	c #808176",
"%3.	c #ABA59D",
"&3.	c #958B85",
"*3.	c #B5B2A5",
"=3.	c #645846",
"-3.	c #666453",
";3.	c #807563",
">3.	c #65543E",
",3.	c #594933",
"'3.	c #4F3D2B",
")3.	c #2A2014",
"!3.	c #645E5A",
"~3.	c #34271E",
"{3.	c #2F2015",
"]3.	c #48301B",
"^3.	c #543B26",
"/3.	c #604328",
"(3.	c #826444",
"_3.	c #775735",
":3.	c #664724",
"<3.	c #745232",
"[3.	c #553715",
"}3.	c #7B5833",
"|3.	c #B38F63",
"13.	c #704F30",
"23.	c #5C3B19",
"33.	c #5E3E1C",
"43.	c #634324",
"53.	c #55381B",
"63.	c #583D1E",
"73.	c #684C2E",
"83.	c #866A47",
"93.	c #684F2C",
"03.	c #795D3E",
"a3.	c #71593F",
"b3.	c #7F6541",
"c3.	c #83694C",
"d3.	c #7E5F3D",
"e3.	c #755935",
"f3.	c #6F5430",
"g3.	c #604326",
"h3.	c #69523A",
"i3.	c #584225",
"j3.	c #72614B",
"k3.	c #776953",
"l3.	c #867A65",
"m3.	c #847A66",
"n3.	c #857A66",
"o3.	c #675543",
"p3.	c #7F6C50",
"q3.	c #65513D",
"r3.	c #685A45",
"s3.	c #6C5D4A",
"t3.	c #77624A",
"u3.	c #5F4D33",
"v3.	c #6E5738",
"w3.	c #7C715E",
"x3.	c #686052",
"y3.	c #413D2F",
"z3.	c #767263",
"A3.	c #9B9687",
"B3.	c #7F796A",
"C3.	c #797168",
"D3.	c #979282",
"E3.	c #6B6556",
"F3.	c #665E55",
"G3.	c #8F887B",
"H3.	c #7C7056",
"I3.	c #5E472E",
"J3.	c #664F33",
"K3.	c #654E2E",
"L3.	c #816A4A",
"M3.	c #897155",
"N3.	c #6B543C",
"O3.	c #5D4831",
"P3.	c #77654A",
"Q3.	c #85745B",
"R3.	c #8F7E64",
"S3.	c #81735D",
"T3.	c #998A73",
"U3.	c #887A63",
"V3.	c #89806B",
"W3.	c #9B907B",
"X3.	c #786C5B",
"Y3.	c #514736",
"Z3.	c #887E69",
"`3.	c #736A5C",
" 4.	c #695F4F",
".4.	c #7C6E5B",
"+4.	c #413320",
"@4.	c #7A684E",
"#4.	c #7A694E",
"$4.	c #51412D",
"%4.	c #4A3827",
"&4.	c #64523C",
"*4.	c #342210",
"=4.	c #6B553D",
"-4.	c #503E2B",
";4.	c #634C35",
">4.	c #503519",
",4.	c #62472B",
"'4.	c #402E17",
")4.	c #4A321D",
"!4.	c #4B341E",
"~4.	c #3B2614",
"{4.	c #3A2816",
"]4.	c #503B24",
"^4.	c #847560",
"/4.	c #7A6B58",
"(4.	c #675741",
"_4.	c #6A5941",
":4.	c #604B34",
"<4.	c #A5A398",
"[4.	c #88867C",
"}4.	c #756655",
"|4.	c #A4957F",
"14.	c #765E3F",
"24.	c #8D8578",
"34.	c #5A5346",
"44.	c #675D4D",
"54.	c #98938D",
"64.	c #A19F91",
"74.	c #8F8A7A",
"84.	c #5F6052",
"94.	c #867D74",
"04.	c #6E655D",
"a4.	c #5D4F3B",
"b4.	c #74634A",
"c4.	c #5D4D37",
"d4.	c #72604C",
"e4.	c #544433",
"f4.	c #4C3A27",
"g4.	c #34291D",
"h4.	c #322A23",
"i4.	c #6F685A",
"j4.	c #261F17",
"k4.	c #462E19",
"l4.	c #3E2410",
"m4.	c #593D22",
"n4.	c #5B3F22",
"o4.	c #836340",
"p4.	c #6B4B2A",
"q4.	c #7A5933",
"r4.	c #795631",
"s4.	c #7E5D3B",
"t4.	c #765634",
"u4.	c #755536",
"v4.	c #74563A",
"w4.	c #5F462B",
"x4.	c #6D512E",
"y4.	c #593D1B",
"z4.	c #66492C",
"A4.	c #795A3D",
"B4.	c #5E421F",
"C4.	c #6D5136",
"D4.	c #735936",
"E4.	c #9B815C",
"F4.	c #80684B",
"G4.	c #7B6546",
"H4.	c #6E553B",
"I4.	c #806B4F",
"J4.	c #6C5537",
"K4.	c #5E4220",
"L4.	c #6C512E",
"M4.	c #5A3E1C",
"N4.	c #9C7E57",
"O4.	c #806849",
"P4.	c #694D37",
"Q4.	c #675137",
"R4.	c #7E6C53",
"S4.	c #6B5B44",
"T4.	c #7D705B",
"U4.	c #786B5A",
"V4.	c #867A69",
"W4.	c #726756",
"X4.	c #594633",
"Y4.	c #5A4A33",
"Z4.	c #726046",
"`4.	c #80725A",
" 5.	c #6D624B",
".5.	c #52462B",
"+5.	c #766146",
"@5.	c #C4B697",
"#5.	c #4E3A24",
"$5.	c #544D3B",
"%5.	c #625746",
"&5.	c #817C6C",
"*5.	c #7B7A6F",
"=5.	c #9E958A",
"-5.	c #5F523E",
";5.	c #56412B",
">5.	c #71583B",
",5.	c #7D6747",
"'5.	c #735B3C",
")5.	c #7C6547",
"!5.	c #7C694F",
"~5.	c #4C3725",
"{5.	c #807257",
"]5.	c #7D6D55",
"^5.	c #6A5849",
"/5.	c #635741",
"(5.	c #6F634E",
"_5.	c #706652",
":5.	c #8E8474",
"<5.	c #746557",
"[5.	c #837C6A",
"}5.	c #9A9082",
"|5.	c #7F7768",
"15.	c #978D7A",
"25.	c #6E6455",
"35.	c #756751",
"45.	c #7C6D55",
"55.	c #6B5847",
"65.	c #53432B",
"75.	c #645139",
"85.	c #6C5742",
"95.	c #5A4530",
"05.	c #4A3824",
"a5.	c #614D32",
"b5.	c #5B4224",
"c5.	c #6D533B",
"d5.	c #705234",
"e5.	c #5D4327",
"f5.	c #593D24",
"g5.	c #412C13",
"h5.	c #49311C",
"i5.	c #010000",
"j5.	c #52432F",
"k5.	c #564527",
"l5.	c #857460",
"m5.	c #8D816A",
"n5.	c #7E735D",
"o5.	c #4D4127",
"p5.	c #6D5B42",
"q5.	c #665237",
"r5.	c #36271C",
"s5.	c #6E6858",
"t5.	c #6E624A",
"u5.	c #393528",
"v5.	c #464538",
"w5.	c #988F88",
"x5.	c #6D6151",
"y5.	c #9D9A91",
"z5.	c #281C0F",
"A5.	c #92816E",
"B5.	c #40382A",
"C5.	c #817F78",
"D5.	c #9F9992",
"E5.	c #6C5A40",
"F5.	c #5C4C32",
"G5.	c #77674E",
"H5.	c #675640",
"I5.	c #4D3A25",
"J5.	c #2F2213",
"K5.	c #635949",
"L5.	c #B6AFA3",
"M5.	c #422F1F",
"N5.	c #7F5F40",
"O5.	c #886846",
"P5.	c #634120",
"Q5.	c #543517",
"R5.	c #8E6C45",
"S5.	c #84613C",
"T5.	c #795832",
"U5.	c #6B4A27",
"V5.	c #95754E",
"W5.	c #A27D51",
"X5.	c #7A5834",
"Y5.	c #553718",
"Z5.	c #886B4C",
"`5.	c #4E3614",
" 6.	c #583F24",
".6.	c #856944",
"+6.	c #725538",
"@6.	c #5A401D",
"#6.	c #60452A",
"$6.	c #988362",
"%6.	c #A28D72",
"&6.	c #A6957B",
"*6.	c #7C6950",
"=6.	c #5B4B2E",
"-6.	c #795D40",
";6.	c #634528",
">6.	c #5C4123",
",6.	c #9C805B",
"'6.	c #7A5D3A",
")6.	c #594126",
"!6.	c #635031",
"~6.	c #796850",
"{6.	c #5E4B37",
"]6.	c #655944",
"^6.	c #887D69",
"/6.	c #6D6656",
"(6.	c #77715E",
"_6.	c #584934",
":6.	c #8B8270",
"<6.	c #7B7365",
"[6.	c #564E38",
"}6.	c #9C9076",
"|6.	c #8C8371",
"16.	c #746951",
"26.	c #7C7363",
"36.	c #988D7B",
"46.	c #8E8779",
"56.	c #938A7E",
"66.	c #797464",
"76.	c #908D7D",
"86.	c #ABA699",
"96.	c #89816E",
"06.	c #806F59",
"a6.	c #847158",
"b6.	c #7C6347",
"c6.	c #5F482C",
"d6.	c #775A3E",
"e6.	c #8B704D",
"f6.	c #6F583A",
"g6.	c #836E58",
"h6.	c #695C44",
"i6.	c #695A43",
"j6.	c #73614D",
"k6.	c #6F634D",
"l6.	c #6C624D",
"m6.	c #7F7562",
"n6.	c #837463",
"o6.	c #8C826F",
"p6.	c #756B5C",
"q6.	c #7A6E5F",
"r6.	c #4A412F",
"s6.	c #665C4C",
"t6.	c #6E6351",
"u6.	c #7F6F5C",
"v6.	c #72634B",
"w6.	c #6C5F47",
"x6.	c #65523B",
"y6.	c #5D4126",
"z6.	c #84684B",
"A6.	c #51391C",
"B6.	c #573F24",
"C6.	c #6C5436",
"D6.	c #765A3C",
"E6.	c #725738",
"F6.	c #573E26",
"G6.	c #60472C",
"H6.	c #51371D",
"I6.	c #4D341E",
"J6.	c #412D19",
"K6.	c #170C07",
"L6.	c #64563E",
"M6.	c #67543E",
"N6.	c #82745E",
"O6.	c #817663",
"P6.	c #6F5A46",
"Q6.	c #7B6A52",
"R6.	c #7C664C",
"S6.	c #5B4933",
"T6.	c #140F0A",
"U6.	c #666151",
"V6.	c #544C43",
"W6.	c #989088",
"X6.	c #29201C",
"Y6.	c #62615A",
"Z6.	c #161109",
"`6.	c #8D8881",
" 7.	c #6E6354",
".7.	c #929088",
"+7.	c #776F61",
"@7.	c #ACA799",
"#7.	c #31261C",
"$7.	c #706045",
"%7.	c #7F7058",
"&7.	c #96836C",
"*7.	c #85755A",
"=7.	c #67543B",
"-7.	c #6A523D",
";7.	c #5C4B3B",
">7.	c #7D7565",
",7.	c #49331F",
"'7.	c #6F5433",
")7.	c #745537",
"!7.	c #6D4A29",
"~7.	c #7A5B38",
"{7.	c #604121",
"]7.	c #674522",
"^7.	c #9F7B52",
"/7.	c #896642",
"(7.	c #A7845A",
"_7.	c #745533",
":7.	c #6E4D2B",
"<7.	c #8B6845",
"[7.	c #62421F",
"}7.	c #6B4F33",
"|7.	c #75593A",
"17.	c #917656",
"27.	c #6D5133",
"37.	c #7A5A3D",
"47.	c #7B6343",
"57.	c #68563B",
"67.	c #988B77",
"77.	c #AD9F8A",
"87.	c #63523C",
"97.	c #6E5B45",
"07.	c #A19075",
"a7.	c #6C5A42",
"b7.	c #756148",
"c7.	c #4D351B",
"d7.	c #614325",
"e7.	c #5E411D",
"f7.	c #715236",
"g7.	c #6E5432",
"h7.	c #533E29",
"i7.	c #66533E",
"j7.	c #63533F",
"k7.	c #AFA491",
"l7.	c #857B67",
"m7.	c #756B55",
"n7.	c #695E4F",
"o7.	c #595143",
"p7.	c #8A7E67",
"q7.	c #5E5441",
"r7.	c #6D6454",
"s7.	c #948A7D",
"t7.	c #7A7465",
"u7.	c #5F5545",
"v7.	c #675D4E",
"w7.	c #868170",
"x7.	c #9C928A",
"y7.	c #372F24",
"z7.	c #605A4E",
"A7.	c #5B5747",
"B7.	c #545446",
"C7.	c #77726B",
"D7.	c #82715C",
"E7.	c #A99875",
"F7.	c #917750",
"G7.	c #785F3C",
"H7.	c #644A2C",
"I7.	c #8B7452",
"J7.	c #9D8C72",
"K7.	c #625341",
"L7.	c #756650",
"M7.	c #655542",
"N7.	c #77715F",
"O7.	c #928A78",
"P7.	c #8C8572",
"Q7.	c #8C8676",
"R7.	c #887C68",
"S7.	c #6A6050",
"T7.	c #716556",
"U7.	c #706558",
"V7.	c #675D4F",
"W7.	c #85806C",
"X7.	c #847A6A",
"Y7.	c #726655",
"Z7.	c #776857",
"`7.	c #4B3720",
" 8.	c #4C3924",
".8.	c #7F654A",
"+8.	c #543E26",
"@8.	c #7D664E",
"#8.	c #543C21",
"$8.	c #5E4427",
"%8.	c #684E31",
"&8.	c #5E492A",
"*8.	c #583D20",
"=8.	c #563A1F",
"-8.	c #513319",
";8.	c #4E3621",
">8.	c #1E1611",
",8.	c #82837A",
"'8.	c #6C5D45",
")8.	c #6F5C4A",
"!8.	c #574736",
"~8.	c #736149",
"{8.	c #5F503A",
"]8.	c #6A5841",
"^8.	c #54412B",
"/8.	c #5F4C34",
"(8.	c #493B29",
"_8.	c #110C09",
":8.	c #5F5753",
"<8.	c #514739",
"[8.	c #A49D8F",
"}8.	c #8A8371",
"|8.	c #9A9184",
"18.	c #A29B8D",
"28.	c #62594B",
"38.	c #1E1C15",
"48.	c #827A6D",
"58.	c #5F5845",
"68.	c #5B5852",
"78.	c #655C4C",
"88.	c #B2ACA0",
"98.	c #4D3D2D",
"08.	c #58442D",
"a8.	c #857359",
"b8.	c #88785F",
"c8.	c #79644B",
"d8.	c #A99275",
"e8.	c #403022",
"f8.	c #938F80",
"g8.	c #78705E",
"h8.	c #6A5237",
"i8.	c #694E31",
"j8.	c #674826",
"k8.	c #8A673E",
"l8.	c #5E3C18",
"m8.	c #7B552D",
"n8.	c #7C5A31",
"o8.	c #8D693E",
"p8.	c #82603B",
"q8.	c #664320",
"r8.	c #8E6D48",
"s8.	c #825F39",
"t8.	c #5E401D",
"u8.	c #826947",
"v8.	c #8C7053",
"w8.	c #755937",
"x8.	c #644D32",
"y8.	c #5B3F1E",
"z8.	c #66491F",
"A8.	c #7E6E55",
"B8.	c #9F9888",
"C8.	c #918A76",
"D8.	c #766D58",
"E8.	c #968972",
"F8.	c #79694F",
"G8.	c #B8A48A",
"H8.	c #5A432C",
"I8.	c #6F5D41",
"J8.	c #46331B",
"K8.	c #594326",
"L8.	c #624C30",
"M8.	c #7E674C",
"N8.	c #705B41",
"O8.	c #827155",
"P8.	c #5D4B34",
"Q8.	c #746854",
"R8.	c #6F6252",
"S8.	c #6C634E",
"T8.	c #736757",
"U8.	c #B2A996",
"V8.	c #6E6757",
"W8.	c #837E6F",
"X8.	c #7B7369",
"Y8.	c #71695F",
"Z8.	c #7D7A6A",
"`8.	c #5A4B34",
" 9.	c #A38E6E",
".9.	c #795F3A",
"+9.	c #7D6039",
"@9.	c #856745",
"#9.	c #71583C",
"$9.	c #624F2D",
"%9.	c #887153",
"&9.	c #826E52",
"*9.	c #836F50",
"=9.	c #624F36",
"-9.	c #665640",
";9.	c #827863",
">9.	c #5B5240",
",9.	c #5C523F",
"'9.	c #7E7361",
")9.	c #6C614F",
"!9.	c #605B4C",
"~9.	c #7D7361",
"{9.	c #645A4A",
"]9.	c #4F463B",
"^9.	c #685D4F",
"/9.	c #83786B",
"(9.	c #776D5D",
"_9.	c #645A49",
":9.	c #413222",
"<9.	c #897760",
"[9.	c #6D5743",
"}9.	c #5F4E34",
"|9.	c #614F3B",
"19.	c #5A472D",
"29.	c #60452B",
"39.	c #775C40",
"49.	c #795F44",
"59.	c #654D32",
"69.	c #573D24",
"79.	c #53381E",
"89.	c #2E1D0B",
"99.	c #2F251C",
"09.	c #8F765D",
"a9.	c #736244",
"b9.	c #62523B",
"c9.	c #6C5B45",
"d9.	c #6B5942",
"e9.	c #6A5B46",
"f9.	c #523F2B",
"g9.	c #5A4631",
"h9.	c #877E67",
"i9.	c #676051",
"j9.	c #9C9788",
"k9.	c #0B0301",
"l9.	c #787360",
"m9.	c #6C6148",
"n9.	c #88816B",
"o9.	c #8D8574",
"p9.	c #85806E",
"q9.	c #A2A092",
"r9.	c #47392B",
"s9.	c #39291D",
"t9.	c #4A3A28",
"u9.	c #251E14",
"v9.	c #B7B0A6",
"w9.	c #6B6351",
"x9.	c #77786E",
"y9.	c #4D4539",
"z9.	c #A6A193",
"A9.	c #897C6B",
"B9.	c #5D4B38",
"C9.	c #6A5B44",
"D9.	c #806D56",
"E9.	c #735F46",
"F9.	c #665638",
"G9.	c #907C61",
"H9.	c #5C4936",
"I9.	c #452C14",
"J9.	c #6F563B",
"K9.	c #7B5C3D",
"L9.	c #8E6F4C",
"M9.	c #503619",
"N9.	c #896539",
"O9.	c #5D3A1A",
"P9.	c #89653F",
"Q9.	c #86653C",
"R9.	c #90693F",
"S9.	c #7D5B39",
"T9.	c #51320F",
"U9.	c #734D2A",
"V9.	c #876542",
"W9.	c #6D502E",
"X9.	c #563D21",
"Y9.	c #603C1E",
"Z9.	c #A28159",
"`9.	c #886A4A",
" 0.	c #241F16",
".0.	c #898076",
"+0.	c #7D7567",
"@0.	c #827967",
"#0.	c #94846C",
"$0.	c #756954",
"%0.	c #5E4B2E",
"&0.	c #755D3D",
"*0.	c #705A40",
"=0.	c #705839",
"-0.	c #5E4A31",
";0.	c #77674B",
">0.	c #7E6A51",
",0.	c #69583E",
"'0.	c #82715E",
")0.	c #7A6C58",
"!0.	c #685B4A",
"~0.	c #7A7462",
"{0.	c #645B4B",
"]0.	c #9D9989",
"^0.	c #6A6251",
"/0.	c #7C7368",
"(0.	c #3D3529",
"_0.	c #8B8077",
":0.	c #786859",
"<0.	c #604F39",
"[0.	c #886C4D",
"}0.	c #8F744F",
"|0.	c #987855",
"10.	c #5C4124",
"20.	c #685138",
"30.	c #7A6447",
"40.	c #8D7C5F",
"50.	c #675437",
"60.	c #957C5D",
"70.	c #8E7758",
"80.	c #6C5A46",
"90.	c #5D513F",
"00.	c #716754",
"a0.	c #807666",
"b0.	c #7B715F",
"c0.	c #857B6B",
"d0.	c #6F6253",
"e0.	c #6C6050",
"f0.	c #746C5A",
"g0.	c #665D4A",
"h0.	c #7D7362",
"i0.	c #756A5B",
"j0.	c #595140",
"k0.	c #463C2A",
"l0.	c #382C1C",
"m0.	c #735F44",
"n0.	c #5C4731",
"o0.	c #5B472E",
"p0.	c #665039",
"q0.	c #513F29",
"r0.	c #47341C",
"s0.	c #5A4125",
"t0.	c #745A37",
"u0.	c #553D20",
"v0.	c #573E1F",
"w0.	c #654726",
"x0.	c #75583F",
"y0.	c #422C17",
"z0.	c #100B03",
"A0.	c #1B110B",
"B0.	c #4A3825",
"C0.	c #46321B",
"D0.	c #604A33",
"E0.	c #5E4B34",
"F0.	c #7B684E",
"G0.	c #7F6F51",
"H0.	c #664F39",
"I0.	c #5E4A37",
"J0.	c #A6A091",
"K0.	c #68685D",
"L0.	c #756B5B",
"M0.	c #A69683",
"N0.	c #837A6B",
"O0.	c #908268",
"P0.	c #715D47",
"Q0.	c #7F7465",
"R0.	c #706D5E",
"S0.	c #928C7D",
"T0.	c #574837",
"U0.	c #4C3A26",
"V0.	c #A5A498",
"W0.	c #4E4233",
"X0.	c #AAA99E",
"Y0.	c #AAA899",
"Z0.	c #2F271F",
"`0.	c #846F54",
" a.	c #715F4A",
".a.	c #695740",
"+a.	c #74644A",
"@a.	c #5A4932",
"#a.	c #63513D",
"$a.	c #56482D",
"%a.	c #85755C",
"&a.	c #56462F",
"*a.	c #725F49",
"=a.	c #735B3D",
"-a.	c #674D30",
";a.	c #553617",
">a.	c #95724B",
",a.	c #977550",
"'a.	c #896037",
")a.	c #876139",
"!a.	c #5C3918",
"~a.	c #6D4A21",
"{a.	c #75512D",
"]a.	c #664220",
"^a.	c #724D26",
"/a.	c #6C4E31",
"(a.	c #9E8261",
"_a.	c #7D6142",
":a.	c #826746",
"<a.	c #896D45",
"[a.	c #533F2A",
"}a.	c #746D5F",
"|a.	c #888370",
"1a.	c #837A66",
"2a.	c #988970",
"3a.	c #6B5B3E",
"4a.	c #7E694D",
"5a.	c #7D6B53",
"6a.	c #6B5F49",
"7a.	c #99947E",
"8a.	c #85806D",
"9a.	c #9E9886",
"0a.	c #908C79",
"aa.	c #9D9585",
"ba.	c #9D9988",
"ca.	c #7E7767",
"da.	c #655D50",
"ea.	c #888273",
"fa.	c #625F4F",
"ga.	c #746A5F",
"ha.	c #7A7265",
"ia.	c #565547",
"ja.	c #958E7E",
"ka.	c #918473",
"la.	c #6D6755",
"ma.	c #7B7563",
"na.	c #907755",
"oa.	c #634621",
"pa.	c #5D3F22",
"qa.	c #816337",
"ra.	c #8B765E",
"sa.	c #846D51",
"ta.	c #836D52",
"ua.	c #7E6B4C",
"va.	c #563D23",
"wa.	c #89785D",
"xa.	c #8C7F6A",
"ya.	c #7D715B",
"za.	c #4B3D2D",
"Aa.	c #534537",
"Ba.	c #635B4A",
"Ca.	c #4E4334",
"Da.	c #7F6E5D",
"Ea.	c #807260",
"Fa.	c #A29884",
"Ga.	c #74685A",
"Ha.	c #524839",
"Ia.	c #595041",
"Ja.	c #746957",
"Ka.	c #392F24",
"La.	c #604D35",
"Ma.	c #79634C",
"Na.	c #54412D",
"Oa.	c #6F5633",
"Pa.	c #826747",
"Qa.	c #695238",
"Ra.	c #604B32",
"Sa.	c #634123",
"Ta.	c #4E321A",
"Ua.	c #52381F",
"Va.	c #583E25",
"Wa.	c #472F18",
"Xa.	c #5E482F",
"Ya.	c #6D5537",
"Za.	c #5A4328",
"`a.	c #5B4C36",
" b.	c #51402C",
".b.	c #5E4937",
"+b.	c #857664",
"@b.	c #8A7867",
"#b.	c #5B4A38",
"$b.	c #745D45",
"%b.	c #584939",
"&b.	c #AAA49C",
"*b.	c #7C7367",
"=b.	c #7C755D",
"-b.	c #8F806C",
";b.	c #6F6451",
">b.	c #7F7964",
",b.	c #988F80",
"'b.	c #AAA397",
")b.	c #8B7E67",
"!b.	c #8C8171",
"~b.	c #766752",
"{b.	c #52412E",
"]b.	c #594D39",
"^b.	c #5E5542",
"/b.	c #B6B4A8",
"(b.	c #978F84",
"_b.	c #8D8577",
":b.	c #736961",
"<b.	c #8C8C82",
"[b.	c #554E43",
"}b.	c #726A60",
"|b.	c #221D12",
"1b.	c #5D4932",
"2b.	c #846E4F",
"3b.	c #6F5B3F",
"4b.	c #6A5842",
"5b.	c #75634A",
"6b.	c #6A5441",
"7b.	c #725F45",
"8b.	c #6B5B45",
"9b.	c #433624",
"0b.	c #685B48",
"ab.	c #6C5A47",
"bb.	c #584227",
"cb.	c #674C2E",
"db.	c #806340",
"eb.	c #634626",
"fb.	c #967453",
"gb.	c #9C764E",
"hb.	c #946F46",
"ib.	c #87653B",
"jb.	c #7D572A",
"kb.	c #7D5730",
"lb.	c #84603A",
"mb.	c #886237",
"nb.	c #805D3B",
"ob.	c #57381D",
"pb.	c #7E5E3C",
"qb.	c #7C5E3E",
"rb.	c #7F6141",
"sb.	c #896A48",
"tb.	c #705736",
"ub.	c #362B1C",
"vb.	c #726C5A",
"wb.	c #968B79",
"xb.	c #877C64",
"yb.	c #807863",
"zb.	c #726A5B",
"Ab.	c #848070",
"Bb.	c #9F988B",
"Cb.	c #787767",
"Db.	c #837C6D",
"Eb.	c #676153",
"Fb.	c #2E291C",
"Gb.	c #5B5247",
"Hb.	c #514E41",
"Ib.	c #7A7363",
"Jb.	c #6C6254",
"Kb.	c #7A705A",
"Lb.	c #9A7E5D",
"Mb.	c #694C2A",
"Nb.	c #7B603B",
"Ob.	c #6A4C26",
"Pb.	c #8C714E",
"Qb.	c #785A3A",
"Rb.	c #6A5130",
"Sb.	c #6A5036",
"Tb.	c #583F22",
"Ub.	c #816F53",
"Vb.	c #766245",
"Wb.	c #836E4F",
"Xb.	c #756246",
"Yb.	c #685542",
"Zb.	c #554831",
"`b.	c #675648",
" c.	c #5C4F3D",
".c.	c #453726",
"+c.	c #4D4131",
"@c.	c #675B49",
"#c.	c #5F5441",
"$c.	c #594E3E",
"%c.	c #786D5A",
"&c.	c #5F5747",
"*c.	c #4A4032",
"=c.	c #4A402D",
"-c.	c #504636",
";c.	c #423627",
">c.	c #685941",
",c.	c #5C4934",
"'c.	c #726047",
")c.	c #5E4D37",
"!c.	c #574024",
"~c.	c #574028",
"{c.	c #584127",
"]c.	c #452F17",
"^c.	c #61482A",
"/c.	c #694E34",
"(c.	c #4D361A",
"_c.	c #442B12",
":c.	c #432A0D",
"<c.	c #634628",
"[c.	c #5C4129",
"}c.	c #725C42",
"|c.	c #74654F",
"1c.	c #7A6C56",
"2c.	c #5A4E39",
"3c.	c #574430",
"4c.	c #5F4D34",
"5c.	c #62513A",
"6c.	c #8D8372",
"7c.	c #6C604D",
"8c.	c #847764",
"9c.	c #776F5D",
"0c.	c #817562",
"ac.	c #9A9485",
"bc.	c #827866",
"cc.	c #938679",
"dc.	c #776A54",
"ec.	c #6B5843",
"fc.	c #504535",
"gc.	c #AEA89F",
"hc.	c #88827C",
"ic.	c #4B4233",
"jc.	c #A29B93",
"kc.	c #7E6F5B",
"lc.	c #8F7C5F",
"mc.	c #553B21",
"nc.	c #8D7559",
"oc.	c #7B6545",
"pc.	c #776245",
"qc.	c #A89378",
"rc.	c #745E43",
"sc.	c #695437",
"tc.	c #7C6951",
"uc.	c #5F4D3B",
"vc.	c #473220",
"wc.	c #503D27",
"xc.	c #7E603D",
"yc.	c #533918",
"zc.	c #65441D",
"Ac.	c #75532C",
"Bc.	c #8D6943",
"Cc.	c #9A734B",
"Dc.	c #755129",
"Ec.	c #8B663B",
"Fc.	c #765333",
"Gc.	c #785632",
"Hc.	c #866038",
"Ic.	c #68492E",
"Jc.	c #937551",
"Kc.	c #87694A",
"Lc.	c #5B3E1F",
"Mc.	c #8B6F4B",
"Nc.	c #876B4C",
"Oc.	c #7D6445",
"Pc.	c #463A2D",
"Qc.	c #786F5B",
"Rc.	c #696555",
"Sc.	c #847F70",
"Tc.	c #999586",
"Uc.	c #7E7B6C",
"Vc.	c #767062",
"Wc.	c #767061",
"Xc.	c #5B5849",
"Yc.	c #8C8475",
"Zc.	c #A09688",
"`c.	c #120F0B",
" d.	c #4B4336",
".d.	c #191009",
"+d.	c #14130D",
"@d.	c #615953",
"#d.	c #6E604B",
"$d.	c #6B4E2A",
"%d.	c #836642",
"&d.	c #573C1A",
"*d.	c #7B5F40",
"=d.	c #7D6452",
"-d.	c #65461E",
";d.	c #94764F",
">d.	c #6C4E30",
",d.	c #42301D",
"'d.	c #8E795E",
")d.	c #807053",
"!d.	c #7A6952",
"~d.	c #695A46",
"{d.	c #473A27",
"]d.	c #64533F",
"^d.	c #6A5B43",
"/d.	c #85735A",
"(d.	c #3F2F20",
"_d.	c #6B604E",
":d.	c #6C6352",
"<d.	c #7D725F",
"[d.	c #564A39",
"}d.	c #594B3E",
"|d.	c #635B48",
"1d.	c #706358",
"2d.	c #7C725C",
"3d.	c #72614D",
"4d.	c #76624A",
"5d.	c #6C573E",
"6d.	c #634C34",
"7d.	c #634B31",
"8d.	c #614727",
"9d.	c #503C1E",
"0d.	c #533D27",
"ad.	c #6A5132",
"bd.	c #6A5137",
"cd.	c #725F41",
"dd.	c #64563F",
"ed.	c #7D705A",
"fd.	c #8C7D6A",
"gd.	c #3F3323",
"hd.	c #82705C",
"id.	c #44311E",
"jd.	c #766552",
"kd.	c #818174",
"ld.	c #5B5C50",
"md.	c #847B69",
"nd.	c #645545",
"od.	c #4F412C",
"pd.	c #7B725D",
"qd.	c #786F59",
"rd.	c #736B59",
"sd.	c #8B8372",
"td.	c #605949",
"ud.	c #AAA599",
"vd.	c #696353",
"wd.	c #594B3A",
"xd.	c #A79D86",
"yd.	c #4F4131",
"zd.	c #6F6C64",
"Ad.	c #918F86",
"Bd.	c #84827C",
"Cd.	c #665D4C",
"Dd.	c #787067",
"Ed.	c #A59D93",
"Fd.	c #756D5F",
"Gd.	c #655543",
"Hd.	c #8C7656",
"Id.	c #715537",
"Jd.	c #664E31",
"Kd.	c #836845",
"Ld.	c #64482D",
"Md.	c #685031",
"Nd.	c #7B674D",
"Od.	c #918065",
"Pd.	c #847153",
"Qd.	c #645337",
"Rd.	c #776852",
"Sd.	c #6F6049",
"Td.	c #62523E",
"Ud.	c #8E7355",
"Vd.	c #765B3F",
"Wd.	c #866944",
"Xd.	c #805C32",
"Yd.	c #836032",
"Zd.	c #896238",
"`d.	c #8D6D42",
" e.	c #8A6339",
".e.	c #694724",
"+e.	c #8A663C",
"@e.	c #6A4929",
"#e.	c #82603C",
"$e.	c #6E5030",
"%e.	c #6C5034",
"&e.	c #6D5031",
"*e.	c #7C5C3C",
"=e.	c #5E452B",
"-e.	c #533E28",
";e.	c #463F32",
">e.	c #635B4E",
",e.	c #726D5E",
"'e.	c #857E71",
")e.	c #827A70",
"!e.	c #4B3725",
"~e.	c #827962",
"{e.	c #574538",
"]e.	c #4F3C28",
"^e.	c #3B2A1B",
"/e.	c #513F2B",
"(e.	c #422E20",
"_e.	c #3E3124",
":e.	c #322214",
"<e.	c #72716A",
"[e.	c #67665D",
"}e.	c #585644",
"|e.	c #4A412C",
"1e.	c #6E593B",
"2e.	c #604322",
"3e.	c #816640",
"4e.	c #6F502E",
"5e.	c #6A4E30",
"6e.	c #5E4222",
"7e.	c #846746",
"8e.	c #674D2D",
"9e.	c #6C5032",
"0e.	c #7F653F",
"ae.	c #98866A",
"be.	c #9D8D71",
"ce.	c #534129",
"de.	c #846C52",
"ee.	c #634E35",
"fe.	c #A0907E",
"ge.	c #62523C",
"he.	c #574631",
"ie.	c #81765D",
"je.	c #6B5C4B",
"ke.	c #6E6051",
"le.	c #726959",
"me.	c #766D5C",
"ne.	c #7B705F",
"oe.	c #65594C",
"pe.	c #6C6551",
"qe.	c #433D30",
"re.	c #7B6D52",
"se.	c #6C5844",
"te.	c #85765F",
"ue.	c #453020",
"ve.	c #3F2C17",
"we.	c #6F5C43",
"xe.	c #5C4A36",
"ye.	c #645138",
"ze.	c #7D6949",
"Ae.	c #524131",
"Be.	c #5E482C",
"Ce.	c #7B634B",
"De.	c #523E2B",
"Ee.	c #7A6B53",
"Fe.	c #6D614E",
"Ge.	c #736C5A",
"He.	c #493B2E",
"Ie.	c #655645",
"Je.	c #685842",
"Ke.	c #4E3926",
"Le.	c #534832",
"Me.	c #8B8580",
"Ne.	c #695D4A",
"Oe.	c #45341D",
"Pe.	c #937F62",
"Qe.	c #84755D",
"Re.	c #84765F",
"Se.	c #584F38",
"Te.	c #6B614C",
"Ue.	c #6B5A46",
"Ve.	c #7B7765",
"We.	c #484031",
"Xe.	c #AAA79A",
"Ye.	c #8E8E7F",
"Ze.	c #564C35",
"`e.	c #7B7667",
" f.	c #948F80",
".f.	c #89827B",
"+f.	c #767465",
"@f.	c #928E7E",
"#f.	c #634C33",
"$f.	c #5E4528",
"%f.	c #6D5331",
"&f.	c #63492D",
"*f.	c #86694A",
"=f.	c #6D573A",
"-f.	c #80674B",
";f.	c #7D6951",
">f.	c #8E765E",
",f.	c #4D3E2B",
"'f.	c #5A4830",
")f.	c #63492E",
"!f.	c #8F7250",
"~f.	c #684F32",
"{f.	c #6A4D2D",
"]f.	c #6F552F",
"^f.	c #A28357",
"/f.	c #A07F52",
"(f.	c #734F25",
"_f.	c #805C31",
":f.	c #7C5A35",
"<f.	c #6B4822",
"[f.	c #724F2C",
"}f.	c #8F7553",
"|f.	c #543B20",
"1f.	c #654826",
"2f.	c #745534",
"3f.	c #785C35",
"4f.	c #846A4C",
"5f.	c #5F492D",
"6f.	c #72593B",
"7f.	c #574735",
"8f.	c #746651",
"9f.	c #8B837B",
"0f.	c #706C5A",
"af.	c #554D41",
"bf.	c #4B4839",
"cf.	c #252017",
"df.	c #473522",
"ef.	c #54422B",
"ff.	c #674F3A",
"gf.	c #674C35",
"hf.	c #513D2C",
"if.	c #523E24",
"jf.	c #5A4126",
"kf.	c #46351D",
"lf.	c #3D2E1F",
"mf.	c #5F5B4A",
"nf.	c #AC9F8C",
"of.	c #A79376",
"pf.	c #4B3013",
"qf.	c #644823",
"rf.	c #6F553A",
"sf.	c #6F5130",
"tf.	c #6C4F32",
"uf.	c #674D2F",
"vf.	c #785C3E",
"wf.	c #624C2B",
"xf.	c #674B32",
"yf.	c #6D5332",
"zf.	c #654F30",
"Af.	c #6C583F",
"Bf.	c #735E47",
"Cf.	c #604D37",
"Df.	c #8C806D",
"Ef.	c #685C4B",
"Ff.	c #645945",
"Gf.	c #736959",
"Hf.	c #877C6C",
"If.	c #706A59",
"Jf.	c #51493C",
"Kf.	c #3A3226",
"Lf.	c #686053",
"Mf.	c #382F1C",
"Nf.	c #5B513C",
"Of.	c #403321",
"Pf.	c #4A3B25",
"Qf.	c #59442F",
"Rf.	c #47351F",
"Sf.	c #6D5E4A",
"Tf.	c #5A452D",
"Uf.	c #3D2E1D",
"Vf.	c #5D4A36",
"Wf.	c #624E39",
"Xf.	c #76634C",
"Yf.	c #625039",
"Zf.	c #716552",
"`f.	c #584C3A",
" g.	c #706651",
".g.	c #433426",
"+g.	c #8E7C67",
"@g.	c #58452F",
"#g.	c #4E3E2A",
"$g.	c #352B24",
"%g.	c #9A9483",
"&g.	c #948770",
"*g.	c #6F5F48",
"=g.	c #654F3A",
"-g.	c #786956",
";g.	c #978F82",
">g.	c #A8A697",
",g.	c #6C5F48",
"'g.	c #958976",
")g.	c #756D5D",
"!g.	c #736E5E",
"~g.	c #918C85",
"{g.	c #70614C",
"]g.	c #685139",
"^g.	c #584126",
"/g.	c #664C30",
"(g.	c #594024",
"_g.	c #8B7658",
":g.	c #6B5540",
"<g.	c #816B4F",
"[g.	c #736245",
"}g.	c #604E39",
"|g.	c #462F16",
"1g.	c #4F3B22",
"2g.	c #A08056",
"3g.	c #735732",
"4g.	c #9E7D55",
"5g.	c #A1825D",
"6g.	c #8F7346",
"7g.	c #8F6838",
"8g.	c #8A643D",
"9g.	c #744E25",
"0g.	c #674828",
"ag.	c #704A29",
"bg.	c #886947",
"cg.	c #5B4021",
"dg.	c #765D3F",
"eg.	c #664B2D",
"fg.	c #6F5338",
"gg.	c #563C25",
"hg.	c #7C6341",
"ig.	c #755A3A",
"jg.	c #5E4428",
"kg.	c #856F57",
"lg.	c #7D6A4E",
"mg.	c #70675A",
"ng.	c #635B52",
"og.	c #504A3B",
"pg.	c #6C6054",
"qg.	c #7F7869",
"rg.	c #706E67",
"sg.	c #595344",
"tg.	c #6D6B64",
"ug.	c #7E7770",
"vg.	c #746C60",
"wg.	c #22211C",
"xg.	c #786348",
"yg.	c #6B5537",
"zg.	c #5B4026",
"Ag.	c #664A32",
"Bg.	c #64482A",
"Cg.	c #4E3821",
"Dg.	c #A49D96",
"Eg.	c #615743",
"Fg.	c #614E38",
"Gg.	c #6D5033",
"Hg.	c #866740",
"Ig.	c #6D512C",
"Jg.	c #93754F",
"Kg.	c #694E2C",
"Lg.	c #836948",
"Mg.	c #735734",
"Ng.	c #6E5330",
"Og.	c #8A704A",
"Pg.	c #745839",
"Qg.	c #593E20",
"Rg.	c #78593A",
"Sg.	c #755A3D",
"Tg.	c #7D6245",
"Ug.	c #836D59",
"Vg.	c #77664F",
"Wg.	c #6B5A4C",
"Xg.	c #695C47",
"Yg.	c #70624F",
"Zg.	c #594B3C",
"`g.	c #534838",
" h.	c #4D4336",
".h.	c #797363",
"+h.	c #878170",
"@h.	c #5D5442",
"#h.	c #564A3A",
"$h.	c #50432F",
"%h.	c #473422",
"&h.	c #4D3F2C",
"*h.	c #786C57",
"=h.	c #6C5F4D",
"-h.	c #675A45",
";h.	c #5B4F3C",
">h.	c #6C5B43",
",h.	c #86755D",
"'h.	c #5B4832",
")h.	c #7B684B",
"!h.	c #523E29",
"~h.	c #534535",
"{h.	c #453C2A",
"]h.	c #807569",
"^h.	c #877A67",
"/h.	c #40301D",
"(h.	c #716149",
"_h.	c #625649",
":h.	c #867D6C",
"<h.	c #63573E",
"[h.	c #473217",
"}h.	c #9F8E76",
"|h.	c #817867",
"1h.	c #797767",
"2h.	c #686054",
"3h.	c #9A998D",
"4h.	c #A09786",
"5h.	c #948C7A",
"6h.	c #695F4C",
"7h.	c #7A7561",
"8h.	c #615D4F",
"9h.	c #AEA79B",
"0h.	c #7E756E",
"ah.	c #6A614E",
"bh.	c #A9A497",
"ch.	c #888475",
"dh.	c #7B6C55",
"eh.	c #857057",
"fh.	c #543F26",
"gh.	c #907753",
"hh.	c #63482C",
"ih.	c #735B42",
"jh.	c #9D8666",
"kh.	c #745A40",
"lh.	c #846A50",
"mh.	c #8A7350",
"nh.	c #73593A",
"oh.	c #644E30",
"ph.	c #856946",
"qh.	c #7E5F3C",
"rh.	c #755633",
"sh.	c #7B5631",
"th.	c #7F5B2E",
"uh.	c #C4A279",
"vh.	c #8D683E",
"wh.	c #8C6B45",
"xh.	c #724C22",
"yh.	c #765029",
"zh.	c #694524",
"Ah.	c #694824",
"Bh.	c #6F5839",
"Ch.	c #6B5133",
"Dh.	c #634D34",
"Eh.	c #8B7458",
"Fh.	c #7B6341",
"Gh.	c #978265",
"Hh.	c #74654C",
"Ih.	c #70644F",
"Jh.	c #7D715E",
"Kh.	c #836F4E",
"Lh.	c #594125",
"Mh.	c #8E8479",
"Nh.	c #696354",
"Oh.	c #5F5342",
"Ph.	c #463424",
"Qh.	c #2B2318",
"Rh.	c #5B4F39",
"Sh.	c #38281A",
"Th.	c #5D472E",
"Uh.	c #55402E",
"Vh.	c #715A3E",
"Wh.	c #604529",
"Xh.	c #735D40",
"Yh.	c #523820",
"Zh.	c #533A22",
"`h.	c #423225",
" i.	c #6B6657",
".i.	c #6B5F4F",
"+i.	c #5D3F23",
"@i.	c #5A3B21",
"#i.	c #785D3C",
"$i.	c #7E6441",
"%i.	c #664A2E",
"&i.	c #72593C",
"*i.	c #775C3E",
"=i.	c #53361D",
"-i.	c #725534",
";i.	c #6D4C2D",
">i.	c #735335",
",i.	c #705739",
"'i.	c #5B3B1B",
")i.	c #86684A",
"!i.	c #6E5B3E",
"~i.	c #42331B",
"{i.	c #877969",
"]i.	c #6A5C46",
"^i.	c #6B6052",
"/i.	c #695F52",
"(i.	c #564F3D",
"_i.	c #2A2115",
":i.	c #605143",
"<i.	c #68543B",
"[i.	c #3F2E1D",
"}i.	c #554539",
"|i.	c #5B5643",
"1i.	c #71685A",
"2i.	c #746A5A",
"3i.	c #796F5F",
"4i.	c #5E513F",
"5i.	c #675F4B",
"6i.	c #655D48",
"7i.	c #524635",
"8i.	c #776851",
"9i.	c #4C3B20",
"0i.	c #695745",
"ai.	c #66553D",
"bi.	c #705F44",
"ci.	c #867664",
"di.	c #6D5F4D",
"ei.	c #6E6655",
"fi.	c #6F5F49",
"gi.	c #5D5646",
"hi.	c #8A7D68",
"ii.	c #978872",
"ji.	c #A09B8C",
"ki.	c #545345",
"li.	c #9D948B",
"mi.	c #605A4A",
"ni.	c #6C6454",
"oi.	c #766954",
"pi.	c #5C5340",
"qi.	c #574E40",
"ri.	c #7E7968",
"si.	c #99928B",
"ti.	c #5B503D",
"ui.	c #90887E",
"vi.	c #786E66",
"wi.	c #6C645A",
"xi.	c #7B7466",
"yi.	c #776D56",
"zi.	c #765F46",
"Ai.	c #594220",
"Bi.	c #A48661",
"Ci.	c #674B2E",
"Di.	c #846745",
"Ei.	c #7F6344",
"Fi.	c #694F34",
"Gi.	c #7B6549",
"Hi.	c #34250D",
"Ii.	c #634F31",
"Ji.	c #A28B6B",
"Ki.	c #765C3B",
"Li.	c #573719",
"Mi.	c #714F2B",
"Ni.	c #826037",
"Oi.	c #7C582E",
"Pi.	c #916B41",
"Qi.	c #7E5D32",
"Ri.	c #997343",
"Si.	c #7D5C34",
"Ti.	c #89653A",
"Ui.	c #835D2E",
"Vi.	c #805E3B",
"Wi.	c #6F5940",
"Xi.	c #56452A",
"Yi.	c #554021",
"Zi.	c #887058",
"`i.	c #715E42",
" j.	c #625139",
".j.	c #68594B",
"+j.	c #423529",
"@j.	c #776548",
"#j.	c #725635",
"$j.	c #433219",
"%j.	c #2F2A1F",
"&j.	c #AAA297",
"*j.	c #8A8677",
"=j.	c #9C958D",
"-j.	c #302116",
";j.	c #332A1C",
">j.	c #29251A",
",j.	c #282015",
"'j.	c #65523D",
")j.	c #553F25",
"!j.	c #56442D",
"~j.	c #554125",
"{j.	c #62462D",
"]j.	c #5D4323",
"^j.	c #41260B",
"/j.	c #856849",
"(j.	c #5C4327",
"_j.	c #4C3C25",
":j.	c #938B7D",
"<j.	c #827060",
"[j.	c #6E522D",
"}j.	c #7F6542",
"|j.	c #7F6545",
"1j.	c #6E593A",
"2j.	c #6F5533",
"3j.	c #6B4D28",
"4j.	c #7F6540",
"5j.	c #705731",
"6j.	c #8A6A41",
"7j.	c #725231",
"8j.	c #5D3D1B",
"9j.	c #5B3819",
"0j.	c #472D14",
"aj.	c #7B5D38",
"bj.	c #644C35",
"cj.	c #4F3822",
"dj.	c #44321C",
"ej.	c #5F4F3A",
"fj.	c #564735",
"gj.	c #7A6E5C",
"hj.	c #A29988",
"ij.	c #645D4F",
"jj.	c #877C6E",
"kj.	c #5E5244",
"lj.	c #4F4635",
"mj.	c #564633",
"nj.	c #5C4D3A",
"oj.	c #554B3D",
"pj.	c #494135",
"qj.	c #7E7568",
"rj.	c #77705F",
"sj.	c #5E5648",
"tj.	c #696150",
"uj.	c #7F7461",
"vj.	c #6A5A45",
"wj.	c #826E5A",
"xj.	c #53432D",
"yj.	c #342313",
"zj.	c #594E3A",
"Aj.	c #726351",
"Bj.	c #706755",
"Cj.	c #695D4C",
"Dj.	c #645943",
"Ej.	c #584835",
"Fj.	c #5E554B",
"Gj.	c #978F87",
"Hj.	c #A39E97",
"Ij.	c #A7A096",
"Jj.	c #807562",
"Kj.	c #7C7666",
"Lj.	c #5E564F",
"Mj.	c #878473",
"Nj.	c #A69E91",
"Oj.	c #756C59",
"Pj.	c #8D816F",
"Qj.	c #7A7261",
"Rj.	c #8D867F",
"Sj.	c #8D847C",
"Tj.	c #70685E",
"Uj.	c #9C8D7C",
"Vj.	c #817259",
"Wj.	c #A08E73",
"Xj.	c #7A6449",
"Yj.	c #92724F",
"Zj.	c #7D603E",
"`j.	c #705338",
" k.	c #765837",
".k.	c #725933",
"+k.	c #866442",
"@k.	c #5D4430",
"#k.	c #705635",
"$k.	c #715741",
"%k.	c #694F2F",
"&k.	c #82623C",
"*k.	c #845F32",
"=k.	c #78542D",
"-k.	c #7C5A32",
";k.	c #88653A",
">k.	c #714E2A",
",k.	c #724F28",
"'k.	c #795129",
")k.	c #674520",
"!k.	c #5D3A13",
"~k.	c #89693F",
"{k.	c #746147",
"]k.	c #544734",
"^k.	c #7E6A4F",
"/k.	c #655035",
"(k.	c #7F6C53",
"_k.	c #816E54",
":k.	c #7F6F56",
"<k.	c #63513C",
"[k.	c #504637",
"}k.	c #A9895E",
"|k.	c #A48559",
"1k.	c #886D4C",
"2k.	c #756D62",
"3k.	c #2E2921",
"4k.	c #3C2C1A",
"5k.	c #3A2714",
"6k.	c #332517",
"7k.	c #423C2F",
"8k.	c #726C5D",
"9k.	c #3B2F21",
"0k.	c #553F2D",
"ak.	c #4D3721",
"bk.	c #614930",
"ck.	c #543A1E",
"dk.	c #543C1F",
"ek.	c #7E6440",
"fk.	c #5D4223",
"gk.	c #876C48",
"hk.	c #614D2E",
"ik.	c #493720",
"jk.	c #9C9988",
"kk.	c #615745",
"lk.	c #745838",
"mk.	c #7A5E39",
"nk.	c #5A4229",
"ok.	c #725736",
"pk.	c #7F613E",
"qk.	c #7F623E",
"rk.	c #5D411B",
"sk.	c #62442A",
"tk.	c #70512C",
"uk.	c #70502E",
"vk.	c #785C3A",
"wk.	c #614424",
"xk.	c #755C3C",
"yk.	c #8A7253",
"zk.	c #75644C",
"Ak.	c #756B5D",
"Bk.	c #635945",
"Ck.	c #5E5445",
"Dk.	c #797262",
"Ek.	c #605444",
"Fk.	c #554A3C",
"Gk.	c #4E4639",
"Hk.	c #13130A",
"Ik.	c #584938",
"Jk.	c #6B6257",
"Kk.	c #584B38",
"Lk.	c #5B4D37",
"Mk.	c #65563F",
"Nk.	c #6C5942",
"Ok.	c #635644",
"Pk.	c #7F6E55",
"Qk.	c #786B54",
"Rk.	c #716857",
"Sk.	c #5E523F",
"Tk.	c #4A3F31",
"Uk.	c #6F654F",
"Vk.	c #403522",
"Wk.	c #554533",
"Xk.	c #8B8375",
"Yk.	c #A8A29B",
"Zk.	c #B0ADA3",
"`k.	c #7D7866",
" l.	c #6D6557",
".l.	c #716756",
"+l.	c #8D8379",
"@l.	c #7C7B74",
"#l.	c #73634E",
"$l.	c #887A62",
"%l.	c #8C775C",
"&l.	c #634731",
"*l.	c #694A2C",
"=l.	c #806344",
"-l.	c #61452C",
";l.	c #514029",
">l.	c #94795C",
",l.	c #998463",
"'l.	c #856D4C",
")l.	c #7A5D3D",
"!l.	c #725632",
"~l.	c #A6835B",
"{l.	c #83613A",
"]l.	c #755732",
"^l.	c #825D34",
"/l.	c #624220",
"(l.	c #764F28",
"_l.	c #89643B",
":l.	c #805A31",
"<l.	c #926E46",
"[l.	c #775737",
"}l.	c #6E5E49",
"|l.	c #71614C",
"1l.	c #6E5C40",
"2l.	c #66543F",
"3l.	c #63523F",
"4l.	c #8C7C64",
"5l.	c #655646",
"6l.	c #4B3C2B",
"7l.	c #7D5C37",
"8l.	c #9A7549",
"9l.	c #745635",
"0l.	c #948D7B",
"al.	c #827C6E",
"bl.	c #696259",
"cl.	c #6F6966",
"dl.	c #4C3F2D",
"el.	c #564029",
"fl.	c #4F361F",
"gl.	c #58442B",
"hl.	c #18120D",
"il.	c #555448",
"jl.	c #888172",
"kl.	c #574431",
"ll.	c #6A5136",
"ml.	c #69543B",
"nl.	c #634827",
"ol.	c #573C1E",
"pl.	c #664726",
"ql.	c #7C603E",
"rl.	c #765B3B",
"sl.	c #634E34",
"tl.	c #897F6E",
"ul.	c #988166",
"vl.	c #8B734E",
"wl.	c #857456",
"xl.	c #715B40",
"yl.	c #795D3B",
"zl.	c #674829",
"Al.	c #765B35",
"Bl.	c #916F49",
"Cl.	c #715639",
"Dl.	c #77664C",
"El.	c #6D5739",
"Fl.	c #664F38",
"Gl.	c #8C7457",
"Hl.	c #86775C",
"Il.	c #766A54",
"Jl.	c #847965",
"Kl.	c #5C5243",
"Ll.	c #5F5645",
"Ml.	c #6B6252",
"Nl.	c #716652",
"Ol.	c #6E5F4B",
"Pl.	c #7A6755",
"Ql.	c #645544",
"Rl.	c #100E08",
"Sl.	c #6B6455",
"Tl.	c #766B57",
"Ul.	c #61543F",
"Vl.	c #5D543D",
"Wl.	c #544B34",
"Xl.	c #8C836C",
"Yl.	c #564A36",
"Zl.	c #837965",
"`l.	c #5C5343",
" m.	c #7C7260",
".m.	c #38281D",
"+m.	c #493625",
"@m.	c #453E31",
"#m.	c #3D3530",
"$m.	c #6A635F",
"%m.	c #787564",
"&m.	c #918B84",
"*m.	c #5A5143",
"=m.	c #505042",
"-m.	c #8E8B7C",
";m.	c #93928B",
">m.	c #38302B",
",m.	c #3E382D",
"'m.	c #857E6C",
")m.	c #857462",
"!m.	c #96856C",
"~m.	c #9B8464",
"{m.	c #866B4E",
"]m.	c #6C5233",
"^m.	c #8A6B4B",
"/m.	c #563F25",
"(m.	c #3D2C18",
"_m.	c #67513A",
":m.	c #917D69",
"<m.	c #7B674C",
"[m.	c #927B61",
"}m.	c #6D5232",
"|m.	c #81633E",
"1m.	c #7F643E",
"2m.	c #7F5F32",
"3m.	c #936F44",
"4m.	c #65411D",
"5m.	c #87663A",
"6m.	c #724D27",
"7m.	c #6F4D26",
"8m.	c #755430",
"9m.	c #6B4B28",
"0m.	c #563A1E",
"am.	c #604730",
"bm.	c #746855",
"cm.	c #423324",
"dm.	c #5E4E37",
"em.	c #8A7F69",
"fm.	c #897B65",
"gm.	c #7F735F",
"hm.	c #625440",
"im.	c #584B3D",
"jm.	c #3F2705",
"km.	c #987547",
"lm.	c #A38252",
"mm.	c #A4A091",
"nm.	c #110903",
"om.	c #969089",
"pm.	c #7C7B6C",
"qm.	c #271A10",
"rm.	c #040000",
"sm.	c #A0988D",
"tm.	c #523D25",
"um.	c #684C33",
"vm.	c #4D351C",
"wm.	c #463321",
"xm.	c #181306",
"ym.	c #949182",
"zm.	c #4E4C3E",
"Am.	c #665E56",
"Bm.	c #655C52",
"Cm.	c #4B3726",
"Dm.	c #4E3822",
"Em.	c #4A331D",
"Fm.	c #674F2D",
"Gm.	c #573D20",
"Hm.	c #8D7A62",
"Im.	c #AA9D84",
"Jm.	c #625543",
"Km.	c #685F52",
"Lm.	c #4F4839",
"Mm.	c #938A78",
"Nm.	c #5E4F37",
"Om.	c #81694E",
"Pm.	c #796144",
"Qm.	c #7B5F3D",
"Rm.	c #977A56",
"Sm.	c #A2845E",
"Tm.	c #7B6547",
"Um.	c #938770",
"Vm.	c #797564",
"Wm.	c #90836B",
"Xm.	c #766041",
"Ym.	c #816449",
"Zm.	c #6A4F34",
"`m.	c #6C563A",
" n.	c #79664D",
".n.	c #857A61",
"+n.	c #5A4E3B",
"@n.	c #786C59",
"#n.	c #5A503E",
"$n.	c #5F5643",
"%n.	c #514535",
"&n.	c #897C65",
"*n.	c #524333",
"=n.	c #5E4F3A",
"-n.	c #6D604C",
";n.	c #53473B",
">n.	c #6F665E",
",n.	c #90877E",
"'n.	c #8E836D",
")n.	c #7C7765",
"!n.	c #7A6F5C",
"~n.	c #4F4836",
"{n.	c #6C6351",
"]n.	c #514738",
"^n.	c #635948",
"/n.	c #544839",
"(n.	c #584C3C",
"_n.	c #6A5743",
":n.	c #543F2D",
"<n.	c #4E3B22",
"[n.	c #302519",
"}n.	c #4D3C29",
"|n.	c #35291D",
"1n.	c #110908",
"2n.	c #A69E97",
"3n.	c #958F7E",
"4n.	c #19140B",
"5n.	c #9C9B97",
"6n.	c #9F9A94",
"7n.	c #9B9A8D",
"8n.	c #80776E",
"9n.	c #9B9489",
"0n.	c #9E968F",
"an.	c #453D2A",
"bn.	c #7D7865",
"cn.	c #493621",
"dn.	c #1D140A",
"en.	c #716E5F",
"fn.	c #767869",
"gn.	c #857C70",
"hn.	c #918671",
"in.	c #907E6A",
"jn.	c #665238",
"kn.	c #755D3E",
"ln.	c #795C3E",
"mn.	c #5B3D1E",
"nn.	c #634A2C",
"on.	c #67563E",
"pn.	c #69512F",
"qn.	c #88714C",
"rn.	c #745837",
"sn.	c #96774D",
"tn.	c #906B41",
"un.	c #826036",
"vn.	c #866139",
"wn.	c #6E4C25",
"xn.	c #765228",
"yn.	c #633F15",
"zn.	c #6F4B22",
"An.	c #724E2C",
"Bn.	c #65492B",
"Cn.	c #5C452F",
"Dn.	c #594634",
"En.	c #766A55",
"Fn.	c #433321",
"Gn.	c #5F4F3C",
"Hn.	c #A39381",
"In.	c #6D5F4E",
"Jn.	c #827766",
"Kn.	c #6D604D",
"Ln.	c #6D614D",
"Mn.	c #302419",
"Nn.	c #786047",
"On.	c #6A543F",
"Pn.	c #948E82",
"Qn.	c #6C563C",
"Rn.	c #787262",
"Sn.	c #190E07",
"Tn.	c #312214",
"Un.	c #422F1E",
"Vn.	c #1F170D",
"Wn.	c #20170E",
"Xn.	c #4D392A",
"Yn.	c #584128",
"Zn.	c #6E5839",
"`n.	c #5A422B",
" o.	c #322614",
".o.	c #110A06",
"+o.	c #818178",
"@o.	c #A39D90",
"#o.	c #544331",
"$o.	c #684E33",
"%o.	c #5A4227",
"&o.	c #61492D",
"*o.	c #72583A",
"=o.	c #735A3E",
"-o.	c #949180",
";o.	c #7B756F",
">o.	c #83796C",
",o.	c #776E5B",
"'o.	c #69593F",
")o.	c #7E7054",
"!o.	c #827253",
"~o.	c #9F896E",
"{o.	c #5C462B",
"]o.	c #7C7161",
"^o.	c #756C5A",
"/o.	c #796F61",
"(o.	c #786E5D",
"_o.	c #776345",
":o.	c #664D2F",
"<o.	c #75644D",
"[o.	c #776A52",
"}o.	c #8A7F6C",
"|o.	c #756858",
"1o.	c #6B5D4D",
"2o.	c #63594C",
"3o.	c #897F6C",
"4o.	c #7E7661",
"5o.	c #665844",
"6o.	c #695D4D",
"7o.	c #6B5844",
"8o.	c #574D45",
"9o.	c #665A4E",
"0o.	c #787061",
"ao.	c #7F7467",
"bo.	c #4F4636",
"co.	c #504635",
"do.	c #857762",
"eo.	c #4C3E30",
"fo.	c #5E5340",
"go.	c #66533F",
"ho.	c #6F5E4B",
"io.	c #4F3B2C",
"jo.	c #523F2A",
"ko.	c #45311C",
"lo.	c #4B341F",
"mo.	c #523D27",
"no.	c #5B4533",
"oo.	c #ACA8A0",
"po.	c #B0AB9B",
"qo.	c #706758",
"ro.	c #867E6C",
"so.	c #817A6A",
"to.	c #756F61",
"uo.	c #292012",
"vo.	c #1E160E",
"wo.	c #96938C",
"xo.	c #85827C",
"yo.	c #7E7769",
"zo.	c #4A3620",
"Ao.	c #312819",
"Bo.	c #483F32",
"Co.	c #2C1D14",
"Do.	c #5E5245",
"Eo.	c #2A1F0F",
"Fo.	c #6A6151",
"Go.	c #8A867F",
"Ho.	c #696661",
"Io.	c #76726D",
"Jo.	c #0D0A09",
"Ko.	c #A5A294",
"Lo.	c #99907C",
"Mo.	c #A18E78",
"No.	c #99856B",
"Oo.	c #7F684B",
"Po.	c #5C4428",
"Qo.	c #61492C",
"Ro.	c #6C5237",
"So.	c #473525",
"To.	c #7F6B52",
"Uo.	c #765E43",
"Vo.	c #947B57",
"Wo.	c #9D8766",
"Xo.	c #765534",
"Yo.	c #6D4A28",
"Zo.	c #603F1C",
"`o.	c #936D46",
" p.	c #6C4B22",
".p.	c #69471D",
"+p.	c #825E38",
"@p.	c #6F4922",
"#p.	c #442E15",
"$p.	c #624F34",
"%p.	c #6B5B46",
"&p.	c #4F422F",
"*p.	c #5F4C39",
"=p.	c #605141",
"-p.	c #726654",
";p.	c #89806E",
">p.	c #322718",
",p.	c #514430",
"'p.	c #403529",
")p.	c #0B0905",
"!p.	c #6A625D",
"~p.	c #6C6458",
"{p.	c #524E40",
"]p.	c #756855",
"^p.	c #6C5B47",
"/p.	c #938B7C",
"(p.	c #442F16",
"_p.	c #5C452B",
":p.	c #513D28",
"<p.	c #342617",
"[p.	c #312315",
"}p.	c #453120",
"|p.	c #53412B",
"1p.	c #665240",
"2p.	c #4B3621",
"3p.	c #634A2D",
"4p.	c #99795B",
"5p.	c #523D24",
"6p.	c #382615",
"7p.	c #737060",
"8p.	c #2B2119",
"9p.	c #2A2522",
"0p.	c #8C8B82",
"ap.	c #534C3F",
"bp.	c #392C1A",
"cp.	c #5A452E",
"dp.	c #574123",
"ep.	c #4B3417",
"fp.	c #988E82",
"gp.	c #57564F",
"hp.	c #8B8675",
"ip.	c #837C6B",
"jp.	c #847A6B",
"kp.	c #221F13",
"lp.	c #5B5142",
"mp.	c #81725E",
"np.	c #7B7163",
"op.	c #7C7365",
"pp.	c #59503F",
"qp.	c #4B3B26",
"rp.	c #7B674F",
"sp.	c #6D5A40",
"tp.	c #5D4A2F",
"up.	c #816F5A",
"vp.	c #746655",
"wp.	c #8A8170",
"xp.	c #94897A",
"yp.	c #585342",
"zp.	c #4C4334",
"Ap.	c #7B7260",
"Bp.	c #8D8772",
"Cp.	c #685946",
"Dp.	c #73624A",
"Ep.	c #5E4D38",
"Fp.	c #403429",
"Gp.	c #594E3F",
"Hp.	c #4A4232",
"Ip.	c #898272",
"Jp.	c #67604E",
"Kp.	c #625747",
"Lp.	c #544838",
"Mp.	c #6E614D",
"Np.	c #6F604D",
"Op.	c #685B46",
"Pp.	c #4C3D2C",
"Qp.	c #4A3822",
"Rp.	c #493921",
"Sp.	c #6F5942",
"Tp.	c #655037",
"Up.	c #5A472C",
"Vp.	c #644B31",
"Wp.	c #7B6349",
"Xp.	c #3C2A1A",
"Yp.	c #837F7A",
"Zp.	c #676050",
"`p.	c #958E82",
" q.	c #736F5E",
".q.	c #948C7C",
"+q.	c #473725",
"@q.	c #6F583C",
"#q.	c #82684C",
"$q.	c #78644E",
"%q.	c #5A432E",
"&q.	c #1C1811",
"*q.	c #AEA79C",
"=q.	c #595243",
"-q.	c #64625C",
";q.	c #484032",
">q.	c #484036",
",q.	c #6C5A45",
"'q.	c #48361F",
")q.	c #573F25",
"!q.	c #493826",
"~q.	c #4D331C",
"{q.	c #473120",
"]q.	c #21221B",
"^q.	c #86857E",
"/q.	c #3F2818",
"(q.	c #70583F",
"_q.	c #3E3126",
":q.	c #857F78",
"<q.	c #555041",
"[q.	c #918C77",
"}q.	c #837964",
"|q.	c #9E886F",
"1q.	c #7D6A51",
"2q.	c #5D482D",
"3q.	c #816A4E",
"4q.	c #66523A",
"5q.	c #6D5C44",
"6q.	c #604C37",
"7q.	c #705D43",
"8q.	c #877051",
"9q.	c #60492B",
"0q.	c #856B49",
"aq.	c #5E4223",
"bq.	c #7E603C",
"cq.	c #5F4224",
"dq.	c #60442B",
"eq.	c #735435",
"fq.	c #75532E",
"gq.	c #74542E",
"hq.	c #87663D",
"iq.	c #896741",
"jq.	c #856B4E",
"kq.	c #61513C",
"lq.	c #604F3A",
"mq.	c #786D5B",
"nq.	c #877C68",
"oq.	c #867B65",
"pq.	c #6C614E",
"qq.	c #5A4B3A",
"rq.	c #766754",
"sq.	c #6A5745",
"tq.	c #4A3528",
"uq.	c #3F3527",
"vq.	c #130B07",
"wq.	c #867C6A",
"xq.	c #8D7D63",
"yq.	c #170B00",
"zq.	c #2F2920",
"Aq.	c #5D442E",
"Bq.	c #412E16",
"Cq.	c #3F2D1B",
"Dq.	c #41311F",
"Eq.	c #402B18",
"Fq.	c #493420",
"Gq.	c #5C462D",
"Hq.	c #675235",
"Iq.	c #412610",
"Jq.	c #6C502D",
"Kq.	c #654628",
"Lq.	c #614C34",
"Mq.	c #45311D",
"Nq.	c #524937",
"Oq.	c #827D6C",
"Pq.	c #888372",
"Qq.	c #807869",
"Rq.	c #6C6358",
"Sq.	c #574939",
"Tq.	c #46392A",
"Uq.	c #88897F",
"Vq.	c #49392A",
"Wq.	c #442E1B",
"Xq.	c #593F23",
"Yq.	c #53391F",
"Zq.	c #6E5639",
"`q.	c #7C6546",
" r.	c #5F513A",
".r.	c #6B6B65",
"+r.	c #6D6358",
"@r.	c #29271E",
"#r.	c #564D3F",
"$r.	c #656151",
"%r.	c #8A8178",
"&r.	c #7B7366",
"*r.	c #8D8776",
"=r.	c #71644A",
"-r.	c #6D543B",
";r.	c #5A4637",
">r.	c #6E5C46",
",r.	c #81715A",
"'r.	c #675D4A",
")r.	c #857C6E",
"!r.	c #A49D8E",
"~r.	c #716653",
"{r.	c #736E5C",
"]r.	c #73654B",
"^r.	c #6C5D42",
"/r.	c #513D23",
"(r.	c #5E4A36",
"_r.	c #4B3B2B",
":r.	c #9D9D90",
"<r.	c #887F77",
"[r.	c #9A9183",
"}r.	c #7A705F",
"|r.	c #807A6B",
"1r.	c #60513C",
"2r.	c #665847",
"3r.	c #756552",
"4r.	c #75614B",
"5r.	c #65553E",
"6r.	c #634F36",
"7r.	c #5A4734",
"8r.	c #614A2A",
"9r.	c #584028",
"0r.	c #7C6242",
"ar.	c #4E3921",
"br.	c #4A4534",
"cr.	c #7F756A",
"dr.	c #5A442B",
"er.	c #6F573C",
"fr.	c #574833",
"gr.	c #644F37",
"hr.	c #4E4A3A",
"ir.	c #5B5245",
"jr.	c #605646",
"kr.	c #827B6C",
"lr.	c #594838",
"mr.	c #80664E",
"nr.	c #6A5037",
"or.	c #5A4127",
"pr.	c #322517",
"qr.	c #5A3D1F",
"rr.	c #4F3925",
"sr.	c #41301E",
"tr.	c #60482C",
"ur.	c #5C4127",
"vr.	c #674C2F",
"wr.	c #7F7466",
"xr.	c #AA9F8B",
"yr.	c #746A56",
"zr.	c #786A57",
"Ar.	c #43301A",
"Br.	c #63482E",
"Cr.	c #836B4B",
"Dr.	c #816C4D",
"Er.	c #887457",
"Fr.	c #775E3F",
"Gr.	c #83603B",
"Hr.	c #64492B",
"Ir.	c #A5845A",
"Jr.	c #6B4D30",
"Kr.	c #684B2C",
"Lr.	c #593C20",
"Mr.	c #6C553E",
"Nr.	c #766249",
"Or.	c #7E6E57",
"Pr.	c #6A604C",
"Qr.	c #908269",
"Rr.	c #97856E",
"Sr.	c #7D6E56",
"Tr.	c #685A43",
"Ur.	c #5E4F3C",
"Vr.	c #796B55",
"Wr.	c #746654",
"Xr.	c #7E7463",
"Yr.	c #544935",
"Zr.	c #4E4331",
"`r.	c #6C5D48",
" s.	c #4C3624",
".s.	c #493C2B",
"+s.	c #4E3F30",
"@s.	c #473726",
"#s.	c #19110A",
"$s.	c #888070",
"%s.	c #A19079",
"&s.	c #8E714D",
"*s.	c #BFBAB1",
"=s.	c #A49D90",
"-s.	c #2E2115",
";s.	c #664A30",
">s.	c #604A38",
",s.	c #4D3922",
"'s.	c #422F17",
")s.	c #4E3A28",
"!s.	c #492F16",
"~s.	c #664B31",
"{s.	c #5D4528",
"]s.	c #7D5E3E",
"^s.	c #634B30",
"/s.	c #583C24",
"(s.	c #170F0B",
"_s.	c #2A241E",
":s.	c #575043",
"<s.	c #7D7366",
"[s.	c #625B4F",
"}s.	c #7A7064",
"|s.	c #564938",
"1s.	c #4D3D2F",
"2s.	c #514536",
"3s.	c #0F0B03",
"4s.	c #16150E",
"5s.	c #0C0601",
"6s.	c #3B2611",
"7s.	c #5D4428",
"8s.	c #64492C",
"9s.	c #675338",
"0s.	c #58452C",
"as.	c #62503A",
"bs.	c #3A2716",
"cs.	c #3C3126",
"ds.	c #51473D",
"es.	c #6F6760",
"fs.	c #6D6456",
"gs.	c #878173",
"hs.	c #7B6F5B",
"is.	c #4E3C2B",
"js.	c #524128",
"ks.	c #4A3623",
"ls.	c #73654F",
"ms.	c #7D6F5D",
"ns.	c #6C6553",
"os.	c #898172",
"ps.	c #8A8173",
"qs.	c #87806F",
"rs.	c #817261",
"ss.	c #524531",
"ts.	c #544635",
"us.	c #5C4935",
"vs.	c #3F392D",
"ws.	c #787065",
"xs.	c #817666",
"ys.	c #6B604A",
"zs.	c #5D4E37",
"As.	c #74614A",
"Bs.	c #63533B",
"Cs.	c #776042",
"Ds.	c #7C674C",
"Es.	c #563E2B",
"Fs.	c #48351E",
"Gs.	c #5B4530",
"Hs.	c #7E6345",
"Is.	c #6A5439",
"Js.	c #5E442B",
"Ks.	c #604426",
"Ls.	c #674D32",
"Ms.	c #B0A8A0",
"Ns.	c #7E746C",
"Os.	c #746859",
"Ps.	c #534231",
"Qs.	c #675032",
"Rs.	c #71553A",
"Ss.	c #533D25",
"Ts.	c #483A20",
"Us.	c #574632",
"Vs.	c #413728",
"Ws.	c #655E4D",
"Xs.	c #A59E94",
"Ys.	c #909081",
"Zs.	c #43392C",
"`s.	c #575241",
" t.	c #594E40",
".t.	c #2E2519",
"+t.	c #523D22",
"@t.	c #35291C",
"#t.	c #2F2118",
"$t.	c #594025",
"%t.	c #84694C",
"&t.	c #7D5D3D",
"*t.	c #3B2E21",
"=t.	c #785633",
"-t.	c #472A0E",
";t.	c #684F34",
">t.	c #5F4221",
",t.	c #806441",
"'t.	c #63472F",
")t.	c #523C2B",
"!t.	c #515047",
"~t.	c #ABA598",
"{t.	c #655644",
"]t.	c #6A5A48",
"^t.	c #6D6351",
"/t.	c #4A3D2A",
"(t.	c #6C533E",
"_t.	c #685035",
":t.	c #4C361D",
"<t.	c #726348",
"[t.	c #7B6B52",
"}t.	c #8F7F67",
"|t.	c #655234",
"1t.	c #422D16",
"2t.	c #544835",
"3t.	c #583A18",
"4t.	c #6C543F",
"5t.	c #6F5C46",
"6t.	c #6B5740",
"7t.	c #75654F",
"8t.	c #71634E",
"9t.	c #786951",
"0t.	c #6F614D",
"at.	c #766B59",
"bt.	c #605543",
"ct.	c #817662",
"dt.	c #706355",
"et.	c #564839",
"ft.	c #625240",
"gt.	c #675742",
"ht.	c #483523",
"it.	c #4D3825",
"jt.	c #65523C",
"kt.	c #2F2311",
"lt.	c #756756",
"mt.	c #4E4633",
"nt.	c #9B9A8C",
"ot.	c #6A6860",
"pt.	c #191107",
"qt.	c #190E06",
"rt.	c #4F321A",
"st.	c #7E5D42",
"tt.	c #5E4128",
"ut.	c #5C432B",
"vt.	c #5C4229",
"wt.	c #503B26",
"xt.	c #5B412B",
"yt.	c #382411",
"zt.	c #705843",
"At.	c #543E27",
"Bt.	c #503924",
"Ct.	c #654A2E",
"Dt.	c #573A1D",
"Et.	c #806544",
"Ft.	c #624427",
"Gt.	c #563A24",
"Ht.	c #7D6847",
"It.	c #837059",
"Jt.	c #7E7A6A",
"Kt.	c #544E40",
"Lt.	c #67553D",
"Mt.	c #574A38",
"Nt.	c #50443B",
"Ot.	c #483B25",
"Pt.	c #2D251C",
"Qt.	c #17140E",
"Rt.	c #7C6B57",
"St.	c #6B5437",
"Tt.	c #624829",
"Ut.	c #6D5437",
"Vt.	c #4B351E",
"Wt.	c #6E6962",
"Xt.	c #7A7666",
"Yt.	c #867964",
"Zt.	c #7C6A50",
"`t.	c #584530",
" u.	c #7F735D",
".u.	c #91866C",
"+u.	c #71654F",
"@u.	c #918573",
"#u.	c #877F6D",
"$u.	c #6D6859",
"%u.	c #968D81",
"&u.	c #7B7267",
"*u.	c #665E4C",
"=u.	c #605640",
"-u.	c #6F6249",
";u.	c #675745",
">u.	c #4A3A2E",
",u.	c #4E3F2C",
"'u.	c #473F31",
")u.	c #837D6E",
"!u.	c #7B7362",
"~u.	c #746956",
"{u.	c #998873",
"]u.	c #766147",
"^u.	c #6A5538",
"/u.	c #4A381E",
"(u.	c #71583F",
"_u.	c #59432E",
":u.	c #7E6347",
"<u.	c #795C40",
"[u.	c #694F2D",
"}u.	c #694A31",
"|u.	c #79583E",
"1u.	c #664728",
"2u.	c #8C7151",
"3u.	c #BAB6AA",
"4u.	c #877D6E",
"5u.	c #1C130D",
"6u.	c #4D402A",
"7u.	c #928776",
"8u.	c #917752",
"9u.	c #725A3E",
"0u.	c #A59981",
"au.	c #31291E",
"bu.	c #524A3C",
"cu.	c #7F7B68",
"du.	c #625B4E",
"eu.	c #5B4F40",
"fu.	c #5B4735",
"gu.	c #5F482B",
"hu.	c #634E37",
"iu.	c #665137",
"ju.	c #745C40",
"ku.	c #624C32",
"lu.	c #3E2E20",
"mu.	c #63401C",
"nu.	c #5C412B",
"ou.	c #4F2F11",
"pu.	c #7F6847",
"qu.	c #7B6342",
"ru.	c #846844",
"su.	c #8A6E52",
"tu.	c #49361E",
"uu.	c #2A2015",
"vu.	c #332A1F",
"wu.	c #504739",
"xu.	c #81715E",
"yu.	c #A59680",
"zu.	c #5F503C",
"Au.	c #51422D",
"Bu.	c #6F583D",
"Cu.	c #635036",
"Du.	c #927F65",
"Eu.	c #95836D",
"Fu.	c #8B8371",
"Gu.	c #5B4E3A",
"Hu.	c #857765",
"Iu.	c #89735C",
"Ju.	c #5F4A36",
"Ku.	c #63533E",
"Lu.	c #533C25",
"Mu.	c #846444",
"Nu.	c #725636",
"Ou.	c #7A5E37",
"Pu.	c #533A21",
"Qu.	c #786148",
"Ru.	c #7D6A50",
"Su.	c #827359",
"Tu.	c #6C5D4B",
"Uu.	c #76644F",
"Vu.	c #5B4C3F",
"Wu.	c #6B604F",
"Xu.	c #64574A",
"Yu.	c #766857",
"Zu.	c #625444",
"`u.	c #584D3B",
" v.	c #514336",
".v.	c #574932",
"+v.	c #483522",
"@v.	c #827D6D",
"#v.	c #685D4B",
"$v.	c #1A160B",
"%v.	c #3E2E1F",
"&v.	c #553D21",
"*v.	c #51361B",
"=v.	c #533619",
"-v.	c #53391E",
";v.	c #654A29",
">v.	c #583C23",
",v.	c #634C31",
"'v.	c #634529",
")v.	c #614A30",
"!v.	c #513824",
"~v.	c #4E371F",
"{v.	c #6E5538",
"]v.	c #6E553A",
"^v.	c #6E5435",
"/v.	c #735534",
"(v.	c #715436",
"_v.	c #6E5431",
":v.	c #67533D",
"<v.	c #7C6D5B",
"[v.	c #8F8B78",
"}v.	c #7C7565",
"|v.	c #716458",
"1v.	c #6F5D42",
"2v.	c #5F4F3D",
"3v.	c #4E4131",
"4v.	c #4D4234",
"5v.	c #564C3B",
"6v.	c #392D1A",
"7v.	c #3A2D22",
"8v.	c #160F08",
"9v.	c #3C3024",
"0v.	c #584A3A",
"av.	c #6D5131",
"bv.	c #705539",
"cv.	c #62482B",
"dv.	c #6F593A",
"ev.	c #64513C",
"fv.	c #6E655A",
"gv.	c #8A7B63",
"hv.	c #5B462D",
"iv.	c #7D6954",
"jv.	c #695E4C",
"kv.	c #655B4C",
"lv.	c #81796B",
"mv.	c #827A69",
"nv.	c #92856F",
"ov.	c #655845",
"pv.	c #594836",
"qv.	c #473729",
"rv.	c #3F3529",
"sv.	c #7A7565",
"tv.	c #766C61",
"uv.	c #B9B1A4",
"vv.	c #716251",
"wv.	c #69543E",
"xv.	c #58402B",
"yv.	c #685034",
"zv.	c #785E3F",
"Av.	c #7B6246",
"Bv.	c #55432C",
"Cv.	c #4B361C",
"Dv.	c #44301A",
"Ev.	c #52381D",
"Fv.	c #7A5C3A",
"Gv.	c #6B4E2F",
"Hv.	c #664C31",
"Iv.	c #523313",
"Jv.	c #93754E",
"Kv.	c #423121",
"Lv.	c #746F5F",
"Mv.	c #989989",
"Nv.	c #736956",
"Ov.	c #533C27",
"Pv.	c #422F1D",
"Qv.	c #523823",
"Rv.	c #745836",
"Sv.	c #735536",
"Tv.	c #59411E",
"Uv.	c #938974",
"Vv.	c #423B2D",
"Wv.	c #6B5B4E",
"Xv.	c #765C3D",
"Yv.	c #7A6144",
"Zv.	c #5B442E",
"`v.	c #4D3823",
" w.	c #765B3C",
".w.	c #795F3F",
"+w.	c #644A2F",
"@w.	c #81694C",
"#w.	c #6F573F",
"$w.	c #3E2C1E",
"%w.	c #7C5832",
"&w.	c #583D1D",
"*w.	c #705431",
"=w.	c #795F3C",
"-w.	c #74593C",
";w.	c #725637",
">w.	c #7A5C3D",
",w.	c #4E3115",
"'w.	c #7F6549",
")w.	c #453624",
"!w.	c #3A3227",
"~w.	c #7D7369",
"{w.	c #5A5246",
"]w.	c #645C4C",
"^w.	c #644E33",
"/w.	c #462E16",
"(w.	c #6B553E",
"_w.	c #4E4130",
":w.	c #74675B",
"<w.	c #8A8172",
"[w.	c #7E7868",
"}w.	c #8E8676",
"|w.	c #908070",
"1w.	c #61492F",
"2w.	c #AF9573",
"3w.	c #67492C",
"4w.	c #8F714B",
"5w.	c #957752",
"6w.	c #846744",
"7w.	c #64553C",
"8w.	c #7A6851",
"9w.	c #5D523F",
"0w.	c #554D38",
"aw.	c #675B4B",
"bw.	c #4D402E",
"cw.	c #443729",
"dw.	c #50422F",
"ew.	c #908372",
"fw.	c #685B47",
"gw.	c #7A6B5A",
"hw.	c #4B3C2D",
"iw.	c #372A1B",
"jw.	c #A7A295",
"kw.	c #6E6658",
"lw.	c #5C5D53",
"mw.	c #544232",
"nw.	c #634A2F",
"ow.	c #604225",
"pw.	c #6D5337",
"qw.	c #6C4E2D",
"rw.	c #6F5131",
"sw.	c #826137",
"tw.	c #563C21",
"uw.	c #593F27",
"vw.	c #50361C",
"ww.	c #695136",
"xw.	c #513720",
"yw.	c #5A3F28",
"zw.	c #725739",
"Aw.	c #472C17",
"Bw.	c #614327",
"Cw.	c #54391F",
"Dw.	c #573C23",
"Ew.	c #6B5536",
"Fw.	c #877257",
"Gw.	c #695743",
"Hw.	c #756C5C",
"Iw.	c #797063",
"Jw.	c #3B3429",
"Kw.	c #645643",
"Lw.	c #48382C",
"Mw.	c #483E2D",
"Nw.	c #3A2B1C",
"Ow.	c #423122",
"Pw.	c #4E4231",
"Qw.	c #74695B",
"Rw.	c #615440",
"Sw.	c #735F45",
"Tw.	c #755538",
"Uw.	c #54381D",
"Vw.	c #463319",
"Ww.	c #534435",
"Xw.	c #6C6962",
"Yw.	c #87817B",
"Zw.	c #6D634E",
"`w.	c #7F7057",
" x.	c #41321C",
".x.	c #78674D",
"+x.	c #695D49",
"@x.	c #978F79",
"#x.	c #7F7867",
"$x.	c #6A6453",
"%x.	c #72695C",
"&x.	c #776E62",
"*x.	c #594F3F",
"=x.	c #867B69",
"-x.	c #70624D",
";x.	c #5A4C3D",
">x.	c #3E311F",
",x.	c #706757",
"'x.	c #555243",
")x.	c #7F7463",
"!x.	c #6B573B",
"~x.	c #6D583A",
"{x.	c #6A553A",
"]x.	c #56412C",
"^x.	c #533A1E",
"/x.	c #6C5739",
"(x.	c #604428",
"_x.	c #66492D",
":x.	c #785A3B",
"<x.	c #62492E",
"[x.	c #593B19",
"}x.	c #6A4927",
"|x.	c #765834",
"1x.	c #735839",
"2x.	c #B1ADA4",
"3x.	c #93908A",
"4x.	c #40311E",
"5x.	c #432D1B",
"6x.	c #3C240D",
"7x.	c #815E38",
"8x.	c #715030",
"9x.	c #817A66",
"0x.	c #575141",
"ax.	c #7A7667",
"bx.	c #56503F",
"cx.	c #8D8479",
"dx.	c #513E24",
"ex.	c #60452C",
"fx.	c #7F674A",
"gx.	c #4F3720",
"hx.	c #634729",
"ix.	c #785C3D",
"jx.	c #7D6145",
"kx.	c #61482B",
"lx.	c #5F5037",
"mx.	c #776142",
"nx.	c #744F2B",
"ox.	c #593714",
"px.	c #886B4D",
"qx.	c #654A2B",
"rx.	c #4E3516",
"sx.	c #847C68",
"tx.	c #9D9889",
"ux.	c #27221B",
"vx.	c #9F978A",
"wx.	c #41392D",
"xx.	c #685338",
"yx.	c #5F4325",
"zx.	c #624A2B",
"Ax.	c #6C502E",
"Bx.	c #A08D70",
"Cx.	c #786251",
"Dx.	c #695C4A",
"Ex.	c #605648",
"Fx.	c #78715F",
"Gx.	c #72583F",
"Hx.	c #533F2E",
"Ix.	c #8D6E4B",
"Jx.	c #7E5E42",
"Kx.	c #603E1E",
"Lx.	c #7F6035",
"Mx.	c #574330",
"Nx.	c #675B44",
"Ox.	c #736553",
"Px.	c #736352",
"Qx.	c #A49983",
"Rx.	c #665645",
"Sx.	c #80715C",
"Tx.	c #7B7162",
"Ux.	c #7B6B57",
"Vx.	c #4D402B",
"Wx.	c #4F4130",
"Xx.	c #3F2D20",
"Yx.	c #443322",
"Zx.	c #1F1811",
"`x.	c #878675",
" y.	c #564739",
".y.	c #5E4E3A",
"+y.	c #584633",
"@y.	c #544024",
"#y.	c #5F4B33",
"$y.	c #71583D",
"%y.	c #715233",
"&y.	c #5C3C1B",
"*y.	c #6F4D30",
"=y.	c #6F5132",
"-y.	c #724E2D",
";y.	c #593D1F",
">y.	c #60462B",
",y.	c #533B25",
"'y.	c #50371E",
")y.	c #583C20",
"!y.	c #6F5438",
"~y.	c #785D40",
"{y.	c #3F2914",
"]y.	c #443422",
"^y.	c #6C5039",
"/y.	c #583E24",
"(y.	c #483421",
"_y.	c #6E5841",
":y.	c #5A4934",
"<y.	c #585040",
"[y.	c #483C2B",
"}y.	c #756A5E",
"|y.	c #594E41",
"1y.	c #625745",
"2y.	c #43392B",
"3y.	c #281E11",
"4y.	c #69604F",
"5y.	c #423927",
"6y.	c #5D4B37",
"7y.	c #604B38",
"8y.	c #493522",
"9y.	c #453626",
"0y.	c #4E351A",
"ay.	c #6F5A41",
"by.	c #978F86",
"cy.	c #8A816D",
"dy.	c #88806E",
"ey.	c #827769",
"fy.	c #69604D",
"gy.	c #807969",
"hy.	c #867B6F",
"iy.	c #6F675C",
"jy.	c #6A6354",
"ky.	c #817766",
"ly.	c #736C58",
"my.	c #48392A",
"ny.	c #6C594A",
"oy.	c #5A4F3B",
"py.	c #493D2F",
"qy.	c #7D684D",
"ry.	c #6F5635",
"sy.	c #6B4E34",
"ty.	c #5A411E",
"uy.	c #614E36",
"vy.	c #786143",
"wy.	c #61492A",
"xy.	c #563B22",
"yy.	c #674C33",
"zy.	c #6B4F31",
"Ay.	c #644A28",
"By.	c #765435",
"Cy.	c #815F3D",
"Dy.	c #3E2711",
"Ey.	c #513F2F",
"Fy.	c #AAA69E",
"Gy.	c #8D8D84",
"Hy.	c #402919",
"Iy.	c #5E3A1A",
"Jy.	c #7A5732",
"Ky.	c #664423",
"Ly.	c #796348",
"My.	c #484237",
"Ny.	c #493623",
"Oy.	c #533A20",
"Py.	c #6D4F33",
"Qy.	c #573F27",
"Ry.	c #624B35",
"Sy.	c #573C22",
"Ty.	c #553D24",
"Uy.	c #58442A",
"Vy.	c #493827",
"Wy.	c #442E18",
"Xy.	c #644523",
"Yy.	c #7E5B39",
"Zy.	c #7B5C38",
"`y.	c #846949",
" z.	c #583E23",
".z.	c #917757",
"+z.	c #4E3818",
"@z.	c #8C6C4D",
"#z.	c #73583C",
"$z.	c #523E27",
"%z.	c #593C18",
"&z.	c #907757",
"*z.	c #463B29",
"=z.	c #837B72",
"-z.	c #574023",
";z.	c #826C51",
">z.	c #8C704F",
",z.	c #7B5935",
"'z.	c #543417",
")z.	c #795A3C",
"!z.	c #6D533C",
"~z.	c #6F5F4A",
"{z.	c #706250",
"]z.	c #7F7362",
"^z.	c #6D614A",
"/z.	c #5E5140",
"(z.	c #5C513D",
"_z.	c #594A38",
":z.	c #665A4A",
"<z.	c #746C58",
"[z.	c #695E4B",
"}z.	c #4C3C27",
"|z.	c #443627",
"1z.	c #4E3D2A",
"2z.	c #392918",
"3z.	c #5D5544",
"4z.	c #776F68",
"5z.	c #524A39",
"6z.	c #5E5341",
"7z.	c #8D7861",
"8z.	c #4E3215",
"9z.	c #5D4028",
"0z.	c #6A4A2D",
"az.	c #66472B",
"bz.	c #7C5A38",
"cz.	c #55381A",
"dz.	c #5E462D",
"ez.	c #72563E",
"fz.	c #422913",
"gz.	c #453019",
"hz.	c #3C2813",
"iz.	c #523C23",
"jz.	c #5B4429",
"kz.	c #634727",
"lz.	c #4D3417",
"mz.	c #5A4831",
"nz.	c #867D6E",
"oz.	c #706553",
"pz.	c #615647",
"qz.	c #5C5140",
"rz.	c #796E60",
"sz.	c #3E372A",
"tz.	c #45392F",
"uz.	c #40362B",
"vz.	c #34291F",
"wz.	c #645541",
"xz.	c #3C3121",
"yz.	c #403628",
"zz.	c #402F25",
"Az.	c #4D3A23",
"Bz.	c #5C4531",
"Cz.	c #715E45",
"Dz.	c #442E1C",
"Ez.	c #674B31",
"Fz.	c #694C31",
"Gz.	c #5C4326",
"Hz.	c #765A3D",
"Iz.	c #5D4324",
"Jz.	c #47301A",
"Kz.	c #645136",
"Lz.	c #685442",
"Mz.	c #7F7364",
"Nz.	c #827C6C",
"Oz.	c #706552",
"Pz.	c #5C533F",
"Qz.	c #7E7662",
"Rz.	c #7E746B",
"Sz.	c #63584B",
"Tz.	c #443829",
"Uz.	c #57432C",
"Vz.	c #412E1B",
"Wz.	c #463220",
"Xz.	c #7D6241",
"Yz.	c #6A5033",
"Zz.	c #6E5536",
"`z.	c #6B5742",
" A.	c #684C34",
".A.	c #583B1D",
"+A.	c #5E4224",
"@A.	c #755938",
"#A.	c #977A55",
"$A.	c #795A3E",
"%A.	c #5C4223",
"&A.	c #73583A",
"*A.	c #5A4324",
"=A.	c #624E38",
"-A.	c #605343",
";A.	c #766454",
">A.	c #533D29",
",A.	c #462C16",
"'A.	c #765736",
")A.	c #603C1D",
"!A.	c #5A4833",
"~A.	c #3E3629",
"{A.	c #A6A294",
"]A.	c #494137",
"^A.	c #574228",
"/A.	c #82684D",
"(A.	c #6B4F30",
"_A.	c #5C432D",
":A.	c #927655",
"<A.	c #654A33",
"[A.	c #5C4830",
"}A.	c #745D3F",
"|A.	c #735C40",
"1A.	c #5F523D",
"2A.	c #4F3A28",
"3A.	c #654223",
"4A.	c #6B4C2A",
"5A.	c #664B2F",
"6A.	c #856A47",
"7A.	c #7E5F40",
"8A.	c #51381E",
"9A.	c #7C603C",
"0A.	c #B1A8A2",
"aA.	c #B4B4AA",
"bA.	c #433623",
"cA.	c #5A412B",
"dA.	c #7D5F41",
"eA.	c #7D5D3E",
"fA.	c #836341",
"gA.	c #2B2012",
"hA.	c #180B03",
"iA.	c #482F21",
"jA.	c #876543",
"kA.	c #6D512F",
"lA.	c #776143",
"mA.	c #70593D",
"nA.	c #573E23",
"oA.	c #5A3A1B",
"pA.	c #593C19",
"qA.	c #614A34",
"rA.	c #544330",
"sA.	c #655844",
"tA.	c #605345",
"uA.	c #8D7E6E",
"vA.	c #7B6C59",
"wA.	c #584634",
"xA.	c #6A5A46",
"yA.	c #867A67",
"zA.	c #90816D",
"AA.	c #534736",
"BA.	c #766652",
"CA.	c #5A4B39",
"DA.	c #564434",
"EA.	c #69543F",
"FA.	c #523F2D",
"GA.	c #7D746B",
"HA.	c #716859",
"IA.	c #68583F",
"JA.	c #75593D",
"KA.	c #684626",
"LA.	c #6D5238",
"MA.	c #442F1B",
"NA.	c #4D3118",
"OA.	c #4F341A",
"PA.	c #50361B",
"QA.	c #523B22",
"RA.	c #513820",
"SA.	c #5E472C",
"TA.	c #452D17",
"UA.	c #614932",
"VA.	c #4E3922",
"WA.	c #594029",
"XA.	c #74674C",
"YA.	c #827A68",
"ZA.	c #6D6654",
"`A.	c #665E4B",
" B.	c #43372A",
".B.	c #413525",
"+B.	c #3E3325",
"@B.	c #4D4335",
"#B.	c #605241",
"$B.	c #605844",
"%B.	c #524535",
"&B.	c #423527",
"*B.	c #503A27",
"=B.	c #533D2D",
"-B.	c #5F442B",
";B.	c #5A4020",
">B.	c #77593B",
",B.	c #664A2C",
"'B.	c #5E462B",
")B.	c #644D2E",
"!B.	c #5F482D",
"~B.	c #624C31",
"{B.	c #423729",
"]B.	c #665B49",
"^B.	c #716658",
"/B.	c #7F7667",
"(B.	c #716E5E",
"_B.	c #746857",
":B.	c #342B19",
"<B.	c #412811",
"[B.	c #694826",
"}B.	c #795633",
"|B.	c #A58763",
"1B.	c #6A4C2C",
"2B.	c #957B59",
"3B.	c #6C5035",
"4B.	c #684B2D",
"5B.	c #8C6F48",
"6B.	c #4B351B",
"7B.	c #5C442C",
"8B.	c #70583A",
"9B.	c #60462E",
"0B.	c #6F5B42",
"aB.	c #53381D",
"bB.	c #775C41",
"cB.	c #1C150E",
"dB.	c #3C2C19",
"eB.	c #4B3521",
"fB.	c #3B3D35",
"gB.	c #383027",
"hB.	c #817A68",
"iB.	c #4B3822",
"jB.	c #503A24",
"kB.	c #4C371E",
"lB.	c #5F4323",
"mB.	c #2D1E0F",
"nB.	c #584E40",
"oB.	c #7C7A71",
"pB.	c #635A4B",
"qB.	c #6D5642",
"rB.	c #5A3F20",
"sB.	c #725838",
"tB.	c #745C42",
"uB.	c #604930",
"vB.	c #6E5A44",
"wB.	c #7B674E",
"xB.	c #58462C",
"yB.	c #554633",
"zB.	c #473320",
"AB.	c #533316",
"BB.	c #745333",
"CB.	c #624A2E",
"DB.	c #775B38",
"EB.	c #6B5134",
"FB.	c #6A5338",
"GB.	c #827971",
"HB.	c #493726",
"IB.	c #5A432D",
"JB.	c #4B3318",
"KB.	c #765835",
"LB.	c #352110",
"MB.	c #463A29",
"NB.	c #584C42",
"OB.	c #26221E",
"PB.	c #271D12",
"QB.	c #53402C",
"RB.	c #402B1B",
"SB.	c #73583F",
"TB.	c #735A37",
"UB.	c #685134",
"VB.	c #50381D",
"WB.	c #A38867",
"XB.	c #715231",
"YB.	c #6C4B2B",
"ZB.	c #816142",
"`B.	c #614831",
" C.	c #605946",
".C.	c #625241",
"+C.	c #7F735B",
"@C.	c #7C705C",
"#C.	c #5F5443",
"$C.	c #372B1B",
"%C.	c #746752",
"&C.	c #5F4E3D",
"*C.	c #473323",
"=C.	c #48371E",
"-C.	c #857966",
";C.	c #564A35",
">C.	c #775D3C",
",C.	c #4B2E15",
"'C.	c #745840",
")C.	c #3D2818",
"!C.	c #573B22",
"~C.	c #624732",
"{C.	c #614829",
"]C.	c #49331C",
"^C.	c #553E28",
"/C.	c #49351F",
"(C.	c #4C3623",
"_C.	c #543C24",
":C.	c #574026",
"<C.	c #553C1C",
"[C.	c #756C61",
"}C.	c #786F5E",
"|C.	c #70665B",
"1C.	c #51483A",
"2C.	c #57462E",
"3C.	c #4D3829",
"4C.	c #5C513F",
"5C.	c #4B3E30",
"6C.	c #3F362A",
"7C.	c #514635",
"8C.	c #574834",
"9C.	c #51412B",
"0C.	c #53412D",
"aC.	c #4B3823",
"bC.	c #493321",
"cC.	c #51381F",
"dC.	c #51351C",
"eC.	c #543619",
"fC.	c #715531",
"gC.	c #624D34",
"hC.	c #675139",
"iC.	c #5A5547",
"jC.	c #5D5140",
"kC.	c #9D958A",
"lC.	c #80796A",
"mC.	c #8E8173",
"nC.	c #584E41",
"oC.	c #695D4E",
"pC.	c #5E564B",
"qC.	c #908B7B",
"rC.	c #797463",
"sC.	c #787066",
"tC.	c #ADA89B",
"uC.	c #22190C",
"vC.	c #77756F",
"wC.	c #584935",
"xC.	c #947646",
"yC.	c #815D32",
"zC.	c #533315",
"AC.	c #93764D",
"BC.	c #876947",
"CC.	c #5D4422",
"DC.	c #604425",
"EC.	c #6F5135",
"FC.	c #64462A",
"GC.	c #8F6E4A",
"HC.	c #624B33",
"IC.	c #533B23",
"JC.	c #7B664C",
"KC.	c #78634A",
"LC.	c #715C3D",
"MC.	c #4C3825",
"NC.	c #462B11",
"OC.	c #6E4F31",
"PC.	c #4C3419",
"QC.	c #5D432C",
"RC.	c #1D1104",
"SC.	c #6A6154",
"TC.	c #5F503E",
"UC.	c #4D341C",
"VC.	c #64492E",
"WC.	c #46301C",
"XC.	c #553A23",
"YC.	c #624323",
"ZC.	c #3C2A19",
"`C.	c #988E83",
" D.	c #A3937D",
".D.	c #95938B",
"+D.	c #79706A",
"@D.	c #6F6150",
"#D.	c #6B5D49",
"$D.	c #594832",
"%D.	c #5A4432",
"&D.	c #5C4426",
"*D.	c #66492E",
"=D.	c #967A5A",
"-D.	c #58422D",
";D.	c #493524",
">D.	c #52422C",
",D.	c #5F4D36",
"'D.	c #4F3B28",
")D.	c #4D3B2B",
"!D.	c #4A3C30",
"~D.	c #4A321E",
"{D.	c #4C3017",
"]D.	c #5F4425",
"^D.	c #382917",
"/D.	c #1B1612",
"(D.	c #5D5D50",
"_D.	c #A09890",
":D.	c #3C3226",
"<D.	c #493823",
"[D.	c #55412A",
"}D.	c #3A2615",
"|D.	c #6C5133",
"1D.	c #301C0C",
"2D.	c #928977",
"3D.	c #413928",
"4D.	c #3F2F22",
"5D.	c #5A4532",
"6D.	c #67533C",
"7D.	c #52412C",
"8D.	c #483826",
"9D.	c #483325",
"0D.	c #6E583B",
"aD.	c #72553B",
"bD.	c #755E3E",
"cD.	c #7A6346",
"dD.	c #6E4D2E",
"eD.	c #624229",
"fD.	c #4D321C",
"gD.	c #604424",
"hD.	c #7A6046",
"iD.	c #6A5844",
"jD.	c #7F7360",
"kD.	c #6B6050",
"lD.	c #7D705E",
"mD.	c #615646",
"nD.	c #756857",
"oD.	c #615541",
"pD.	c #887059",
"qD.	c #3D2B17",
"rD.	c #5F4E38",
"sD.	c #554839",
"tD.	c #745636",
"uD.	c #654229",
"vD.	c #583719",
"wD.	c #4F3216",
"xD.	c #564022",
"yD.	c #412918",
"zD.	c #513B22",
"AD.	c #705438",
"BD.	c #543A22",
"CD.	c #7D5F43",
"DD.	c #584229",
"ED.	c #584029",
"FD.	c #553C29",
"GD.	c #513B1D",
"HD.	c #553A1F",
"ID.	c #48311A",
"JD.	c #786E5F",
"KD.	c #847E6F",
"LD.	c #8C8479",
"MD.	c #828070",
"ND.	c #7F7669",
"OD.	c #695941",
"PD.	c #453A2C",
"QD.	c #3A2E20",
"RD.	c #8B6F4E",
"SD.	c #55402A",
"TD.	c #4E3A26",
"UD.	c #655741",
"VD.	c #453326",
"WD.	c #55432E",
"XD.	c #483624",
"YD.	c #5F4A35",
"ZD.	c #6D5039",
"`D.	c #65482E",
" E.	c #826545",
".E.	c #614529",
"+E.	c #85694B",
"@E.	c #5F4A30",
"#E.	c #705B43",
"$E.	c #4C4336",
"%E.	c #504331",
"&E.	c #6B5D48",
"*E.	c #948B75",
"=E.	c #847A6C",
"-E.	c #6B6155",
";E.	c #8F8C7D",
">E.	c #5F5A4B",
",E.	c #413224",
"'E.	c #24180E",
")E.	c #866643",
"!E.	c #886540",
"~E.	c #6C4A28",
"{E.	c #7A5A35",
"]E.	c #77583A",
"^E.	c #705332",
"/E.	c #826143",
"(E.	c #634623",
"_E.	c #755635",
":E.	c #654827",
"<E.	c #5D4124",
"[E.	c #62472E",
"}E.	c #736452",
"|E.	c #988B79",
"1E.	c #968B74",
"2E.	c #867360",
"3E.	c #7A6852",
"4E.	c #684B2F",
"5E.	c #7D5C3C",
"6E.	c #654A38",
"7E.	c #9C9489",
"8E.	c #969181",
"9E.	c #867D6B",
"0E.	c #725E46",
"aE.	c #412E18",
"bE.	c #543924",
"cE.	c #4D321B",
"dE.	c #49311D",
"eE.	c #4F3923",
"fE.	c #442E1E",
"gE.	c #573D26",
"hE.	c #563C2A",
"iE.	c #462F19",
"jE.	c #2E1F10",
"kE.	c #9B938D",
"lE.	c #7A6B5C",
"mE.	c #595248",
"nE.	c #8B7C6A",
"oE.	c #5B4B35",
"pE.	c #89765B",
"qE.	c #5F4C31",
"rE.	c #7A654B",
"sE.	c #7F6D53",
"tE.	c #64533C",
"uE.	c #6A5540",
"vE.	c #817057",
"wE.	c #56422F",
"xE.	c #694D28",
"yE.	c #745432",
"zE.	c #846649",
"AE.	c #735838",
"BE.	c #694F33",
"CE.	c #654D33",
"DE.	c #57432E",
"EE.	c #22170F",
"FE.	c #130903",
"GE.	c #413220",
"HE.	c #261D15",
"IE.	c #6A5A4B",
"JE.	c #3A2E1A",
"KE.	c #5E4933",
"LE.	c #66553C",
"ME.	c #392C1C",
"NE.	c #27241C",
"OE.	c #604A32",
"PE.	c #68553D",
"QE.	c #594530",
"RE.	c #68523B",
"SE.	c #59452F",
"TE.	c #644F3C",
"UE.	c #563C28",
"VE.	c #3D2A13",
"WE.	c #5E4932",
"XE.	c #5B4327",
"YE.	c #644420",
"ZE.	c #5A391A",
"`E.	c #6B4E2B",
" F.	c #826343",
".F.	c #634326",
"+F.	c #64472C",
"@F.	c #6E5E42",
"#F.	c #6D5946",
"$F.	c #6D5E4B",
"%F.	c #4F4431",
"&F.	c #7A6C5B",
"*F.	c #594D3E",
"=F.	c #736854",
"-F.	c #483E2F",
";F.	c #634F3D",
">F.	c #483520",
",F.	c #46341F",
"'F.	c #807868",
")F.	c #694723",
"!F.	c #694D32",
"~F.	c #63472B",
"{F.	c #473426",
"]F.	c #4E3521",
"^F.	c #60452D",
"/F.	c #432A0C",
"(F.	c #846747",
"_F.	c #5C472B",
":F.	c #614830",
"<F.	c #56371C",
"[F.	c #795E41",
"}F.	c #54402C",
"|F.	c #543C27",
"1F.	c #837562",
"2F.	c #5D4D3A",
"3F.	c #38281C",
"4F.	c #5B4E3C",
"5F.	c #584B3C",
"6F.	c #68563C",
"7F.	c #53412F",
"8F.	c #584936",
"9F.	c #483B2E",
"0F.	c #483A2A",
"aF.	c #493824",
"bF.	c #49321D",
"cF.	c #5C3F24",
"dF.	c #694C2E",
"eF.	c #6C5636",
"fF.	c #584429",
"gF.	c #544C3C",
"hF.	c #282824",
"iF.	c #958D81",
"jF.	c #817A6B",
"kF.	c #797060",
"lF.	c #464033",
"mF.	c #867C70",
"nF.	c #716A5B",
"oF.	c #635E4F",
"pF.	c #797264",
"qF.	c #716758",
"rF.	c #584C39",
"sF.	c #634C37",
"tF.	c #53422E",
"uF.	c #6E5134",
"vF.	c #765F42",
"wF.	c #46331F",
"xF.	c #856134",
"yF.	c #634A2A",
"zF.	c #624526",
"AF.	c #53371B",
"BF.	c #8D6B4C",
"CF.	c #553615",
"DF.	c #85673D",
"EF.	c #8D6840",
"FF.	c #694C2B",
"GF.	c #49341D",
"HF.	c #76644D",
"IF.	c #A99887",
"JF.	c #645746",
"KF.	c #958773",
"LF.	c #7D715D",
"MF.	c #7D6F58",
"NF.	c #6C573F",
"OF.	c #6B5234",
"PF.	c #6C4C2C",
"QF.	c #665743",
"RF.	c #373125",
"SF.	c #4D3C28",
"TF.	c #6F5233",
"UF.	c #4E351C",
"VF.	c #64482B",
"WF.	c #563F23",
"XF.	c #47311E",
"YF.	c #422811",
"ZF.	c #4B301C",
"`F.	c #1B1005",
" G.	c #A09891",
".G.	c #A6A299",
"+G.	c #776859",
"@G.	c #665E4F",
"#G.	c #837258",
"$G.	c #6B5D4A",
"%G.	c #786E5B",
"&G.	c #5E4830",
"*G.	c #6E593F",
"=G.	c #66553B",
"-G.	c #6D5944",
";G.	c #74614D",
">G.	c #675841",
",G.	c #453625",
"'G.	c #382515",
")G.	c #634122",
"!G.	c #755539",
"~G.	c #5F472D",
"{G.	c #62492A",
"]G.	c #6F5436",
"^G.	c #51381C",
"/G.	c #554128",
"(G.	c #301F0D",
"_G.	c #513621",
":G.	c #2C2115",
"<G.	c #6A5D51",
"[G.	c #614B37",
"}G.	c #796044",
"|G.	c #6D5134",
"1G.	c #543F29",
"2G.	c #695440",
"3G.	c #55402B",
"4G.	c #4B392A",
"5G.	c #53442C",
"6G.	c #645035",
"7G.	c #513A22",
"8G.	c #624F35",
"9G.	c #453319",
"0G.	c #59472A",
"aG.	c #543E23",
"bG.	c #674F36",
"cG.	c #6C5337",
"dG.	c #775939",
"eG.	c #4E321B",
"fG.	c #54381A",
"gG.	c #5C402B",
"hG.	c #7C5837",
"iG.	c #77552F",
"jG.	c #826445",
"kG.	c #5C4023",
"lG.	c #57442F",
"mG.	c #4A3C2D",
"nG.	c #594D3D",
"oG.	c #7C7060",
"pG.	c #655746",
"qG.	c #53493B",
"rG.	c #493E30",
"sG.	c #847462",
"tG.	c #473D2B",
"uG.	c #746C64",
"vG.	c #4B402E",
"wG.	c #55402C",
"xG.	c #6E502E",
"yG.	c #65452A",
"zG.	c #806345",
"AG.	c #3B2A18",
"BG.	c #6D5138",
"CG.	c #6B4E33",
"DG.	c #655038",
"EG.	c #6B553B",
"FG.	c #705137",
"GG.	c #513414",
"HG.	c #493114",
"IG.	c #624830",
"JG.	c #1D1209",
"KG.	c #625C4E",
"LG.	c #908873",
"MG.	c #6E6252",
"NG.	c #443527",
"OG.	c #605240",
"PG.	c #65503E",
"QG.	c #4B3F2A",
"RG.	c #504130",
"SG.	c #554534",
"TG.	c #503F27",
"UG.	c #635037",
"VG.	c #654F33",
"WG.	c #4B3218",
"XG.	c #6A4D2C",
"YG.	c #665033",
"ZG.	c #725C43",
"`G.	c #856E51",
" H.	c #705E42",
".H.	c #735E45",
"+H.	c #4F432E",
"@H.	c #7A6C54",
"#H.	c #68584A",
"$H.	c #857561",
"%H.	c #8C8A82",
"&H.	c #948C7F",
"*H.	c #716451",
"=H.	c #786450",
"-H.	c #554129",
";H.	c #483018",
">H.	c #6C4D2D",
",H.	c #7B5838",
"'H.	c #7E5E3A",
")H.	c #694A25",
"!H.	c #7E5F38",
"~H.	c #926E45",
"{H.	c #755431",
"]H.	c #684727",
"^H.	c #705029",
"/H.	c #755533",
"(H.	c #6C4F30",
"_H.	c #604931",
":H.	c #604D34",
"<H.	c #8A7D6B",
"[H.	c #A79F90",
"}H.	c #A1937E",
"|H.	c #8C6E49",
"1H.	c #463D2E",
"2H.	c #341F0B",
"3H.	c #523C24",
"4H.	c #5D462F",
"5H.	c #4E3825",
"6H.	c #4F371F",
"7H.	c #57381B",
"8H.	c #76563B",
"9H.	c #735B43",
"0H.	c #BEBAAE",
"aH.	c #57442E",
"bH.	c #3A2B1F",
"cH.	c #6B6A5B",
"dH.	c #615748",
"eH.	c #554E40",
"fH.	c #96897A",
"gH.	c #716553",
"hH.	c #6B6250",
"iH.	c #746757",
"jH.	c #6C573A",
"kH.	c #83735A",
"lH.	c #8C7D67",
"mH.	c #8E7F69",
"nH.	c #61503E",
"oH.	c #7C6E58",
"pH.	c #654F37",
"qH.	c #896D49",
"rH.	c #795F3E",
"sH.	c #977E60",
"tH.	c #6F5538",
"uH.	c #62492C",
"vH.	c #6E5337",
"wH.	c #5C4029",
"xH.	c #614528",
"yH.	c #574027",
"zH.	c #4C3420",
"AH.	c #745941",
"BH.	c #452F1B",
"CH.	c #725A3D",
"DH.	c #5E4930",
"EH.	c #57422D",
"FH.	c #5F4D39",
"GH.	c #634F3B",
"HH.	c #594736",
"IH.	c #70614B",
"JH.	c #836F58",
"KH.	c #68533B",
"LH.	c #77634C",
"MH.	c #75624A",
"NH.	c #635135",
"OH.	c #5B4835",
"PH.	c #614D37",
"QH.	c #4C3D2F",
"RH.	c #52402D",
"SH.	c #5B402A",
"TH.	c #5A3D1D",
"UH.	c #6A492A",
"VH.	c #725332",
"WH.	c #6E4A26",
"XH.	c #60411F",
"YH.	c #6A563F",
"ZH.	c #4B3F30",
"`H.	c #453A31",
" I.	c #463C2D",
".I.	c #776A5A",
"+I.	c #5B4E3E",
"@I.	c #5A5241",
"#I.	c #5E5243",
"$I.	c #736455",
"%I.	c #675F53",
"&I.	c #14120D",
"*I.	c #7B715E",
"=I.	c #3D281A",
"-I.	c #4E3519",
";I.	c #56371B",
">I.	c #4B2D0E",
",I.	c #52432E",
"'I.	c #533D24",
")I.	c #472D19",
"!I.	c #533E2E",
"~I.	c #432D13",
"{I.	c #5A3919",
"]I.	c #644826",
"^I.	c #5B3E23",
"/I.	c #725333",
"(I.	c #644A2E",
"_I.	c #3F3025",
":I.	c #9B9185",
"<I.	c #857B6F",
"[I.	c #382C1E",
"}I.	c #493929",
"|I.	c #6C6250",
"1I.	c #807461",
"2I.	c #5F4F37",
"3I.	c #4F4332",
"4I.	c #4C3B2A",
"5I.	c #594834",
"6I.	c #5E4D39",
"7I.	c #65533E",
"8I.	c #553F29",
"9I.	c #7E613F",
"0I.	c #694F35",
"aI.	c #553D23",
"bI.	c #776045",
"cI.	c #817058",
"dI.	c #5B4D33",
"eI.	c #7C6B54",
"fI.	c #5A4E3F",
"gI.	c #5D503E",
"hI.	c #5E5C57",
"iI.	c #90867F",
"jI.	c #666658",
"kI.	c #9D9784",
"lI.	c #948A77",
"mI.	c #615D4D",
"nI.	c #706C65",
"oI.	c #757061",
"pI.	c #6E6A5A",
"qI.	c #7D735E",
"rI.	c #786649",
"sI.	c #785A35",
"tI.	c #5F4624",
"uI.	c #725C3B",
"vI.	c #866F4E",
"wI.	c #6C492E",
"xI.	c #5C3917",
"yI.	c #997B51",
"zI.	c #7B5A2F",
"AI.	c #6D4E28",
"BI.	c #6C4F2C",
"CI.	c #9A7A56",
"DI.	c #836542",
"EI.	c #8B6C45",
"FI.	c #72512F",
"GI.	c #6E5B3F",
"HI.	c #928A77",
"II.	c #9A927F",
"JI.	c #6D6552",
"KI.	c #9F8F71",
"LI.	c #69553D",
"MI.	c #3E3525",
"NI.	c #5F4426",
"OI.	c #5E402D",
"PI.	c #664927",
"QI.	c #5B3F24",
"RI.	c #291B0E",
"SI.	c #8A8374",
"TI.	c #9F9C8C",
"UI.	c #8A7F6D",
"VI.	c #4B4845",
"WI.	c #8F8883",
"XI.	c #5F5143",
"YI.	c #92897F",
"ZI.	c #5E5240",
"`I.	c #544736",
" J.	c #62543F",
".J.	c #867960",
"+J.	c #7C6954",
"@J.	c #6E5C43",
"#J.	c #645341",
"$J.	c #786950",
"%J.	c #978F78",
"&J.	c #988F7A",
"*J.	c #796A58",
"=J.	c #867A68",
"-J.	c #463724",
";J.	c #886E4D",
">J.	c #715A3B",
",J.	c #5A4224",
"'J.	c #63452B",
")J.	c #71593A",
"!J.	c #5A3D21",
"~J.	c #5B4126",
"{J.	c #684C2C",
"]J.	c #70533C",
"^J.	c #6E5234",
"/J.	c #5A452F",
"(J.	c #594531",
"_J.	c #736453",
":J.	c #6B5C49",
"<J.	c #7E6D54",
"[J.	c #544631",
"}J.	c #685841",
"|J.	c #82715B",
"1J.	c #92806B",
"2J.	c #57462F",
"3J.	c #86755C",
"4J.	c #5C4A34",
"5J.	c #5D4B35",
"6J.	c #564636",
"7J.	c #6B4C29",
"8J.	c #593F25",
"9J.	c #5B462C",
"0J.	c #64523E",
"aJ.	c #4E402E",
"bJ.	c #564B38",
"cJ.	c #4F4033",
"dJ.	c #605746",
"eJ.	c #9D917D",
"fJ.	c #8A7F6E",
"gJ.	c #5C5342",
"hJ.	c #807463",
"iJ.	c #332A20",
"jJ.	c #1D170F",
"kJ.	c #705033",
"lJ.	c #664427",
"mJ.	c #614224",
"nJ.	c #634B2E",
"oJ.	c #4A361F",
"pJ.	c #5A4023",
"qJ.	c #735B44",
"rJ.	c #563A23",
"sJ.	c #6B4D2F",
"tJ.	c #6D4E2F",
"uJ.	c #5C3F21",
"vJ.	c #7A5B3B",
"wJ.	c #745B3C",
"xJ.	c #644D35",
"yJ.	c #473526",
"zJ.	c #1B1B15",
"AJ.	c #888675",
"BJ.	c #817A6F",
"CJ.	c #7B7463",
"DJ.	c #5A4B3C",
"EJ.	c #685D4C",
"FJ.	c #675F54",
"GJ.	c #877562",
"HJ.	c #84755E",
"IJ.	c #6E5E4D",
"JJ.	c #534532",
"KJ.	c #5B4934",
"LJ.	c #4D3A27",
"MJ.	c #513F2C",
"NJ.	c #4E3317",
"OJ.	c #523B1D",
"PJ.	c #8A7359",
"QJ.	c #4F402B",
"RJ.	c #5F523F",
"SJ.	c #776C5D",
"TJ.	c #726556",
"UJ.	c #7E7664",
"VJ.	c #5D5443",
"WJ.	c #5D5247",
"XJ.	c #1F1A0E",
"YJ.	c #504433",
"ZJ.	c #352A1E",
"`J.	c #332E24",
" K.	c #433E32",
".K.	c #716655",
"+K.	c #AEA79D",
"@K.	c #797161",
"#K.	c #7E7566",
"$K.	c #8B7E6E",
"%K.	c #837157",
"&K.	c #695133",
"*K.	c #604423",
"=K.	c #735834",
"-K.	c #675131",
";K.	c #624928",
">K.	c #614425",
",K.	c #674625",
"'K.	c #73502B",
")K.	c #937249",
"!K.	c #78572F",
"~K.	c #7A5833",
"{K.	c #77562F",
"]K.	c #6F4F2F",
"^K.	c #6A5436",
"/K.	c #61533E",
"(K.	c #7D7364",
"_K.	c #AEA395",
":K.	c #7D6D5B",
"<K.	c #80735B",
"[K.	c #645037",
"}K.	c #917E61",
"|K.	c #301D12",
"1K.	c #2C231E",
"2K.	c #402E1B",
"3K.	c #59402B",
"4K.	c #866544",
"5K.	c #543A1B",
"6K.	c #5A4026",
"7K.	c #553A1B",
"8K.	c #66482A",
"9K.	c #684D2D",
"0K.	c #695138",
"aK.	c #41311E",
"bK.	c #676253",
"cK.	c #837A6D",
"dK.	c #625A4D",
"eK.	c #605544",
"fK.	c #685A49",
"gK.	c #ABA297",
"hK.	c #8B8777",
"iK.	c #847963",
"jK.	c #554331",
"kK.	c #75614C",
"lK.	c #625740",
"mK.	c #796A56",
"nK.	c #584733",
"oK.	c #847768",
"pK.	c #867C6B",
"qK.	c #6C624F",
"rK.	c #423628",
"sK.	c #4D3D26",
"tK.	c #664E32",
"uK.	c #5B452D",
"vK.	c #8C7554",
"wK.	c #5E472F",
"xK.	c #6E5539",
"yK.	c #70543A",
"zK.	c #755A3C",
"AK.	c #4F351E",
"BK.	c #553A26",
"CK.	c #442D19",
"DK.	c #684A2B",
"EK.	c #6D5030",
"FK.	c #533620",
"GK.	c #6F5032",
"HK.	c #6C553F",
"IK.	c #6A5940",
"JK.	c #69593E",
"KK.	c #5D4E3C",
"LK.	c #60523F",
"MK.	c #584A36",
"NK.	c #6C5B4A",
"OK.	c #8B7B68",
"PK.	c #7F715A",
"QK.	c #92826B",
"RK.	c #71624C",
"SK.	c #90816A",
"TK.	c #6B5C48",
"UK.	c #5D4D3C",
"VK.	c #4F4232",
"WK.	c #3A2E1E",
"XK.	c #65482D",
"YK.	c #785B3E",
"ZK.	c #644328",
"`K.	c #4C3117",
" L.	c #75553B",
".L.	c #563C1F",
"+L.	c #463324",
"@L.	c #544534",
"#L.	c #6D5E4C",
"$L.	c #554B39",
"%L.	c #685B4C",
"&L.	c #5B4D3A",
"*L.	c #473D31",
"=L.	c #372A1E",
"-L.	c #443A2F",
";L.	c #6D6350",
">L.	c #6B5F50",
",L.	c #493A2C",
"'L.	c #503D2E",
")L.	c #34281C",
"!L.	c #655943",
"~L.	c #543F28",
"{L.	c #725539",
"]L.	c #7E5D38",
"^L.	c #5D442D",
"/L.	c #6E563F",
"(L.	c #634B36",
"_L.	c #6C5434",
":L.	c #553C25",
"<L.	c #64492D",
"[L.	c #7B5937",
"}L.	c #654729",
"|L.	c #5E4429",
"1L.	c #7B6042",
"2L.	c #5F4A2A",
"3L.	c #645036",
"4L.	c #453320",
"5L.	c #4E473C",
"6L.	c #322820",
"7L.	c #383125",
"8L.	c #81786A",
"9L.	c #615241",
"0L.	c #534936",
"aL.	c #5D4D39",
"bL.	c #695D45",
"cL.	c #5B4938",
"dL.	c #3C2A18",
"eL.	c #6B5139",
"fL.	c #594830",
"gL.	c #615C4B",
"hL.	c #696451",
"iL.	c #605649",
"jL.	c #554D40",
"kL.	c #675C4E",
"lL.	c #483D33",
"mL.	c #524634",
"nL.	c #42382D",
"oL.	c #514539",
"pL.	c #130D06",
"qL.	c #9B9A90",
"rL.	c #756B63",
"sL.	c #86817A",
"tL.	c #9A958F",
"uL.	c #ACA59D",
"vL.	c #72695D",
"wL.	c #776955",
"xL.	c #A18161",
"yL.	c #7C5F43",
"zL.	c #816441",
"AL.	c #583A16",
"BL.	c #5C381B",
"CL.	c #795735",
"DL.	c #77552C",
"EL.	c #87643A",
"FL.	c #6F4F2D",
"GL.	c #775938",
"HL.	c #5B3D21",
"IL.	c #664B30",
"JL.	c #856748",
"KL.	c #473019",
"LL.	c #765C3E",
"ML.	c #503E2C",
"NL.	c #695B4C",
"OL.	c #362717",
"PL.	c #A39479",
"QL.	c #7E715E",
"RL.	c #9D8B6F",
"SL.	c #816A49",
"TL.	c #2E2116",
"UL.	c #7D6141",
"VL.	c #5A3E27",
"WL.	c #7B5C3A",
"XL.	c #785C39",
"YL.	c #4E3216",
"ZL.	c #482F15",
"`L.	c #666250",
" M.	c #847A72",
".M.	c #706554",
"+M.	c #A39C92",
"@M.	c #625945",
"#M.	c #564736",
"$M.	c #7A6957",
"%M.	c #86745B",
"&M.	c #90846E",
"*M.	c #695C49",
"=M.	c #6B5F4C",
"-M.	c #83786A",
";M.	c #696253",
">M.	c #8B7F6E",
",M.	c #473E33",
"'M.	c #4C3E2C",
")M.	c #69533B",
"!M.	c #907C5F",
"~M.	c #695035",
"{M.	c #492E17",
"]M.	c #58391D",
"^M.	c #523720",
"/M.	c #604120",
"(M.	c #684C2F",
"_M.	c #6B4D2D",
":M.	c #62492D",
"<M.	c #5F4427",
"[M.	c #634F37",
"}M.	c #4D3926",
"|M.	c #56452B",
"1M.	c #7E705A",
"2M.	c #645841",
"3M.	c #4B4232",
"4M.	c #61523D",
"5M.	c #73674E",
"6M.	c #857565",
"7M.	c #615642",
"8M.	c #605038",
"9M.	c #726953",
"0M.	c #514532",
"aM.	c #776A5C",
"bM.	c #655847",
"cM.	c #503E29",
"dM.	c #4F3E29",
"eM.	c #917353",
"fM.	c #563B20",
"gM.	c #55381E",
"hM.	c #654930",
"iM.	c #684B2B",
"jM.	c #5E4E39",
"kM.	c #4F4532",
"lM.	c #4A4231",
"mM.	c #77695C",
"nM.	c #76685E",
"oM.	c #322619",
"pM.	c #605442",
"qM.	c #554C3E",
"rM.	c #5D5348",
"sM.	c #5C4F42",
"tM.	c #453525",
"uM.	c #433123",
"vM.	c #3D342A",
"wM.	c #635B49",
"xM.	c #4B321F",
"yM.	c #654728",
"zM.	c #644B2B",
"AM.	c #4E361A",
"BM.	c #644828",
"CM.	c #704F25",
"DM.	c #6A4A26",
"EM.	c #725837",
"FM.	c #6D502D",
"GM.	c #452D13",
"HM.	c #4F351F",
"IM.	c #7D7467",
"JM.	c #312D22",
"KM.	c #1A150C",
"LM.	c #6D5F53",
"MM.	c #493928",
"NM.	c #4D3A28",
"OM.	c #413629",
"PM.	c #524637",
"QM.	c #6E634F",
"RM.	c #5C4F40",
"SM.	c #5E432A",
"TM.	c #5E442D",
"UM.	c #554537",
"VM.	c #564E40",
"WM.	c #61584A",
"XM.	c #6C6857",
"YM.	c #7D7668",
"ZM.	c #786F64",
"`M.	c #4D4132",
" N.	c #4C402F",
".N.	c #4C3C32",
"+N.	c #403527",
"@N.	c #403320",
"#N.	c #534835",
"$N.	c #6D6556",
"%N.	c #66553E",
"&N.	c #554C40",
"*N.	c #9B9789",
"=N.	c #9C9A8E",
"-N.	c #837C75",
";N.	c #5C5747",
">N.	c #7B7059",
",N.	c #7D6344",
"'N.	c #705331",
")N.	c #62401F",
"!N.	c #6E4B23",
"~N.	c #795630",
"{N.	c #69451E",
"]N.	c #75512E",
"^N.	c #6C4922",
"/N.	c #7F5E37",
"(N.	c #997852",
"_N.	c #81623D",
":N.	c #5D4025",
"<N.	c #452C10",
"[N.	c #533C23",
"}N.	c #806748",
"|N.	c #52391E",
"1N.	c #837054",
"2N.	c #533F28",
"3N.	c #614D35",
"4N.	c #705C45",
"5N.	c #786D56",
"6N.	c #9F9079",
"7N.	c #908066",
"8N.	c #312114",
"9N.	c #322213",
"0N.	c #3D2817",
"aN.	c #66492F",
"bN.	c #5F4225",
"cN.	c #8B6C49",
"dN.	c #472F16",
"eN.	c #8C7058",
"fN.	c #634427",
"gN.	c #5F5849",
"hN.	c #635C55",
"iN.	c #938B7E",
"jN.	c #2F2D23",
"kN.	c #78716B",
"lN.	c #938B7A",
"mN.	c #493725",
"nN.	c #6E5C44",
"oN.	c #7B6C58",
"pN.	c #665A49",
"qN.	c #6F6555",
"rN.	c #524936",
"sN.	c #736555",
"tN.	c #7F7565",
"uN.	c #827A6A",
"vN.	c #55412D",
"wN.	c #85715C",
"xN.	c #705A41",
"yN.	c #624E33",
"zN.	c #47341B",
"AN.	c #584021",
"BN.	c #7A5F43",
"CN.	c #4F341B",
"DN.	c #5F4129",
"EN.	c #54371B",
"FN.	c #573F21",
"GN.	c #573B1A",
"HN.	c #684B2E",
"IN.	c #6D4F30",
"JN.	c #614A32",
"KN.	c #67553B",
"LN.	c #604E37",
"MN.	c #63533D",
"NN.	c #5C4F3F",
"ON.	c #8A7E69",
"PN.	c #7C6D5A",
"QN.	c #6A5D4B",
"RN.	c #756959",
"SN.	c #7B6F5A",
"TN.	c #6A604E",
"UN.	c #61533F",
"VN.	c #6C604C",
"WN.	c #403020",
"XN.	c #513D27",
"YN.	c #594026",
"ZN.	c #705434",
"`N.	c #573D25",
" O.	c #594224",
".O.	c #573C28",
"+O.	c #56412F",
"@O.	c #685742",
"#O.	c #7A7162",
"$O.	c #6A5D50",
"%O.	c #675D51",
"&O.	c #53493C",
"*O.	c #746A5C",
"=O.	c #443D2F",
"-O.	c #493F33",
";O.	c #433423",
">O.	c #33261A",
",O.	c #13110B",
"'O.	c #372E26",
")O.	c #2B221A",
"!O.	c #6E5840",
"~O.	c #5E4631",
"{O.	c #63472C",
"]O.	c #523A1F",
"^O.	c #6A4C2D",
"/O.	c #73512E",
"(O.	c #795734",
"_O.	c #624324",
":O.	c #755C3A",
"<O.	c #54391B",
"[O.	c #5F3F20",
"}O.	c #462D13",
"|O.	c #604126",
"1O.	c #5E401E",
"2O.	c #705235",
"3O.	c #47331D",
"4O.	c #1E170F",
"5O.	c #8A8276",
"6O.	c #2A1F17",
"7O.	c #473321",
"8O.	c #473B2A",
"9O.	c #4C3E33",
"0O.	c #706557",
"aO.	c #4C3C29",
"bO.	c #453B2C",
"cO.	c #655B4D",
"dO.	c #5B5243",
"eO.	c #564C3D",
"fO.	c #5F4935",
"gO.	c #7A654C",
"hO.	c #5E462F",
"iO.	c #4A3423",
"jO.	c #4F4432",
"kO.	c #645D4C",
"lO.	c #68604F",
"mO.	c #352E24",
"nO.	c #554D3E",
"oO.	c #7A7163",
"pO.	c #685E53",
"qO.	c #65584B",
"rO.	c #392D1F",
"sO.	c #151108",
"tO.	c #342B1E",
"uO.	c #70604C",
"vO.	c #4B402F",
"wO.	c #4B4236",
"xO.	c #635444",
"yO.	c #4E4234",
"zO.	c #352C24",
"AO.	c #9A998A",
"BO.	c #7D7A68",
"CO.	c #948878",
"DO.	c #53391D",
"EO.	c #755634",
"FO.	c #6F4B26",
"GO.	c #4C2A0D",
"HO.	c #87633B",
"IO.	c #75542B",
"JO.	c #664521",
"KO.	c #8E6C44",
"LO.	c #6A4626",
"MO.	c #64411F",
"NO.	c #644C2E",
"OO.	c #60432A",
"PO.	c #654A31",
"QO.	c #5E4127",
"RO.	c #785E3E",
"SO.	c #927653",
"TO.	c #856F4B",
"UO.	c #9E8A6A",
"VO.	c #A3907A",
"WO.	c #857A67",
"XO.	c #8F826D",
"YO.	c #463726",
"ZO.	c #2F2417",
"`O.	c #5A4937",
" P.	c #513C2A",
".P.	c #4A301D",
"+P.	c #614225",
"@P.	c #5F4226",
"#P.	c #644927",
"$P.	c #563D22",
"%P.	c #6C5134",
"&P.	c #7B6044",
"*P.	c #5E4529",
"=P.	c #593E22",
"-P.	c #755B3B",
";P.	c #624E37",
">P.	c #31291D",
",P.	c #6F6553",
"'P.	c #6D6D66",
")P.	c #5C4F3A",
"!P.	c #817463",
"~P.	c #3F3022",
"{P.	c #775F4C",
"]P.	c #40321D",
"^P.	c #716654",
"/P.	c #807665",
"(P.	c #817564",
"_P.	c #635946",
":P.	c #8D8270",
"<P.	c #716B5C",
"[P.	c #847A69",
"}P.	c #635848",
"|P.	c #4B3E2B",
"1P.	c #67563D",
"2P.	c #6C5842",
"3P.	c #6C5339",
"4P.	c #725D43",
"5P.	c #69553F",
"6P.	c #534029",
"7P.	c #634B34",
"8P.	c #836646",
"9P.	c #6E5437",
"0P.	c #533618",
"aP.	c #603F23",
"bP.	c #684D34",
"cP.	c #775736",
"dP.	c #614627",
"eP.	c #816545",
"fP.	c #856B52",
"gP.	c #6B5138",
"hP.	c #67533B",
"iP.	c #6F5B44",
"jP.	c #7C684F",
"kP.	c #605441",
"lP.	c #4A3A29",
"mP.	c #5E503A",
"nP.	c #655A4A",
"oP.	c #736451",
"pP.	c #7A715F",
"qP.	c #8C8271",
"rP.	c #6C6252",
"sP.	c #918775",
"tP.	c #5A5041",
"uP.	c #514434",
"vP.	c #766751",
"wP.	c #675641",
"xP.	c #583E28",
"yP.	c #6D5336",
"zP.	c #937756",
"AP.	c #694D34",
"BP.	c #452F18",
"CP.	c #5D4B3A",
"DP.	c #6A5F48",
"EP.	c #594C37",
"FP.	c #574836",
"GP.	c #514636",
"HP.	c #514338",
"IP.	c #584839",
"JP.	c #3C3129",
"KP.	c #42372A",
"LP.	c #3F3226",
"MP.	c #312116",
"NP.	c #1C140A",
"OP.	c #050504",
"PP.	c #76746C",
"QP.	c #2A2A24",
"RP.	c #1F1B14",
"SP.	c #3C2E1B",
"TP.	c #33210F",
"UP.	c #3D2915",
"VP.	c #312417",
"WP.	c #614630",
"XP.	c #52351D",
"YP.	c #614526",
"ZP.	c #482E15",
"`P.	c #705231",
" Q.	c #75542E",
".Q.	c #7A5936",
"+Q.	c #7E5C39",
"@Q.	c #7F5F3C",
"#Q.	c #725437",
"$Q.	c #5A3B19",
"%Q.	c #775630",
"&Q.	c #8B6B4B",
"*Q.	c #6E5235",
"=Q.	c #51341D",
"-Q.	c #614A2E",
";Q.	c #3D2C1D",
">Q.	c #18110A",
",Q.	c #382B1F",
"'Q.	c #483623",
")Q.	c #403021",
"!Q.	c #564533",
"~Q.	c #483928",
"{Q.	c #413729",
"]Q.	c #3E301E",
"^Q.	c #59462D",
"/Q.	c #4C4131",
"(Q.	c #47392A",
"_Q.	c #443327",
":Q.	c #65533C",
"<Q.	c #6C5439",
"[Q.	c #58422B",
"}Q.	c #53402B",
"|Q.	c #5D5240",
"1Q.	c #7A6C5E",
"2Q.	c #504438",
"3Q.	c #655A4C",
"4Q.	c #4E4737",
"5Q.	c #524B39",
"6Q.	c #584D3E",
"7Q.	c #615140",
"8Q.	c #2C251B",
"9Q.	c #231C12",
"0Q.	c #7F7868",
"aQ.	c #696453",
"bQ.	c #615040",
"cQ.	c #6A604D",
"dQ.	c #4F4334",
"eQ.	c #44392A",
"fQ.	c #3B2F1E",
"gQ.	c #564A37",
"hQ.	c #716863",
"iQ.	c #8D8A77",
"jQ.	c #3E3322",
"kQ.	c #593A1E",
"lQ.	c #82603D",
"mQ.	c #6E492A",
"nQ.	c #825935",
"oQ.	c #825E3C",
"pQ.	c #74522C",
"qQ.	c #644629",
"rQ.	c #563A1D",
"sQ.	c #654828",
"tQ.	c #76593B",
"uQ.	c #7E6344",
"vQ.	c #593C1E",
"wQ.	c #755A38",
"xQ.	c #927449",
"yQ.	c #816648",
"zQ.	c #5F4728",
"AQ.	c #7E664D",
"BQ.	c #8B8068",
"CQ.	c #605542",
"DQ.	c #594831",
"EQ.	c #5E4B38",
"FQ.	c #261608",
"GQ.	c #664B32",
"HQ.	c #432D10",
"IQ.	c #56371A",
"JQ.	c #614527",
"KQ.	c #482F11",
"LQ.	c #775B3D",
"MQ.	c #62482E",
"NQ.	c #83684A",
"OQ.	c #553A21",
"PQ.	c #756654",
"QQ.	c #7E7A69",
"RQ.	c #757568",
"SQ.	c #362F20",
"TQ.	c #77634E",
"UQ.	c #7D664A",
"VQ.	c #56432D",
"WQ.	c #534130",
"XQ.	c #685C48",
"YQ.	c #877B6C",
"ZQ.	c #8C8577",
"`Q.	c #797361",
" R.	c #8F8576",
".R.	c #988D7F",
"+R.	c #9F9A89",
"@R.	c #7C7566",
"#R.	c #766D5A",
"$R.	c #5A4E3D",
"%R.	c #53402D",
"&R.	c #6F5C44",
"*R.	c #615038",
"=R.	c #675342",
"-R.	c #44331F",
";R.	c #4C371F",
">R.	c #725234",
",R.	c #553A1E",
"'R.	c #6A4C2A",
")R.	c #6A4C2F",
"!R.	c #6C4D2A",
"~R.	c #53381B",
"{R.	c #5E4935",
"]R.	c #84705A",
"^R.	c #614D39",
"/R.	c #5D4C38",
"(R.	c #6E5F4D",
"_R.	c #524330",
":R.	c #7F6F5B",
"<R.	c #746552",
"[R.	c #645743",
"}R.	c #796E5C",
"|R.	c #796F5D",
"1R.	c #6B6354",
"2R.	c #776C5C",
"3R.	c #918370",
"4R.	c #897B6B",
"5R.	c #8B7D6E",
"6R.	c #30200C",
"7R.	c #6A563E",
"8R.	c #674F34",
"9R.	c #534028",
"0R.	c #6E5D49",
"aR.	c #665542",
"bR.	c #645644",
"cR.	c #746756",
"dR.	c #5D4D3F",
"eR.	c #4D3E2D",
"fR.	c #5E5142",
"gR.	c #4A3E2D",
"hR.	c #847B68",
"iR.	c #5C5042",
"jR.	c #817462",
"kR.	c #4D4031",
"lR.	c #6B5D4E",
"mR.	c #2F2016",
"nR.	c #322518",
"oR.	c #291E14",
"pR.	c #161009",
"qR.	c #302F24",
"rR.	c #39291C",
"sR.	c #4E3720",
"tR.	c #543D27",
"uR.	c #523D23",
"vR.	c #4C3521",
"wR.	c #4F3924",
"xR.	c #4E371E",
"yR.	c #593C21",
"zR.	c #5A3D20",
"AR.	c #442C14",
"BR.	c #5B3D24",
"CR.	c #593C1F",
"DR.	c #7A5737",
"ER.	c #806038",
"FR.	c #664826",
"GR.	c #67472A",
"HR.	c #80603B",
"IR.	c #705330",
"JR.	c #45280F",
"KR.	c #654329",
"LR.	c #4D3621",
"MR.	c #49321C",
"NR.	c #3A2813",
"OR.	c #4B3721",
"PR.	c #3F3225",
"QR.	c #3E2E1E",
"RR.	c #614D3B",
"SR.	c #746753",
"TR.	c #5E4D3A",
"UR.	c #5D4833",
"VR.	c #493C2C",
"WR.	c #6D604E",
"XR.	c #796A52",
"YR.	c #503D28",
"ZR.	c #58442F",
"`R.	c #5D4930",
" S.	c #685237",
".S.	c #58442C",
"+S.	c #483721",
"@S.	c #4A3F2B",
"#S.	c #555042",
"$S.	c #514E3D",
"%S.	c #736A5F",
"&S.	c #5D5948",
"*S.	c #7F7564",
"=S.	c #3E392C",
"-S.	c #62574C",
";S.	c #393025",
">S.	c #625547",
",S.	c #6B6356",
"'S.	c #4D4434",
")S.	c #685F4D",
"!S.	c #524735",
"~S.	c #504031",
"{S.	c #221B14",
"]S.	c #484744",
"^S.	c #8B8C7F",
"/S.	c #918A7C",
"(S.	c #5D4329",
"_S.	c #886845",
":S.	c #644221",
"<S.	c #61482D",
"[S.	c #63492A",
"}S.	c #6E5637",
"|S.	c #5E4225",
"1S.	c #674928",
"2S.	c #7D5F3C",
"3S.	c #674D2A",
"4S.	c #5E3D20",
"5S.	c #7E5A36",
"6S.	c #49351A",
"7S.	c #5B442C",
"8S.	c #472F14",
"9S.	c #4E422F",
"0S.	c #635747",
"aS.	c #665E50",
"bS.	c #5B513E",
"cS.	c #503F2F",
"dS.	c #483222",
"eS.	c #5C4226",
"fS.	c #563920",
"gS.	c #7F6242",
"hS.	c #75583A",
"iS.	c #66492A",
"jS.	c #593A21",
"kS.	c #715535",
"lS.	c #6A4F36",
"mS.	c #604F36",
"nS.	c #796B58",
"oS.	c #67675F",
"pS.	c #19130B",
"qS.	c #8E8067",
"rS.	c #403221",
"sS.	c #66543A",
"tS.	c #564028",
"uS.	c #79664E",
"vS.	c #4D3E2C",
"wS.	c #807763",
"xS.	c #837A68",
"yS.	c #827869",
"zS.	c #76705E",
"AS.	c #706556",
"BS.	c #675943",
"CS.	c #6E5C48",
"DS.	c #846D5B",
"ES.	c #5F4D38",
"FS.	c #584637",
"GS.	c #40301C",
"HS.	c #6D5130",
"IS.	c #4C3115",
"JS.	c #53371C",
"KS.	c #684828",
"LS.	c #5C401E",
"MS.	c #493015",
"NS.	c #7D5A33",
"OS.	c #6B4B2B",
"PS.	c #795632",
"QS.	c #745331",
"RS.	c #664828",
"SS.	c #695135",
"TS.	c #755F43",
"US.	c #64533E",
"VS.	c #6A5D46",
"WS.	c #473926",
"XS.	c #6D5C42",
"YS.	c #53452F",
"ZS.	c #675643",
"`S.	c #5C4E3F",
" T.	c #7C735F",
".T.	c #726858",
"+T.	c #73695D",
"@T.	c #514D3F",
"#T.	c #5C5645",
"$T.	c #625849",
"%T.	c #5D4C3A",
"&T.	c #75664B",
"*T.	c #70593F",
"=T.	c #755F47",
"-T.	c #716450",
";T.	c #8F7F6C",
">T.	c #625640",
",T.	c #5C503E",
"'T.	c #6F614A",
")T.	c #685A47",
"!T.	c #635443",
"~T.	c #443A27",
"{T.	c #736650",
"]T.	c #5B4F42",
"^T.	c #554D3F",
"/T.	c #524A3B",
"(T.	c #645B49",
"_T.	c #483C2E",
":T.	c #3C2A1D",
"<T.	c #4A3C31",
"[T.	c #503F2C",
"}T.	c #56402D",
"|T.	c #6C5238",
"1T.	c #72573B",
"2T.	c #594023",
"3T.	c #463119",
"4T.	c #65462B",
"5T.	c #503723",
"6T.	c #6D5435",
"7T.	c #704E34",
"8T.	c #4D3318",
"9T.	c #63462B",
"0T.	c #715238",
"aT.	c #644320",
"bT.	c #715733",
"cT.	c #735635",
"dT.	c #745433",
"eT.	c #664A29",
"fT.	c #614122",
"gT.	c #553920",
"hT.	c #6D4D2F",
"iT.	c #4D341D",
"jT.	c #4C331B",
"kT.	c #523920",
"lT.	c #6C5136",
"mT.	c #564430",
"nT.	c #503F2E",
"oT.	c #504334",
"pT.	c #42311E",
"qT.	c #503E27",
"rT.	c #4F4436",
"sT.	c #655947",
"tT.	c #524231",
"uT.	c #4B3626",
"vT.	c #483727",
"wT.	c #594630",
"xT.	c #51493D",
"yT.	c #544C3D",
"zT.	c #747060",
"AT.	c #6D6256",
"BT.	c #564A3D",
"CT.	c #4D4135",
"DT.	c #5F5245",
"ET.	c #4B4033",
"FT.	c #847A67",
"GT.	c #4B4433",
"HT.	c #524939",
"IT.	c #615746",
"JT.	c #463D30",
"KT.	c #40382D",
"LT.	c #5B5A52",
"MT.	c #88887F",
"NT.	c #5F5B4D",
"OT.	c #6C6758",
"PT.	c #887F72",
"QT.	c #6E5F4F",
"RT.	c #5C4025",
"ST.	c #704C25",
"TT.	c #63441C",
"UT.	c #8E683B",
"VT.	c #684623",
"WT.	c #79542F",
"XT.	c #866343",
"YT.	c #8B6543",
"ZT.	c #6D5034",
"`T.	c #684C31",
" U.	c #6E4E30",
".U.	c #644729",
"+U.	c #8D714A",
"@U.	c #8B6D40",
"#U.	c #55391C",
"$U.	c #6B5232",
"%U.	c #463625",
"&U.	c #766855",
"*U.	c #382B1D",
"=U.	c #432F1E",
"-U.	c #4E341C",
";U.	c #6C5137",
">U.	c #7D633F",
",U.	c #654B2D",
"'U.	c #604C32",
")U.	c #9B8A70",
"!U.	c #877E6C",
"~U.	c #5A5A4B",
"{U.	c #8F8D85",
"]U.	c #675A4E",
"^U.	c #A9A495",
"/U.	c #30261B",
"(U.	c #1C160F",
"_U.	c #1E150F",
":U.	c #3F311E",
"<U.	c #59462F",
"[U.	c #514329",
"}U.	c #8B785E",
"|U.	c #918474",
"1U.	c #89826F",
"2U.	c #645C4D",
"3U.	c #958E80",
"4U.	c #5A5444",
"5U.	c #8D887A",
"6U.	c #898575",
"7U.	c #504332",
"8U.	c #806E58",
"9U.	c #514130",
"0U.	c #6A5641",
"aU.	c #4C3C2B",
"bU.	c #6E614A",
"cU.	c #443426",
"dU.	c #4F3D2C",
"eU.	c #7A6041",
"fU.	c #53361E",
"gU.	c #846541",
"hU.	c #5E4022",
"iU.	c #714C2B",
"jU.	c #6F4F29",
"kU.	c #6D4C29",
"lU.	c #674C30",
"mU.	c #5B4830",
"nU.	c #6F604E",
"oU.	c #5F4F38",
"pU.	c #57482E",
"qU.	c #74644F",
"rU.	c #665C4D",
"sU.	c #807566",
"tU.	c #968C79",
"uU.	c #5B5045",
"vU.	c #5F5649",
"wU.	c #5F5948",
"xU.	c #7E7668",
"yU.	c #584B3B",
"zU.	c #6F5D4A",
"AU.	c #8B7A62",
"BU.	c #6D5F49",
"CU.	c #514230",
"DU.	c #5C4C3F",
"EU.	c #584A39",
"FU.	c #685747",
"GU.	c #7D6E5C",
"HU.	c #71624F",
"IU.	c #483F30",
"JU.	c #584F41",
"KU.	c #50483A",
"LU.	c #534738",
"MU.	c #564538",
"NU.	c #453420",
"OU.	c #513C29",
"PU.	c #644A29",
"QU.	c #63482D",
"RU.	c #54371F",
"SU.	c #442910",
"TU.	c #65472B",
"UU.	c #573817",
"VU.	c #664429",
"WU.	c #6B4B25",
"XU.	c #785737",
"YU.	c #50341A",
"ZU.	c #5A3E20",
"`U.	c #705034",
" V.	c #6D4E30",
".V.	c #7B5734",
"+V.	c #7A5938",
"@V.	c #51371C",
"#V.	c #573C25",
"$V.	c #7D6040",
"%V.	c #745532",
"&V.	c #60462C",
"*V.	c #6F5537",
"=V.	c #765739",
"-V.	c #674A29",
";V.	c #634325",
">V.	c #513419",
",V.	c #5C4633",
"'V.	c #4B3A2A",
")V.	c #4C3D2B",
"!V.	c #362A1C",
"~V.	c #473827",
"{V.	c #402F22",
"]V.	c #514433",
"^V.	c #544939",
"/V.	c #5C4C38",
"(V.	c #5C4B39",
"_V.	c #635038",
":V.	c #755C40",
"<V.	c #553C27",
"[V.	c #473C2F",
"}V.	c #4B4135",
"|V.	c #574C3F",
"1V.	c #453E30",
"2V.	c #4E4439",
"3V.	c #655E4E",
"4V.	c #635B46",
"5V.	c #64594C",
"6V.	c #797162",
"7V.	c #847967",
"8V.	c #474031",
"9V.	c #675C4D",
"0V.	c #524B3D",
"aV.	c #4B3D2E",
"bV.	c #535646",
"cV.	c #88877D",
"dV.	c #616153",
"eV.	c #655D51",
"fV.	c #857F6D",
"gV.	c #6F5E4A",
"hV.	c #755330",
"iV.	c #674621",
"jV.	c #623C16",
"kV.	c #6D4C1D",
"lV.	c #8A6944",
"mV.	c #69482E",
"nV.	c #694924",
"oV.	c #6E5133",
"pV.	c #5E4123",
"qV.	c #6C4D2C",
"rV.	c #5F4328",
"sV.	c #5D3F29",
"tV.	c #725734",
"uV.	c #544836",
"vV.	c #50422C",
"wV.	c #50422E",
"xV.	c #665A43",
"yV.	c #655948",
"zV.	c #3F3324",
"AV.	c #65482F",
"BV.	c #64462D",
"CV.	c #6B4C2D",
"DV.	c #604729",
"EV.	c #6B4D2A",
"FV.	c #785D41",
"GV.	c #8D7150",
"HV.	c #806147",
"IV.	c #6F5C48",
"JV.	c #676150",
"KV.	c #504D47",
"LV.	c #38291C",
"MV.	c #3F2A17",
"NV.	c #3D2C1B",
"OV.	c #483621",
"PV.	c #433323",
"QV.	c #3E2D1A",
"RV.	c #352418",
"SV.	c #463121",
"TV.	c #927F66",
"UV.	c #504231",
"VV.	c #847E6C",
"WV.	c #817C6A",
"XV.	c #8F887A",
"YV.	c #6A6152",
"ZV.	c #888072",
"`V.	c #786857",
" W.	c #756C56",
".W.	c #6A5E4A",
"+W.	c #6B5132",
"@W.	c #79603E",
"#W.	c #7F5D3C",
"$W.	c #614123",
"%W.	c #5F3F21",
"&W.	c #937148",
"*W.	c #59371A",
"=W.	c #85613A",
"-W.	c #6D4C2C",
";W.	c #73512F",
">W.	c #756143",
",W.	c #86745D",
"'W.	c #4E4135",
")W.	c #685C47",
"!W.	c #5C4D3D",
"~W.	c #605948",
"{W.	c #615B4B",
"]W.	c #7D6C56",
"^W.	c #806B58",
"/W.	c #675644",
"(W.	c #6C604E",
"_W.	c #766C59",
":W.	c #7E7160",
"<W.	c #6D624E",
"[W.	c #4B3E27",
"}W.	c #5F5243",
"|W.	c #423B2A",
"1W.	c #43372B",
"2W.	c #3B3227",
"3W.	c #4E402D",
"4W.	c #644F38",
"5W.	c #59442D",
"6W.	c #5A3F21",
"7W.	c #62482A",
"8W.	c #64492F",
"9W.	c #563B21",
"0W.	c #4C3621",
"aW.	c #4F3118",
"bW.	c #563D2B",
"cW.	c #604124",
"dW.	c #7E5A38",
"eW.	c #6B4D2B",
"fW.	c #5E3C1C",
"gW.	c #6B4A29",
"hW.	c #654328",
"iW.	c #503317",
"jW.	c #5A3E25",
"kW.	c #4B3014",
"lW.	c #8B6E51",
"mW.	c #4D3017",
"nW.	c #422A10",
"oW.	c #775A37",
"pW.	c #654D34",
"qW.	c #4D3A2B",
"rW.	c #302411",
"sW.	c #463824",
"tW.	c #44372A",
"uW.	c #473825",
"vW.	c #524230",
"wW.	c #494034",
"xW.	c #504133",
"yW.	c #4A3723",
"zW.	c #5C492F",
"AW.	c #483625",
"BW.	c #483422",
"CW.	c #3F311F",
"DW.	c #4E4436",
"EW.	c #514638",
"FW.	c #5E564D",
"GW.	c #5A5345",
"HW.	c #473D32",
"IW.	c #60594B",
"JW.	c #534940",
"KW.	c #635B4D",
"LW.	c #5E5344",
"MW.	c #5A4F45",
"NW.	c #736A5B",
"OW.	c #706658",
"PW.	c #5C5344",
"QW.	c #383024",
"RW.	c #72685B",
"SW.	c #514537",
"TW.	c #7C7268",
"UW.	c #736C5F",
"VW.	c #808071",
"WW.	c #8A775F",
"XW.	c #623D1D",
"YW.	c #725130",
"ZW.	c #684625",
"`W.	c #7B572E",
" X.	c #7E5B33",
".X.	c #503617",
"+X.	c #55351B",
"@X.	c #5F452B",
"#X.	c #503215",
"$X.	c #674930",
"%X.	c #482D11",
"&X.	c #7A5F40",
"*X.	c #59452A",
"=X.	c #4F3E2C",
"-X.	c #4C3926",
";X.	c #76604B",
">X.	c #48321D",
",X.	c #574635",
"'X.	c #574634",
")X.	c #604023",
"!X.	c #503118",
"~X.	c #6A4D31",
"{X.	c #90704D",
"]X.	c #60462A",
"^X.	c #6F624D",
"/X.	c #938476",
"(X.	c #AEA59E",
"_X.	c #6C6C60",
":X.	c #6C6356",
"<X.	c #9A948E",
"[X.	c #27180A",
"}X.	c #432C1B",
"|X.	c #5C452D",
"1X.	c #473322",
"2X.	c #3E2A17",
"3X.	c #59412C",
"4X.	c #5B4630",
"5X.	c #54402F",
"6X.	c #56402C",
"7X.	c #847765",
"8X.	c #887D6E",
"9X.	c #7A715E",
"0X.	c #968D7E",
"aX.	c #776A5B",
"bX.	c #908875",
"cX.	c #6A5B48",
"dX.	c #5B5343",
"eX.	c #887E6C",
"fX.	c #5E5141",
"gX.	c #896F51",
"hX.	c #553719",
"iX.	c #603D1E",
"jX.	c #6E4C2B",
"kX.	c #6C4A2A",
"lX.	c #715028",
"mX.	c #7D5A37",
"nX.	c #77542E",
"oX.	c #7A5731",
"pX.	c #775531",
"qX.	c #76522A",
"rX.	c #654527",
"sX.	c #7D6343",
"tX.	c #503A26",
"uX.	c #65543A",
"vX.	c #584636",
"wX.	c #6F6352",
"xX.	c #78705B",
"yX.	c #31281F",
"zX.	c #988F86",
"AX.	c #746C5C",
"BX.	c #787062",
"CX.	c #5D5645",
"DX.	c #3C3428",
"EX.	c #69624E",
"FX.	c #5B4B3B",
"GX.	c #7A6A55",
"HX.	c #776C56",
"IX.	c #5E4E3E",
"JX.	c #7A6D5B",
"KX.	c #645748",
"LX.	c #6B5F4B",
"MX.	c #7B7062",
"NX.	c #504537",
"OX.	c #615649",
"PX.	c #726353",
"QX.	c #655A48",
"RX.	c #4A3C2B",
"SX.	c #574B36",
"TX.	c #74614E",
"UX.	c #715A3D",
"VX.	c #684D35",
"WX.	c #543B24",
"XX.	c #573B23",
"YX.	c #543C28",
"ZX.	c #593E28",
"`X.	c #6F5234",
" Y.	c #502F14",
".Y.	c #654321",
"+Y.	c #654725",
"@Y.	c #644121",
"#Y.	c #68482C",
"$Y.	c #7C5E40",
"%Y.	c #6B4B29",
"&Y.	c #745733",
"*Y.	c #583A1C",
"=Y.	c #6B4D2C",
"-Y.	c #805D35",
";Y.	c #88684A",
">Y.	c #775738",
",Y.	c #5B3E1E",
"'Y.	c #5D3E22",
")Y.	c #4D3218",
"!Y.	c #42260C",
"~Y.	c #4C311A",
"{Y.	c #55371B",
"]Y.	c #674A2C",
"^Y.	c #675136",
"/Y.	c #432E17",
"(Y.	c #3B2C1C",
"_Y.	c #4F4031",
":Y.	c #3C3326",
"<Y.	c #978A75",
"[Y.	c #524232",
"}Y.	c #5E4F3B",
"|Y.	c #605039",
"1Y.	c #5B492F",
"2Y.	c #47311B",
"3Y.	c #4E3A22",
"4Y.	c #513D2B",
"5Y.	c #5C5041",
"6Y.	c #766B5E",
"7Y.	c #786D60",
"8Y.	c #645F4F",
"9Y.	c #4F483A",
"0Y.	c #484433",
"aY.	c #494032",
"bY.	c #6D6757",
"cY.	c #3D3629",
"dY.	c #433828",
"eY.	c #5C5046",
"fY.	c #493E31",
"gY.	c #3E3625",
"hY.	c #5C584A",
"iY.	c #605848",
"jY.	c #B9AA91",
"kY.	c #614024",
"lY.	c #684720",
"mY.	c #765330",
"nY.	c #634225",
"oY.	c #7B5839",
"pY.	c #553618",
"qY.	c #7E5C3B",
"rY.	c #6C4F34",
"sY.	c #54371A",
"tY.	c #593B23",
"uY.	c #644528",
"vY.	c #5A412A",
"wY.	c #795B3C",
"xY.	c #614426",
"yY.	c #563F27",
"zY.	c #856E52",
"AY.	c #61513A",
"BY.	c #6B5C45",
"CY.	c #5E4C3C",
"DY.	c #432E1A",
"EY.	c #715C41",
"FY.	c #453724",
"GY.	c #3C2C1C",
"HY.	c #614322",
"IY.	c #71533B",
"JY.	c #8A8071",
"KY.	c #665F51",
"LY.	c #696961",
"MY.	c #17100D",
"NY.	c #342314",
"OY.	c #2B1D12",
"PY.	c #150F08",
"QY.	c #111211",
"RY.	c #3D2F24",
"SY.	c #463522",
"TY.	c #543F2B",
"UY.	c #4F3A20",
"VY.	c #4C321B",
"WY.	c #5C4632",
"XY.	c #4F3A25",
"YY.	c #493318",
"ZY.	c #503F26",
"`Y.	c #80735A",
" Z.	c #736753",
".Z.	c #877E6F",
"+Z.	c #7D7768",
"@Z.	c #685C4F",
"#Z.	c #5D5444",
"$Z.	c #4D4433",
"%Z.	c #645648",
"&Z.	c #776958",
"*Z.	c #50371C",
"=Z.	c #725434",
"-Z.	c #613D1F",
";Z.	c #674724",
">Z.	c #785634",
",Z.	c #7C5834",
"'Z.	c #886539",
")Z.	c #5C411E",
"!Z.	c #694725",
"~Z.	c #735638",
"{Z.	c #674F35",
"]Z.	c #3E301A",
"^Z.	c #5A4E3A",
"/Z.	c #6F6856",
"(Z.	c #463E31",
"_Z.	c #887F6E",
":Z.	c #807D6D",
"<Z.	c #7B7867",
"[Z.	c #7E7567",
"}Z.	c #423A2B",
"|Z.	c #3E3427",
"1Z.	c #504134",
"2Z.	c #6B5E4D",
"3Z.	c #675D49",
"4Z.	c #726852",
"5Z.	c #7C6F5B",
"6Z.	c #6E6451",
"7Z.	c #766957",
"8Z.	c #6B6251",
"9Z.	c #655A4B",
"0Z.	c #514637",
"aZ.	c #45392B",
"bZ.	c #6C6550",
"cZ.	c #5B5342",
"dZ.	c #45392D",
"eZ.	c #71634F",
"fZ.	c #63513A",
"gZ.	c #5B462B",
"hZ.	c #61462B",
"iZ.	c #62432D",
"jZ.	c #654A2D",
"kZ.	c #60401F",
"lZ.	c #5F4222",
"mZ.	c #6E5136",
"nZ.	c #55391B",
"oZ.	c #68492A",
"pZ.	c #4B2F1A",
"qZ.	c #5C3E26",
"rZ.	c #654829",
"sZ.	c #5E412C",
"tZ.	c #472D17",
"uZ.	c #68482E",
"vZ.	c #644427",
"wZ.	c #5E4227",
"xZ.	c #624527",
"yZ.	c #50331A",
"zZ.	c #59381C",
"AZ.	c #5E462E",
"BZ.	c #54422C",
"CZ.	c #523D29",
"DZ.	c #403629",
"EZ.	c #483C2D",
"FZ.	c #5D5342",
"GZ.	c #3F2F21",
"HZ.	c #503D2D",
"IZ.	c #564936",
"JZ.	c #4C3D29",
"KZ.	c #5A4634",
"LZ.	c #49371F",
"MZ.	c #5A4835",
"NZ.	c #5D4A33",
"OZ.	c #524331",
"PZ.	c #473D34",
"QZ.	c #5C5345",
"RZ.	c #574E3E",
"SZ.	c #50483D",
"TZ.	c #6D6452",
"UZ.	c #645D4E",
"VZ.	c #655A50",
"WZ.	c #807767",
"XZ.	c #6D6555",
"YZ.	c #6F6255",
"ZZ.	c #6F6457",
"`Z.	c #1C170D",
" `.	c #5C5A54",
".`.	c #7F7569",
"+`.	c #847C71",
"@`.	c #563E28",
"#`.	c #5F3D1E",
"$`.	c #70512D",
"%`.	c #52341B",
"&`.	c #57391E",
"*`.	c #AE8A60",
"=`.	c #805B37",
"-`.	c #79593B",
";`.	c #5E4124",
">`.	c #593E23",
",`.	c #6E502D",
"'`.	c #5D3D1D",
")`.	c #583C1D",
"!`.	c #664926",
"~`.	c #6D5032",
"{`.	c #523A21",
"]`.	c #6B583B",
"^`.	c #4E3920",
"/`.	c #543B25",
"(`.	c #563E24",
"_`.	c #53402E",
":`.	c #5D3E1A",
"<`.	c #603D18",
"[`.	c #634526",
"}`.	c #5D3F1F",
"|`.	c #49301C",
"1`.	c #7A5A38",
"2`.	c #5B422A",
"3`.	c #42301F",
"4`.	c #494134",
"5`.	c #79736C",
"6`.	c #140E0A",
"7`.	c #322318",
"8`.	c #4C351B",
"9`.	c #422B17",
"0`.	c #423120",
"a`.	c #392A1E",
"b`.	c #251B10",
"c`.	c #51422E",
"d`.	c #5D432E",
"e`.	c #85684A",
"f`.	c #7E6245",
"g`.	c #483725",
"h`.	c #7A6953",
"i`.	c #6F644E",
"j`.	c #736A59",
"k`.	c #9C9389",
"l`.	c #918B7D",
"m`.	c #5A4F41",
"n`.	c #56493C",
"o`.	c #5A4F3E",
"p`.	c #756854",
"q`.	c #7F715D",
"r`.	c #665540",
"s`.	c #5B4329",
"t`.	c #64482C",
"u`.	c #715031",
"v`.	c #5C3D22",
"w`.	c #916C45",
"x`.	c #704B26",
"y`.	c #74552C",
"z`.	c #593918",
"A`.	c #755638",
"B`.	c #5F4529",
"C`.	c #44331D",
"D`.	c #91826C",
"E`.	c #7C715B",
"F`.	c #7A7362",
"G`.	c #7B7665",
"H`.	c #868070",
"I`.	c #3C362A",
"J`.	c #6C6451",
"K`.	c #847B6B",
"L`.	c #817866",
"M`.	c #625846",
"N`.	c #3F3220",
"O`.	c #675C4A",
"P`.	c #584C37",
"Q`.	c #655545",
"R`.	c #625848",
"S`.	c #615441",
"T`.	c #4F4536",
"U`.	c #887E70",
"V`.	c #6E6254",
"W`.	c #4C4636",
"X`.	c #5C5145",
"Y`.	c #3B3123",
"Z`.	c #624D38",
"``.	c #6F563A",
"  +	c #60462D",
". +	c #6F5136",
"+ +	c #6A4C30",
"@ +	c #5B3E22",
"# +	c #66462B",
"$ +	c #5D3F24",
"% +	c #6F5034",
"& +	c #5C3D21",
"* +	c #563819",
"= +	c #553D28",
"- +	c #7C654A",
"; +	c #846A49",
"> +	c #6F5539",
", +	c #67492B",
"' +	c #614625",
") +	c #785B3B",
"! +	c #674E30",
"~ +	c #4B3016",
"{ +	c #5C3D20",
"] +	c #715539",
"^ +	c #644932",
"/ +	c #5D472D",
"( +	c #58432C",
"_ +	c #584433",
": +	c #56432C",
"< +	c #433526",
"[ +	c #54473A",
"} +	c #625545",
"| +	c #4D4030",
"1 +	c #483827",
"2 +	c #574C3A",
"3 +	c #463827",
"4 +	c #4E412F",
"5 +	c #4D3726",
"6 +	c #4F3D26",
"7 +	c #5E4B36",
"8 +	c #443427",
"9 +	c #4E453B",
"0 +	c #443B33",
"a +	c #807867",
"b +	c #443B2F",
"c +	c #6A5C51",
"d +	c #796F63",
"e +	c #6D6354",
"f +	c #6E6453",
"g +	c #5A5344",
"h +	c #6E6557",
"i +	c #3D3729",
"j +	c #605645",
"k +	c #615444",
"l +	c #46362A",
"m +	c #5D4322",
"n +	c #6E5131",
"o +	c #634527",
"p +	c #684B30",
"q +	c #593D25",
"r +	c #785835",
"s +	c #634625",
"t +	c #5B4226",
"u +	c #7C6045",
"v +	c #52361A",
"w +	c #68492D",
"x +	c #66482E",
"y +	c #492B11",
"z +	c #654A30",
"A +	c #664A2B",
"B +	c #5E422B",
"C +	c #80684E",
"D +	c #4F3A21",
"E +	c #64482E",
"F +	c #503C24",
"G +	c #553C26",
"H +	c #47321D",
"I +	c #6D523A",
"J +	c #5E3E22",
"K +	c #523217",
"L +	c #825D37",
"M +	c #503623",
"N +	c #67523D",
"O +	c #412F1F",
"P +	c #4A341F",
"Q +	c #422D1B",
"R +	c #59422A",
"S +	c #735537",
"T +	c #503922",
"U +	c #4F3820",
"V +	c #3A2815",
"W +	c #301C0E",
"X +	c #735B3E",
"Y +	c #6F5530",
"Z +	c #806241",
"` +	c #60472D",
" .+	c #554028",
"..+	c #736653",
"+.+	c #706452",
"@.+	c #7A6D59",
"#.+	c #665849",
"$.+	c #736859",
"%.+	c #4D443A",
"&.+	c #625E4B",
"*.+	c #817969",
"=.+	c #7E7365",
"-.+	c #817869",
";.+	c #5D513E",
">.+	c #665B46",
",.+	c #5A462A",
"'.+	c #684E2F",
").+	c #5E4426",
"!.+	c #6C4A2B",
"~.+	c #6F4A28",
"{.+	c #7F5E3A",
"].+	c #6E4E2A",
"^.+	c #58391B",
"/.+	c #714F2F",
"(.+	c #60452E",
"_.+	c #5F4827",
":.+	c #47341D",
"<.+	c #5B503F",
"[.+	c #958C83",
"}.+	c #483F2F",
"|.+	c #5E5644",
"1.+	c #8D8171",
"2.+	c #6E6856",
"3.+	c #675E4B",
"4.+	c #918672",
"5.+	c #65594B",
"6.+	c #726758",
"7.+	c #605244",
"8.+	c #615741",
"9.+	c #6D6353",
"0.+	c #655C49",
"a.+	c #695D4F",
"b.+	c #463E2F",
"c.+	c #5B4A37",
"d.+	c #6F6048",
"e.+	c #5D4C37",
"f.+	c #5F4C33",
"g.+	c #553D26",
"h.+	c #4E2F18",
"i.+	c #5D3C1D",
"j.+	c #59361B",
"k.+	c #51341A",
"l.+	c #432B12",
"m.+	c #725536",
"n.+	c #442D15",
"o.+	c #52361C",
"p.+	c #54391D",
"q.+	c #492D18",
"r.+	c #462E1D",
"s.+	c #5A3E22",
"t.+	c #472D11",
"u.+	c #655034",
"v.+	c #735C41",
"w.+	c #816241",
"x.+	c #4F3418",
"y.+	c #62442D",
"z.+	c #6A4E2F",
"A.+	c #61442C",
"B.+	c #69492C",
"C.+	c #56391E",
"D.+	c #745F49",
"E.+	c #4A3C28",
"F.+	c #473928",
"G.+	c #736A57",
"H.+	c #594A3B",
"I.+	c #4D3F2F",
"J.+	c #4F3F2B",
"K.+	c #74634C",
"L.+	c #4D3B2E",
"M.+	c #4B3727",
"N.+	c #594F3E",
"O.+	c #493E2F",
"P.+	c #665C50",
"Q.+	c #766D62",
"R.+	c #51483C",
"S.+	c #352C22",
"T.+	c #554B3B",
"U.+	c #473D2F",
"V.+	c #615849",
"W.+	c #5C5144",
"X.+	c #716C5B",
"Y.+	c #564F42",
"Z.+	c #867C6E",
"`.+	c #484034",
" ++	c #5D5347",
".++	c #4E443A",
"+++	c #635A49",
"@++	c #534437",
"#++	c #17140F",
"$++	c #9C9488",
"%++	c #726860",
"&++	c #87807B",
"*++	c #26190F",
"=++	c #5A4028",
"-++	c #543822",
";++	c #55381D",
">++	c #5D4225",
",++	c #845F39",
"'++	c #5B3A23",
")++	c #715232",
"!++	c #6E4E33",
"~++	c #735539",
"{++	c #573819",
"]++	c #5A3D23",
"^++	c #7F6546",
"/++	c #604A31",
"(++	c #5C4A31",
"_++	c #5E4730",
":++	c #674E36",
"<++	c #563B1E",
"[++	c #4C3925",
"}++	c #442C18",
"|++	c #6B4A2D",
"1++	c #5A3C1D",
"2++	c #6D4E2E",
"3++	c #4A3319",
"4++	c #4A3010",
"5++	c #4D331F",
"6++	c #5C3F22",
"7++	c #462F1A",
"8++	c #4B321C",
"9++	c #4D321E",
"0++	c #5E4026",
"a++	c #664A27",
"b++	c #593F26",
"c++	c #52371F",
"d++	c #634B2F",
"e++	c #6D573D",
"f++	c #493A26",
"g++	c #5D452B",
"h++	c #84694A",
"i++	c #614728",
"j++	c #7C613F",
"k++	c #745D40",
"l++	c #55371C",
"m++	c #523A1A",
"n++	c #594534",
"o++	c #796B56",
"p++	c #7F6E5A",
"q++	c #7E7565",
"r++	c #82796F",
"s++	c #6A6858",
"t++	c #6A6053",
"u++	c #5E5345",
"v++	c #766C5C",
"w++	c #7A705B",
"x++	c #6E5D45",
"y++	c #624C37",
"z++	c #66472E",
"A++	c #503319",
"B++	c #785830",
"C++	c #8E6C47",
"D++	c #765D3C",
"E++	c #5B4128",
"F++	c #6A5840",
"G++	c #382919",
"H++	c #5E4F43",
"I++	c #474032",
"J++	c #8B816F",
"K++	c #69604C",
"L++	c #6B5F4E",
"M++	c #534B3B",
"N++	c #5B523F",
"O++	c #7B6C5B",
"P++	c #504434",
"Q++	c #484131",
"R++	c #7F7462",
"S++	c #413A2C",
"T++	c #595141",
"U++	c #786F60",
"V++	c #4D4637",
"W++	c #5A4D3B",
"X++	c #5B4C37",
"Y++	c #665943",
"Z++	c #867159",
"`++	c #5C4835",
" @+	c #5F3E22",
".@+	c #72522C",
"+@+	c #5B3C1C",
"@@+	c #6F4C2A",
"#@+	c #694F32",
"$@+	c #6B4B2C",
"%@+	c #8A6A44",
"&@+	c #664625",
"*@+	c #583A1F",
"=@+	c #5C4022",
"-@+	c #644B2D",
";@+	c #694930",
">@+	c #3D240D",
",@+	c #604229",
"'@+	c #553C23",
")@+	c #5A3B1E",
"!@+	c #674B26",
"~@+	c #674626",
"{@+	c #5E3F1F",
"]@+	c #5E402C",
"^@+	c #55371A",
"/@+	c #4A2D14",
"(@+	c #53381C",
"_@+	c #58432A",
":@+	c #3E2B18",
"<@+	c #725D4A",
"[@+	c #5C4B38",
"}@+	c #554333",
"|@+	c #3C3223",
"1@+	c #79705E",
"2@+	c #5D5241",
"3@+	c #6F6353",
"4@+	c #514632",
"5@+	c #5B4B34",
"6@+	c #6D5D4D",
"7@+	c #675B4A",
"8@+	c #756A58",
"9@+	c #3E3025",
"0@+	c #65584A",
"a@+	c #4E4635",
"b@+	c #63574B",
"c@+	c #66604F",
"d@+	c #524736",
"e@+	c #655C48",
"f@+	c #696252",
"g@+	c #8A8072",
"h@+	c #64574C",
"i@+	c #49402F",
"j@+	c #4D4232",
"k@+	c #332618",
"l@+	c #6D6E66",
"m@+	c #7E756A",
"n@+	c #797165",
"o@+	c #6A5F52",
"p@+	c #261B11",
"q@+	c #62563E",
"r@+	c #6C5D47",
"s@+	c #705637",
"t@+	c #63482B",
"u@+	c #51351B",
"v@+	c #75573A",
"w@+	c #7C5C39",
"x@+	c #52341C",
"y@+	c #866749",
"z@+	c #7A5C3B",
"A@+	c #6E4D25",
"B@+	c #674C32",
"C@+	c #6A4B31",
"D@+	c #7F5936",
"E@+	c #6F5031",
"F@+	c #56381C",
"G@+	c #5D4125",
"H@+	c #745A41",
"I@+	c #7E694C",
"J@+	c #564127",
"K@+	c #6A513A",
"L@+	c #463520",
"M@+	c #452810",
"N@+	c #59391D",
"O@+	c #66482B",
"P@+	c #563D27",
"Q@+	c #7F603D",
"R@+	c #70502B",
"S@+	c #54381E",
"T@+	c #725330",
"U@+	c #412611",
"V@+	c #5D3F26",
"W@+	c #503821",
"X@+	c #563D29",
"Y@+	c #654626",
"Z@+	c #533516",
"`@+	c #644529",
" #+	c #583C1F",
".#+	c #53371D",
"+#+	c #392312",
"@#+	c #665740",
"##+	c #453621",
"$#+	c #9C8161",
"%#+	c #77593C",
"&#+	c #7A6548",
"*#+	c #735A3A",
"=#+	c #704E2F",
"-#+	c #5D4425",
";#+	c #59462E",
">#+	c #574938",
",#+	c #524434",
"'#+	c #524636",
")#+	c #5A4D3D",
"!#+	c #524738",
"~#+	c #473824",
"{#+	c #685848",
"]#+	c #7D705F",
"^#+	c #947B5B",
"/#+	c #705A3E",
"(#+	c #7D5D3A",
"_#+	c #614226",
":#+	c #4B2D11",
"<#+	c #805C37",
"[#+	c #795A36",
"}#+	c #785A36",
"|#+	c #64492A",
"1#+	c #705132",
"2#+	c #6A533A",
"3#+	c #675942",
"4#+	c #221911",
"5#+	c #817A6E",
"6#+	c #96958B",
"7#+	c #4C413A",
"8#+	c #5D503A",
"9#+	c #6E6552",
"0#+	c #766C58",
"a#+	c #59503A",
"b#+	c #716550",
"c#+	c #5D503F",
"d#+	c #776A57",
"e#+	c #483F2C",
"f#+	c #605849",
"g#+	c #6F6455",
"h#+	c #554C3D",
"i#+	c #60503B",
"j#+	c #615039",
"k#+	c #50361E",
"l#+	c #66451E",
"m#+	c #4B2F13",
"n#+	c #5E4024",
"o#+	c #573A19",
"p#+	c #533614",
"q#+	c #51371A",
"r#+	c #593B1F",
"s#+	c #6D5236",
"t#+	c #563E25",
"u#+	c #4B321B",
"v#+	c #543C22",
"w#+	c #4A2F1B",
"x#+	c #896745",
"y#+	c #7E623C",
"z#+	c #674927",
"A#+	c #694D31",
"B#+	c #6A4E31",
"C#+	c #52351C",
"D#+	c #4D3219",
"E#+	c #5E432B",
"F#+	c #654B2F",
"G#+	c #4C3822",
"H#+	c #543F2C",
"I#+	c #5E4C32",
"J#+	c #4E3A25",
"K#+	c #594937",
"L#+	c #645847",
"M#+	c #726B59",
"N#+	c #4B3E33",
"O#+	c #5C5545",
"P#+	c #64584D",
"Q#+	c #7E7462",
"R#+	c #706351",
"S#+	c #564A3E",
"T#+	c #514B39",
"U#+	c #5B5145",
"V#+	c #5B5141",
"W#+	c #837A6C",
"X#+	c #393324",
"Y#+	c #6B6154",
"Z#+	c #736A5E",
"`#+	c #72685F",
" $+	c #5E5846",
".$+	c #52473A",
"+$+	c #625A49",
"@$+	c #706859",
"#$+	c #7C7360",
"$$+	c #665748",
"%$+	c #675E49",
"&$+	c #362B24",
"*$+	c #60615E",
"=$+	c #756C5B",
"-$+	c #8B827A",
";$+	c #A2978A",
">$+	c #726A59",
",$+	c #999282",
"'$+	c #796149",
")$+	c #5F452D",
"!$+	c #5D4023",
"~$+	c #442D1D",
"{$+	c #9B7953",
"]$+	c #7F5E39",
"^$+	c #775935",
"/$+	c #553716",
"($+	c #755032",
"_$+	c #63462C",
":$+	c #7A6448",
"<$+	c #573F29",
"[$+	c #72573D",
"}$+	c #70543B",
"|$+	c #4F300D",
"1$+	c #7F5E38",
"2$+	c #4F331A",
"3$+	c #765637",
"4$+	c #745431",
"5$+	c #6C4C2D",
"6$+	c #58371D",
"7$+	c #59391A",
"8$+	c #54361A",
"9$+	c #584531",
"0$+	c #4F381E",
"a$+	c #6A4D34",
"b$+	c #61411F",
"c$+	c #694A2A",
"d$+	c #6B4D31",
"e$+	c #5F4F35",
"f$+	c #6B5B43",
"g$+	c #644D33",
"h$+	c #816645",
"i$+	c #74573B",
"j$+	c #5D4426",
"k$+	c #71543B",
"l$+	c #837464",
"m$+	c #665A47",
"n$+	c #695E4A",
"o$+	c #756E5F",
"p$+	c #6A6454",
"q$+	c #8D8576",
"r$+	c #706657",
"s$+	c #605342",
"t$+	c #7A664C",
"u$+	c #6E583A",
"v$+	c #45301B",
"w$+	c #473016",
"x$+	c #64462B",
"y$+	c #694828",
"z$+	c #61401E",
"A$+	c #896A44",
"B$+	c #7C5D3B",
"C$+	c #6D5230",
"D$+	c #614729",
"E$+	c #5D4834",
"F$+	c #594833",
"G$+	c #433224",
"H$+	c #0D0702",
"I$+	c #2B231B",
"J$+	c #60533F",
"K$+	c #625442",
"L$+	c #6F6251",
"M$+	c #7E705D",
"N$+	c #736855",
"O$+	c #766C56",
"P$+	c #6F624F",
"Q$+	c #615542",
"R$+	c #635649",
"S$+	c #655747",
"T$+	c #6B5F4D",
"U$+	c #655B4E",
"V$+	c #3B3228",
"W$+	c #5D4A37",
"X$+	c #73664F",
"Y$+	c #7D7060",
"Z$+	c #473622",
"`$+	c #442A14",
" %+	c #58371A",
".%+	c #624422",
"+%+	c #806142",
"@%+	c #846845",
"#%+	c #523926",
"$%+	c #462E17",
"%%+	c #5C3E21",
"&%+	c #6D5239",
"*%+	c #7E6144",
"=%+	c #7D6447",
"-%+	c #72573A",
";%+	c #452A10",
">%+	c #4E3724",
",%+	c #4D3521",
"'%+	c #665037",
")%+	c #43311D",
"!%+	c #48301E",
"~%+	c #433825",
"{%+	c #766E5F",
"]%+	c #4D4438",
"^%+	c #4D4435",
"/%+	c #564C40",
"(%+	c #847867",
"_%+	c #473A2E",
":%+	c #594D43",
"<%+	c #62594C",
"[%+	c #695E52",
"}%+	c #443A30",
"|%+	c #574D3D",
"1%+	c #6C6455",
"2%+	c #413A2F",
"3%+	c #433C30",
"4%+	c #837E6D",
"5%+	c #746B5B",
"6%+	c #5F5A48",
"7%+	c #7F7563",
"8%+	c #574B38",
"9%+	c #433427",
"0%+	c #30261F",
"a%+	c #716E67",
"b%+	c #716A60",
"c%+	c #5C5143",
"d%+	c #5C5544",
"e%+	c #888176",
"f%+	c #948B7B",
"g%+	c #4B341C",
"h%+	c #4D351E",
"i%+	c #785D3D",
"j%+	c #3D250D",
"k%+	c #583B20",
"l%+	c #997A57",
"m%+	c #684622",
"n%+	c #6F5133",
"o%+	c #4F351B",
"p%+	c #684728",
"q%+	c #5C4227",
"r%+	c #69482F",
"s%+	c #614422",
"t%+	c #836C4F",
"u%+	c #5E4731",
"v%+	c #684F37",
"w%+	c #634D32",
"x%+	c #583F25",
"y%+	c #4A3C2A",
"z%+	c #46311E",
"A%+	c #725638",
"B%+	c #6D4F2D",
"C%+	c #583918",
"D%+	c #7B5934",
"E%+	c #785937",
"F%+	c #6D4E34",
"G%+	c #3D270F",
"H%+	c #74522E",
"I%+	c #70522D",
"J%+	c #5A3F23",
"K%+	c #6C5037",
"L%+	c #827961",
"M%+	c #3A291D",
"N%+	c #593F21",
"O%+	c #8F7355",
"P%+	c #685033",
"Q%+	c #7F6543",
"R%+	c #73593B",
"S%+	c #66513E",
"T%+	c #3D3327",
"U%+	c #50422D",
"V%+	c #5C5142",
"W%+	c #786C5C",
"X%+	c #797360",
"Y%+	c #777060",
"Z%+	c #5B5344",
"`%+	c #847D6D",
" &+	c #59482F",
".&+	c #9C876B",
"+&+	c #786346",
"@&+	c #654A2C",
"#&+	c #806745",
"$&+	c #5D4325",
"%&+	c #7C5F46",
"&&+	c #482D18",
"*&+	c #70512E",
"=&+	c #765734",
"-&+	c #6B4923",
";&+	c #73542F",
">&+	c #4C341E",
",&+	c #705A3D",
"'&+	c #775C42",
")&+	c #68513A",
"!&+	c #4A3923",
"~&+	c #655541",
"{&+	c #3A2E21",
"]&+	c #271D18",
"^&+	c #50473A",
"/&+	c #62503E",
"(&+	c #72624E",
"_&+	c #675845",
":&+	c #7F7361",
"<&+	c #594C39",
"[&+	c #61563F",
"}&+	c #584F3B",
"|&+	c #645848",
"1&+	c #7C725F",
"2&+	c #847F6B",
"3&+	c #675F4C",
"4&+	c #615847",
"5&+	c #4C4234",
"6&+	c #7A6A57",
"7&+	c #564935",
"8&+	c #624B34",
"9&+	c #543B21",
"0&+	c #5E3F21",
"a&+	c #614125",
"b&+	c #76573A",
"c&+	c #6C4D30",
"d&+	c #4B3017",
"e&+	c #604525",
"f&+	c #6B4A2C",
"g&+	c #5D452E",
"h&+	c #5F4631",
"i&+	c #543D20",
"j&+	c #745942",
"k&+	c #664B2E",
"l&+	c #664A2A",
"m&+	c #684A2D",
"n&+	c #513318",
"o&+	c #46301F",
"p&+	c #47311D",
"q&+	c #614F3C",
"r&+	c #64513A",
"s&+	c #554231",
"t&+	c #655A47",
"u&+	c #372C21",
"v&+	c #40382E",
"w&+	c #544C3B",
"x&+	c #51463B",
"y&+	c #71675A",
"z&+	c #4F4036",
"A&+	c #4A4333",
"B&+	c #665F50",
"C&+	c #4D4538",
"D&+	c #6D6356",
"E&+	c #6E6355",
"F&+	c #494035",
"G&+	c #726D5D",
"H&+	c #7B7766",
"I&+	c #5E5447",
"J&+	c #5A4D3F",
"K&+	c #746C59",
"L&+	c #66584C",
"M&+	c #635847",
"N&+	c #685D4D",
"O&+	c #3B3024",
"P&+	c #26231C",
"Q&+	c #717364",
"R&+	c #362E24",
"S&+	c #7D746C",
"T&+	c #ADABA3",
"U&+	c #A8A294",
"V&+	c #54402A",
"W&+	c #5F4933",
"X&+	c #6F5334",
"Y&+	c #513823",
"Z&+	c #473017",
"`&+	c #593A1B",
" *+	c #4F2F16",
".*+	c #5F3D1C",
"+*+	c #6F5431",
"@*+	c #4E3118",
"#*+	c #61452D",
"$*+	c #5B4024",
"%*+	c #7E654A",
"&*+	c #644A2A",
"**+	c #6F5439",
"=*+	c #604224",
"-*+	c #715636",
";*+	c #7A603F",
">*+	c #644B30",
",*+	c #70593E",
"'*+	c #644D34",
")*+	c #5E4A34",
"!*+	c #432E19",
"~*+	c #815F40",
"{*+	c #5E3F27",
"]*+	c #4E341A",
"^*+	c #6D4D32",
"/*+	c #553922",
"(*+	c #553A20",
"_*+	c #5C3D1F",
":*+	c #704D2E",
"<*+	c #4D3821",
"[*+	c #624728",
"}*+	c #714C2A",
"|*+	c #694928",
"1*+	c #5C3E1D",
"2*+	c #6C4D2F",
"3*+	c #65513C",
"4*+	c #3D2F20",
"5*+	c #534331",
"6*+	c #725936",
"7*+	c #755837",
"8*+	c #7C6449",
"9*+	c #635545",
"0*+	c #645340",
"a*+	c #695C4C",
"b*+	c #4B4032",
"c*+	c #6F6659",
"d*+	c #746A5E",
"e*+	c #777564",
"f*+	c #635746",
"g*+	c #52422B",
"h*+	c #7A6043",
"i*+	c #6E563A",
"j*+	c #6B5338",
"k*+	c #8B7150",
"l*+	c #543519",
"m*+	c #63442D",
"n*+	c #6D5234",
"o*+	c #765633",
"p*+	c #745734",
"q*+	c #5E4B33",
"r*+	c #6B4F32",
"s*+	c #8B765A",
"t*+	c #503C29",
"u*+	c #4C3E2E",
"v*+	c #262018",
"w*+	c #736750",
"x*+	c #776B56",
"y*+	c #827762",
"z*+	c #8A7F6A",
"A*+	c #8F8774",
"B*+	c #7E7364",
"C*+	c #776D5F",
"D*+	c #746C5D",
"E*+	c #706254",
"F*+	c #8D8371",
"G*+	c #443928",
"H*+	c #7E6F5D",
"I*+	c #584D39",
"J*+	c #583E29",
"K*+	c #573E2A",
"L*+	c #52391D",
"M*+	c #4C3119",
"N*+	c #593A24",
"O*+	c #4A2A0F",
"P*+	c #58391C",
"Q*+	c #5D442C",
"R*+	c #644830",
"S*+	c #73593C",
"T*+	c #6C5A41",
"U*+	c #61462D",
"V*+	c #634B32",
"W*+	c #765A3A",
"X*+	c #472D15",
"Y*+	c #574029",
"Z*+	c #442D16",
"`*+	c #72573C",
" =+	c #543825",
".=+	c #877C70",
"+=+	c #7A6F5F",
"@=+	c #604F38",
"#=+	c #A39A88",
"$=+	c #474133",
"%=+	c #3B3226",
"&=+	c #322921",
"*=+	c #6D6455",
"==+	c #43392E",
"-=+	c #393425",
";=+	c #5E5547",
">=+	c #4D443B",
",=+	c #6D6553",
"'=+	c #7F7769",
")=+	c #756C5D",
"!=+	c #574B3D",
"~=+	c #534D3E",
"{=+	c #5F5242",
"]=+	c #52463B",
"^=+	c #453A28",
"/=+	c #564B3F",
"(=+	c #615845",
"_=+	c #42382F",
":=+	c #5E533F",
"<=+	c #443728",
"[=+	c #413329",
"}=+	c #170F07",
"|=+	c #757471",
"1=+	c #8E8A84",
"2=+	c #57432B",
"3=+	c #503926",
"4=+	c #543820",
"5=+	c #583718",
"6=+	c #6C4A27",
"7=+	c #8B6F49",
"8=+	c #5C4026",
"9=+	c #5D4122",
"0=+	c #805F3F",
"a=+	c #6E5434",
"b=+	c #644B32",
"c=+	c #67492A",
"d=+	c #5E472D",
"e=+	c #543C1D",
"f=+	c #6E5533",
"g=+	c #513C24",
"h=+	c #785A39",
"i=+	c #795736",
"j=+	c #674627",
"k=+	c #482D0E",
"l=+	c #734F29",
"m=+	c #624127",
"n=+	c #724F2A",
"o=+	c #775B40",
"p=+	c #7C5D37",
"q=+	c #84623C",
"r=+	c #483019",
"s=+	c #3B2D1D",
"t=+	c #2E1E0D",
"u=+	c #4F3F30",
"v=+	c #684E2C",
"w=+	c #836644",
"x=+	c #654C31",
"y=+	c #6B5B47",
"z=+	c #716551",
"A=+	c #615747",
"B=+	c #453B30",
"C=+	c #847A6F",
"D=+	c #4A4031",
"E=+	c #443523",
"F=+	c #624C34",
"G=+	c #5C462E",
"H=+	c #6B503A",
"I=+	c #7C5F3A",
"J=+	c #66431E",
"K=+	c #6D4C2F",
"L=+	c #6C4B29",
"M=+	c #745430",
"N=+	c #82674B",
"O=+	c #614931",
"P=+	c #604E34",
"Q=+	c #5D4C35",
"R=+	c #675132",
"S=+	c #503C28",
"T=+	c #533F29",
"U=+	c #70593B",
"V=+	c #453422",
"W=+	c #565040",
"X=+	c #756A56",
"Y=+	c #918674",
"Z=+	c #706754",
"`=+	c #62574A",
" -+	c #5D5341",
".-+	c #6D6250",
"+-+	c #63594A",
"@-+	c #806E57",
"#-+	c #62472F",
"$-+	c #75563B",
"%-+	c #77593E",
"&-+	c #493018",
"*-+	c #513620",
"=-+	c #594028",
"--+	c #412D1A",
";-+	c #5B4124",
">-+	c #7A5837",
",-+	c #5B3E24",
"'-+	c #594328",
")-+	c #5B422B",
"!-+	c #5C4429",
"~-+	c #5A4730",
"{-+	c #846B4B",
"]-+	c #66503A",
"^-+	c #71563D",
"/-+	c #6A4F33",
"(-+	c #50331B",
"_-+	c #684C2D",
":-+	c #543B23",
"<-+	c #402918",
"[-+	c #82694A",
"}-+	c #725335",
"|-+	c #594021",
"1-+	c #462D14",
"2-+	c #433325",
"3-+	c #534E3E",
"4-+	c #3F3227",
"5-+	c #483E35",
"6-+	c #463E33",
"7-+	c #726A5C",
"8-+	c #504639",
"9-+	c #73695C",
"0-+	c #5E5448",
"a-+	c #51483B",
"b-+	c #60564E",
"c-+	c #7B7261",
"d-+	c #625749",
"e-+	c #66584A",
"f-+	c #574F3F",
"g-+	c #41382C",
"h-+	c #6E5F49",
"i-+	c #4D402D",
"j-+	c #463F2E",
"k-+	c #504435",
"l-+	c #534636",
"m-+	c #534938",
"n-+	c #514734",
"o-+	c #48392B",
"p-+	c #362A1E",
"q-+	c #4B3829",
"r-+	c #3E281D",
"s-+	c #86755B",
"t-+	c #685642",
"u-+	c #75614A",
"v-+	c #836C50",
"w-+	c #674B2A",
"x-+	c #74583E",
"y-+	c #4B2F15",
"z-+	c #7D6047",
"A-+	c #745530",
"B-+	c #816044",
"C-+	c #644E36",
"D-+	c #5D4121",
"E-+	c #694B2A",
"F-+	c #4B2C12",
"G-+	c #5F462D",
"H-+	c #654C2F",
"I-+	c #85654C",
"J-+	c #5C4325",
"K-+	c #765B3E",
"L-+	c #5C432A",
"M-+	c #684D31",
"N-+	c #5D3F20",
"O-+	c #7A532C",
"P-+	c #76532B",
"Q-+	c #63441F",
"R-+	c #876338",
"S-+	c #835D35",
"T-+	c #5E3F23",
"U-+	c #51361E",
"V-+	c #5A412C",
"W-+	c #59391F",
"X-+	c #6A4A29",
"Y-+	c #85623C",
"Z-+	c #846548",
"`-+	c #755639",
" ;+	c #443524",
".;+	c #736042",
"+;+	c #695433",
"@;+	c #856A49",
"#;+	c #583E21",
"$;+	c #6D583B",
"%;+	c #472E12",
"&;+	c #7B603F",
"*;+	c #876845",
"=;+	c #5D4730",
"-;+	c #32271D",
";;+	c #69533D",
">;+	c #735E44",
",;+	c #695B47",
"';+	c #7E755F",
");+	c #675F4F",
"!;+	c #7C7567",
"~;+	c #87775F",
"{;+	c #7B654B",
"];+	c #62462A",
"^;+	c #5F4128",
"/;+	c #856541",
"(;+	c #755532",
"_;+	c #81613D",
":;+	c #614320",
"<;+	c #543414",
"[;+	c #5B3C1F",
"};+	c #765631",
"|;+	c #7C6141",
"1;+	c #74583D",
"2;+	c #786147",
"3;+	c #6A513B",
"4;+	c #7D674F",
"5;+	c #745E3F",
"6;+	c #624B32",
"7;+	c #513F26",
"8;+	c #504230",
"9;+	c #6E6151",
"0;+	c #736A54",
"a;+	c #6E6150",
"b;+	c #766854",
"c;+	c #7B7662",
"d;+	c #50493D",
"e;+	c #675F50",
"f;+	c #726859",
"g;+	c #6C5D4E",
"h;+	c #554837",
"i;+	c #59452B",
"j;+	c #785B39",
"k;+	c #7D5E39",
"l;+	c #533C1D",
"m;+	c #62452B",
"n;+	c #49331E",
"o;+	c #5F432D",
"p;+	c #5D3D21",
"q;+	c #795D3D",
"r;+	c #563E26",
"s;+	c #624C35",
"t;+	c #5A432A",
"u;+	c #6E5032",
"v;+	c #583B21",
"w;+	c #604429",
"x;+	c #614A2D",
"y;+	c #86684B",
"z;+	c #63462D",
"A;+	c #543A23",
"B;+	c #674D34",
"C;+	c #746C5F",
"D;+	c #40352A",
"E;+	c #3B3427",
"F;+	c #4D473A",
"G;+	c #564D3E",
"H;+	c #52493C",
"I;+	c #4C4434",
"J;+	c #473D36",
"K;+	c #7A7061",
"L;+	c #61584C",
"M;+	c #5C5346",
"N;+	c #514A3A",
"O;+	c #847B6C",
"P;+	c #594C3F",
"Q;+	c #5F4E3C",
"R;+	c #403423",
"S;+	c #594C38",
"T;+	c #5E5645",
"U;+	c #53473A",
"V;+	c #7F7E76",
"W;+	c #838371",
"X;+	c #6F6557",
"Y;+	c #57534D",
"Z;+	c #271B10",
"`;+	c #342512",
" >+	c #56432F",
".>+	c #473325",
"+>+	c #4D3B23",
"@>+	c #5F4F39",
"#>+	c #4F3A27",
"$>+	c #5A4329",
"%>+	c #583D21",
"&>+	c #593A20",
"*>+	c #7B5C39",
"=>+	c #69482B",
"->+	c #7B5B3C",
";>+	c #6A503A",
">>+	c #664C36",
",>+	c #654625",
"'>+	c #7F6248",
")>+	c #7B5E44",
"!>+	c #5D442B",
"~>+	c #6A5034",
"{>+	c #5F442A",
"]>+	c #896C48",
"^>+	c #A0815B",
"/>+	c #775A3F",
"(>+	c #735733",
"_>+	c #7B5635",
":>+	c #523519",
"<>+	c #74522A",
"[>+	c #6E4823",
"}>+	c #7C5934",
"|>+	c #624222",
"1>+	c #6A481F",
"2>+	c #7C5A33",
"3>+	c #825F37",
"4>+	c #8C6843",
"5>+	c #49361F",
"6>+	c #583F26",
"7>+	c #614626",
"8>+	c #503C27",
"9>+	c #3A2A19",
"0>+	c #544634",
"a>+	c #6E5438",
"b>+	c #705536",
"c>+	c #755B3E",
"d>+	c #7A6147",
"e>+	c #7B5E3C",
"f>+	c #6C5234",
"g>+	c #6E5E48",
"h>+	c #70604D",
"i>+	c #5C4C36",
"j>+	c #7A6549",
"k>+	c #61553F",
"l>+	c #5C5444",
"m>+	c #746B60",
"n>+	c #84786B",
"o>+	c #645239",
"p>+	c #664E2D",
"q>+	c #543B22",
"r>+	c #523413",
"s>+	c #664523",
"t>+	c #72522E",
"u>+	c #896846",
"v>+	c #6D4F2C",
"w>+	c #6F5337",
"x>+	c #5A4129",
"y>+	c #442E19",
"z>+	c #6B5038",
"A>+	c #50381F",
"B>+	c #69543D",
"C>+	c #514432",
"D>+	c #312A20",
"E>+	c #847C6E",
"F>+	c #9B9383",
"G>+	c #554D3B",
"H>+	c #847C70",
"I>+	c #9E9988",
"J>+	c #716959",
"K>+	c #65604D",
"L>+	c #62584B",
"M>+	c #8C8372",
"N>+	c #746B58",
"O>+	c #665D4E",
"P>+	c #544533",
"Q>+	c #7E6C51",
"R>+	c #4D3927",
"S>+	c #795B3A",
"T>+	c #6A5134",
"U>+	c #74583A",
"V>+	c #785B3C",
"W>+	c #725D45",
"X>+	c #705335",
"Y>+	c #816447",
"Z>+	c #56402A",
"`>+	c #6B5235",
" ,+	c #4B351F",
".,+	c #503A1E",
"+,+	c #5F482A",
"@,+	c #5F4830",
"#,+	c #49311B",
"$,+	c #5F4528",
"%,+	c #654B31",
"&,+	c #523818",
"*,+	c #452E19",
"=,+	c #5E4122",
"-,+	c #776046",
";,+	c #766048",
">,+	c #5D523C",
",,+	c #494436",
"',+	c #393027",
"),+	c #574E3F",
"!,+	c #5B5047",
"~,+	c #544D3D",
"{,+	c #635A4C",
"],+	c #5A5342",
"^,+	c #5B5446",
"/,+	c #39322A",
"(,+	c #7F7566",
"_,+	c #5E5848",
":,+	c #483C2A",
"<,+	c #594C3A",
"[,+	c #67543F",
"},+	c #52442F",
"|,+	c #6B5D47",
"1,+	c #74634F",
"2,+	c #716452",
"3,+	c #504432",
"4,+	c #5C503F",
"5,+	c #433625",
"6,+	c #403327",
"7,+	c #231E1A",
"8,+	c #746B62",
"9,+	c #524737",
"0,+	c #453622",
"a,+	c #463322",
"b,+	c #463620",
"c,+	c #4A3725",
"d,+	c #56422A",
"e,+	c #604527",
"f,+	c #59401F",
"g,+	c #553C22",
"h,+	c #6F543A",
"i,+	c #5B4428",
"j,+	c #785C42",
"k,+	c #7E664B",
"l,+	c #5B452B",
"m,+	c #6B4C34",
"n,+	c #4C331C",
"o,+	c #6E5238",
"p,+	c #604A2F",
"q,+	c #644930",
"r,+	c #5F4730",
"s,+	c #45321D",
"t,+	c #6A5138",
"u,+	c #795A39",
"v,+	c #684520",
"w,+	c #81603C",
"x,+	c #866A46",
"y,+	c #7F5C3B",
"z,+	c #634321",
"A,+	c #77522C",
"B,+	c #85623F",
"C,+	c #6C4520",
"D,+	c #84633C",
"E,+	c #714C2C",
"F,+	c #7B593A",
"G,+	c #6C4B2A",
"H,+	c #5F4326",
"I,+	c #5F432E",
"J,+	c #5E4326",
"K,+	c #573A1E",
"L,+	c #4A2C12",
"M,+	c #45321F",
"N,+	c #674B33",
"O,+	c #5B4025",
"P,+	c #4E361E",
"Q,+	c #5D4931",
"R,+	c #3C2B19",
"S,+	c #463627",
"T,+	c #7A6244",
"U,+	c #8F7655",
"V,+	c #765F44",
"W,+	c #644B2E",
"X,+	c #5E4525",
"Y,+	c #927451",
"Z,+	c #765836",
"`,+	c #6F543B",
" '+	c #533F2C",
".'+	c #644F36",
"+'+	c #79654E",
"@'+	c #756A59",
"#'+	c #544B3F",
"$'+	c #786E60",
"%'+	c #7D6E5A",
"&'+	c #766348",
"*'+	c #A79476",
"='+	c #896D44",
"-'+	c #815F37",
";'+	c #563414",
">'+	c #A07A52",
",'+	c #58381D",
"''+	c #70502F",
")'+	c #806143",
"!'+	c #674B30",
"~'+	c #705538",
"{'+	c #544027",
"]'+	c #412B1A",
"^'+	c #513D2A",
"/'+	c #503B23",
"('+	c #67523C",
"_'+	c #3E3226",
":'+	c #877D78",
"<'+	c #68685A",
"['+	c #92887D",
"}'+	c #554B3E",
"|'+	c #564E3C",
"1'+	c #857B6E",
"2'+	c #675D54",
"3'+	c #7A7263",
"4'+	c #7A6D61",
"5'+	c #4A3B29",
"6'+	c #402E1C",
"7'+	c #554431",
"8'+	c #877964",
"9'+	c #41311A",
"0'+	c #644D37",
"a'+	c #664425",
"b'+	c #725235",
"c'+	c #85694D",
"d'+	c #6B4F36",
"e'+	c #705336",
"f'+	c #674B2C",
"g'+	c #412914",
"h'+	c #352112",
"i'+	c #74553C",
"j'+	c #785D44",
"k'+	c #674E2F",
"l'+	c #4C3B22",
"m'+	c #604A34",
"n'+	c #4F381D",
"o'+	c #644A2B",
"p'+	c #4C3723",
"q'+	c #674C2D",
"r'+	c #583A1E",
"s'+	c #6F553C",
"t'+	c #3D2715",
"u'+	c #52402F",
"v'+	c #60482A",
"w'+	c #4D3B25",
"x'+	c #53442D",
"y'+	c #676151",
"z'+	c #776D62",
"A'+	c #554B44",
"B'+	c #5D5449",
"C'+	c #5D5545",
"D'+	c #695E4E",
"E'+	c #5F584A",
"F'+	c #3F3523",
"G'+	c #2A241B",
"H'+	c #322A1D",
"I'+	c #2D261A",
"J'+	c #4F4735",
"K'+	c #564833",
"L'+	c #5C4C39",
"M'+	c #5A4D39",
"N'+	c #52422F",
"O'+	c #6E624E",
"P'+	c #5C4E3D",
"Q'+	c #493C2D",
"R'+	c #645647",
"S'+	c #4E3E33",
"T'+	c #41362B",
"U'+	c #7E756C",
"V'+	c #5D5647",
"W'+	c #564F43",
"X'+	c #1E160F",
"Y'+	c #453520",
"Z'+	c #483420",
"`'+	c #6A5240",
" )+	c #46331E",
".)+	c #4D3B2C",
"+)+	c #60442C",
"@)+	c #8C6E4F",
"#)+	c #60472E",
"$)+	c #603F21",
"%)+	c #5B432D",
"&)+	c #745C3D",
"*)+	c #6A4E2E",
"=)+	c #65482A",
"-)+	c #574020",
";)+	c #6D5339",
">)+	c #886F4F",
",)+	c #644C30",
"')+	c #57402A",
"))+	c #765A39",
"!)+	c #6D5434",
"~)+	c #5A3C21",
"{)+	c #4F310F",
"])+	c #67472B",
"^)+	c #6F4822",
"/)+	c #785939",
"()+	c #664321",
"_)+	c #603D1C",
":)+	c #7D5A39",
"<)+	c #704D2D",
"[)+	c #684627",
"})+	c #725835",
"|)+	c #765B3A",
"1)+	c #785B37",
"2)+	c #6F5230",
"3)+	c #513A1D",
"4)+	c #54422A",
"5)+	c #4B3B29",
"6)+	c #6B573E",
"7)+	c #74573A",
"8)+	c #6E5233",
"9)+	c #8C6D4D",
"0)+	c #5C4125",
"a)+	c #7C6243",
"b)+	c #5E503D",
"c)+	c #7F7864",
"d)+	c #72695B",
"e)+	c #58523F",
"f)+	c #968468",
"g)+	c #8C7657",
"h)+	c #998360",
"i)+	c #795D39",
"j)+	c #644325",
"k)+	c #6B4C2E",
"l)+	c #5D401F",
"m)+	c #644829",
"n)+	c #5D472B",
"o)+	c #513E29",
"p)+	c #5C472E",
"q)+	c #806E56",
"r)+	c #4F3B29",
"s)+	c #1C140B",
"t)+	c #4C4639",
"u)+	c #949283",
"v)+	c #615A49",
"w)+	c #868270",
"x)+	c #7E746A",
"y)+	c #655E49",
"z)+	c #8F7556",
"A)+	c #5A3E1F",
"B)+	c #7A6042",
"C)+	c #54432D",
"D)+	c #614C35",
"E)+	c #4E361D",
"F)+	c #6F532E",
"G)+	c #513B1F",
"H)+	c #694A27",
"I)+	c #705233",
"J)+	c #4C3319",
"K)+	c #5C4027",
"L)+	c #63452D",
"M)+	c #6E5132",
"N)+	c #6E5236",
"O)+	c #4D3925",
"P)+	c #735C46",
"Q)+	c #564125",
"R)+	c #69543A",
"S)+	c #665139",
"T)+	c #5B4125",
"U)+	c #482E16",
"V)+	c #4A3720",
"W)+	c #41311C",
"X)+	c #664D31",
"Y)+	c #4D3A20",
"Z)+	c #6E593E",
"`)+	c #6D6659",
" !+	c #5B5248",
".!+	c #4E4237",
"+!+	c #4B3F34",
"@!+	c #4C412F",
"#!+	c #635A4A",
"$!+	c #5F5748",
"%!+	c #2E261E",
"&!+	c #29231C",
"*!+	c #44382C",
"=!+	c #6F645D",
"-!+	c #31251A",
";!+	c #655643",
">!+	c #786853",
",!+	c #503F2A",
"'!+	c #564738",
")!+	c #46392B",
"!!+	c #4F4533",
"~!+	c #47392D",
"{!+	c #5A4C3C",
"]!+	c #1F140B",
"^!+	c #523D28",
"/!+	c #553B22",
"(!+	c #412E1E",
"_!+	c #5D4531",
":!+	c #3D240E",
"<!+	c #624932",
"[!+	c #5A4630",
"}!+	c #5D482F",
"|!+	c #5F4429",
"1!+	c #654B2C",
"2!+	c #684C2B",
"3!+	c #6B4F34",
"4!+	c #53371E",
"5!+	c #715A43",
"6!+	c #5B4328",
"7!+	c #6E573E",
"8!+	c #856E4F",
"9!+	c #836643",
"0!+	c #715637",
"a!+	c #73573D",
"b!+	c #68502F",
"c!+	c #4D3420",
"d!+	c #56422B",
"e!+	c #6F593F",
"f!+	c #644525",
"g!+	c #5A3B18",
"h!+	c #563A17",
"i!+	c #613E1F",
"j!+	c #5D3E21",
"k!+	c #513111",
"l!+	c #72532F",
"m!+	c #573A21",
"n!+	c #583B19",
"o!+	c #75573C",
"p!+	c #47321A",
"q!+	c #593D23",
"r!+	c #5E5036",
"s!+	c #423425",
"t!+	c #5A442A",
"u!+	c #503D29",
"v!+	c #997F5D",
"w!+	c #5C3E1E",
"x!+	c #4F3922",
"y!+	c #795C3C",
"z!+	c #6E5F4A",
"A!+	c #827B67",
"B!+	c #797462",
"C!+	c #777061",
"D!+	c #494335",
"E!+	c #615035",
"F!+	c #6A533D",
"G!+	c #755D40",
"H!+	c #9A7F5F",
"I!+	c #8A6C4A",
"J!+	c #63442B",
"K!+	c #573C18",
"L!+	c #5A3F24",
"M!+	c #624528",
"N!+	c #604427",
"O!+	c #8F7351",
"P!+	c #72583C",
"Q!+	c #5D462A",
"R!+	c #614C32",
"S!+	c #4B3522",
"T!+	c #5F482F",
"U!+	c #584228",
"V!+	c #68543A",
"W!+	c #68543E",
"X!+	c #725E4A",
"Y!+	c #2A2318",
"Z!+	c #3A2D20",
"`!+	c #0F0C06",
" ~+	c #60584E",
".~+	c #797160",
"+~+	c #686153",
"@~+	c #5F5949",
"#~+	c #6B5B4D",
"$~+	c #513A24",
"%~+	c #7C6446",
"&~+	c #694E2D",
"*~+	c #6D5233",
"=~+	c #816443",
"-~+	c #5D4227",
";~+	c #775D40",
">~+	c #6A4F2F",
",~+	c #654A2F",
"'~+	c #533B22",
")~+	c #483117",
"!~+	c #4D3519",
"~~+	c #7B5D3E",
"{~+	c #564129",
"]~+	c #6F5A45",
"^~+	c #6F553B",
"/~+	c #57452E",
"(~+	c #60472A",
"_~+	c #5B4027",
":~+	c #472F19",
"<~+	c #5A483A",
"[~+	c #57442D",
"}~+	c #857258",
"|~+	c #4E4330",
"1~+	c #363024",
"2~+	c #423D31",
"3~+	c #584F42",
"4~+	c #473C30",
"5~+	c #504539",
"6~+	c #483D30",
"7~+	c #33291B",
"8~+	c #5B5044",
"9~+	c #514838",
"0~+	c #3F362B",
"a~+	c #706959",
"b~+	c #53493A",
"c~+	c #3C3127",
"d~+	c #837869",
"e~+	c #50493A",
"f~+	c #61573E",
"g~+	c #5E513E",
"h~+	c #625342",
"i~+	c #463825",
"j~+	c #73624E",
"k~+	c #605440",
"l~+	c #3D2F21",
"m~+	c #463E2D",
"n~+	c #23221F",
"o~+	c #686762",
"p~+	c #432E1C",
"q~+	c #503720",
"r~+	c #47341F",
"s~+	c #58432B",
"t~+	c #5B482F",
"u~+	c #584230",
"v~+	c #4D371C",
"w~+	c #5A4124",
"x~+	c #593C1B",
"y~+	c #604221",
"z~+	c #6E512D",
"A~+	c #4C361F",
"B~+	c #735D41",
"C~+	c #6A5235",
"D~+	c #60482E",
"E~+	c #5F462F",
"F~+	c #533B20",
"G~+	c #8A6B4A",
"H~+	c #674A2F",
"I~+	c #98795B",
"J~+	c #664C2D",
"K~+	c #755838",
"L~+	c #755A37",
"M~+	c #735E46",
"N~+	c #6F5B47",
"O~+	c #604F3B",
"P~+	c #5B4B38",
"Q~+	c #3D2814",
"R~+	c #5B3F23",
"S~+	c #51371B",
"T~+	c #462D18",
"U~+	c #4F321B",
"V~+	c #3F2B18",
"W~+	c #6A4B2A",
"X~+	c #674421",
"Y~+	c #593D20",
"Z~+	c #5A3D1B",
"`~+	c #6D4D30",
" {+	c #5A412D",
".{+	c #735939",
"+{+	c #593B24",
"@{+	c #412A16",
"#{+	c #4E351E",
"${+	c #362C1F",
"%{+	c #3F2A16",
"&{+	c #6B5636",
"*{+	c #6D543A",
"={+	c #896C49",
"-{+	c #80674A",
";{+	c #775C3A",
">{+	c #594F41",
",{+	c #65573E",
"'{+	c #87724E",
"){+	c #795B35",
"!{+	c #6E4B28",
"~{+	c #745535",
"{{+	c #361F09",
"]{+	c #533920",
"^{+	c #795C3D",
"/{+	c #694C2C",
"({+	c #907352",
"_{+	c #7C6343",
":{+	c #80694D",
"<{+	c #6F5B41",
"[{+	c #7C6348",
"}{+	c #74624B",
"|{+	c #705E46",
"1{+	c #433324",
"2{+	c #1B1A15",
"3{+	c #979586",
"4{+	c #4A4139",
"5{+	c #6F6757",
"6{+	c #2A251B",
"7{+	c #3E3422",
"8{+	c #785F47",
"9{+	c #71532E",
"0{+	c #684928",
"a{+	c #715837",
"b{+	c #614A2C",
"c{+	c #3C2814",
"d{+	c #856548",
"e{+	c #886944",
"f{+	c #553F27",
"g{+	c #775B3C",
"h{+	c #482E18",
"i{+	c #6C543A",
"j{+	c #5B3B1D",
"k{+	c #685030",
"l{+	c #4A341A",
"m{+	c #6C5232",
"n{+	c #5E472B",
"o{+	c #46331D",
"p{+	c #4D3A24",
"q{+	c #52432D",
"r{+	c #4B3B28",
"s{+	c #604A37",
"t{+	c #574025",
"u{+	c #5C3F25",
"v{+	c #5E462A",
"w{+	c #6F614E",
"x{+	c #676453",
"y{+	c #342F25",
"z{+	c #766D61",
"A{+	c #61594A",
"B{+	c #645A4C",
"C{+	c #3D3329",
"D{+	c #4B4031",
"E{+	c #42372E",
"F{+	c #6F6556",
"G{+	c #3D3225",
"H{+	c #5A5140",
"I{+	c #463D31",
"J{+	c #3B342A",
"K{+	c #564D41",
"L{+	c #51473A",
"M{+	c #5D5445",
"N{+	c #716855",
"O{+	c #463829",
"P{+	c #5F5345",
"Q{+	c #675A48",
"R{+	c #645543",
"S{+	c #50412F",
"T{+	c #645845",
"U{+	c #4D3C2C",
"V{+	c #5D4D3B",
"W{+	c #746350",
"X{+	c #655745",
"Y{+	c #524335",
"Z{+	c #4A3D2C",
"`{+	c #766A5E",
" ]+	c #7A6F60",
".]+	c #4A3119",
"+]+	c #291B10",
"@]+	c #342717",
"#]+	c #544333",
"$]+	c #4E3820",
"%]+	c #553F26",
"&]+	c #5F452F",
"*]+	c #4C3218",
"=]+	c #4A3421",
"-]+	c #6D5945",
";]+	c #463015",
">]+	c #5F472C",
",]+	c #583917",
"']+	c #6C5031",
")]+	c #5F4227",
"!]+	c #8C7454",
"~]+	c #826648",
"{]+	c #644724",
"]]+	c #5F4121",
"^]+	c #5B3D1C",
"/]+	c #826543",
"(]+	c #5A472F",
"_]+	c #645A45",
":]+	c #615446",
"<]+	c #675847",
"[]+	c #4F3921",
"}]+	c #4A3322",
"|]+	c #4F3823",
"1]+	c #49301E",
"2]+	c #422A11",
"3]+	c #785833",
"4]+	c #533314",
"5]+	c #5D4021",
"6]+	c #4E3119",
"7]+	c #593A1D",
"8]+	c #6B4F2F",
"9]+	c #896A45",
"0]+	c #7B5F42",
"a]+	c #5F4522",
"b]+	c #796548",
"c]+	c #5F4527",
"d]+	c #695234",
"e]+	c #583B1A",
"f]+	c #483116",
"g]+	c #60462F",
"h]+	c #7A624A",
"i]+	c #423629",
"j]+	c #6C6C5B",
"k]+	c #686152",
"l]+	c #624B36",
"m]+	c #6E5439",
"n]+	c #755A36",
"o]+	c #725230",
"p]+	c #664621",
"q]+	c #7F5F3D",
"r]+	c #7E5D3A",
"s]+	c #553D22",
"t]+	c #503A21",
"u]+	c #7A5A3A",
"v]+	c #66492B",
"w]+	c #685133",
"x]+	c #684E35",
"y]+	c #746149",
"z]+	c #5C4831",
"A]+	c #827257",
"B]+	c #62543E",
"C]+	c #4F3D2A",
"D]+	c #635E4D",
"E]+	c #635E4C",
"F]+	c #AFA393",
"G]+	c #544531",
"H]+	c #6D5942",
"I]+	c #513D25",
"J]+	c #664C2F",
"K]+	c #453220",
"L]+	c #82684A",
"M]+	c #503A23",
"N]+	c #634932",
"O]+	c #6A4D2F",
"P]+	c #61462A",
"Q]+	c #765632",
"R]+	c #694B2D",
"S]+	c #51412E",
"T]+	c #6E5A3F",
"U]+	c #4A3D2B",
"V]+	c #564130",
"W]+	c #533D20",
"X]+	c #553B1D",
"Y]+	c #786F66",
"Z]+	c #2D2A21",
"`]+	c #4A3D35",
" ^+	c #3E362A",
".^+	c #4C4438",
"+^+	c #4D493A",
"@^+	c #62564C",
"#^+	c #52473B",
"$^+	c #594F43",
"%^+	c #41392F",
"&^+	c #5F5445",
"*^+	c #403B2C",
"=^+	c #504437",
"-^+	c #443931",
";^+	c #484133",
">^+	c #443626",
",^+	c #4A3E2F",
"'^+	c #413425",
")^+	c #413325",
"!^+	c #64553E",
"~^+	c #413427",
"{^+	c #5E4F3D",
"]^+	c #3D3123",
"^^+	c #373734",
"/^+	c #53483C",
"(^+	c #5C5040",
"_^+	c #5A513F",
":^+	c #3F301F",
"<^+	c #2B2015",
"[^+	c #22160E",
"}^+	c #453B2D",
"|^+	c #4E3B23",
"1^+	c #5F4B30",
"2^+	c #5D4A38",
"3^+	c #4D3F2A",
"4^+	c #564432",
"5^+	c #4D3620",
"6^+	c #5A452C",
"7^+	c #47321C",
"8^+	c #442B10",
"9^+	c #5F4831",
"0^+	c #846950",
"a^+	c #5B3E1C",
"b^+	c #654525",
"c^+	c #634728",
"d^+	c #4B3315",
"e^+	c #644726",
"f^+	c #4F3E28",
"g^+	c #776040",
"h^+	c #896F4D",
"i^+	c #74522D",
"j^+	c #664E2B",
"k^+	c #61472A",
"l^+	c #5F452A",
"m^+	c #54442E",
"n^+	c #847763",
"o^+	c #736556",
"p^+	c #5F472F",
"q^+	c #5E442C",
"r^+	c #51351A",
"s^+	c #533922",
"t^+	c #69472A",
"u^+	c #6F4D2A",
"v^+	c #734F28",
"w^+	c #735030",
"x^+	c #5E4129",
"y^+	c #654C32",
"z^+	c #514032",
"A^+	c #4F3A23",
"B^+	c #98846B",
"C^+	c #999082",
"D^+	c #3E3123",
"E^+	c #493A28",
"F^+	c #70573E",
"G^+	c #6E573B",
"H^+	c #705232",
"I^+	c #644727",
"J^+	c #795F43",
"K^+	c #725C3E",
"L^+	c #6B563C",
"M^+	c #32312D",
"N^+	c #878272",
"O^+	c #9B9385",
"P^+	c #5B4734",
"Q^+	c #492C0C",
"R^+	c #9B7952",
"S^+	c #795A31",
"T^+	c #5F4422",
"U^+	c #5A4021",
"V^+	c #5B3E26",
"W^+	c #4C3217",
"X^+	c #856C4A",
"Y^+	c #6D563B",
"Z^+	c #6E5D3E",
"`^+	c #6E5D40",
" /+	c #7B644B",
"./+	c #5E4B31",
"+/+	c #6F563D",
"@/+	c #5D4A34",
"#/+	c #846E54",
"$/+	c #604B31",
"%/+	c #575042",
"&/+	c #787063",
"*/+	c #827D6E",
"=/+	c #787060",
"-/+	c #756652",
";/+	c #483526",
">/+	c #3F280C",
",/+	c #715533",
"'/+	c #6B4E28",
")/+	c #4F3723",
"!/+	c #513314",
"~/+	c #432B1A",
"{/+	c #58422C",
"]/+	c #61462C",
"^/+	c #664E35",
"//+	c #6F593E",
"(/+	c #886C4B",
"_/+	c #6F5134",
":/+	c #674A2E",
"</+	c #6C5333",
"[/+	c #624C33",
"}/+	c #5C4B30",
"|/+	c #5E4E3C",
"1/+	c #493627",
"2/+	c #7B6346",
"3/+	c #5A492E",
"4/+	c #56452D",
"5/+	c #5C4B36",
"6/+	c #65543F",
"7/+	c #41301C",
"8/+	c #514131",
"9/+	c #4F3B25",
"0/+	c #56412D",
"a/+	c #463527",
"b/+	c #40382C",
"c/+	c #463B31",
"d/+	c #4D4136",
"e/+	c #3A3129",
"f/+	c #3B332C",
"g/+	c #3A322A",
"h/+	c #5E5443",
"i/+	c #61584D",
"j/+	c #41392B",
"k/+	c #4D423A",
"l/+	c #3A3124",
"m/+	c #494439",
"n/+	c #605547",
"o/+	c #908776",
"p/+	c #443628",
"q/+	c #403326",
"r/+	c #594434",
"s/+	c #5F513F",
"t/+	c #604E3E",
"u/+	c #4F4335",
"v/+	c #473A2D",
"w/+	c #443328",
"x/+	c #413423",
"y/+	c #6E6049",
"z/+	c #3D2F1F",
"A/+	c #1A140B",
"B/+	c #17130D",
"C/+	c #776E61",
"D/+	c #8F8977",
"E/+	c #7F7766",
"F/+	c #8F8570",
"G/+	c #726650",
"H/+	c #6A5741",
"I/+	c #584129",
"J/+	c #6F5A43",
"K/+	c #6B5A43",
"L/+	c #5B4C35",
"M/+	c #725F47",
"N/+	c #5C4E35",
"O/+	c #52402C",
"P/+	c #665239",
"Q/+	c #47301C",
"R/+	c #523A25",
"S/+	c #4D341B",
"T/+	c #58381B",
"U/+	c #5E3F26",
"V/+	c #674A31",
"W/+	c #6E4E2D",
"X/+	c #604323",
"Y/+	c #563F28",
"Z/+	c #755734",
"`/+	c #6E522F",
" (+	c #7C5E3F",
".(+	c #7E5E41",
"+(+	c #52371A",
"@(+	c #8D704F",
"#(+	c #7A5D3F",
"$(+	c #736A55",
"%(+	c #5B4E42",
"&(+	c #4F351D",
"*(+	c #54361B",
"=(+	c #533A23",
"-(+	c #603E1A",
";(+	c #6A4B2E",
">(+	c #553E29",
",(+	c #684F33",
"'(+	c #716049",
")(+	c #413326",
"!(+	c #664D33",
"~(+	c #63492F",
"{(+	c #725533",
"](+	c #6E5034",
"^(+	c #705D46",
"/(+	c #6C624B",
"((+	c #90856F",
"_(+	c #89806D",
":(+	c #746553",
"<(+	c #7A6F55",
"[(+	c #0F0A05",
"}(+	c #4A4539",
"|(+	c #4C3116",
"1(+	c #664824",
"2(+	c #7D5B36",
"3(+	c #825C38",
"4(+	c #7D5937",
"5(+	c #634425",
"6(+	c #7F5F3F",
"7(+	c #624628",
"8(+	c #4E341B",
"9(+	c #573C1D",
"0(+	c #88704F",
"a(+	c #674F33",
"b(+	c #806A4E",
"c(+	c #705D44",
"d(+	c #59422D",
"e(+	c #675337",
"f(+	c #998262",
"g(+	c #564631",
"h(+	c #6A5334",
"i(+	c #6D6450",
"j(+	c #5F5D4F",
"k(+	c #695339",
"l(+	c #6B4C27",
"m(+	c #4E361F",
"n(+	c #4D3522",
"o(+	c #796041",
"p(+	c #50391D",
"q(+	c #705639",
"r(+	c #4E3721",
"s(+	c #694B33",
"t(+	c #5E4023",
"u(+	c #6B4F2D",
"v(+	c #77583B",
"w(+	c #876643",
"x(+	c #907452",
"y(+	c #7B613E",
"z(+	c #837055",
"A(+	c #766043",
"B(+	c #4E4734",
"C(+	c #706354",
"D(+	c #544633",
"E(+	c #5B4C3B",
"F(+	c #463423",
"G(+	c #533A26",
"H(+	c #463C2B",
"I(+	c #625B54",
"J(+	c #43392F",
"K(+	c #4B3F33",
"L(+	c #514B3B",
"M(+	c #52483E",
"N(+	c #4F4939",
"O(+	c #54493C",
"P(+	c #4D453B",
"Q(+	c #342C1F",
"R(+	c #504634",
"S(+	c #4E4839",
"T(+	c #62584A",
"U(+	c #4D4237",
"V(+	c #4A4233",
"W(+	c #3E362C",
"X(+	c #443321",
"Y(+	c #3F3223",
"Z(+	c #5F513C",
"`(+	c #5E4B39",
" _+	c #5F503B",
"._+	c #493F2F",
"+_+	c #494031",
"@_+	c #4C3D2E",
"#_+	c #4A3A26",
"$_+	c #402B1C",
"%_+	c #2B1E17",
"&_+	c #42382E",
"*_+	c #6B6756",
"=_+	c #807669",
"-_+	c #634A32",
";_+	c #4F3722",
">_+	c #49301B",
",_+	c #5D4836",
"'_+	c #6F5D45",
")_+	c #503E28",
"!_+	c #87765D",
"~_+	c #584536",
"{_+	c #45331E",
"]_+	c #3E2E1B",
"^_+	c #52361E",
"/_+	c #5C4328",
"(_+	c #513A21",
"__+	c #775634",
":_+	c #4A311C",
"<_+	c #482D16",
"[_+	c #412D13",
"}_+	c #715330",
"|_+	c #593C1C",
"1_+	c #7C5B39",
"2_+	c #75552F",
"3_+	c #6F5332",
"4_+	c #7C5D40",
"5_+	c #7E6041",
"6_+	c #5C4B32",
"7_+	c #625645",
"8_+	c #594E3D",
"9_+	c #64543F",
"0_+	c #624B38",
"a_+	c #785E44",
"b_+	c #604A30",
"c_+	c #43290E",
"d_+	c #4C341B",
"e_+	c #553E25",
"f_+	c #523923",
"g_+	c #5F4B37",
"h_+	c #473521",
"i_+	c #A59E8D",
"j_+	c #524835",
"k_+	c #4C2F14",
"l_+	c #785B3D",
"m_+	c #53493D",
"n_+	c #A39B8E",
"o_+	c #938D7E",
"p_+	c #504E3E",
"q_+	c #5C3D1C",
"r_+	c #5C3E1C",
"s_+	c #5C4228",
"t_+	c #7E5F37",
"u_+	c #7E5D35",
"v_+	c #6C4E2A",
"w_+	c #785B35",
"x_+	c #634A28",
"y_+	c #46321C",
"z_+	c #5F4E35",
"A_+	c #68533A",
"B_+	c #6D583D",
"C_+	c #755E47",
"D_+	c #827059",
"E_+	c #877259",
"F_+	c #806746",
"G_+	c #534530",
"H_+	c #71654E",
"I_+	c #554935",
"J_+	c #221C12",
"K_+	c #5F5E4D",
"L_+	c #514939",
"M_+	c #594533",
"N_+	c #836C4E",
"O_+	c #664B2C",
"P_+	c #9B7D59",
"Q_+	c #604422",
"R_+	c #503B25",
"S_+	c #57422F",
"T_+	c #5B4430",
"U_+	c #5B432B",
"V_+	c #5C4532",
"W_+	c #8E714F",
"X_+	c #43301C",
"Y_+	c #7C5F40",
"Z_+	c #775B37",
"`_+	c #634826",
" :+	c #826441",
".:+	c #5E452A",
"+:+	c #634F33",
"@:+	c #766757",
"#:+	c #433C2B",
"$:+	c #5C5249",
"%:+	c #6A6052",
"&:+	c #4B4332",
"*:+	c #6D5D49",
"=:+	c #705B44",
"-:+	c #4E3C29",
";:+	c #513722",
">:+	c #573D23",
",:+	c #2C2012",
"':+	c #7E7468",
"):+	c #595341",
"!:+	c #797164",
"~:+	c #45372E",
"{:+	c #4E4338",
"]:+	c #4B4337",
"^:+	c #4A443A",
"/:+	c #443A2E",
"(:+	c #373327",
"_:+	c #3F3328",
"::+	c #4F4638",
"<:+	c #534C3D",
"[:+	c #4D463A",
"}:+	c #4E4539",
"|:+	c #58513F",
"1:+	c #585043",
"2:+	c #433A2B",
"3:+	c #4B4335",
"4:+	c #41382F",
"5:+	c #4A3F36",
"6:+	c #5A4E40",
"7:+	c #61584B",
"8:+	c #736D59",
"9:+	c #574835",
"0:+	c #3E3121",
"a:+	c #534533",
"b:+	c #413323",
"c:+	c #665744",
"d:+	c #6C5F4C",
"e:+	c #403424",
"f:+	c #3C2B1D",
"g:+	c #473929",
"h:+	c #3A2719",
"i:+	c #413424",
"j:+	c #5E4F40",
"k:+	c #695C4B",
"l:+	c #574C40",
"m:+	c #7E7669",
"n:+	c #8B8277",
"o:+	c #584532",
"p:+	c #563F29",
"q:+	c #412913",
"r:+	c #5C4B35",
"s:+	c #6C5338",
"t:+	c #73573A",
"u:+	c #543D26",
"v:+	c #604731",
"w:+	c #81654A",
"x:+	c #55361B",
"y:+	c #664629",
"z:+	c #7F6346",
"A:+	c #4F381F",
"B:+	c #5A3C22",
"C:+	c #7A5838",
"D:+	c #715130",
"E:+	c #7C5E3C",
"F:+	c #785A37",
"G:+	c #84623D",
"H:+	c #5F4832",
"I:+	c #685845",
"J:+	c #6A5F4C",
"K:+	c #756C58",
"L:+	c #544430",
"M:+	c #49321B",
"N:+	c #55412C",
"O:+	c #61472F",
"P:+	c #624424",
"Q:+	c #52381E",
"R:+	c #5E4931",
"S:+	c #674D35",
"T:+	c #32210F",
"U:+	c #573E24",
"V:+	c #5A503B",
"W:+	c #7C7867",
"X:+	c #5A4C3A",
"Y:+	c #5B3A1E",
"Z:+	c #847D68",
"`:+	c #63543F",
" <+	c #736D5D",
".<+	c #8C6A42",
"+<+	c #916D49",
"@<+	c #7A572D",
"#<+	c #604324",
"$<+	c #92704E",
"%<+	c #6F5030",
"&<+	c #704D31",
"*<+	c #6A4E35",
"=<+	c #6E4D32",
"-<+	c #6F5736",
";<+	c #7D613E",
"><+	c #5B442F",
",<+	c #917D61",
"'<+	c #715A42",
")<+	c #7F6A4E",
"!<+	c #705836",
"~<+	c #928673",
"{<+	c #5B5441",
"]<+	c #514937",
"^<+	c #7C7464",
"/<+	c #877765",
"(<+	c #6D5841",
"_<+	c #59432C",
":<+	c #705532",
"<<+	c #6A4D30",
"[<+	c #745A42",
"}<+	c #59442C",
"|<+	c #84694B",
"1<+	c #674E31",
"2<+	c #6A553C",
"3<+	c #654B30",
"4<+	c #2D2013",
"5<+	c #533D23",
"6<+	c #1D140C",
"7<+	c #281D0E",
"8<+	c #856642",
"9<+	c #533D26",
"0<+	c #7C6A51",
"a<+	c #8B7E6A",
"b<+	c #82796A",
"c<+	c #746856",
"d<+	c #3D3427",
"e<+	c #4E4638",
"f<+	c #655D4D",
"g<+	c #594837",
"h<+	c #6B5436",
"i<+	c #726751",
"j<+	c #736D66",
"k<+	c #242318",
"l<+	c #7B7164",
"m<+	c #554F41",
"n<+	c #6C6354",
"o<+	c #605846",
"p<+	c #5F5A49",
"q<+	c #464031",
"r<+	c #4A4336",
"s<+	c #3C3328",
"t<+	c #595245",
"u<+	c #3A3329",
"v<+	c #5F533F",
"w<+	c #554434",
"x<+	c #73614A",
"y<+	c #564A38",
"z<+	c #514232",
"A<+	c #463524",
"B<+	c #3E3021",
"C<+	c #46372A",
"D<+	c #453629",
"E<+	c #32261B",
"F<+	c #35291A",
"G<+	c #4B3A27",
"H<+	c #7E7461",
"I<+	c #322A1E",
"J<+	c #6B6156",
"K<+	c #655F50",
"L<+	c #94856E",
"M<+	c #5C4730",
"N<+	c #563C29",
"O<+	c #4C331E",
"P<+	c #4D3625",
"Q<+	c #4C361E",
"R<+	c #554631",
"S<+	c #6E5239",
"T<+	c #3D2612",
"U<+	c #5E4126",
"V<+	c #523516",
"W<+	c #6C4D31",
"X<+	c #573C21",
"Y<+	c #6C5235",
"Z<+	c #694E36",
"`<+	c #735E40",
" [+	c #5D452C",
".[+	c #6F502D",
"+[+	c #816444",
"@[+	c #896841",
"#[+	c #684724",
"$[+	c #6B4C30",
"%[+	c #513E2F",
"&[+	c #5B5542",
"*[+	c #554E3C",
"=[+	c #5D5346",
"-[+	c #685D4E",
";[+	c #62533E",
">[+	c #6D5E46",
",[+	c #3F3427",
"'[+	c #705F47",
")[+	c #423220",
"![+	c #6A533E",
"~[+	c #523E28",
"{[+	c #54412C",
"][+	c #5F4931",
"^[+	c #5A4636",
"/[+	c #372413",
"([+	c #4F341D",
"_[+	c #887E6E",
":[+	c #625344",
"<[+	c #7B725C",
"[[+	c #58432E",
"}[+	c #877358",
"|[+	c #6C5B4B",
"1[+	c #554737",
"2[+	c #807A67",
"3[+	c #5E5F56",
"4[+	c #473B2C",
"5[+	c #7F6041",
"6[+	c #86633D",
"7[+	c #7B5632",
"8[+	c #8D6844",
"9[+	c #6A4825",
"0[+	c #4B2F16",
"a[+	c #715136",
"b[+	c #654422",
"c[+	c #583B27",
"d[+	c #482A0F",
"e[+	c #573820",
"f[+	c #715B3F",
"g[+	c #725C40",
"h[+	c #57442A",
"i[+	c #564834",
"j[+	c #6A5946",
"k[+	c #51422F",
"l[+	c #6C6450",
"m[+	c #6F6E5E",
"n[+	c #786850",
"o[+	c #664F36",
"p[+	c #746044",
"q[+	c #664F2A",
"r[+	c #71593D",
"s[+	c #665036",
"t[+	c #796248",
"u[+	c #533B27",
"v[+	c #917955",
"w[+	c #866F51",
"x[+	c #483927",
"y[+	c #2B2014",
"z[+	c #4C3D2A",
"A[+	c #483B2C",
"B[+	c #3E3225",
"C[+	c #363022",
"D[+	c #36291E",
"E[+	c #6C4F2E",
"F[+	c #756A5A",
"G[+	c #766C5F",
"H[+	c #706858",
"I[+	c #5B5241",
"J[+	c #5A5245",
"K[+	c #756F5C",
"L[+	c #372B1F",
"M[+	c #392D21",
"N[+	c #6A6355",
"O[+	c #665B47",
"P[+	c #665A4D",
"Q[+	c #61554A",
"R[+	c #4B4435",
"S[+	c #48402E",
"T[+	c #766B5C",
"U[+	c #40382B",
"V[+	c #544B3D",
"W[+	c #544A38",
"X[+	c #4D4537",
"Y[+	c #463C32",
"Z[+	c #5A5144",
"`[+	c #655744",
" }+	c #6B5644",
".}+	c #66513B",
"+}+	c #534434",
"@}+	c #594B3D",
"#}+	c #4D3C27",
"$}+	c #584334",
"%}+	c #675A46",
"&}+	c #4E3F31",
"*}+	c #443622",
"=}+	c #4C4031",
"-}+	c #473A2C",
";}+	c #34271D",
">}+	c #372C23",
",}+	c #453729",
"'}+	c #4F3D28",
")}+	c #7B6D60",
"!}+	c #231D16",
"~}+	c #6D6655",
"{}+	c #3E2D1E",
"]}+	c #7D6246",
"^}+	c #6B4C28",
"/}+	c #452F1E",
"(}+	c #59432B",
"_}+	c #4A3724",
":}+	c #4E341F",
"<}+	c #4D321D",
"[}+	c #4C341C",
"}}+	c #5F492B",
"|}+	c #594022",
"1}+	c #674A2D",
"2}+	c #4C331A",
"3}+	c #4A351D",
"4}+	c #644B34",
"5}+	c #452E14",
"6}+	c #5E492E",
"7}+	c #7A5E3C",
"8}+	c #533A1A",
"9}+	c #6F532F",
"0}+	c #775836",
"a}+	c #543A24",
"b}+	c #6A4D2A",
"c}+	c #59412D",
"d}+	c #514737",
"e}+	c #6A6051",
"f}+	c #5F5344",
"g}+	c #504236",
"h}+	c #544738",
"i}+	c #5C513E",
"j}+	c #5E4F39",
"k}+	c #62523D",
"l}+	c #625138",
"m}+	c #705537",
"n}+	c #644F34",
"o}+	c #513C28",
"p}+	c #4E3625",
"q}+	c #654929",
"r}+	c #463216",
"s}+	c #382B1C",
"t}+	c #584937",
"u}+	c #433931",
"v}+	c #85765D",
"w}+	c #5E452F",
"x}+	c #817361",
"y}+	c #58503E",
"z}+	c #12110F",
"A}+	c #090805",
"B}+	c #65635C",
"C}+	c #32271B",
"D}+	c #483C28",
"E}+	c #67492E",
"F}+	c #876645",
"G}+	c #644322",
"H}+	c #8D6741",
"I}+	c #624020",
"J}+	c #7E5F3E",
"K}+	c #5A3921",
"L}+	c #604228",
"M}+	c #53391C",
"N}+	c #6F5035",
"O}+	c #4F300E",
"P}+	c #614321",
"Q}+	c #5E3F22",
"R}+	c #7F6946",
"S}+	c #746047",
"T}+	c #836A4D",
"U}+	c #846B4D",
"V}+	c #6E543D",
"W}+	c #53402F",
"X}+	c #66553F",
"Y}+	c #594D3B",
"Z}+	c #0F0801",
"`}+	c #807462",
" |+	c #634E33",
".|+	c #5B462E",
"+|+	c #735C3E",
"@|+	c #796247",
"#|+	c #6F5238",
"$|+	c #584326",
"%|+	c #77614B",
"&|+	c #655139",
"*|+	c #8A6E4E",
"=|+	c #664C2E",
"-|+	c #866B4D",
";|+	c #846F52",
">|+	c #765F47",
",|+	c #493926",
"'|+	c #74614B",
")|+	c #6B5A44",
"!|+	c #433122",
"~|+	c #574935",
"{|+	c #3B2C1F",
"]|+	c #422B14",
"^|+	c #422D1C",
"/|+	c #3D3127",
"(|+	c #594D41",
"_|+	c #4B4239",
":|+	c #8E8575",
"<|+	c #493E32",
"[|+	c #3B3629",
"}|+	c #847B6E",
"||+	c #766D5D",
"1|+	c #7C7263",
"2|+	c #5E5342",
"3|+	c #3E2F20",
"4|+	c #524132",
"5|+	c #382A1B",
"6|+	c #292117",
"7|+	c #615341",
"8|+	c #4E4739",
"9|+	c #696051",
"0|+	c #423B2F",
"a|+	c #4F4B3A",
"b|+	c #453E2E",
"c|+	c #493F30",
"d|+	c #494232",
"e|+	c #453C31",
"f|+	c #3C3228",
"g|+	c #5B5042",
"h|+	c #756C5E",
"i|+	c #645A4D",
"j|+	c #3D3426",
"k|+	c #544A3D",
"l|+	c #403729",
"m|+	c #3E3429",
"n|+	c #614C37",
"o|+	c #89745D",
"p|+	c #5D4C39",
"q|+	c #665842",
"r|+	c #453628",
"s|+	c #6C5B4C",
"t|+	c #62533D",
"u|+	c #4E3E2C",
"v|+	c #4F3D2E",
"w|+	c #483B2D",
"x|+	c #4B3C2E",
"y|+	c #463C29",
"z|+	c #32251C",
"A|+	c #554230",
"B|+	c #291A0B",
"C|+	c #432F1B",
"D|+	c #26160D",
"E|+	c #29211C",
"F|+	c #2D2113",
"G|+	c #7E6145",
"H|+	c #513721",
"I|+	c #402D1D",
"J|+	c #59442E",
"K|+	c #6F573B",
"L|+	c #4C391F",
"M|+	c #563D20",
"N|+	c #4F3215",
"O|+	c #745639",
"P|+	c #664F35",
"Q|+	c #89704E",
"R|+	c #624423",
"S|+	c #715434",
"T|+	c #8A6842",
"U|+	c #635B4C",
"V|+	c #5B5144",
"W|+	c #685C4E",
"X|+	c #6E6754",
"Y|+	c #574E41",
"Z|+	c #776B57",
"`|+	c #564C3F",
" 1+	c #392A13",
".1+	c #5F4E39",
"+1+	c #594734",
"@1+	c #644936",
"#1+	c #654F32",
"$1+	c #61462F",
"%1+	c #533318",
"&1+	c #AAA093",
"*1+	c #4B412F",
"=1+	c #524233",
"-1+	c #3F3836",
";1+	c #060606",
">1+	c #34281E",
",1+	c #312618",
"'1+	c #413622",
")1+	c #463927",
"!1+	c #4C331D",
"~1+	c #664526",
"{1+	c #7A5832",
"]1+	c #402910",
"^1+	c #51341C",
"/1+	c #492D14",
"(1+	c #64462C",
"_1+	c #684D2E",
":1+	c #6F502A",
"<1+	c #5A432B",
"[1+	c #554430",
"}1+	c #96846A",
"|1+	c #817055",
"11+	c #6C6457",
"21+	c #75654E",
"31+	c #6D5F47",
"41+	c #624D36",
"51+	c #766046",
"61+	c #7B6242",
"71+	c #604329",
"81+	c #5D462E",
"91+	c #53422D",
"01+	c #483528",
"a1+	c #5A4A35",
"b1+	c #685644",
"c1+	c #655341",
"d1+	c #554433",
"e1+	c #4E402B",
"f1+	c #543C2D",
"g1+	c #5B4229",
"h1+	c #472F17",
"i1+	c #332211",
"j1+	c #574C3D",
"k1+	c #685C54",
"l1+	c #665E4D",
"m1+	c #676252",
"n1+	c #5D4F3F",
"o1+	c #52463A",
"p1+	c #332819",
"q1+	c #5D5243",
"r1+	c #3B3627",
"s1+	c #514639",
"t1+	c #625646",
"u1+	c #5F5749",
"v1+	c #706555",
"w1+	c #3C3025",
"x1+	c #3E3529",
"y1+	c #453D32",
"z1+	c #473F2F",
"A1+	c #403528",
"B1+	c #3F3727",
"C1+	c #524836",
"D1+	c #3F3528",
"E1+	c #5D4937",
"F1+	c #4F432F",
"G1+	c #75624B",
"H1+	c #44342A",
"I1+	c #453623",
"J1+	c #3D2E1E",
"K1+	c #726147",
"L1+	c #514030",
"M1+	c #37291A",
"N1+	c #3D3222",
"O1+	c #352B1E",
"P1+	c #3D2917",
"Q1+	c #352518",
"R1+	c #3F2D22",
"S1+	c #3E2A13",
"T1+	c #382110",
"U1+	c #604226",
"V1+	c #503822",
"W1+	c #543D21",
"X1+	c #624226",
"Y1+	c #614631",
"Z1+	c #533A24",
"`1+	c #482E19",
" 2+	c #4C3015",
".2+	c #614222",
"+2+	c #7A5C3E",
"@2+	c #5B4127",
"#2+	c #7F6240",
"$2+	c #492E15",
"%2+	c #5A3A1C",
"&2+	c #68523A",
"*2+	c #877B65",
"=2+	c #6A5740",
"-2+	c #70532C",
";2+	c #725634",
">2+	c #866846",
",2+	c #5B422C",
"'2+	c #322821",
")2+	c #3D3226",
"!2+	c #514A3B",
"~2+	c #54493E",
"{2+	c #746B5F",
"]2+	c #7D7765",
"^2+	c #787362",
"/2+	c #716659",
"(2+	c #574F41",
"_2+	c #867D6D",
":2+	c #62594A",
"<2+	c #5B5442",
"[2+	c #6D6155",
"}2+	c #493C29",
"|2+	c #58472F",
"12+	c #5D432B",
"22+	c #61452F",
"32+	c #6B5947",
"42+	c #221C13",
"52+	c #100B05",
"62+	c #191109",
"72+	c #241D17",
"82+	c #1F170B",
"92+	c #3B2E1F",
"02+	c #3F3224",
"a2+	c #534638",
"b2+	c #584B39",
"c2+	c #4E4132",
"d2+	c #5A4E3C",
"e2+	c #684822",
"f2+	c #755131",
"g2+	c #6D4A25",
"h2+	c #5B391B",
"i2+	c #503016",
"j2+	c #523826",
"k2+	c #654529",
"l2+	c #6C583C",
"m2+	c #857257",
"n2+	c #3D2E1A",
"o2+	c #514B3A",
"p2+	c #5D544B",
"q2+	c #8F8877",
"r2+	c #7C7162",
"s2+	c #867966",
"t2+	c #5F4E3E",
"u2+	c #4D361C",
"v2+	c #6D5740",
"w2+	c #6B533C",
"x2+	c #61472B",
"y2+	c #614F3A",
"z2+	c #4A372A",
"A2+	c #5C4939",
"B2+	c #645947",
"C2+	c #54412E",
"D2+	c #635440",
"E2+	c #4A3323",
"F2+	c #554530",
"G2+	c #6E6558",
"H2+	c #6C6256",
"I2+	c #615A4B",
"J2+	c #7C7768",
"K2+	c #615543",
"L2+	c #31271A",
"M2+	c #443E32",
"N2+	c #59493A",
"O2+	c #57483A",
"P2+	c #4A423A",
"Q2+	c #2B261E",
"R2+	c #574C45",
"S2+	c #443E30",
"T2+	c #444134",
"U2+	c #373025",
"V2+	c #5F544A",
"W2+	c #52493D",
"X2+	c #433A2C",
"Y2+	c #4B3D30",
"Z2+	c #463930",
"`2+	c #4B4030",
" 3+	c #544535",
".3+	c #4A3E2E",
"+3+	c #4F402D",
"@3+	c #5D4F38",
"#3+	c #4A3C2E",
"$3+	c #5D493B",
"%3+	c #5A4A3A",
"&3+	c #3D2E20",
"*3+	c #4A3D30",
"=3+	c #4D4130",
"-3+	c #3E2D1F",
";3+	c #3D2D20",
">3+	c #38291A",
",3+	c #4D3928",
"'3+	c #553F2A",
")3+	c #473020",
"!3+	c #2A1B0C",
"~3+	c #4C301C",
"{3+	c #553516",
"]3+	c #6F5236",
"^3+	c #482F1A",
"/3+	c #624C2D",
"(3+	c #80654A",
"_3+	c #6A4B2F",
":3+	c #583C27",
"<3+	c #614326",
"[3+	c #5B3F27",
"}3+	c #4B331E",
"|3+	c #55371F",
"13+	c #573A1B",
"23+	c #452910",
"33+	c #71573A",
"43+	c #8B755C",
"53+	c #6B5E4C",
"63+	c #584428",
"73+	c #745936",
"83+	c #482F12",
"93+	c #483E30",
"03+	c #50483C",
"a3+	c #786D5C",
"b3+	c #7B745F",
"c3+	c #8B8573",
"d3+	c #6F6958",
"e3+	c #786C5E",
"f3+	c #726956",
"g3+	c #5A5243",
"h3+	c #6E5B46",
"i3+	c #534235",
"j3+	c #4A3C2C",
"k3+	c #4E3D2E",
"l3+	c #614934",
"m3+	c #6C543B",
"n3+	c #4E331C",
"o3+	c #493B2B",
"p3+	c #463E37",
"q3+	c #413626",
"r3+	c #34291C",
"s3+	c #312217",
"t3+	c #8F877F",
"u3+	c #4B4C4A",
"v3+	c #3B2F23",
"w3+	c #463728",
"x3+	c #534735",
"y3+	c #675A44",
"z3+	c #625541",
"A3+	c #5D4E39",
"B3+	c #4B3B2C",
"C3+	c #563C22",
"D3+	c #4A2A0D",
"E3+	c #775635",
"F3+	c #785938",
"G3+	c #694624",
"H3+	c #63482A",
"I3+	c #563821",
"J3+	c #795938",
"K3+	c #61401F",
"L3+	c #614220",
"M3+	c #8F704D",
"N3+	c #56422D",
"O3+	c #705D45",
"P3+	c #4A3925",
"Q3+	c #160F0B",
"R3+	c #97958E",
"S3+	c #6E5C47",
"T3+	c #463E30",
"U3+	c #7B7666",
"V3+	c #585245",
"W3+	c #7E6D58",
"X3+	c #4E3B24",
"Y3+	c #614E32",
"Z3+	c #54422F",
"`3+	c #46351E",
" 4+	c #846B48",
".4+	c #654928",
"+4+	c #6B5538",
"@4+	c #4D3D23",
"#4+	c #64513E",
"$4+	c #60513B",
"%4+	c #6D5B47",
"&4+	c #655440",
"*4+	c #55473A",
"=4+	c #62533C",
"-4+	c #695847",
";4+	c #3C2C1D",
">4+	c #362F23",
",4+	c #6B6355",
"'4+	c #645342",
")4+	c #5B4F3E",
"!4+	c #625642",
"~4+	c #6F665C",
"{4+	c #453D31",
"]4+	c #494337",
"^4+	c #655B50",
"/4+	c #594C42",
"(4+	c #494537",
"_4+	c #3D362B",
":4+	c #42382A",
"<4+	c #4E3F2F",
"[4+	c #473A2B",
"}4+	c #665845",
"|4+	c #5D4D3D",
"14+	c #706350",
"24+	c #403122",
"34+	c #594B36",
"44+	c #4F3C30",
"54+	c #413426",
"64+	c #3F3525",
"74+	c #3C2C20",
"84+	c #392719",
"94+	c #372717",
"04+	c #453522",
"a4+	c #483524",
"b4+	c #614C36",
"c4+	c #3F2E1C",
"d4+	c #462F1E",
"e4+	c #3D2E1C",
"f4+	c #7C6648",
"g4+	c #685236",
"h4+	c #573A23",
"i4+	c #452913",
"j4+	c #4A3320",
"k4+	c #5C4122",
"l4+	c #5F4020",
"m4+	c #60442A",
"n4+	c #51381D",
"o4+	c #634934",
"p4+	c #452C11",
"q4+	c #4D2F15",
"r4+	c #7A5939",
"s4+	c #5D4026",
"t4+	c #583921",
"u4+	c #432F20",
"v4+	c #66543D",
"w4+	c #857763",
"x4+	c #71604E",
"y4+	c #5D4732",
"z4+	c #5A3F27",
"A4+	c #A58863",
"B4+	c #2E1C07",
"C4+	c #3D2D1F",
"D4+	c #2E1E0F",
"E4+	c #524739",
"F4+	c #554A40",
"G4+	c #73685D",
"H4+	c #766F5E",
"I4+	c #6C6453",
"J4+	c #595043",
"K4+	c #656355",
"L4+	c #3D3626",
"M4+	c #494334",
"N4+	c #5A5042",
"O4+	c #6E5F4C",
"P4+	c #574A37",
"Q4+	c #5C4E3A",
"R4+	c #473221",
"S4+	c #44301D",
"T4+	c #5F462E",
"U4+	c #573B21",
"V4+	c #3C3423",
"W4+	c #4E3F29",
"X4+	c #53432F",
"Y4+	c #483D2B",
"Z4+	c #2F2617",
"`4+	c #2B241C",
" 5+	c #1A140E",
".5+	c #54432F",
"+5+	c #4C3929",
"@5+	c #4D3C2F",
"#5+	c #3C2B1A",
"$5+	c #503A1F",
"%5+	c #543515",
"&5+	c #63401E",
"*5+	c #765539",
"=5+	c #6E4E2F",
"-5+	c #805F3E",
";5+	c #563C1D",
">5+	c #897154",
",5+	c #5D4832",
"'5+	c #544230",
")5+	c #413324",
"!5+	c #7F7E7A",
"~5+	c #56442E",
"{5+	c #62533B",
"]5+	c #504736",
"^5+	c #797565",
"/5+	c #A0988B",
"(5+	c #725E47",
"_5+	c #554029",
":5+	c #5C442D",
"<5+	c #7D6549",
"[5+	c #8A6C45",
"}5+	c #554536",
"|5+	c #4B3C29",
"15+	c #60523E",
"25+	c #665644",
"35+	c #6C563F",
"45+	c #59442A",
"55+	c #5C4832",
"65+	c #6C6258",
"75+	c #574A3D",
"85+	c #594D3A",
"95+	c #3D3320",
"05+	c #5C4B3A",
"a5+	c #5F503D",
"b5+	c #4D3F31",
"c5+	c #443521",
"d5+	c #594A3A",
"e5+	c #625B4D",
"f5+	c #3D342D",
"g5+	c #443F33",
"h5+	c #514E3F",
"i5+	c #615749",
"j5+	c #4A4238",
"k5+	c #3E382B",
"l5+	c #584E3E",
"m5+	c #46392C",
"n5+	c #473B2D",
"o5+	c #423524",
"p5+	c #4B3D2C",
"q5+	c #4C3F2E",
"r5+	c #4C3B2D",
"s5+	c #342719",
"t5+	c #776650",
"u5+	c #413122",
"v5+	c #503E2D",
"w5+	c #352B1F",
"x5+	c #3C2B21",
"y5+	c #3B2818",
"z5+	c #443222",
"A5+	c #392413",
"B5+	c #443221",
"C5+	c #382516",
"D5+	c #4B3421",
"E5+	c #47301B",
"F5+	c #332612",
"G5+	c #604C35",
"H5+	c #523E25",
"I5+	c #583C22",
"J5+	c #4B301A",
"K5+	c #725134",
"L5+	c #664A34",
"M5+	c #573E28",
"N5+	c #4A361D",
"O5+	c #412C14",
"P5+	c #593F22",
"Q5+	c #5B4129",
"R5+	c #8E7D68",
"S5+	c #5D4C34",
"T5+	c #6F5235",
"U5+	c #513E33",
"V5+	c #423828",
"W5+	c #605748",
"X5+	c #595046",
"Y5+	c #6C6555",
"Z5+	c #433F31",
"`5+	c #706A5A",
" 6+	c #696053",
".6+	c #534639",
"+6+	c #5D4F3C",
"@6+	c #433320",
"#6+	c #44301E",
"$6+	c #583E26",
"%6+	c #674B2D",
"&6+	c #4D351A",
"*6+	c #705439",
"=6+	c #493B28",
"-6+	c #705945",
";6+	c #382A19",
">6+	c #51412F",
",6+	c #36291B",
"'6+	c #433524",
")6+	c #1D1D18",
"!6+	c #827E77",
"~6+	c #524234",
"{6+	c #503F30",
"]6+	c #544332",
"^6+	c #50442D",
"/6+	c #4C3E2A",
"(6+	c #473927",
"_6+	c #756553",
":6+	c #645A48",
"<6+	c #4B3C28",
"[6+	c #563F2D",
"}6+	c #5B452A",
"|6+	c #694B2B",
"16+	c #724E2E",
"26+	c #7C593B",
"36+	c #543A20",
"46+	c #704F2F",
"56+	c #775535",
"66+	c #906F4C",
"76+	c #755737",
"86+	c #674A2B",
"96+	c #6D5639",
"06+	c #685137",
"a6+	c #675039",
"b6+	c #79654A",
"c6+	c #463528",
"d6+	c #211910",
"e6+	c #6E6657",
"f6+	c #6D6453",
"g6+	c #968E82",
"h6+	c #574630",
"i6+	c #52422E",
"j6+	c #706048",
"k6+	c #5D4C3B",
"l6+	c #61513E",
"m6+	c #60533C",
"n6+	c #655443",
"o6+	c #70614D",
"p6+	c #4C3E2B",
"q6+	c #5D4B31",
"r6+	c #3B2918",
"s6+	c #141007",
"t6+	c #282018",
"u6+	c #292018",
"v6+	c #181311",
"w6+	c #1D1C12",
"x6+	c #211B12",
"y6+	c #322B1E",
"z6+	c #554F3F",
"A6+	c #887B68",
"B6+	c #564934",
"C6+	c #665442",
"D6+	c #473B2B",
"E6+	c #605040",
"F6+	c #584732",
"G6+	c #706051",
"H6+	c #534A3E",
"I6+	c #474036",
"J6+	c #3A2D1F",
"K6+	c #4B3C2F",
"L6+	c #413628",
"M6+	c #44392B",
"N6+	c #524536",
"O6+	c #4E4032",
"P6+	c #4E4033",
"Q6+	c #534433",
"R6+	c #554535",
"S6+	c #45372A",
"T6+	c #483C27",
"U6+	c #352C1F",
"V6+	c #3B2C1D",
"W6+	c #422C1C",
"X6+	c #563C27",
"Y6+	c #3C2614",
"Z6+	c #43301D",
"`6+	c #47311F",
" 7+	c #352516",
".7+	c #654D30",
"+7+	c #664D32",
"@7+	c #5A3E21",
"#7+	c #4E3722",
"$7+	c #5D4020",
"%7+	c #7C6042",
"&7+	c #5E462C",
"*7+	c #64472B",
"=7+	c #4E3114",
"-7+	c #44290E",
";7+	c #5F4530",
">7+	c #7F6544",
",7+	c #5E5040",
"'7+	c #776858",
")7+	c #43382B",
"!7+	c #736B5D",
"~7+	c #6F6658",
"{7+	c #6D6255",
"]7+	c #958B7A",
"^7+	c #615644",
"/7+	c #685E4C",
"(7+	c #483D2D",
"_7+	c #695844",
":7+	c #564433",
"<7+	c #452E15",
"[7+	c #402813",
"}7+	c #62482C",
"|7+	c #5E452E",
"17+	c #796249",
"27+	c #6B5A45",
"37+	c #5C492E",
"47+	c #665440",
"57+	c #4E3C2C",
"67+	c #433627",
"77+	c #231C13",
"87+	c #291F16",
"97+	c #1D150E",
"07+	c #19110D",
"a7+	c #2A241F",
"b7+	c #3A2B21",
"c7+	c #584A37",
"d7+	c #584635",
"e7+	c #382A1D",
"f7+	c #554C3A",
"g7+	c #5E5144",
"h7+	c #4F4537",
"i7+	c #544431",
"j7+	c #644B35",
"k7+	c #5B4228",
"l7+	c #735D3E",
"m7+	c #5D4027",
"n7+	c #6C4E2C",
"o7+	c #664420",
"p7+	c #69482A",
"q7+	c #694C29",
"r7+	c #8E7250",
"s7+	c #5F472A",
"t7+	c #513A23",
"u7+	c #866A4C",
"v7+	c #5C472C",
"w7+	c #654F38",
"x7+	c #544536",
"y7+	c #6A563C",
"z7+	c #5F5147",
"A7+	c #503B27",
"B7+	c #584631",
"C7+	c #6C5F51",
"D7+	c #3F2F1A",
"E7+	c #615445",
"F7+	c #5C4F3E",
"G7+	c #5F4F3F",
"H7+	c #4D3E31",
"I7+	c #594A36",
"J7+	c #726552",
"K7+	c #5E5039",
"L7+	c #76664F",
"M7+	c #56432B",
"N7+	c #5E4A2F",
"O7+	c #4E3A27",
"P7+	c #564331",
"Q7+	c #372A1D",
"R7+	c #463929",
"S7+	c #4E3E2F",
"T7+	c #1C1407",
"U7+	c #3E3328",
"V7+	c #69604E",
"W7+	c #514031",
"X7+	c #574131",
"Y7+	c #705F49",
"Z7+	c #382F24",
"`7+	c #443825",
" 8+	c #534B3E",
".8+	c #393329",
"+8+	c #4D4738",
"@8+	c #302D1F",
"#8+	c #413C2F",
"$8+	c #3D382C",
"%8+	c #625A47",
"&8+	c #564E3E",
"*8+	c #514837",
"=8+	c #665848",
"-8+	c #4F402E",
";8+	c #4A3B2B",
">8+	c #382F21",
",8+	c #413223",
"'8+	c #3E2F1F",
")8+	c #412F1B",
"!8+	c #432F1F",
"~8+	c #5D462B",
"{8+	c #5C442B",
"]8+	c #594123",
"^8+	c #4D361F",
"/8+	c #453221",
"(8+	c #4F391F",
"_8+	c #61442A",
":8+	c #372213",
"<8+	c #523A24",
"[8+	c #7F633F",
"}8+	c #7F684D",
"|8+	c #5B4D3C",
"18+	c #716455",
"28+	c #4A4137",
"38+	c #464135",
"48+	c #655E4F",
"58+	c #585041",
"68+	c #756C60",
"78+	c #746454",
"88+	c #574738",
"98+	c #463729",
"08+	c #462C17",
"a8+	c #61492B",
"b8+	c #795E44",
"c8+	c #553E26",
"d8+	c #463828",
"e8+	c #362C1D",
"f8+	c #6B5741",
"g8+	c #5A4837",
"h8+	c #4D3D2B",
"i8+	c #412E21",
"j8+	c #413528",
"k8+	c #443725",
"l8+	c #796857",
"m8+	c #716350",
"n8+	c #392D1E",
"o8+	c #6A5949",
"p8+	c #635849",
"q8+	c #362C1E",
"r8+	c #544131",
"s8+	c #51402B",
"t8+	c #7C6345",
"u8+	c #7B6448",
"v8+	c #745332",
"w8+	c #744E2A",
"x8+	c #745434",
"y8+	c #6D4C2B",
"z8+	c #7D6346",
"A8+	c #7F6441",
"B8+	c #644B2A",
"C8+	c #725331",
"D8+	c #735231",
"E8+	c #624329",
"F8+	c #573E22",
"G8+	c #6C4D2E",
"H8+	c #826948",
"I8+	c #745E3E",
"J8+	c #644C34",
"K8+	c #6C553C",
"L8+	c #5F4732",
"M8+	c #624A30",
"N8+	c #52402E",
"O8+	c #625C4D",
"P8+	c #979181",
"Q8+	c #817D6E",
"R8+	c #6D5940",
"S8+	c #483A26",
"T8+	c #5A4632",
"U8+	c #403123",
"V8+	c #564836",
"W8+	c #5E4F3E",
"X8+	c #564234",
"Y8+	c #5A4D3C",
"Z8+	c #423523",
"`8+	c #6B5B4A",
" 9+	c #6E5940",
".9+	c #624933",
"+9+	c #614B38",
"@9+	c #3E3326",
"#9+	c #292519",
"$9+	c #534334",
"%9+	c #453424",
"&9+	c #4C3C2C",
"*9+	c #6C5C47",
"=9+	c #635D49",
"-9+	c #4B4134",
";9+	c #322B23",
">9+	c #413930",
",9+	c #443B32",
"'9+	c #494236",
")9+	c #433B33",
"!9+	c #6A5E50",
"~9+	c #675C48",
"{9+	c #685E52",
"]9+	c #524A3A",
"^9+	c #4F4234",
"/9+	c #493B2D",
"(9+	c #493C2F",
"_9+	c #433424",
":9+	c #3D3020",
"<9+	c #3A2E1F",
"[9+	c #463626",
"}9+	c #473625",
"|9+	c #372617",
"19+	c #523C2A",
"29+	c #4D331E",
"39+	c #49341C",
"49+	c #503A25",
"59+	c #311E0A",
"69+	c #5B412A",
"79+	c #4F3520",
"89+	c #45331D",
"99+	c #4A3120",
"09+	c #4B351C",
"a9+	c #4E3923",
"b9+	c #4D3D2A",
"c9+	c #7A5C35",
"d9+	c #472C14",
"e9+	c #5C422A",
"f9+	c #593B25",
"g9+	c #46311C",
"h9+	c #422E1B",
"i9+	c #886B48",
"j9+	c #585243",
"k9+	c #524941",
"l9+	c #696351",
"m9+	c #585343",
"n9+	c #5F574A",
"o9+	c #6C6152",
"p9+	c #524332",
"q9+	c #675947",
"r9+	c #675746",
"s9+	c #483A27",
"t9+	c #543A1F",
"u9+	c #5E452C",
"v9+	c #5B432F",
"w9+	c #473829",
"x9+	c #413226",
"y9+	c #544537",
"z9+	c #604E3A",
"A9+	c #5A472E",
"B9+	c #483C29",
"C9+	c #614D3C",
"D9+	c #5A4A38",
"E9+	c #584A38",
"F9+	c #655843",
"G9+	c #695845",
"H9+	c #635540",
"I9+	c #756651",
"J9+	c #5D5040",
"K9+	c #534937",
"L9+	c #50412E",
"M9+	c #3B2915",
"N9+	c #6C543D",
"O9+	c #765938",
"P9+	c #62462C",
"Q9+	c #503622",
"R9+	c #583F28",
"S9+	c #815E3A",
"T9+	c #5E4228",
"U9+	c #7A5C3F",
"V9+	c #7B5E3D",
"W9+	c #755E44",
"X9+	c #543D29",
"Y9+	c #6F5A3E",
"Z9+	c #604C34",
"`9+	c #67533E",
" 0+	c #7F796B",
".0+	c #4A361B",
"+0+	c #6C593A",
"@0+	c #4E3925",
"#0+	c #75634B",
"$0+	c #61523C",
"%0+	c #5D5041",
"&0+	c #645745",
"*0+	c #594F3D",
"=0+	c #71644E",
"-0+	c #56432E",
";0+	c #4B3825",
">0+	c #564531",
",0+	c #5C4D38",
"'0+	c #4D4133",
")0+	c #362D22",
"!0+	c #372918",
"~0+	c #423022",
"{0+	c #52412F",
"]0+	c #4A3728",
"^0+	c #584B3A",
"/0+	c #524236",
"(0+	c #3F3026",
"_0+	c #4B4636",
":0+	c #473D30",
"<0+	c #4F4236",
"[0+	c #504837",
"}0+	c #43382A",
"|0+	c #403526",
"10+	c #493C2A",
"20+	c #504030",
"30+	c #4B3C2A",
"40+	c #453929",
"50+	c #433629",
"60+	c #3D2F25",
"70+	c #413120",
"80+	c #41301F",
"90+	c #453423",
"00+	c #462F18",
"a0+	c #644C29",
"b0+	c #402810",
"c0+	c #4E381F",
"d0+	c #3F2C1B",
"e0+	c #3B2618",
"f0+	c #342216",
"g0+	c #3B2D1E",
"h0+	c #684A2A",
"i0+	c #715437",
"j0+	c #795D42",
"k0+	c #646151",
"l0+	c #52473D",
"m0+	c #615B4A",
"n0+	c #7B7165",
"o0+	c #5F5A4A",
"p0+	c #574E44",
"q0+	c #686051",
"r0+	c #564B40",
"s0+	c #7B6F61",
"t0+	c #605443",
"u0+	c #493626",
"v0+	c #503E2E",
"w0+	c #5D3C22",
"x0+	c #795E3F",
"y0+	c #957F64",
"z0+	c #453824",
"A0+	c #3B3022",
"B0+	c #62513F",
"C0+	c #55422B",
"D0+	c #5A4938",
"E0+	c #604B36",
"F0+	c #6A5B4A",
"G0+	c #715C47",
"H0+	c #46382A",
"I0+	c #433A2D",
"J0+	c #574A3A",
"K0+	c #5B4B3A",
"L0+	c #725A46",
"M0+	c #795C3F",
"N0+	c #533D2B",
"O0+	c #513E27",
"P0+	c #4A3721",
"Q0+	c #6A533B",
"R0+	c #463422",
"S0+	c #4F3419",
"T0+	c #442E1D",
"U0+	c #644A30",
"V0+	c #5A4226",
"W0+	c #68533C",
"X0+	c #7C6849",
"Y0+	c #614B34",
"Z0+	c #473624",
"`0+	c #100C06",
" a+	c #534941",
".a+	c #594B35",
"+a+	c #392916",
"@a+	c #5F4B36",
"#a+	c #41301D",
"$a+	c #524032",
"%a+	c #483A23",
"&a+	c #776753",
"*a+	c #5A4732",
"=a+	c #72624C",
"-a+	c #635745",
";a+	c #635A46",
">a+	c #5F523C",
",a+	c #544938",
"'a+	c #5A4E3E",
")a+	c #615342",
"!a+	c #5E4A33",
"~a+	c #473821",
"{a+	c #463523",
"]a+	c #483726",
"^a+	c #3F2F1E",
"/a+	c #58422A",
"(a+	c #6C5946",
"_a+	c #514538",
":a+	c #4A4133",
"<a+	c #4F4738",
"[a+	c #574D41",
"}a+	c #64594D",
"|a+	c #433A34",
"1a+	c #433B2F",
"2a+	c #443F31",
"3a+	c #564D44",
"4a+	c #393227",
"5a+	c #453D36",
"6a+	c #44382D",
"7a+	c #44392D",
"8a+	c #45392C",
"9a+	c #4D4337",
"0a+	c #655C4B",
"aa+	c #6E6656",
"ba+	c #393228",
"ca+	c #564E3F",
"da+	c #4F4434",
"ea+	c #47382B",
"fa+	c #514332",
"ga+	c #3C2E1C",
"ha+	c #423221",
"ia+	c #382717",
"ja+	c #3E2C1D",
"ka+	c #3E2714",
"la+	c #432812",
"ma+	c #422B12",
"na+	c #634328",
"oa+	c #5E452D",
"pa+	c #4B3722",
"qa+	c #443123",
"ra+	c #57452C",
"sa+	c #493422",
"ta+	c #38271A",
"ua+	c #3C2F1E",
"va+	c #715B43",
"wa+	c #50371F",
"xa+	c #715230",
"ya+	c #654D36",
"za+	c #74593B",
"Aa+	c #543D28",
"Ba+	c #5D4129",
"Ca+	c #604B2F",
"Da+	c #756B5A",
"Ea+	c #5E5449",
"Fa+	c #797261",
"Ga+	c #8A8375",
"Ha+	c #6E665A",
"Ia+	c #5B5444",
"Ja+	c #3E3B2E",
"Ka+	c #544A3A",
"La+	c #4F412F",
"Ma+	c #534026",
"Na+	c #5C3E23",
"Oa+	c #614023",
"Pa+	c #755739",
"Qa+	c #7E674E",
"Ra+	c #4E3E27",
"Sa+	c #3B2D20",
"Ta+	c #554735",
"Ua+	c #4A402E",
"Va+	c #594936",
"Wa+	c #5F4C35",
"Xa+	c #665746",
"Ya+	c #5E4F3F",
"Za+	c #5D4E3A",
"`a+	c #5F4B38",
" b+	c #675645",
".b+	c #45392E",
"+b+	c #403324",
"@b+	c #473C2D",
"#b+	c #5D5144",
"$b+	c #5C4B3C",
"%b+	c #4E3622",
"&b+	c #765B43",
"*b+	c #533F24",
"=b+	c #5C472F",
"-b+	c #4B3827",
";b+	c #5F4E3A",
">b+	c #3F2E1E",
",b+	c #54422D",
"'b+	c #6B5239",
")b+	c #5D3E25",
"!b+	c #67482E",
"~b+	c #5C4225",
"{b+	c #765A43",
"]b+	c #4D3C25",
"^b+	c #423420",
"/b+	c #453D2D",
"(b+	c #5F564A",
"_b+	c #8B7D67",
":b+	c #61513B",
"<b+	c #4D392C",
"[b+	c #5A4431",
"}b+	c #5E4C35",
"|b+	c #5C4D36",
"1b+	c #594735",
"2b+	c #574533",
"3b+	c #615443",
"4b+	c #665747",
"5b+	c #625445",
"6b+	c #574936",
"7b+	c #61503D",
"8b+	c #5A4931",
"9b+	c #77674F",
"0b+	c #64513F",
"ab+	c #4C3C2D",
"bb+	c #272019",
"cb+	c #6F6C5D",
"db+	c #554332",
"eb+	c #3A2B1A",
"fb+	c #6C5741",
"gb+	c #685A4B",
"hb+	c #4E4534",
"ib+	c #493F35",
"jb+	c #4C4637",
"kb+	c #433D31",
"lb+	c #43382F",
"mb+	c #4D4137",
"nb+	c #453B2F",
"ob+	c #524837",
"pb+	c #504839",
"qb+	c #42362B",
"rb+	c #4B4437",
"sb+	c #423A30",
"tb+	c #706457",
"ub+	c #5D5441",
"vb+	c #4A3D31",
"wb+	c #4A4033",
"xb+	c #544336",
"yb+	c #443828",
"zb+	c #423223",
"Ab+	c #3C2D1E",
"Bb+	c #392615",
"Cb+	c #3B2917",
"Db+	c #503825",
"Eb+	c #54351F",
"Fb+	c #4D3520",
"Gb+	c #4D3319",
"Hb+	c #513B30",
"Ib+	c #443421",
"Jb+	c #483B2B",
"Kb+	c #5B472F",
"Lb+	c #533D30",
"Mb+	c #302015",
"Nb+	c #3E3228",
"Ob+	c #664E39",
"Pb+	c #7B5D3B",
"Qb+	c #624727",
"Rb+	c #60442D",
"Sb+	c #593B20",
"Tb+	c #4E3418",
"Ub+	c #4F3624",
"Vb+	c #412C1B",
"Wb+	c #4A3520",
"Xb+	c #52402B",
"Yb+	c #5B4E3B",
"Zb+	c #5E554C",
"`b+	c #73695E",
" c+	c #696158",
".c+	c #7E7667",
"+c+	c #584D3F",
"@c+	c #635743",
"#c+	c #4F3F2F",
"$c+	c #513B20",
"%c+	c #4C3219",
"&c+	c #785D3E",
"*c+	c #74583C",
"=c+	c #806645",
"-c+	c #2D2313",
";c+	c #45392A",
">c+	c #463921",
",c+	c #76604A",
"'c+	c #4C3F2F",
")c+	c #68543D",
"!c+	c #62503D",
"~c+	c #5A4A36",
"{c+	c #645343",
"]c+	c #64543E",
"^c+	c #786554",
"/c+	c #5E5138",
"(c+	c #4D4432",
"_c+	c #6D5C47",
":c+	c #564027",
"<c+	c #5C4931",
"[c+	c #5A4B36",
"}c+	c #554836",
"|c+	c #4E3D27",
"1c+	c #3E3128",
"2c+	c #52391B",
"3c+	c #724F30",
"4c+	c #72583B",
"5c+	c #4D331A",
"6c+	c #675034",
"7c+	c #836E57",
"8c+	c #5A4C39",
"9c+	c #7F7A68",
"0c+	c #292922",
"ac+	c #6C5E4A",
"bc+	c #5C4C3A",
"cc+	c #493724",
"dc+	c #513A26",
"ec+	c #655236",
"fc+	c #5E4A35",
"gc+	c #615340",
"hc+	c #635748",
"ic+	c #6D655C",
"jc+	c #685E4D",
"kc+	c #645A4B",
"lc+	c #5E5543",
"mc+	c #665D49",
"nc+	c #7A6956",
"oc+	c #51402D",
"pc+	c #41352A",
"qc+	c #43321B",
"rc+	c #4F3E2B",
"sc+	c #49392C",
"tc+	c #554634",
"uc+	c #56483B",
"vc+	c #534534",
"wc+	c #635C50",
"xc+	c #746C5B",
"yc+	c #3B3224",
"zc+	c #5A5141",
"Ac+	c #433A2A",
"Bc+	c #382E21",
"Cc+	c #322A1F",
"Dc+	c #55473B",
"Ec+	c #453B2E",
"Fc+	c #5E5949",
"Gc+	c #594F45",
"Hc+	c #393123",
"Ic+	c #51443B",
"Jc+	c #4E4637",
"Kc+	c #3C2D22",
"Lc+	c #4C3A2B",
"Mc+	c #483924",
"Nc+	c #453325",
"Oc+	c #402F1B",
"Pc+	c #3F2D17",
"Qc+	c #43311A",
"Rc+	c #48321B",
"Sc+	c #553A24",
"Tc+	c #5A4839",
"Uc+	c #5E543F",
"Vc+	c #483729",
"Wc+	c #5F472E",
"Xc+	c #694D33",
"Yc+	c #563B26",
"Zc+	c #5D432D",
"`c+	c #6E4E32",
" d+	c #594226",
".d+	c #674F32",
"+d+	c #4D3119",
"@d+	c #593E27",
"#d+	c #60442E",
"$d+	c #625343",
"%d+	c #827666",
"&d+	c #6E6553",
"*d+	c #5D544A",
"=d+	c #604D39",
"-d+	c #583F29",
";d+	c #4A331C",
">d+	c #61492E",
",d+	c #5B4733",
"'d+	c #3C3021",
")d+	c #604D36",
"!d+	c #65523E",
"~d+	c #8C7967",
"{d+	c #655241",
"]d+	c #4D3F2E",
"^d+	c #4D3D29",
"/d+	c #574A33",
"(d+	c #665441",
"_d+	c #6B5944",
":d+	c #3E2F21",
"<d+	c #564B3D",
"[d+	c #4B3F2F",
"}d+	c #5F5745",
"|d+	c #6D6251",
"1d+	c #766551",
"2d+	c #624B30",
"3d+	c #65543B",
"4d+	c #83735C",
"5d+	c #473627",
"6d+	c #463525",
"7d+	c #5C4834",
"8d+	c #544432",
"9d+	c #403223",
"0d+	c #5B4029",
"ad+	c #5C3F23",
"bd+	c #503316",
"cd+	c #5B4730",
"dd+	c #65533A",
"ed+	c #32291C",
"fd+	c #1C1E1C",
"gd+	c #281E19",
"hd+	c #4A4640",
"id+	c #33281D",
"jd+	c #120B05",
"kd+	c #25221A",
"ld+	c #483728",
"md+	c #554734",
"nd+	c #513B2A",
"od+	c #4C3921",
"pd+	c #5B4831",
"qd+	c #493C26",
"rd+	c #585242",
"sd+	c #665B4A",
"td+	c #4F4539",
"ud+	c #4E4235",
"vd+	c #574730",
"wd+	c #695643",
"xd+	c #645640",
"yd+	c #605139",
"zd+	c #382D20",
"Ad+	c #251D17",
"Bd+	c #817B69",
"Cd+	c #7F776A",
"Dd+	c #3D3224",
"Ed+	c #685840",
"Fd+	c #3E2D1C",
"Gd+	c #3B2B1C",
"Hd+	c #4A3B2C",
"Id+	c #4B3926",
"Jd+	c #41382B",
"Kd+	c #3C322B",
"Ld+	c #51493E",
"Md+	c #6E6456",
"Nd+	c #57503F",
"Od+	c #493F34",
"Pd+	c #433E30",
"Qd+	c #483F34",
"Rd+	c #413927",
"Sd+	c #41382E",
"Td+	c #403728",
"Ud+	c #51463D",
"Vd+	c #43392A",
"Wd+	c #3A3123",
"Xd+	c #534539",
"Yd+	c #403525",
"Zd+	c #2C2215",
"`d+	c #453523",
" e+	c #4E3D2D",
".e+	c #56402B",
"+e+	c #583B24",
"@e+	c #453421",
"#e+	c #493A29",
"$e+	c #4D4032",
"%e+	c #473D2D",
"&e+	c #433527",
"*e+	c #403120",
"=e+	c #403421",
"-e+	c #443525",
";e+	c #4F3920",
">e+	c #5A4027",
",e+	c #593E21",
"'e+	c #5F4327",
")e+	c #5A3F25",
"!e+	c #4D3421",
"~e+	c #4A331E",
"{e+	c #634D38",
"]e+	c #49341F",
"^e+	c #64584B",
"/e+	c #594E42",
"(e+	c #6D6458",
"_e+	c #4C4538",
":e+	c #3A332A",
"<e+	c #928B7E",
"[e+	c #40372A",
"}e+	c #564D3C",
"|e+	c #B59E81",
"1e+	c #5F4833",
"2e+	c #776148",
"3e+	c #4B3821",
"4e+	c #503721",
"5e+	c #3C3022",
"6e+	c #514331",
"7e+	c #473A26",
"8e+	c #62513C",
"9e+	c #84735C",
"0e+	c #493927",
"ae+	c #564734",
"be+	c #564837",
"ce+	c #453D30",
"de+	c #716557",
"ee+	c #5E5346",
"fe+	c #5E5242",
"ge+	c #654C2D",
"he+	c #4A321B",
"ie+	c #594D3F",
"je+	c #746652",
"ke+	c #3B2E1D",
"le+	c #362B1D",
"me+	c #59422C",
"ne+	c #50412B",
"oe+	c #6C5C46",
"pe+	c #362C20",
"qe+	c #1E170E",
"re+	c #3C2E21",
"se+	c #31281D",
"te+	c #2A2217",
"ue+	c #1A1510",
"ve+	c #392F28",
"we+	c #30271A",
"xe+	c #3F3426",
"ye+	c #342819",
"ze+	c #43362A",
"Ae+	c #1C1A10",
"Be+	c #6C6C5D",
"Ce+	c #898985",
"De+	c #4F3E2A",
"Ee+	c #4E3C24",
"Fe+	c #523E2D",
"Ge+	c #786144",
"He+	c #827058",
"Ie+	c #665641",
"Je+	c #6A6450",
"Ke+	c #5F5647",
"Le+	c #453B29",
"Me+	c #6E614C",
"Ne+	c #61513D",
"Oe+	c #4B392B",
"Pe+	c #5F4C36",
"Qe+	c #554A35",
"Re+	c #514735",
"Se+	c #372D22",
"Te+	c #352C27",
"Ue+	c #513E2C",
"Ve+	c #6C5840",
"We+	c #3D3221",
"Xe+	c #5D4F37",
"Ye+	c #4B4137",
"Ze+	c #4D4636",
"`e+	c #4F453F",
" f+	c #5F574B",
".f+	c #4D453A",
"+f+	c #40372F",
"@f+	c #574E43",
"#f+	c #3F3A2C",
"$f+	c #463E36",
"%f+	c #423727",
"&f+	c #41372A",
"*f+	c #403927",
"=f+	c #585141",
"-f+	c #433830",
";f+	c #362D21",
">f+	c #473C2B",
",f+	c #35291F",
"'f+	c #473623",
")f+	c #4C3727",
"!f+	c #493622",
"~f+	c #412F1D",
"{f+	c #5A462D",
"]f+	c #56493A",
"^f+	c #554A38",
"/f+	c #433728",
"(f+	c #4D3E2F",
"_f+	c #3A2818",
":f+	c #573F23",
"<f+	c #48331C",
"[f+	c #4C3724",
"}f+	c #482F19",
"|f+	c #493521",
"1f+	c #4F3B1F",
"2f+	c #4E3E29",
"3f+	c #75695A",
"4f+	c #4A4436",
"5f+	c #635C4C",
"6f+	c #4D3920",
"7f+	c #49321E",
"8f+	c #422E19",
"9f+	c #503B28",
"0f+	c #4F3721",
"af+	c #695B48",
"bf+	c #3B3126",
"cf+	c #5F5340",
"df+	c #4D422E",
"ef+	c #5B4C3A",
"ff+	c #574934",
"gf+	c #6E5D44",
"hf+	c #816E56",
"if+	c #5E5647",
"jf+	c #665D4D",
"kf+	c #544B3C",
"lf+	c #635544",
"mf+	c #4E3D28",
"nf+	c #452B11",
"of+	c #573D22",
"pf+	c #4C351E",
"qf+	c #4C3B27",
"rf+	c #3D2F1D",
"sf+	c #3D2D21",
"tf+	c #332616",
"uf+	c #332515",
"vf+	c #4F3521",
"wf+	c #4E351B",
"xf+	c #776048",
"yf+	c #554732",
"zf+	c #554636",
"Af+	c #4A3B2F",
"Bf+	c #423826",
"Cf+	c #504232",
"Df+	c #372A21",
"Ef+	c #18130D",
"Ff+	c #67615E",
"Gf+	c #2F2316",
"Hf+	c #534432",
"If+	c #5C503D",
"Jf+	c #403124",
"Kf+	c #2C2317",
"Lf+	c #30281E",
"Mf+	c #725F48",
"Nf+	c #56442B",
"Of+	c #4E3626",
"Pf+	c #5D4734",
"Qf+	c #4F391E",
"Rf+	c #5F4A34",
"Sf+	c #685641",
"Tf+	c #766651",
"Uf+	c #4F4435",
"Vf+	c #5A4B3B",
"Wf+	c #63574A",
"Xf+	c #57513F",
"Yf+	c #594B39",
"Zf+	c #6D5F4A",
"`f+	c #63563E",
" g+	c #67513D",
".g+	c #756348",
"+g+	c #574534",
"@g+	c #302619",
"#g+	c #4A3A2A",
"$g+	c #57412B",
"%g+	c #44392F",
"&g+	c #484234",
"*g+	c #332D23",
"=g+	c #534B46",
"-g+	c #484039",
";g+	c #463D34",
">g+	c #463A2E",
",g+	c #5E4F41",
"'g+	c #534A3C",
")g+	c #463C30",
"!g+	c #3F352B",
"~g+	c #564E41",
"{g+	c #5C5245",
"]g+	c #463D2F",
"^g+	c #483E32",
"/g+	c #514134",
"(g+	c #534635",
"_g+	c #423326",
":g+	c #34271C",
"<g+	c #43392D",
"[g+	c #4B3A29",
"}g+	c #483823",
"|g+	c #402D15",
"1g+	c #6A503E",
"2g+	c #433021",
"3g+	c #3A2917",
"4g+	c #463A2F",
"5g+	c #786F5F",
"6g+	c #38311D",
"7g+	c #4A3E2C",
"8g+	c #433620",
"9g+	c #554532",
"0g+	c #452D18",
"ag+	c #735A3F",
"bg+	c #4E3726",
"cg+	c #6C5139",
"dg+	c #5B432A",
"eg+	c #4B4139",
"fg+	c #5E584A",
"gg+	c #352D26",
"hg+	c #443933",
"ig+	c #3E2F1C",
"jg+	c #493924",
"kg+	c #79654C",
"lg+	c #4C3D22",
"mg+	c #604C39",
"ng+	c #64503F",
"og+	c #352B1D",
"pg+	c #4E4236",
"qg+	c #4E3D30",
"rg+	c #4B402C",
"sg+	c #5F4F3B",
"tg+	c #624F3A",
"ug+	c #473826",
"vg+	c #64523B",
"wg+	c #705F4D",
"xg+	c #715F4C",
"yg+	c #423522",
"zg+	c #433528",
"Ag+	c #524538",
"Bg+	c #504233",
"Cg+	c #615141",
"Dg+	c #6A573F",
"Eg+	c #664D35",
"Fg+	c #52361D",
"Gg+	c #82644A",
"Hg+	c #5C4C33",
"Ig+	c #5E4B3A",
"Jg+	c #73614B",
"Kg+	c #61503F",
"Lg+	c #36291D",
"Mg+	c #6D5638",
"Ng+	c #45311B",
"Og+	c #6A533C",
"Pg+	c #665642",
"Qg+	c #605644",
"Rg+	c #605242",
"Sg+	c #493C30",
"Tg+	c #31251D",
"Ug+	c #584C3E",
"Vg+	c #423827",
"Wg+	c #554738",
"Xg+	c #735D45",
"Yg+	c #5C4430",
"Zg+	c #5C4A32",
"`g+	c #564632",
" h+	c #4A3B26",
".h+	c #5A4F3A",
"+h+	c #584E44",
"@h+	c #6D6457",
"#h+	c #887560",
"$h+	c #63503C",
"%h+	c #64553A",
"&h+	c #6C593C",
"*h+	c #5C4A3B",
"=h+	c #564832",
"-h+	c #5C4A30",
";h+	c #433523",
">h+	c #615143",
",h+	c #423626",
"'h+	c #6E5F4E",
")h+	c #1D1B13",
"!h+	c #373225",
"~h+	c #40352B",
"{h+	c #2E2A1E",
"]h+	c #574C41",
"^h+	c #595042",
"/h+	c #3C352B",
"(h+	c #393129",
"_h+	c #40382F",
":h+	c #3F362F",
"<h+	c #372F26",
"[h+	c #5B5345",
"}h+	c #423829",
"|h+	c #675E4D",
"1h+	c #5D5045",
"2h+	c #6D6352",
"3h+	c #524C3C",
"4h+	c #483F35",
"5h+	c #454033",
"6h+	c #3F3428",
"7h+	c #443B29",
"8h+	c #3A2F25",
"9h+	c #3D2F22",
"0h+	c #302616",
"ah+	c #493423",
"bh+	c #503D26",
"ch+	c #4D3A2C",
"dh+	c #4F4032",
"eh+	c #493E2E",
"fh+	c #4F4336",
"gh+	c #3B3528",
"hh+	c #4A4331",
"ih+	c #4F4132",
"jh+	c #35271E",
"kh+	c #3E3729",
"lh+	c #493B2C",
"mh+	c #523925",
"nh+	c #543B27",
"oh+	c #46321F",
"ph+	c #3B250E",
"qh+	c #46301A",
"rh+	c #4F392B",
"sh+	c #5E5546",
"th+	c #544A3E",
"uh+	c #51473C",
"vh+	c #504A3C",
"wh+	c #484134",
"xh+	c #574E42",
"yh+	c #605C4C",
"zh+	c #4D483A",
"Ah+	c #4D4035",
"Bh+	c #5E5246",
"Ch+	c #453927",
"Dh+	c #51402A",
"Eh+	c #7A6650",
"Fh+	c #54452F",
"Gh+	c #423A29",
"Hh+	c #372E22",
"Ih+	c #443A2C",
"Jh+	c #5F5644",
"Kh+	c #4D3D31",
"Lh+	c #594939",
"Mh+	c #4E3F2D",
"Nh+	c #5A4834",
"Oh+	c #473C2A",
"Ph+	c #403425",
"Qh+	c #564838",
"Rh+	c #584C3F",
"Sh+	c #4C4135",
"Th+	c #494233",
"Uh+	c #50463C",
"Vh+	c #5F5343",
"Wh+	c #654B35",
"Xh+	c #5A4633",
"Yh+	c #584430",
"Zh+	c #5A4A37",
"`h+	c #5E503F",
" i+	c #4B3B2F",
".i+	c #382C21",
"+i+	c #382616",
"@i+	c #422F1B",
"#i+	c #604630",
"$i+	c #4E371D",
"%i+	c #61523A",
"&i+	c #584A3D",
"*i+	c #54483A",
"=i+	c #645749",
"-i+	c #453928",
";i+	c #3F2F1F",
">i+	c #534335",
",i+	c #3B2E20",
"'i+	c #413429",
")i+	c #4F4333",
"!i+	c #66584D",
"~i+	c #6B5846",
"{i+	c #443223",
"]i+	c #403227",
"^i+	c #403127",
"/i+	c #3C2F20",
"(i+	c #4E3C27",
"_i+	c #352212",
":i+	c #564835",
"<i+	c #6F6052",
"[i+	c #4D4233",
"}i+	c #5A4F43",
"|i+	c #584D43",
"1i+	c #675E53",
"2i+	c #70614F",
"3i+	c #726350",
"4i+	c #695541",
"5i+	c #5C4D39",
"6i+	c #534232",
"7i+	c #51422C",
"8i+	c #4B3D28",
"9i+	c #4E4332",
"0i+	c #3D2E21",
"ai+	c #4A4135",
"bi+	c #4A4136",
"ci+	c #403A2B",
"di+	c #312721",
"ei+	c #312921",
"fi+	c #493D35",
"gi+	c #44392E",
"hi+	c #483C30",
"ii+	c #4F4838",
"ji+	c #4B3E2E",
"ki+	c #4F4437",
"li+	c #4E4738",
"mi+	c #696151",
"ni+	c #473E31",
"oi+	c #453F32",
"pi+	c #5A4F40",
"qi+	c #494234",
"ri+	c #3D3528",
"si+	c #433829",
"ti+	c #4D4033",
"ui+	c #433428",
"vi+	c #574435",
"wi+	c #4C3E2D",
"xi+	c #503D2C",
"yi+	c #4C3828",
"zi+	c #49341E",
"Ai+	c #4E402F",
"Bi+	c #554838",
"Ci+	c #473B30",
"Di+	c #54493B",
"Ei+	c #453C2E",
"Fi+	c #37261A",
"Gi+	c #5A4527",
"Hi+	c #4D3517",
"Ii+	c #7F6349",
"Ji+	c #563D25",
"Ki+	c #4E351D",
"Li+	c #46331C",
"Mi+	c #5A4128",
"Ni+	c #60574A",
"Oi+	c #484130",
"Pi+	c #483D32",
"Qi+	c #3F3321",
"Ri+	c #63503B",
"Si+	c #362F21",
"Ti+	c #655548",
"Ui+	c #5D503C",
"Vi+	c #554432",
"Wi+	c #4A3F2F",
"Xi+	c #4E3F2E",
"Yi+	c #5D4F3D",
"Zi+	c #4C432E",
"`i+	c #655949",
" j+	c #655B51",
".j+	c #624A32",
"+j+	c #6B513B",
"@j+	c #5D452F",
"#j+	c #493B2A",
"$j+	c #42332B",
"%j+	c #3F3326",
"&j+	c #58452E",
"*j+	c #6F5C47",
"=j+	c #4B3D2A",
"-j+	c #635646",
";j+	c #554A3B",
">j+	c #4B3D29",
",j+	c #3E3024",
"'j+	c #4C4230",
")j+	c #372C22",
"!j+	c #4D3D2C",
"~j+	c #403625",
"{j+	c #574638",
"]j+	c #4F3A24",
"^j+	c #595040",
"/j+	c #464334",
"(j+	c #4E483A",
"_j+	c #655848",
":j+	c #6B6151",
"<j+	c #796C58",
"[j+	c #6E5F45",
"}j+	c #6C5C48",
"|j+	c #62523F",
"1j+	c #4D3E2A",
"2j+	c #625540",
"3j+	c #5D4E3B",
"4j+	c #493F32",
"5j+	c #473E37",
"6j+	c #393225",
"7j+	c #453A33",
"8j+	c #3B332A",
"9j+	c #4A4034",
"0j+	c #4C4134",
"aj+	c #5A4D44",
"bj+	c #41372C",
"cj+	c #32281C",
"dj+	c #3C2E22",
"ej+	c #473C2E",
"fj+	c #57493A",
"gj+	c #534132",
"hj+	c #463624",
"ij+	c #625443",
"jj+	c #67523A",
"kj+	c #7A634D",
"lj+	c #534033",
"mj+	c #3A2D1E",
"nj+	c #493F36",
"oj+	c #3A2D24",
"pj+	c #4D4436",
"qj+	c #3B2F25",
"rj+	c #3F3627",
"sj+	c #372B22",
"tj+	c #63492C",
"uj+	c #593E24",
"vj+	c #564132",
"wj+	c #604B37",
"xj+	c #5E5646",
"yj+	c #867B6D",
"zj+	c #53483E",
"Aj+	c #4C4339",
"Bj+	c #4D473B",
"Cj+	c #514B3D",
"Dj+	c #4E4437",
"Ej+	c #3E3528",
"Fj+	c #5B4B39",
"Gj+	c #4C4130",
"Hj+	c #68523C",
"Ij+	c #47361F",
"Jj+	c #645649",
"Kj+	c #49382B",
"Lj+	c #473524",
"Mj+	c #564534",
"Nj+	c #4A3D2D",
"Oj+	c #5E4D41",
"Pj+	c #655849",
"Qj+	c #595144",
"Rj+	c #3F382C",
"Sj+	c #4E3B26",
"Tj+	c #543E2A",
"Uj+	c #6D5137",
"Vj+	c #584830",
"Wj+	c #524030",
"Xj+	c #43311E",
"Yj+	c #392E1D",
"Zj+	c #5A473B",
"`j+	c #402C1E",
" k+	c #5B4A31",
".k+	c #766B5A",
"+k+	c #605744",
"@k+	c #4E412D",
"#k+	c #443826",
"$k+	c #4C3E27",
"%k+	c #4E4034",
"&k+	c #42362D",
"*k+	c #554739",
"=k+	c #584D37",
"-k+	c #786952",
";k+	c #5B4A36",
">k+	c #524431",
",k+	c #493F2E",
"'k+	c #4A3F30",
")k+	c #574A3B",
"!k+	c #645B4D",
"~k+	c #39312A",
"{k+	c #41392C",
"]k+	c #685844",
"^k+	c #6E5D48",
"/k+	c #635541",
"(k+	c #81705C",
"_k+	c #7A6D58",
":k+	c #5E513C",
"<k+	c #64523F",
"[k+	c #524336",
"}k+	c #534633",
"|k+	c #392E1F",
"1k+	c #41372B",
"2k+	c #41382D",
"3k+	c #3D3429",
"4k+	c #413F32",
"5k+	c #393028",
"6k+	c #2E2517",
"7k+	c #3F362C",
"8k+	c #453D2F",
"9k+	c #524C3D",
"0k+	c #3C322C",
"ak+	c #473E30",
"bk+	c #3D3323",
"ck+	c #423329",
"dk+	c #3E3428",
"ek+	c #4E4333",
"fk+	c #453827",
"gk+	c #574B3F",
"hk+	c #554A39",
"ik+	c #39301F",
"jk+	c #3C2F23",
"kk+	c #64594E",
"lk+	c #3F3327",
"mk+	c #4B4034",
"nk+	c #40392B",
"ok+	c #382E25",
"pk+	c #433726",
"qk+	c #3C2917",
"rk+	c #725B3F",
"sk+	c #493722",
"tk+	c #3D2D1D",
"uk+	c #645641",
"vk+	c #574D42",
"wk+	c #383022",
"xk+	c #645E4D",
"yk+	c #565142",
"zk+	c #5B5547",
"Ak+	c #413A2E",
"Bk+	c #52483D",
"Ck+	c #584E46",
"Dk+	c #342C21",
"Ek+	c #46382B",
"Fk+	c #48392D",
"Gk+	c #554A37",
"Hk+	c #34281D",
"Ik+	c #483F31",
"Jk+	c #332A23",
"Kk+	c #3B3223",
"Lk+	c #41382A",
"Mk+	c #726657",
"Nk+	c #625947",
"Ok+	c #31281A",
"Pk+	c #3C3323",
"Qk+	c #483629",
"Rk+	c #3F3A2B",
"Sk+	c #5A5341",
"Tk+	c #45382D",
"Uk+	c #574A36",
"Vk+	c #493221",
"Wk+	c #442D1A",
"Xk+	c #594129",
"Yk+	c #6D5540",
"Zk+	c #5E4834",
"`k+	c #5C472D",
" l+	c #3E3023",
".l+	c #675840",
"+l+	c #422C19",
"@l+	c #6B5236",
"#l+	c #675B4C",
"$l+	c #695945",
"%l+	c #574B3B",
"&l+	c #564939",
"*l+	c #53442F",
"=l+	c #483A2C",
"-l+	c #4C3D2D",
";l+	c #54463A",
">l+	c #32281D",
",l+	c #5F513E",
"'l+	c #4C4132",
")l+	c #4F4535",
"!l+	c #483828",
"~l+	c #3F3121",
"{l+	c #53422C",
"]l+	c #493D2B",
"^l+	c #4C4032",
"/l+	c #615145",
"(l+	c #6E6048",
"_l+	c #6B5946",
":l+	c #635140",
"<l+	c #5D4D36",
"[l+	c #50402E",
"}l+	c #665941",
"|l+	c #443C34",
"1l+	c #484135",
"2l+	c #3E332C",
"3l+	c #494037",
"4l+	c #363227",
"5l+	c #67594E",
"6l+	c #362F25",
"7l+	c #564C43",
"8l+	c #5B4F44",
"9l+	c #463D2C",
"0l+	c #443930",
"al+	c #564B3C",
"bl+	c #4F4639",
"cl+	c #3D352A",
"dl+	c #392D22",
"el+	c #464030",
"fl+	c #403627",
"gl+	c #514839",
"hl+	c #423A2F",
"il+	c #4A3E31",
"jl+	c #393024",
"kl+	c #4C4337",
"ll+	c #5B4F43",
"ml+	c #43382E",
"nl+	c #3B3225",
"ol+	c #3E3526",
"pl+	c #392815",
"ql+	c #534027",
"rl+	c #523C28",
"sl+	c #4C3927",
"tl+	c #402D1B",
"ul+	c #432F1A",
"vl+	c #513E28",
"wl+	c #493727",
"xl+	c #5F533C",
"yl+	c #5D5143",
"zl+	c #594F46",
"Al+	c #362C23",
"Bl+	c #585143",
"Cl+	c #4E4031",
"Dl+	c #483D2A",
"El+	c #594334",
"Fl+	c #533F2F",
"Gl+	c #3B3125",
"Hl+	c #55493C",
"Il+	c #635547",
"Jl+	c #827868",
"Kl+	c #655442",
"Ll+	c #544532",
"Ml+	c #857C6C",
"Nl+	c #483C31",
"Ol+	c #4B4234",
"Pl+	c #4A4131",
"Ql+	c #695039",
"Rl+	c #59412A",
"Sl+	c #523A22",
"Tl+	c #493C2E",
"Ul+	c #473626",
"Vl+	c #7A6246",
"Wl+	c #625647",
"Xl+	c #5C5541",
"Yl+	c #46392D",
"Zl+	c #423322",
"`l+	c #615139",
" m+	c #524537",
".m+	c #3C3124",
"+m+	c #3B3327",
"@m+	c #5A4E41",
"#m+	c #403422",
"$m+	c #635240",
"%m+	c #564535",
"&m+	c #3A2F22",
"*m+	c #5E5845",
"=m+	c #504836",
"-m+	c #635342",
";m+	c #574C3C",
">m+	c #7C6D58",
",m+	c #584A3B",
"'m+	c #615540",
")m+	c #4F4237",
"!m+	c #4B4637",
"~m+	c #3E3227",
"{m+	c #4F453B",
"]m+	c #524D3E",
"^m+	c #403E2F",
"/m+	c #4F4438",
"(m+	c #554A3D",
"_m+	c #423B30",
":m+	c #4C4335",
"<m+	c #594E44",
"[m+	c #4B4036",
"}m+	c #332B1E",
"|m+	c #453C2D",
"1m+	c #3C3427",
"2m+	c #474334",
"3m+	c #413829",
"4m+	c #443A31",
"5m+	c #413B30",
"6m+	c #504538",
"7m+	c #43372C",
"8m+	c #2A2216",
"9m+	c #483A28",
"0m+	c #59412B",
"am+	c #695038",
"bm+	c #513E2B",
"cm+	c #4D3C2A",
"dm+	c #554A3E",
"em+	c #676152",
"fm+	c #3A332B",
"gm+	c #373126",
"hm+	c #5E554A",
"im+	c #3E352C",
"jm+	c #3C3429",
"km+	c #3B3628",
"lm+	c #433328",
"mm+	c #332C21",
"nm+	c #594D42",
"om+	c #595442",
"pm+	c #695F4D",
"qm+	c #534234",
"rm+	c #655946",
"sm+	c #746B5C",
"tm+	c #7A7260",
"um+	c #42372B",
"vm+	c #534A37",
"wm+	c #6A5C4A",
"xm+	c #4C4232",
"ym+	c #4B311C",
"zm+	c #4A3018",
"Am+	c #684C32",
"Bm+	c #5B4631",
"Cm+	c #604A36",
"Dm+	c #5E4C34",
"Em+	c #463727",
"Fm+	c #4D4134",
"Gm+	c #3C3128",
"Hm+	c #3E2F24",
"Im+	c #695B4B",
"Jm+	c #615643",
"Km+	c #4A3A27",
"Lm+	c #594835",
"Mm+	c #493A2A",
"Nm+	c #3F3425",
"Om+	c #332B22",
"Pm+	c #483F33",
"Qm+	c #443623",
"Rm+	c #514938",
"Sm+	c #42382B",
"Tm+	c #473C31",
"Um+	c #463B32",
"Vm+	c #483E34",
"Wm+	c #736758",
"Xm+	c #443629",
"Ym+	c #5F5544",
"Zm+	c #584B37",
"`m+	c #4D4331",
" n+	c #594C3E",
".n+	c #493F37",
"+n+	c #4E4239",
"@n+	c #40372D",
"#n+	c #595142",
"$n+	c #453A32",
"%n+	c #584D42",
"&n+	c #4F4739",
"*n+	c #50453A",
"=n+	c #3B3326",
"-n+	c #443D2E",
";n+	c #352E28",
">n+	c #423A2E",
",n+	c #31271F",
"'n+	c #373029",
")n+	c #3E332B",
"!n+	c #322A20",
"~n+	c #544A3F",
"{n+	c #4B4037",
"]n+	c #473B2E",
"^n+	c #4B3F31",
"/n+	c #4F3C27",
"(n+	c #433120",
"_n+	c #3E291C",
":n+	c #533E2B",
"<n+	c #513E2A",
"[n+	c #44331E",
"}n+	c #3F2A19",
"|n+	c #59493B",
"1n+	c #4F433B",
"2n+	c #332A1E",
"3n+	c #2E281E",
"4n+	c #453E32",
"5n+	c #48403B",
"6n+	c #463D33",
"7n+	c #74695D",
"8n+	c #4A4334",
"9n+	c #54493A",
"0n+	c #373124",
"an+	c #534840",
"bn+	c #2C2518",
"cn+	c #797061",
"dn+	c #574B3C",
"en+	c #5C4C34",
"fn+	c #4A3926",
"gn+	c #68563F",
"hn+	c #492F1C",
"in+	c #4C381F",
"jn+	c #47311C",
"kn+	c #473828",
"ln+	c #433223",
"mn+	c #3C3424",
"nn+	c #443429",
"on+	c #5A4536",
"pn+	c #4C3625",
"qn+	c #604C38",
"rn+	c #7A6D5C",
"sn+	c #463928",
"tn+	c #504938",
"un+	c #494132",
"vn+	c #3E3628",
"wn+	c #564C41",
"xn+	c #494131",
"yn+	c #524B3C",
"zn+	c #44382B",
"An+	c #6A5F50",
"Bn+	c #5C4E3E",
"Cn+	c #392E23",
"Dn+	c #463A32",
"En+	c #504336",
"Fn+	c #494133",
"Gn+	c #615B4D",
"Hn+	c #554F3E",
"In+	c #453E2F",
"Jn+	c #554E3F",
"Kn+	c #382E28",
"Ln+	c #3B3428",
"Mn+	c #65584C",
"Nn+	c #4E4636",
"On+	c #4C4033",
"Pn+	c #443A33",
"Qn+	c #423930",
"Rn+	c #3F3632",
"Sn+	c #3C322A",
"Tn+	c #3F382F",
"Un+	c #373127",
"Vn+	c #3D342F",
"Wn+	c #302C26",
"Xn+	c #29241B",
"Yn+	c #3D352C",
"Zn+	c #474039",
"`n+	c #40392D",
" o+	c #3E3329",
".o+	c #42392A",
"+o+	c #3C301D",
"@o+	c #453322",
"#o+	c #453324",
"$o+	c #463221",
"%o+	c #3D2D1C",
"&o+	c #3A2D1D",
"*o+	c #443425",
"=o+	c #3E342A",
"-o+	c #4C423A",
";o+	c #362E23",
">o+	c #524A3D",
",o+	c #463E35",
"'o+	c #615548",
")o+	c #373122",
"!o+	c #302A1F",
"~o+	c #3A3127",
"{o+	c #5F5547",
"]o+	c #554B3A",
"^o+	c #3A2B1D",
"/o+	c #443522",
"(o+	c #60513F",
"_o+	c #4D4737",
":o+	c #413523",
"<o+	c #443224",
"[o+	c #46321E",
"}o+	c #54402B",
"|o+	c #442C1A",
"1o+	c #4E3520",
"2o+	c #392714",
"3o+	c #402C1C",
"4o+	c #3A2C19",
"5o+	c #5D513D",
"6o+	c #4F4233",
"7o+	c #453524",
"8o+	c #624831",
"9o+	c #4F412B",
"0o+	c #635846",
"ao+	c #4F493A",
"bo+	c #6F6751",
"co+	c #554939",
"do+	c #5F5141",
"eo+	c #4C3B2C",
"fo+	c #514133",
"go+	c #4F473C",
"ho+	c #453A2D",
"io+	c #3E342B",
"jo+	c #392F27",
"ko+	c #41372D",
"lo+	c #484033",
"mo+	c #3E382E",
"no+	c #545042",
"oo+	c #53493E",
"po+	c #554D45",
"qo+	c #403C30",
"ro+	c #494434",
"so+	c #5A5047",
"to+	c #4E4433",
"uo+	c #4A3D2F",
"vo+	c #5D5244",
"wo+	c #50473B",
"xo+	c #534837",
"yo+	c #7F725E",
"zo+	c #302720",
"Ao+	c #372D20",
"Bo+	c #564F44",
"Co+	c #3A3026",
"Do+	c #4D4536",
"Eo+	c #5E5649",
"Fo+	c #504A3D",
"Go+	c #5A5244",
"Ho+	c #3E352D",
"Io+	c #2D261F",
"Jo+	c #39312D",
"Ko+	c #2B231E",
"Lo+	c #433B35",
"Mo+	c #483E37",
"No+	c #2E2922",
"Oo+	c #302B23",
"Po+	c #312D20",
"Qo+	c #3F392C",
"Ro+	c #382C1D",
"So+	c #3F3222",
"To+	c #574230",
"Uo+	c #513C27",
"Vo+	c #4E3B2C",
"Wo+	c #483723",
"Xo+	c #45372D",
"Yo+	c #473728",
"Zo+	c #50463A",
"`o+	c #696052",
" p+	c #3A352A",
".p+	c #554C3C",
"+p+	c #4F4030",
"@p+	c #5E4D3B",
"#p+	c #4C3A29",
"$p+	c #493D2E",
"%p+	c #3E2F22",
"&p+	c #544732",
"*p+	c #392716",
"=p+	c #624930",
"-p+	c #503D23",
";p+	c #4E3E24",
">p+	c #4F3D29",
",p+	c #533E2A",
"'p+	c #4E422E",
")p+	c #48382A",
"!p+	c #685339",
"~p+	c #483C2C",
"{p+	c #57483B",
"]p+	c #5C5045",
"^p+	c #3E3426",
"/p+	c #4C433A",
"(p+	c #3B3328",
"_p+	c #473E39",
":p+	c #60564D",
"<p+	c #534739",
"[p+	c #5A4E43",
"}p+	c #574D3F",
"|p+	c #524838",
"1p+	c #675A4A",
"2p+	c #292119",
"3p+	c #5E5446",
"4p+	c #695F50",
"5p+	c #7B7462",
"6p+	c #352F20",
"7p+	c #4E4536",
"8p+	c #483E31",
"9p+	c #493F31",
"0p+	c #352C21",
"ap+	c #3C342A",
"bp+	c #382E24",
"cp+	c #353026",
"dp+	c #342B25",
"ep+	c #332D24",
"fp+	c #3B3728",
"gp+	c #514A3E",
"hp+	c #554C3F",
"ip+	c #443B2A",
"jp+	c #564A3C",
"kp+	c #4C4236",
"lp+	c #3C2E1A",
"mp+	c #544234",
"np+	c #3B2F1F",
"op+	c #463223",
"pp+	c #3A2C1F",
"qp+	c #42392D",
"rp+	c #30291F",
"sp+	c #2F2C23",
"tp+	c #302D24",
"up+	c #473D35",
"vp+	c #39362B",
"wp+	c #3A322B",
"xp+	c #433B30",
"yp+	c #4F463A",
"zp+	c #373226",
"Ap+	c #473E2F",
"Bp+	c #695F4B",
"Cp+	c #726857",
"Dp+	c #4C402E",
"Ep+	c #604D3A",
"Fp+	c #5D5141",
"Gp+	c #6E5F50",
"Hp+	c #544639",
"Ip+	c #584D3D",
"Jp+	c #55422F",
"Kp+	c #4C3823",
"Lp+	c #3D2A1A",
"Mp+	c #462E1C",
"Np+	c #413020",
"Op+	c #35281A",
"Pp+	c #453B2B",
"Qp+	c #342519",
"Rp+	c #66563E",
"Sp+	c #4F4331",
"Tp+	c #615545",
"Up+	c #3A2F1E",
"Vp+	c #463725",
"Wp+	c #423D33",
"Xp+	c #40362F",
"Yp+	c #625546",
"Zp+	c #3B332D",
"`p+	c #362E25",
" q+	c #60584A",
".q+	c #2F271E",
"+q+	c #4D4836",
"@q+	c #40372B",
"#q+	c #473D2E",
"$q+	c #514836",
"%q+	c #493F2D",
"&q+	c #3A3428",
"*q+	c #534B39",
"=q+	c #574F3E",
"-q+	c #40392A",
";q+	c #6A6057",
">q+	c #4C463A",
",q+	c #4D4437",
"'q+	c #474030",
")q+	c #342D24",
"!q+	c #3E352F",
"~q+	c #3E342C",
"{q+	c #3F372F",
"]q+	c #392F29",
"^q+	c #322C22",
"/q+	c #382F2A",
"(q+	c #413B2D",
"_q+	c #463B2D",
":q+	c #382F22",
"<q+	c #3D3025",
"[q+	c #3B2E25",
"}q+	c #413526",
"|q+	c #3D3124",
"1q+	c #3B3025",
"2q+	c #3F382D",
"3q+	c #3C332B",
"4q+	c #4E4438",
"5q+	c #463C35",
"6q+	c #494038",
"7q+	c #362D28",
"8q+	c #2E2820",
"9q+	c #2E271D",
"0q+	c #55493D",
"aq+	c #4E4336",
"bq+	c #3C3222",
"cq+	c #3E331F",
"dq+	c #45372B",
"eq+	c #6C5B44",
"fq+	c #5B4C38",
"gq+	c #4A4036",
"hq+	c #645142",
"iq+	c #68543F",
"jq+	c #523F2E",
"kq+	c #493523",
"lq+	c #4D3827",
"mq+	c #4A3924",
"nq+	c #6A5038",
"oq+	c #43362B",
"pq+	c #483926",
"qq+	c #504132",
"rq+	c #44301F",
"sq+	c #55483A",
"tq+	c #403426",
"uq+	c #625140",
"vq+	c #4D412E",
"wq+	c #403224",
"xq+	c #504532",
"yq+	c #5C5240",
"zq+	c #39322B",
"Aq+	c #574C43",
"Bq+	c #4B4039",
"Cq+	c #54493F",
"Dq+	c #48403A",
"Eq+	c #3C3626",
"Fq+	c #3C342E",
"Gq+	c #463F31",
"Hq+	c #4C4034",
"Iq+	c #54483E",
"Jq+	c #564A3F",
"Kq+	c #51453B",
"Lq+	c #413529",
"Mq+	c #4A4536",
"Nq+	c #3B342C",
"Oq+	c #3B352B",
"Pq+	c #3C332A",
"Qq+	c #464032",
"Rq+	c #282318",
"Sq+	c #352C26",
"Tq+	c #4C4235",
"Uq+	c #42372C",
"Vq+	c #423830",
"Wq+	c #352D24",
"Xq+	c #342C24",
"Yq+	c #352F26",
"Zq+	c #393029",
"`q+	c #3F392B",
" r+	c #4F4538",
".r+	c #382D1F",
"+r+	c #615848",
"@r+	c #3F352D",
"#r+	c #50473E",
"$r+	c #352D22",
"%r+	c #362C22",
"&r+	c #554F40",
"*r+	c #4D4330",
"=r+	c #493A27",
"-r+	c #41352B",
";r+	c #483E33",
">r+	c #4B3B2A",
",r+	c #43311C",
"'r+	c #66513D",
")r+	c #513B28",
"!r+	c #675743",
"~r+	c #423423",
"{r+	c #372B1A",
"]r+	c #4F3F31",
"^r+	c #483627",
"/r+	c #3D2E22",
"(r+	c #56493B",
"_r+	c #372F2A",
":r+	c #382F26",
"<r+	c #494231",
"[r+	c #403A2E",
"}r+	c #615A4A",
"|r+	c #484233",
"1r+	c #423929",
"2r+	c #443A35",
"3r+	c #6B6353",
"4r+	c #393125",
"5r+	c #3B382D",
"6r+	c #393325",
"7r+	c #61564A",
"8r+	c #4A3F34",
"9r+	c #443A32",
"0r+	c #3C342C",
"ar+	c #3C3227",
"br+	c #3E382C",
"cr+	c #3E3530",
"dr+	c #42392C",
"er+	c #392F21",
"fr+	c #393022",
"gr+	c #473E35",
"hr+	c #352F22",
"ir+	c #473F39",
"jr+	c #362E27",
"kr+	c #403A2D",
"lr+	c #463A30",
"mr+	c #776C60",
"nr+	c #493C35",
"or+	c #52453B",
"pr+	c #4D3D2E",
"qr+	c #544130",
"rr+	c #6B6051",
"sr+	c #56483D",
"tr+	c #3A2F23",
"ur+	c #5E5042",
"vr+	c #3E2E1D",
"wr+	c #534031",
"xr+	c #3D2B1C",
"yr+	c #4D3623",
"zr+	c #4C3B28",
"Ar+	c #403023",
"Br+	c #504135",
"Cr+	c #423525",
"Dr+	c #5F5442",
"Er+	c #584D40",
"Fr+	c #4B4231",
"Gr+	c #584F3C",
"Hr+	c #3B2B1A",
"Ir+	c #685949",
"Jr+	c #443324",
"Kr+	c #474134",
"Lr+	c #393126",
"Mr+	c #433F32",
"Nr+	c #3B3229",
"Or+	c #3F3628",
"Pr+	c #372F25",
"Qr+	c #3B3529",
"Rr+	c #3D3227",
"Sr+	c #3C3329",
"Tr+	c #4F463D",
"Ur+	c #4B4537",
"Vr+	c #373325",
"Wr+	c #564E43",
"Xr+	c #362E26",
"Yr+	c #3A3023",
"Zr+	c #40362C",
"`r+	c #3C3529",
" s+	c #4B3D32",
".s+	c #52493E",
"+s+	c #574D40",
"@s+	c #453D2E",
"#s+	c #332B24",
"$s+	c #362C26",
"%s+	c #433930",
"&s+	c #3A342A",
"*s+	c #564F40",
"=s+	c #302E22",
"-s+	c #3C3229",
";s+	c #3D3325",
">s+	c #362E21",
",s+	c #3F382A",
"'s+	c #2F291E",
")s+	c #2B2621",
"!s+	c #383025",
"~s+	c #444133",
"{s+	c #443E2F",
"]s+	c #665F4E",
"^s+	c #383429",
"/s+	c #564B39",
"(s+	c #473A2A",
"_s+	c #594C3D",
":s+	c #524438",
"<s+	c #4E4535",
"[s+	c #5B4D3F",
"}s+	c #5D5246",
"|s+	c #6D6153",
"1s+	c #4F4133",
"2s+	c #2F241A",
"3s+	c #352617",
"4s+	c #32251A",
"5s+	c #4A3A2B",
"6s+	c #3A2C21",
"7s+	c #463B2E",
"8s+	c #3E3323",
"9s+	c #2A1C0E",
"0s+	c #473420",
"as+	c #6A5D4E",
"bs+	c #584C3B",
"cs+	c #4C3C30",
"ds+	c #58493D",
"es+	c #453C2F",
"fs+	c #483D36",
"gs+	c #3F352E",
"hs+	c #5C5348",
"is+	c #625B4B",
"js+	c #6D6253",
"ks+	c #554C42",
"ls+	c #3A3629",
"ms+	c #3D322C",
"ns+	c #322C21",
"os+	c #433C2F",
"ps+	c #3D352F",
"qs+	c #352B23",
"rs+	c #403428",
"ss+	c #3B3027",
"ts+	c #493D31",
"us+	c #51493B",
"vs+	c #393529",
"ws+	c #352D23",
"xs+	c #2A241C",
"ys+	c #38322A",
"zs+	c #352D25",
"As+	c #392F26",
"Bs+	c #423B31",
"Cs+	c #50443A",
"Ds+	c #574C3B",
"Es+	c #51463A",
"Fs+	c #544F42",
"Gs+	c #2C261F",
"Hs+	c #3A3527",
"Is+	c #3A3126",
"Js+	c #3C342D",
"Ks+	c #342D28",
"Ls+	c #40362E",
"Ms+	c #564D3D",
"Ns+	c #786D61",
"Os+	c #686151",
"Ps+	c #5B5041",
"Qs+	c #5C4E3C",
"Rs+	c #5B4D3E",
"Ss+	c #6C5D50",
"Ts+	c #B1A994",
"Us+	c #73685B",
"Vs+	c #786F63",
"Ws+	c #746C5E",
"Xs+	c #5F5546",
"Ys+	c #7A735E",
"Zs+	c #3A3120",
"`s+	c #463A2B",
" t+	c #3D3023",
".t+	c #58493A",
"+t+	c #362920",
"@t+	c #4A3726",
"#t+	c #4F4736",
"$t+	c #3E3224",
"%t+	c #594D3C",
"&t+	c #3C3122",
"*t+	c #584F44",
"=t+	c #79705F",
"-t+	c #342B20",
";t+	c #483B33",
">t+	c #696050",
",t+	c #615549",
"'t+	c #4D443E",
")t+	c #362C21",
"!t+	c #433A2F",
"~t+	c #312A21",
"{t+	c #312A24",
"]t+	c #3D342B",
"^t+	c #362D26",
"/t+	c #322D21",
"(t+	c #3F3424",
"_t+	c #483C2F",
":t+	c #473B2F",
"<t+	c #413730",
"[t+	c #38312C",
"}t+	c #443C2C",
"|t+	c #4D433B",
"1t+	c #443E31",
"2t+	c #473F37",
"3t+	c #302C21",
"4t+	c #433B2E",
"5t+	c #362E2A",
"6t+	c #3E362D",
"7t+	c #3B3425",
"8t+	c #3D3126",
"9t+	c #3A3328",
"0t+	c #352A20",
"at+	c #685D53",
"bt+	c #433730",
"ct+	c #3F352A",
"dt+	c #4B3D33",
"et+	c #554A3F",
"ft+	c #726554",
"gt+	c #2A2518",
"ht+	c #605346",
"it+	c #413B2E",
"jt+	c #433D2F",
"kt+	c #423428",
"lt+	c #4C3E2F",
"mt+	c #392C1D",
"nt+	c #73634A",
"ot+	c #60503C",
"pt+	c #51443A",
"qt+	c #2D2920",
"rt+	c #342B23",
"st+	c #675D50",
"tt+	c #42382C",
"ut+	c #51463C",
"vt+	c #50473C",
"wt+	c #554B3F",
"xt+	c #352C23",
"yt+	c #42392F",
"zt+	c #2B241B",
"At+	c #463A28",
"Bt+	c #2F2A22",
"Ct+	c #333024",
"Dt+	c #4F463F",
"Et+	c #473628",
"Ft+	c #403229",
"Gt+	c #45382B",
"Ht+	c #382D21",
"It+	c #493B30",
"Jt+	c #5F5548",
"Kt+	c #5C5147",
"Lt+	c #4C4535",
"Mt+	c #43382D",
"Nt+	c #474233",
"Ot+	c #51493F",
"Pt+	c #3D332A",
"Qt+	c #3F3729",
"Rt+	c #423831",
"St+	c #463A31",
"Tt+	c #363026",
"Ut+	c #3C352D",
"Vt+	c #4A3F33",
"Wt+	c #332D22",
"Xt+	c #5A5145",
"Yt+	c #3D3027",
"Zt+	c #50463B",
"`t+	c #7A7063",
" u+	c #696153",
".u+	c #463B30",
"+u+	c #2D2416",
"@u+	c #363225",
"#u+	c #4A4435",
"$u+	c #312519",
"%u+	c #443929",
"&u+	c #382B19",
"*u+	c #493B2F",
"=u+	c #4B3E31",
"-u+	c #453A29",
";u+	c #44362C",
">u+	c #4A3D2E",
",u+	c #4E4337",
"'u+	c #473C35",
")u+	c #3C332C",
"!u+	c #433D2E",
"~u+	c #4A413A",
"{u+	c #605447",
"]u+	c #3D3728",
"^u+	c #544943",
"/u+	c #272217",
"(u+	c #61543C",
"_u+	c #574F3D",
":u+	c #6A5D4F",
"<u+	c #584B3E",
"[u+	c #5B5146",
"}u+	c #534B3C",
"|u+	c #4C4333",
"1u+	c #5C544A",
"2u+	c #504338",
"3u+	c #483E2E",
"4u+	c #383028",
"5u+	c #453C33",
"6u+	c #615546",
"7u+	c #342C1C",
"8u+	c #6B6152",
"9u+	c #27221A",
"0u+	c #5F5444",
"au+	c #493E2D",
"bu+	c #47362A",
"cu+	c #5A4D38",
"du+	c #493F2B",
"eu+	c #6A6150",
"fu+	c #534A3B",
"gu+	c #594A37",
"hu+	c #342C22",
"iu+	c #3D342C",
"ju+	c #5C5247",
"ku+	c #4A3E32",
"lu+	c #4D4838",
"mu+	c #403B2D",
"nu+	c #4F4637",
"ou+	c #666050",
"pu+	c #6A6153",
"qu+	c #51493A",
"ru+	c #4C4536",
"su+	c #342D1F",
"tu+	c #463D36",
"uu+	c #453B32",
"vu+	c #403524",
"wu+	c #695F53",
"xu+	c #4B4639",
"yu+	c #392C1E",
"zu+	c #504436",
"Au+	c #584E43",
"Bu+	c #594F47",
"Cu+	c #584D41",
"Du+	c #4B4237",
"Eu+	c #473E36",
"Fu+	c #3A3229",
"Gu+	c #454032",
"Hu+	c #524A42",
"Iu+	c #62584C",
"Ju+	c #4E4238",
"Ku+	c #5F5449",
"Lu+	c #584F3F",
"Mu+	c #726B5C",
"Nu+	c #685F55",
"Ou+	c #6E6154",
"Pu+	c #61564B",
"Qu+	c #29251C",
"Ru+	c #685B45",
"Su+	c #413725",
"Tu+	c #534538",
"Uu+	c #433928",
"Vu+	c #4B3E32",
"Wu+	c #4F453C",
"Xu+	c #362D24",
"Yu+	c #493E35",
"Zu+	c #4B423A",
"`u+	c #3B322A",
" v+	c #554B41",
".v+	c #6A6352",
"+v+	c #605546",
"@v+	c #5B4F45",
"#v+	c #4D4238",
"$v+	c #665D51",
"%v+	c #52473E",
"   .  +  @  #  $  %  &  *  =  -  ;  >  ,  '  )  !  ~  {  ]  ^  /  (  _  :  <  [  }  |  1  2  3  4  5  6  7  8  9  0  a  b  c  d  e  f  g  h  i  j  k  l  m  n  o  p  q  r  s  t  u  v  w  x  y  z  A  2  B  C  D  E  F  G  H  I  J  K  L  M  N  O  P  Q  R  S  T  U  V  W  X  Y  Z  `   . .. +. @. #. $. %. (  &. *. =. -. ;. >. %. ,. '. ). !. ~. {. ]. ^. /. ^  (. _. :. <. [. }. |. 1. 2. 3. 4. .. 5. 6. 7. 8. 9. 0. a. b. c. d. e. f. g. h. i. j. k. l. m. n. o. p. q. r. s. T  t. u. v. w. x. y. z. A. B. C. D. .. E. F. G. H. I. J. K. L. M. N. O. P. Q. R. S. T. U. i  V. W. A  B. e  X. Y. Z. `. P.  + g. .+ ++ @+ #+ $+ %+ &+ *+ =+ -+ ;+ >+ ,+ '+ _  )+ d  !+ ~+ w. {+ ]+ ^+ /+ (+ _+ :+ <+ [+ >. }+ o. |+ 1+ 2+ 3+ 4+ 5+ j  6+ X  }+ 7+ 8+ 8  9+ 0+ a+ b+ c+ d+ e+ f+ g+ h+ i+ j+ k+ ",
"l+ m+ n+ o+ p+ q+ r+ s+ t+ u+ v+ w+ x+ y+ Q  z+ A+ d  B+ C+ D+ E+ F+ G+ H+ y  I+ J+ K+ L+ M+ N+ O+ P+ Q+ R+ S+ ]  T. T+ s. U+ u  V+ W+ 4+ X+ Y+ J. Z+ `+  @ .@ +@ @@ #@ $@ %@ &@ *@ =@ h  -@ ;@ >@ ,@ '@ )@ !@ ~@ {@ ]@ ^@ /@ /@ (@ _@ :@ e  7+ <@ [@ }@ |@ 1@ 2@ 3@ 4@ 5@ 6@ 7@ 8@ 9@ 0@ a@ b@ c@ $. 8  d@ e@ f@ g@ @. h@ .+ i@ j@ k@ l@ K. m@ n@ o@ p@ q@  . r@ s@ t@ u@ v@ w@ x@ y@ z@ A@ B@ C@ D@  . E@ F@ G@ H@ I@ J@ U. K@ L@ M@ N@ 6+ O@ P@ Q@ R@ S@ T@ B. d  U@ V@ W@ X@ Y@ Z@ `@  # .# +# @# ## U  Y+ $# %# d  )@ %# &# /. *# {. =# -# g. ;# ># ,# i  '# )# !# ~# {# ]# X. ^# /# (# f+ _# :# *  <# [# }# =@ |# 1# 2# 3# 4# 5# 6# 7# 8# 9# 0# a# b# c# !# d# e# f# g# h# i# j# G. k# l# m# =@ n# o# p# q# r# &. '  s# t# u# U@ ,. v# w# x# y# z# A# B# C# D# E# F# G# H# I# J# K# L# M# ",
"N# O# P# Q# R# S# T# U# V# u  W# X# Y# Z# `#  $ .$ +$ @$ #$ 5+ $$ %$ &$ *$ =$ -$ ;$ >$ 9  ,$ B# '$ )$ !$ ~$ {$ ]$ {. ^$ /$ G# P  ($ _$ r  :$ i@ <$ [$ }$ |$ 1$ !  2$ 3$ L+ 4$ 5$ ## 6$ 7$ 8$ 9$ -@ j# f# 0$ a$ b$ c$ d$ e$ f$ g$ u. h$ i$ j$ k$ l$ #. m$ n$ o$ p$ /. q$ d@ r$ s$ t$ o  u$ G+ '$ X. v$ w$ x$ y$ z$ A$ U@ B$ C$ D$ v. h. E$ P@ F$ ]  G$ !# 2  H$ ]# I$ a. J$ K$ o  Y  L$ M$ N$ O$ c# P$ W. Q$ x. 1. >  R$ S$ !# T$ U$ V$ G@ =# 6# W$ X$ Y$ Z$ `$  % .% +% @% #% $% <  %% &% *% R$ =% U  -% ;% s$ >% ,% ]  '% )%  . :  !% F$ [$ G+ ~% L$ e. {% ]% ^% P  /% f# /% (% [+ h$ <$ X  _% :% s+ <% [% }% |% |  1% z@ 2% ^  .. 0# 3% 4% 5% 6% 7% 8% ;@ h  9% 0% a% b% c% b% d% e% f% ,. l$ g% h% i% j% ;% w$ %. k% l% m% h# [+ n% w$ o% p% q% h  /$ r% g$ s% t% e$ u% v% w% x% y% z% !@ A% ",
"B% C% D% E% $# F% G% H% I% J% K% 0# )  L% M% F% N% O% P% Q% R% R@ `# S% T% U% V% W% /# Q@ @+ X% U$ $# Y% Z% `%  & .& @+ '. M. +& @& #& $& |  %& P+ k$ =@ && *& =& s$ F. 1  Z@ -& ;& >& ,& '& x$ )& !& ~& {& ]& ]& 5% .+ J  ^& /& (& |@ _& :& <& [& }& c# 8% |& w. 1& 2& -& 3& 7+ 4& =  5& k$ Y. _& _@ 6& &. 7& 8& 9& 0& x+ a& g  b&  @ c& d& e& *# f& g& ^+ h& <. k% 5+ i& 6$ j& L$ k& l& m& p@ n& o% o& p& >@ q& &% q. Q+ Y# r& s& o% t& w@ u& v& w& x& y& z& A& B& C& &  D& E& 7@ F& G& :& 4# H& N. I& <$ J& K& L& M& N& O& -# P& .% )% Q& R& S& q% T& U& V& W& X& Y& Z& e  `&  * .* 5& `@ j  a. x. f+ +* ]+ @* #* $* %* &% &* U  b# 5+ )@ ** %% M$ R. 2& =* -* s$ ;* 3% >* _  '@ ,* a& '* )* !* ~* {* ]* o$ ^* F$ E@ 1# 6@ /* (* _* :* *$ <* s  [* Y$ O  d@ }* |* 1* 2* 3* 4* x$ s& 9+ 5* 6* ",
"7* 8* 9* 0* _% a* b* c* d* e* ,. F$ f* g* R@ 6# h* i* j* R& C$ y% k* $. l* j& /# m* n* o* p* q* r* s* t* u* v* 9. w* x* '  $+ y* t$ m. ,. 6+ o$ ,# z* 9& 6  A* B* p# C* $. D* W. v$ E* ;% F* G* H* I* &* J* 3% h# l  K* H& )  L* M* z* N* O* l&  # P* Q* b. R* S* T* !  .% U* V* W* s. X* (. &* e@ d* Y* Z* r+ `* b.  = t* .= %% Y  G+ += @= H. #= )  $= y+ %= &= W  j. ]. *= C@ == -= K* J@ o@ ;= >= w+ ,= '= )= v. w@ Z+ }% != Z. ~= f+ {= w. ]= ^= n. b* 6+ /= (= _= := '  <= A% [= }= `@ t& 8  |= 1= 2=  $ 9* 3= 4= 5= 6= 7= 8= 9= +& 0= 9& ]  r@ a= b= @$ ]= c= )@ d= e= f= ;* g= R@ h= #* v@ i= j= o* b& Y+ k= l= m= n= .. q# u# o= &= p= q= [# '% r= F% #* s= h% @  d  L$ t= f+ u= v= w= l$ x= y= z= A= _  B= w$ C= _= D= 2& d# E= h& F= %* G= H= o% I= J= K= L= M= N= O= t% P= Q= R= S= ",
"T= U= V= W= %* }* 5& 7  <& ]# Y  3  G$ 8% 9% >  X= Y= Z= `= l   - H& m# .- +- 1& `& @- >. <+ |* !$ #- $- %- &- *- =- -- ;- >- ,- '- )- !- Q  ~- j& g. 5+ ]  {- h  l& :% k% :% A  ]- ^- /- (- _- :- <- [- }- |- 1- 2- O+ _# 3- j= t= 3@ ]+ _  4- 5- q& 6- .. ]+ f% Q& 7- 2@ 8- 9- !@ r& >& 0- .= W. p. f= a- b- a# X+ c- d- S& T& 8  l& e- Y& f- W= g- $. 7& h- i- %@ U@ d= S% {= ;= j- '# k- l- b& m- n- X  ^# O+ J@ o- k# S& p- (# Y+ q- x@ j  l$ r- s- 5. t- z& u- ,# u@ v# +& v- '  w- T% Q  c& '& x- p= y- :  z- A- R. c. J$ '& a* B- C- D- E- 8% M@ F- G- }@ )# &= H- c& I- J- K- *& K- T  L- M@ M- P  w= N- O- G# v# P- Q- R- S- R$ Q$ n= T- U- U@ j@ Q& e- V- 7  ^  B+ W- `& X- Y- Z- `-  ; .; n% +; @; #; V  p= >% {* <* $; v. G@ |  M@ .% |  $; G# $& i= %* %; &; i* +& *; =; -; ;# ;; ",
">; ,; '; ); !; o* ,# w. ~; z$ {; ]; 1+ N- t* ^; /; (. (; #* k# _; {* !& 4  F= :; <; [; }; 3= |; q- 1; Y= 2; G+ <  3; 4; A& d. g$ T. ~& =* 5; R$ (# 6; 7; 8; 9; 0; a; 3% ]+ b; c; d; e; G* f; g; h; i; j; k; h  l; m; n; o; `. p; y$ q; ># ~= 1@ r; s; 0& &= `. t; $. u; v; w; x; y; R$ 4+ Y+ z; ;= 0% K. A; B; Y  C; D; (- {* j# E; z; L- w$ ;# F; G; H; I; 8  o. Q@ J; q% K; L; |& -& 0- 3$ M; 3@ G$ q% _= N; ~; O; i  P; X. 2+ z@ Q; R; <+ 2& S; t@ Q& T; h& S- Z. U; V; /= Z- z& L$ =* z$ _= W; [# X; Y; #= 3&  @ #* s$ j# {+ Z; .+ `; )# p+ +- t  E-  > .> %% 4@ c# +> W  @> #> $> %> J+ &$ &> *> => -> q+ ;> >> ,> ^  '> )> i@ !> ~> H& t; {> H& ]> *> ,# 5& ^> G$ /> P. l$ (> x. x# P. 2  ;$ b% _> :> <> [> 5- g. E* -& }> 4@ D= T  |> 1> 2> '  3> _* 4> F$ E= 5> 9  O= 6> E# 7> 8> 9> r+ ",
"0> a> n+ b> c> 1= 5+ q- M. d> q% Y+ R$ e> f> g> (@ (; h> i> [$ j> ~& _+ P. K- :& k> ]= l> m> n> +- >* ~+ o> M* Y% p> !$ !- q> '$ r> i# d* s> t> u> w$ v> T& Y# w> x> y> {> ^# W; D* != z> Z  A> B> 2$ >& ,* C> }% @> D> E> $# Y- l& F> a. G> H> )# 4  w$ 4+ i= B* I> J> K> L> <@ M> 2= N> X  U  7& o  O> }= r$ 2; P> 3  e# Q> q= ++ ^* R> S> t& T> F& J& .. C@ 7& Q$ U> V> 7& ;$ W> X> _# Y> Z> `> }=  , <+ }#  . }  ., 3- e> R$ +, a& @, '  v- %* &  j& v> #, (+ t& j# $, %, H- R  p@ p; &, m= O+ z$ C- $. *, =, `- -, ;, z; 4@ C# >, ^$ 5+ )# ,, %# ', r@ ), R& -  8  ]. ^# _# y  e> P. ~- m; v> !, }; ~, {, U+ s- ], E= <* n% ^, ;= $, ), l& Y+ M$ '% /, =$ `; e& ^> 9& ,& (, _, :, 9; <, 1& [, }, /#  @ |, 1# 1, _= 2, n% 3, 6& Z. t* 4, D> 5, 6, 7, ]+ %@ :  8, 0@ V* 9, 0, a, b, c, w% p% ",
"d, e, f, g, h, i, #$ j, k, 8= L$ l, |, ># t. O> 5@ 8  M- 4# p+ L+ +, 8  k* m, ,, X- n, !- `@ 5% 4  o, p, q, r, s, N@ t, u, v, 6+ 6# w, x, <- }# X> z> y, z, 2# A, m* j& z, w, B, C, '# D, 2> E, F, v> ^# p; G, 4  H, I, J, U; G$ Y  K, L, ]% )  M, 3= N, |, O,  . P, Q, Y% R, S, T, s$ h& T* U, V, >> W, G+ X, Y, .+ F$ 3+ ^# v- ;@ '% 0; Z, '  8$ M, `, `* W& !* b%  ' 5= .' +'  + @' P& #' s$ /% b* $' u# _= R  H& 4  |  ^* %' &' *' =' -' $# ;' >' 9$ $= g% .' ,' f* '' *' )' !' 6  ~' {' k. z> .' X= D> )+ [# ]' Y; 0; E@ ^' O- =  <+ U; /' B. =* V- <, (' _' /  ]+ 7# :' <' j# [' }' |' d  +& 1' 2' => Q% )> Y, K& 3' 4' 5' j+ /  F& h& =$ 6' 7' @> E& a. 8' |@ r$ g. 9' 2@ P. w, L, ~' ]% N@ 0' N* a' b' c' e> _% X* o. M+ &% `- e- ^# d' j& e' @, $. 0; f' g' n  w> }; D. h' i' j' k' l' ",
"m' n' o' p' V* q' E. r' 5. @  B. s' 8. N% !- 7+ R  t  q. K$ 2; l. +- _+ t' u' v' w' A* x' M, y' P, z' A' 5  B' C' @& D' 2@ E' F' J+ !& /$ x$ `; /# G' -@ X* T- +, 1% H' 0;  + I' J' _, K' H$ J& L' C. 8% )  6& '$ /# y, 2+ M' 2- $; m= )  N' J$ @* y+ O> ]= $> O' P' Q' R' S' T' U' 1$ $> V' z; W' X' 8= Y' F$ -, Z' a. /> h. 9. D- j- y> C= :# `' N,  ) #$ z, !& _, .) (+ ;% z$ N* +) q# @# O@ _@ o# )= ), @) <= !* [+ D. {> #) M. *> $> E> H' ~% :  $) ~- A  %) %= G& +) &) *) r# =) !* P* f+ -) ;) E> >) C% ,) G+ ,) t@ ') <' J+ V% )) 3> Y   # !) k# ~) 3% f> {) i> ~+ F& ]) O. ^) n, /) () 2' _) :) S, <) [) }) |) =@ 1) z> #= 2) >> e  3) U$ u. g, *> H$ 4) M* )* :; 5) 6) 7) 8) q% 9) C$ 0) *# w. |& T& k> T% L, X= %@ Y+ X, _  i, $. T- ]- a) b) B, c) d) )  g  I= 8, e) =+ f) F% H' g) ",
"h) i) }; j) ]' E. R; G@ j  7& .= j, U; k) E$ l) 2. m) n) o) 3& p) q) <+ r) R> `, s) t) z' I= X# f= K> u) /. S* <# p* +& v) w) x) `; *> ,# Q+ y) Z. w. 8$ >) z) A) B) p) C) c. D) E) )* k$ w, p= F) ,'  ) G) H) I) J) K) +- L) M) /% Q+ u> N) y> O) P) v= _  i, w, H' Q) R) Y& p) s+ '  ,' b; S& 1# &= #. S) ~+ j'  $ T) U) V) s$ u. W) X) Y) Z) `)  ! .! C$ r, 2- ,* o. 1# +!  + B* F* @! #! $! V% #' )# :% %! I, .+ &! :& *! 0; =! H- v  1- b. =* c# -! 4- h& $. p# 1  ;! j  b; >! ,! '! b; {= f+ )! !! &= ~! }$ P+ o- >% G% {! ]! ^! /! W, u= (! _@ }% =@ P+ b# _! :! <! [! }! |! [$ &% 1! 2! A- 3! 4! O= 5! 6! 7! 8! 9! 0! a! 7  .$ L% 0$ !- 2> b! ;# c! y, r& )@ >; Z& d! F; R@ e! b% f! )) g! h! a& k; i! O; e> |@ @, X* j! =# !, k! 7& s> x= B* l! w, U+ X  ># -  C- m! n! o! p! q! /= r! ",
"a. s! p> d@ y- := 2  t! Q& I> (# v@ e> #. ># u! v! q- l) w! x! y! 7+ h) *  %* z! A! B! ;@ t! C! x. o% D! E! r  F! +& G! )* 1= H! %# 6+ z+ 3= e# v! I! n- :; ># J! g. L+ A, K! L! /, M!  # k* l$ Y) Z- n, 5% /) N! O! P! |  Q! 8; P. #. R! S! T! h* U! V! Y- }= G% W! E! X! Y! l) Z! `! !, H+ @* ^# z& 2;  ~ .~ d= g, `% +~ C! @~ #~ G$ 8  P. O- w$ d' f+ $~ <+ d# L) H' %~ :' #' P& 6$ >. &~ *~ Z. w+ I+ 3> $; 5% }% :@ =@ !; d; =~ 5; l* 7$ V  f+ /* -~ `; ;~ >~ r# h& %= N* M$ &= s; 0; J. ,~ 7= ~> '~ G. w$ ^% -@ )  5; )~ G@ !~ l+ ~~ {~ 1& T  ]~ j& d* <, ^~ /~ (~ A- _~ 8* h# >* h# :~ S! j' &; y> <~ [~ }~ :~ |~ 1~ =@ @> Y  u= a. v= 2~ ^$ >  3~ P@ '% 4~ 5~ 6~ !# 4# 7~ F$ +- :  @, [# 8~ f% 0; 9~ 0~ 3= t# j# a~ b~ c~ h# (  (  k> F+ ;!  ; <, d~ ;# e~ f~ .+ >% g~ h~ i~ u% j~ Q% &' ",
"3; k~ l~ m~ $# n~ o~ N- &= Q  p~ )% g& q~  * <  p$ r~ s~ t~ 4! U& u~ v~ N> +- 1% ]+ w~ B) @* <  X  J+ N@ I. x~ ^+ >; X  3@ !$ M  /' 4@ Z  &' c& ~- ]+ _= != y~ 9= Q& g@ M. l% z~ A~ *' U- V) '! B~ 4, C~ D~ )$ E~ F~ G~ H~ M$ l$ $; B, B, E! o% )# $; B+ (* M+ ]. I~ J~ K~ Y% 1! S! X= L~ P. r& !& 2,  ' M~ I% #+ i' N~ O~ P~ z+ `@ Q~ Y% !, d= 1# y+ R~ S~ @, ,# T~ j& *= U~ l* +# V~ -% 7$ W~ 0- X~ K* h- a= W& 2% %# Y~ Z~ |! <, [  `~ z; 6  X. 0& T% P. E> M@ ;% l* =! y)  { .{ +{ /% &= ^, s) @{ #{ ${ |, u' Y) !- R* 8= .. %{ &{ *{ E- ={ -{ ;{ >{ *@ ,{ '{ ){ !{ {+ ~{ {{ ]{ ^{ E# /{ ({ _{ :{ <{ P@ [{ }{ |{ 1{ 2{ {+ 3{ 4{ 5{ 0$ T% =, j- W! =@ <* 6{ G! 7{ P  E% 8@ 8{ 8{ |@ z& J& 9{ 0{ &' *  a{ ^% b{ &=  . c{ 5- ^, d{ e{ B, _& /% 7. f{ g{ h{ h. W! o% V& T. i{ j{ k{ l{ P= +& m{ ",
"n{ o{ p{ q{ r{ T# M, _; '$ &. 8) b& s{ O& t{ 9= 8{ x! *~ u{ ^& y- !# a. ., v{ Q! 4~ j. w{ x{ -{ o* v- ~$ T. =* }* P; g. y{ @$ ^. H! H+ /= L$ j& z{ 1# A{ '. B{ P. 5; C{ _@ J& U@ -& c. 8  D{ 9& E{ F{ G{ p> H{ I{ ({ <) V! s) a& J{ 8. M= K{ (; V- Y# ^{ L{ 8@ c! M{ N{ Y% O{ x' 2& P{ E. c. v@ ]~ Q{ 0# R{ 9' x! S{ T{ U{ Q~ V{ Q@ W{ g, O  !& S- =, O- C$ L+ j. W) n% %~ b; _- X{ Y{ Z{ J@ (& T& c@ R> ^# 8+ M# `{ Y*  ] .] `) J$ +] @] 5= 0& /) <+ @, }$ K. A{ z> E> N, A   # #] y> g- c% ;= A. G& $] +{ -& Q& %] %, v# &] H' B{ *] =] d# {+ Q! ;{ 4  2% .! [% -] O{ ;] 0* >] ,] '] o% )] !] ~] {] ^  .  (! &  ]] ^] /] z' (] _] Q% :] #@ >; 7- 1; M~ q; P> I. <] [] P> }] |@ Q@ |] 1] n; 2] =; L, G. X- 0; 3]  # [+ p; a) X{ h= 8' && 4] Z  8~ 5] 6] 7] *  8] 4= 9{ a~ 9] 4> ]& 0] a] b] o  ",
"c] N% j' =% s& R  Y& L* (. ^+ d] W, w, B& s$ e] f] g] -' h] +- i] z, C' ~% 2> ;] X# A' j] k] l] /= m] 3~ C# 0# 2' n] M= o] [# F& b& .% C$ I+ &.  + )& m, n= p] q] }= E= 2  r] >) M@ -$ s] J. t] -@ s] u] (] <{ v] w] x] 9{ t  O) y] z] A] B] ,. H$ *> J. C] D] y> E] F] A- G] f, l; B. v> F> L$ H] c& 1) l= 1$ I] J] K] L] M] N] O] P] Q] Q@ O+ B~ R] $; S] T] }$ h- U] _  8) V] W] |& X] e{ j~ z$ c- 3> Y] B) Z] A' J- `] }, T  )#  ^ V) E, p; .^ 1& +^ X* 7. e> @^ 3, #^ $^ ~> %^ &^ w+ *^ =^ -^ Z  ;^ &^ >^ k. +. %, >) B{ e> ,^ '^ A; ,, H' )^ O! `@ !^ $. -, ~^ 0+ ], S$ F$ 9  H% s+ {^ x& M% ]^ ^^ Y; 1~ 4! 0% /^ (^ _^ F; :^ <^ =* [^ }^ i] ~= |^ K= 7+ 5% $& 1^ {  2^ 3^ D$ 5) K= 4^ g, 5^ t= 6^ h= &' s# a= t> !* 2+ c@ 4- 7^ )- -@ 8^ P+ j. 9^ R$ 8@ B~ |@ m; t  1* 0^ X) S= M+  ' y, ",
"a^ b^ Y, c^ r$ >; g. 5+ d^ e^ ^* [# 4  f^ (@ g^ B) 0$ v{ h^ O' ~] {. i^ 9& v= V- !  f{ 8  l' %% j^ /% ), i  k^ ^  s$ .~ <* l^ z% r& h- {* (  m^ u  U@ -@ n^ o^ ]= #$ 8; a~ :% a~ a~ .* p^ q^ @* r^ s^ t^ F~ s+ u^ s! v^ w^ G@ (  b& u+ %* x^ f& L, &@ 4! y^ -& z^ A^ B^ U) C^ B] <  &! D^ &= '  w@ /  Y# ={ d= T~ E^ F^ G^ H^ x{ I^ *> &  J^ ^> ~- g- K^ h- }$ `) ^# &. 6  L^ k; M^ j# x= N^ O^ x= x= P, x! P^ h, Q^ R^ ~+ i, f% S^ d% T^ i! t# {! 7' B{ U^ V^ W^ Q& x$ X^ ]^ d# Y^ R  u' 8$ s' k* ,! X~ k* K* z{ s= `; m$ n> Z^ `^  / B^ v= ., v= z- %@ ^$ 0$ !- e] ./ i* q* +/ +% ~] @/ #/ $/ %/ &/ @/ */ =/ -/ ;/ >/ f- h. ,/ '/  ^ p! )/ -+ j$ == !/ s& ># 0- ~/ {/ -' ]/ ^/ // *> (/ f- u] o, C- ~] @* (, _/ :/ F& w, 4@ ^= t* |@ </ [/ I& 8$ 7& ,' M+ P@ N) 8{ a& -@ }/ :% |/ !- /. z] F$ ",
"9{ S! F^ S= 1/ .+ }! v$ i@ $] }$ U$ ,{ 4! 2/ f> 3/ (& ,. 4/ Z+ 5/ }* 6/ x, t  7/ 8/ b* 9/ 4= 5; W' |@ U{ s&  ' O# 0/ a/ 5@ /* b/ l* X, /  c- p@ ~+ R* c/ $& S] d/ 0, e/ f/ g/ h/ 1& 0{ 1, i/ j/ k/ 7! l+ f, Q@ l/ m/ n/ o/ h* z, :; p/ i* 2% ]= O! P{ U@ .^ e  q/ r/ s/ C- H% t/ t% e+ B& [+ +, u/ )@ ~+ v/ o+ z] w/ T) x/ y/ z/ A/ B/ C/ d= P- J, p# D/ -$ E/ %@ =~ u# :& F/ G/ K! H/ c' 4- I/ J/ Z  _+ U{ K/ S$ Z) y> {+ L/ @> i/ c~ ,@ ,~ != Z- M/ N/ A/ $^ X  r, 5+ O/ P/ ,. |> V$ n, k^ l% I; Q/ R/ !* T& H' S/ T/ Y+ U- !# U/ Q@ V/ Y~ W/ U+ L+ '  .+ p* ]> .! V& b] X/ {$ Y/ ^  Z/ j{ 0^ `/  ( .( +( @( #( $( %( &( *( T{ =( g= -( '= ;( (^ 0% V* }, >( ,( '( G+ )( _! !( ~( {( =& ]( ^( /( F! N  (( `. z] q~ 5% f+ ^  D] .^ t>  # |. e# _( :( <( 3% [( }( q. P  +- i> p) |( ,= M+ 1( 2( ",
"4@ 3( (/ U) 4( r@ T@ 5( }= <$ 6( >' Y= ;( 7( 5/ () 8( N- >{ M  9( x  R@ v. G) 0( a( b( S% U/ ~% 4  |! c( d> d( k$ e( 9> u. t! t= /$ C) f( ') $# Q& e( /= g( A+ `& h( 2* 7+ 9' r$ T@ m* 4, X. ,= y- ]^ i( j( k( l( {] m( P@ A+ n( P. y- o( S! p( q( r( n) s( t( R+ y, _] u( v( w( x( Y~ y( z( ~# %. k^ ]. (] D> I@ q+ j$ A(  ] B( i' C( 2% P= *@ >, !; g. D( >) g# J; E( e. M$ |& F( G( B* H( O@ I( H, J( := K( L( M( e] _* o  N] u' N( f  }$ P- O( '+ W= P( v$ Q( r( '$ R( S( T( /  7@ u= U( R+ V( )# W( X( Y( 5{ T% Z( A! =! ]+ `( Q'  _ /~ ._ B~ +_ B& @_ f= j-  ^ #_ (] $_ %_ &_ *_ =_ -_ ;_ >_ ,_ '_ '/ )_ !_ x> ~_ {_ ]_ ^_ .! /_ (_ T. T* 9. 5* #^ __ f^ 3# :_ <_ (~ v* v/ [_ }_ |_ 0* 1_ 2_ x! 3_ P  6. 4_ n) O> 5_ ]{ 3  t   ^ T& %' 6_ 7_ f% t# B+ 8_ 9_ F$ !  ,) +& P  0_ a_ b_ c_ d_ ",
"T( *- e_ f_ /. {; k# x$ N$ I, j& i= g_ h_ i_ j_ =; I= k_ l_ p> T  -. m_ (@ r& C$ Q' 7_ z@ V@ _@ ~^ 1% 3- ,> W= m- r& -, M* p$ 2; F> 2+ q; G@ ]+ [) p= n_ e{ o_ ,# D. p_ x. +- 8. H' V@ B+ z] 7_ ~{ p_ +~ ]! q_ r_ s_ t_ O/ +% X  I$ u_ 0% v_ V> 7) u  Y' E= w_ u- ,{ s. t' x_ (~ y_ z_ r/ l& r] A_ w= e( B_ 1) 4  M+ 5/ C_ D_ y, a& E_ 0% R. >* w{ F& E) F! R* -, k. x. o_ F_ /- 7= :. G_ H_ I_ J_ j> 7_ K_ g' '+ p% G! ]. ;> 1$ L_ M_ N_ 9) u. O_ P_ Q_ R_ U) S_ 1# D. r$ A, T_ ^  w. k- `, U_ V_ e{ k  T! W_ ,~ 3, 9; X_ Y_ }@ Z_ 8/ `_ ~^ B~  : [; y% B{  ^ ]+ 2  )+ .: O= +: @: #: 9' $: O^ %: &: *: =: -: 0% _! q) ;: ~{ -> z_ `& %> x. 8  r; G! J- >: ,: -; j+ |; ': ): Y= !: (/ ~: R~ {: ]: ^: C_ 9% O! ^_ f^ /: 5$ (: %# s+ 4  y$ _  U~ 1& a& U/ K& Z' _: H$ `{ r@ Q% M, E& b] z, :: <: ",
"[: Y% I~ )@ u{ I, X  w$ }: |: 6& <* Y# `- 1: 2: 3: _) 4: 5: 6: 7: 5& I. 8: z@ d= ={ l{ 9: Y# 0: +- 8  =@ G! x. d> '- 2@ x  M* 4~ 9{ c^ Q. c* T~ 1' X  !{ N) r+ a: U- k$ b: o% ., ~+ c: d: e: f: g: h: N% i: O# j: k: l: m: n: Q' `- A* Y$ L& ,/ Y* D. M+ h( n- f^ o: p: q: r: s: t: E& *& u: C# 3> 6$ 1; '^ W! ~+ v: S# L( -: b] W& p% R{ A^ C$ w: g@ ^  1= %= .$ d! _+ C$ x: h- a) =) H& .' y: a. v. 9= z: A: 1~ B: 2; G$ () 8@ ;# C: '  %, .$ D: E: h* R% >& l* $. $; F: :% `  Z, |# ;{ Z- k. f+ G: z, s$ +- ~' 0; H: S( I: 1& 7] [) b^ J: +~ i) K: `{ ~+ L: M: 7> 8! {& .* N: O: P: f- Q: R: *_ S: T: U: X^ =; V: W: T* X: Y: D^ ^> `& o+ &! Z: 2' `:  < .< 3) +< @< #< $< %< N- 0% 8+ $^ &< *< =< j$ P= >% ~= -< ~$ ;< 4# >< ,< q+ b# )& C= p; '< Y- J. s# e! q) 0@ 2> n] )< r$ d  0, 5* !< ",
"~< {< <! ]< p$ Z, &. ~& m# ^< j  M. ]_ s  /< (< T) _< :< << >( [< j$ ^> H. w* R@ }< |< :# f* /% .' <+ 1< R^ >< P) J$ a- 2< ~% V> (@ 3< C$ W) @> h. 6  H$ 4< 5< r( 2{ 6< f= 7< b% 8~ r/ J^ }% }{ 8< 9< 0< a< ./ b< c< d< e< )@ ._ f< O= g< h< i< j< =; k< =# N- ;] ,= a. l< 2; m< 1! v+ >{ n< -( j] -< o< _! `; 5) @] #: =; 2@ P. R& R+ ]' *@ S> ]= m] ,' &! >  |# T- p< $> P; w$ z> (_ u# V~ q< !- ;@ 2{ y/ r< s< t< 2% u< H) S* 3@ y> v< -> Q_ w< x< 6< 7_ +, W) J% z@ &@ y< [, 8  z< A< 3@ i{ r/ P. M@ %  g! B< 1' C< -( D< .{ E< !# F< ,= G< Q_ H< I< J< K< L< M< N< +( O< P< Q< 4, }$ R< T: v& M] () %/ S< Q@ T< U< V< q* &( o% W< 2% |@ I= T. P@ X< Y< Z< $; `< x]  [ i+ .[ 9- O- <: H{ +[ @[ #[ $[ +, b. $# .! %[ 3( &[ E- T. |$  + z; x$ 6& t# .{ (- *[ Q< =[ Q# %  U& r= -[ (^ b/ ;[ >[ ",
"D+ ,[ '[ )[ ]  E- e( b* 9@ c* G$ f{ P. ![ ~[ v; 9= ;( {[ 8! ][ |^ [^ E! ^[ O' u+ /[ O> ([ a& Z- !, <. R+ *> v. I& r' q+ 1] 9. 7# Y; 3^ *# +& F$ o% _[ 1% 0* P! P! :[ <[ h, p( [[ V- a= 0{ a~ }[ 3^ !, |[ M* d( G! 1[ 2[ !; :~ 3[ p< 4[ x] 5[ o* |! |< :~  ] H{ M= 6[ +$ X< 7[ 8[ 9[ 0[ a[ 8< ,# %* r  b[ && A, ~{ *  c[ d[ e[ -( A+ .~ 3< `= ^_ r; ~+ f[ g[ K. .< ;> +. `( h[ x$ P* G$ 5; U+ i[ 3, j[ N% k[ m{ O< K] #% l[ 0! a/ }% l$ 1% Y& m[ n[ o[ p[ X^ ,^ w$ X* <; S^ J# q[ 6_ D, Z^ r[ N% ]= s[ X# s  F. t[ N, u[ (_ +% H'  ! v[ w[ x[ y[ z[ A[ ;/ B[ C[ D[ 3] A[ E[ F[ G[ .~ H[ .& I[ J[ 7) ^: K[ s< L[ M[ }( m{ N[ O[ P[ o@ Q[ p  R[ S[ |/ S$ p! T[ a[ U[ Z% 8! V[ D[ W[ X[ R{ #+ c/ Y[ t< Z[ r$ A- `[ K( ,= +& A^ [#  } `& Y$ 4# .} m# 1- b) w$ V, b. x~ K~ J= a; +} U{ 3; N  1* @} #} ",
":= $} %} &} a$ p{ S& *} 3; X) b& B_ w/ =} -} ;} i> >} a> m{ 0% 1_ i] ,} '} )} $# j~ _/ )) {; f+  + C$ >= !} ~} {} %* )* ]} l# >  #% k$ k) 9) ^} 7@ d# 9. =% '% /} `$ $[ Q@ s+ (} r< _} g' :} <} B+ [} }} N% |} 1} 2} 3} 4} f- 5} e- 6} 7} 8} 9} U- W& _) M, 0} o% 9{ a} 3] r  b} 7/ !- c}    #$ D^ d} e} f} 3> g} h} z' x+ Y= [* 4> n, i} {  F- ;@ Y- j} {/  ~ 0$ /  =, 6$ H> o. @^ )  k} 2& l} x& 2, ^$ m} n} Q' o} a$ A] b] l= z, (= p} O# q} r} q! s} t} ++ u} o% &> y> ->  / J. 3~ 7; G% y> J+ A,  $ W! P. a. v} Q_ w} x} y} k- $_ )^ i> z} A} B} C} O% e} [) D} E} h( F} G} H} I} J} K} K{ L} M} M% N} @} &} ,{ ./ s+ O} I= =% E' h, [+ P} p= P- Q} z' ++ R} '_ S} T} U} %> V} E& W} S) 7> X} Y} Z} f/ `} Y# Q_ ~+ *$ j& .+ h/ z~ S( 5- v$ w{ _% k> E] A* J+ q- i= U/ <* W( F% =, !]  | .| ",
"|~ M# +| !{ 6~ K& d: p$ @| :% D= R. q  9, #| D[ $| -* ,+ %| &| *| O' #% %$ =| -| ;| >| G! q- e= %. M$ ,| V+ 1$ L$ /' F$ '| F% A+ )| O- !| 5$ ~| ]+ `, M+ {| 2] 9* ]| ^| n^ S~ H' x/ ,# /| A+ (| _| :| <| [| A} }| || 1| 2| z' E+ <; ]< 3| 4| 5| Y- )> ([ 6| 9{ ~] 2{ 7| 8| 9| f^ 4! R_ q) b: k{ 0| P= 2; h( =$ a| :; t} U[ b| T{ c| d| -  P! ;] 8  /~ e| 7> :  f| |# u- 7& g| 8=  , U@ e| h| i| j| O% [! k| p_ 2% i+ x  t: !{ A+ W, l| J. m| n| o| p| ~  q| >. *@ .{ <, h& r| 4= s| t| N*  : '  := )  -  W& P_ >* u| {/ 1* v| _' 5) C# x% x% w| x| y| z| Z< f: A| B| t^ L( ]: C| D| E| F| a& G| H| I| J| K| L| %_ }[ J) M| =# |! N| {[ Q  2% a# c_ s/ a| O| [@ v} P| Q| [^ R| A; S| T| U| V| W| |/ X| Y| o% -, 1( b* Z| 0; ]+ `| H$ 1/ %   1 P! .1 6+ +1 B+ @1 i* U. ^  )) a; !  9! #1 $1 %1 &1 ",
"0, __ O~ s  *1 ~= H) S@ =1 s% $; %. d: N: -1 ;1 >1 $  ,1 U) '1 H{ )1 !1 5% ^! `@ h. Q' }! G@ ~1 n& |> X. 1@ {1 +) /  t* e! ]1 f+ x# |$ &^ x$ C{ L$ w{ .% p  p* )$ $_ ^1 X_ #$ L& #= /1 S| (1 Y~ _1 }[ :1 <1 w/ z' -_ [1 }1 G+ V! |1 11 21 D[ 31 U+ ,= H) 41 W<  ~ Y~ F^ v[ 51 I- 61 /| 71 H) O[ [[ e- *  w^ 5{ 81 n, 91 01 .~ 0_ a1 w[ b1 /{ b_ i  W) c1 c, h# d1 `| e1 Q! f1 l* p. #= g1 -  o) 7, 1( Y~ e( F^ ]] x^ s  h1 >~ ,) x. 8% Y( 3/ :~ i1 j1 k1 x{ Y( T. l1 0[ m1 u{ )  P_ n1 ^* o1 +} p1 J# q1 r1 L, s1 t1 g[ u1 j] v1 ^_ w1 <* x1 y1 z1 A1 B1 C1 D1 E1 F1 G1 H1 v[ I1 J1 K1 L1 M1 N1 O: O1 P1 Q1 =  s/ R1 r| a- j( 2% S1 W/ =$ e( T1 w{ h, {_ Y~ 3/ U1 V1 9} B[ +} W1 X1 e/ Y1 Z1 T. `1  2 M] f' .2 }* +2 p} e@ 2> f* @+ :  >* 9: N: ,#  . @2 ]+ #2 8, $2 (% K+ 1, s! H< %{ %2 &2 N} ",
"X^ 41 x] 7> 7/ T' 3% #$ 1' |$ +, V% m* Q_ 0| *2 [* H1 q* =2 w) -2 =& ;2 #= w^ j@ >2 #* &% ,2 `; 8@ z& :& k* <= z; o, r/ {/ x* ', G# 9& l* /~ 2> P- )* R@ ;/ A/ C% J} q) '2 )2 +} W% y< 1. _1 !2 ~2 M[ {2 ]2 ^2 i* /2 (2 _2 :2 _] i} <2 [2 }2 |2 12 F! 22 *1 Y$ 32 }< 42 52 62 72 82 92 9* M# 02 a2 =# b_ B& j- b% H- s. _2 b2 8/ c2 d2 e2 $} J+ 1& ~) .2 3! f2 C~ /; `$ l* a= g2 h2 i2 j2 k2 l2 >{ 12 m2 3{ w% n2 m{ '| o2 :} p2 K' M, S( q2 r2 <~ #[ s2 d> 4< u= /% k+ t2 e( :# 8; u2 v2 :; O~ w2 `{ s+ x2 M_ y2 7) Y: z2 9' A2 /) W& Q_ ~_ B2 C2 $( Z/ S= 6< D2 E2 F2 F^ &( G2 H2 I2 J2 N{ K2 L2 ^  y| 0* M2 N2 O2 :| p( V/ P2 t. B[ I+ Q2 a# `= '% =  (| !  U= }~ R2 S2 d} y_ T2 P| Q% V1 )( U2 V2 m_ W2 C# r. A^ X2 Y2 6, t> S@ *_ $_ g~ Z2 q2 h} J% 4@ I{ `2 a- q[ 1-  3 P- f_ H. .3 +3 @3 ",
"#3 $3 8< %3 x, Q' _' h* x. *& 1> :# |! &3 ~= '/ c/ {/ *3 =3 -3 ,/ )} ;3 i* }( }) $+ F= e~ i] k* C* >) |& o= i- B+ U! Y, >3 ,3 |$ '3 3  }@ )3 U@ ]. (; ,] 2/ !3 .3 ~3 H[ {3 #$ 9> [{ m, ]3 y- _) u= %* ^3 /3  ] S] 7] (3 _3 41 9% B) :3 G1 -[ <3 /1 9. b( `& h. z' f^ [3 3^ -: }3 S) 0% 5/ t] |3 N> =@ M, ^  t: 13 d# x  b2 K] 23 T: 33 43 V1 .1 u_ c. 5- %  53 r< g. L* 8% C* r@ >& m* 63 X< 73 B| 2] f, n^ 83 93 D. z' S* Q  03 !, a3 3, m* b3 c3 3} d3 5- 5' Q> N, u{ B, L1 x, 4  V> i, J+ k- _= e3 f3 h* g3 h3 -( i3 j3 '^ k3 [+ <+ H& l3 m3 {( 2< %: n3 o3 }~ )] }~ *_ p3 q3 d3 r3 s3 t3 u3 v3 e$ T< ;/ /. w3 x3 S) H| y3 z3 -& s* A3 B3 #* C3 +/ i@ n< D3 E3 t^ ^1 F3 G3 H3 I3 ]: 9! J3 K3 e/ L3 M3 N3 '{ O3 >/ G% =@ && #* |> -2 P3 .3 3] 4! ~- q% :% Y!  1 [+ Q3 R3 I) R~ H% S3 2/ ^[ j( ",
"<~ T3 P! Z1 @* 6: >> (  y  ;% S. Y: U3 _~ V3 D. R;  $ W3 X3 Y3 H{ ># D% R, ,# l{ h. Z3 D^ X_ @* H* `3 Y+ e# w$ r( F! r  _% y^ P* P+ ]. 7@ r@ V- a$ `| b%  4 T) _} f: [} J: -_ _] a/ V  t1 H% C< .4 +4 @4 #4 $4 g[ %4 <! &4 *4 )@ d* =4 -4 ;4 x~ P( [( 7_ #+ >4 K{ A; P_ ,4 |< '4 () (; k| f- K{ L) ;] B/ () )4 W{ [[ $2 -} !4 ~4 {4 7] ]4 c, @. S^ C{ E) u{ [* ^4 Y) C+ A  b% K. l; }) t3 )^ /4 X< 6# Y: C~ (4 N| c, 0. (_ 4> L, p} _4 <  e( K# :4 <4 8, u/ >' j/ n, :~ {_ [4 e[ @* )) }4 &' `) B) ,: |4 }/ T@ D_ ^3 9_ 14 2& &; Y# m* ]{ 24 Y< 34 R| 44 m2 (/ `/ 54 64 74 L< 0+ K| ;4 84 94 /( 04 a4 b4 ^^ c4 P~ d4 S; p% k~  / <; p2 U! ([ 7_ V@ e- 3& n  I. 7+ e4 f4 M2 q- g4 g> X< >: h4 '; i4 j4 k4 E& )@ A; X: ;] l{ F$ l4 6+ 0* m4 n4 6, ;# >* o4 1% W1 p4 ._ #: q4 ^+ 0| H3 n] r4 F3 S' ",
"s4 t4 u{ s< (| l@ != u4 v  v> y~ v4 0( w4 R& x4 4) y4 w> z4 5| 5| X_ 2# 1< M= A4 -< B4 4! K= != C4 J@ O* p^ }@ y4 D4 w. E4 5( n2 F& k$ n* y, *1 $; F$ 1# _! 7{ 9> %- 1[ A- F4 y/ G4 B( ,= Y- H4 9| I4 J4 K4 L4 7> M4 x^ N4 s| O| `2 O4 X3 P4 A; Q4 N# R4 S4 [) S; T4 d[ U4 V4 W4 w} q_ /= w> ;* X4 '% Y4 r$ Z4 `4  5 s! 5@ i} R} .5 +5 r1 _{ 9' 9; #% <' J+ @5 n% d' u& U+ J@ W= a% #5 $5 _} Q= 1% t* %5 &5 %: I< t  O_ *5 {[ o. A+ ]$ 4  Y_ f- =5 -5 ;5 >5 D> g! ,5 7) 4[  ' W! .@ '5 z, )5 4_ 41 !5 ~5 #+ {5 b| ]5 ^5 62 S= /5 n< (5 _5 :5 :[ 1~ 2& D! F2 I} <5 [5 }5 |5 15 25 35 *4 45 55 65 75 85 95 05 Q4 +_ a5 b5 i^ 5: c5 Z~ 8@ u' C. D. u' =# F; e= :1 h( P| [: d5 A[ d} 0} g+ Z1 e5 f5 g5 h5 L} B, n; l@ V/ i5 3< R] 4# I. j5 k5 l5 m5 5@ O- >> B) B, =[ n5 Y< _' j+ i* E~ E& o5 p5 T[ ",
">] P| ;+ t: C1 +, r; h. q5 M, }$ k= 5@ M< r5 s5 n  b! #3 L] t5 @* ,{ b% n- !  u5 %- e} @. v5 l& 4- r# $@ A_ _= w5 b] x5 g~ y5 P  z5 1. /% {{ E% p/ p* i= >  A5 d1 H| B| (4 r+ O- n4 <; N) B5 B^ C5 t3 D5 E5 F5 G5 H5 I5 J5 K5 L5 ;] 2' 9, !, n] 5* T{ M5 N5 e} O5 P5 x< Q5 /^ R5 k5 f) <3 C} *1 $_ c< +- F2 S5 T5 U5 V5 W5 X5 s} }! Y5 Z5 `5 +( [) u{ z^ )   5 g@ t4  6 |  h. j> w. .6 .! N] +6 n  N3 M2 g* @6 51 W% (/ ;| Q  E= !  #6 O- $6 %6 &6 F2 *6 ]+ h, a& =6 ([ ._ s1 p; -6 ;6 >6 a~ I~ ,6 p: '6 [* B2 )6 J2 !6 <  ~6 y] {6 ]6 I4 ^6 /6 >( E# 5* ]< (6 1/ Q# B1 _6 :6 <6 [6 }6 |6 16 26 !4 :_ 36 O_ A| 46 $_ 56 8| B/ :1 7/ %# 66 +& V< A{ w. 76 ={ w{ G^ 86 p! n4 96 06 =; n3 /_ E$ a6 b6 x& Q) #* `= -; b_ c6 b} 9. d6 y- /{ e6 c1 !4 f6 g6 ,{ M+ h6 i6 j6 k6 k| %[ /~ l6 75 ]< m6 n6 ",
"!3 K$ o6 O2 g' p6 h= &} J' w, i, ]= %: q6 @: i( K% 4= r6 s6 N% /. C$ W- K& b% J] &_ K# ,/ X= V' -@ 4) 0- X. L$ U^ t6 '/ ={ !- ]+ r& 1# ]) 5$ )) P@ R. H{ u6 r+ 1! 6~ 0+ v6 w6 !] c1 D% (, x6 .$ y6 z6 A6 E2 s^ B6 C6 B/ 15 D6 g= ,/ e: 0! b: E6 -] 1= W& |; ^^ %: ;4 9, s6 F6 (~ 8! *~ #$ T) G6 H6 M] |; I6 J6 K6 T} L6 M6 N6 O6 P6 W5 L< Q6 R6 9{ P_ S6 q! Q} B. T6 $; N> G. h% >= g' ], r< U6 X_ E& )2 x% v3 V6 k- _! H[ b( e+ $; .6 [4 F; W6 X6 Y6 3' q[ a& R* D= C: D> Z6 A+ G+ J] +  }< `6 b}  7 j~ [3 $_ #$ .7 +7 g' O5 D[ 21 ], 84 b_ @7 -} Y) G1 I~ #7 $7 h~ %7 &7 I2 ({ ^5 *7 =7 -7 ;7 >7 ,7 '7 ;[ )7 !7 ~7 +3 {7 ]7 I< ,' L+ 4  #% .> -< =# `: B] H' S= ^3 =: ^7 B] ]] s! <* /7 }) (7 _7 :7 <7 [7 M% }7 a6 n{ m+ [[ g~ h] 2| C% |7 17 k' () u= F{ 27 H) f- 37 47 57 :  ^2 N: [3 67 32 ",
"i2 a> <1 6* 77 x& O) 1& w, G_ D< 87 V/ |^ 97 y_ 0, X4 07 a7 1* b7 `@ 0{ )> 1) c> '+ N| 3< e( h! f* S( Q( o$ [{ ~{ (] R} L[ R@ n  c7 d7 c^ C$ q) e7 i] f7 g7 h7 i7 '% F< j7 k7 n< s  l7 A- q| m* m7 2! n7 o7 p7  } f- q7 r7 D6 s7 t7 4} F: J} {_ ]= s: u7 2' +} '{ F3 v7 w7 x7 :_ R@ y7 z7  % T3 D[ A7 n^ B7 C7 .3 D7 43 E7 F7  ~ T: G7 H7 >7 I7 M< (; L+  @ J7 b] K7 &/ L7 ,3 8. <, M7 s^ A) N7 .6 O7 F[ P7 Q7 ;7 Q% R7 B) n< H| g, v. S7 s^ T7 k+ U7 V7 &  W7 K, _# M= z@ p} 5; z& H{ *- =@ :* _| L2 X7 Y7 c2 ._ %6 A} Z7 [+ `5 8( F< `7 n/ L5 2{ `=  8 x^ .8 i: +8 #} i: @8 #8 $8 %8 &8 *8 f: 93 q7 @8 =8 -8 ;8 >8 ,8 t7 [5 '8 Q@ )8 C+ B[ r/ !8 Y; J]  ] |< _) N% =3 )] 9: ~8 =; T# K= {8 i> ]8 -: /{ ^8 /8 (8 w& s/ l@ _8 D& r@ 9[ j7 y/ :8 <8 E! D> 4= [8 }8 s* f^ T) i+ |8 C& E! 9+ 18 28 ",
"o% %* ^1 38 ;( (~ X# >  := )* m5 7} Q} J2 ,: O= D+ A/ 48 26 j$ 58 S* =  X. 3> q, w> _| 68 &* }! y> .$ 78 V& =@ 88 6| !] 98 -( x. 08 S+  ^ 3% i/ /' O' a8 F  b8 c8 d8 s& 3< e8 *- +_ -( >' w/ O/ f8 g8 j2 D_ h8 v[ r} m* i8 j8 '8 2' w4 k8 e[ l8 j$ n< |< >: <1 x/ m8 n8 o8 p8 i' 7] $> q8 Q# A| R| -} t< |6 N  r8 o[ s8 t8 6< M| F^ u8 v8 w8 x8 ]3 y8 %: ,] z8 Q  9' X. ), p+ D= 5= k1 w[ U# A8 .~ g' B8 C8 D8 E8 {[ y2 F8 x% 1* G8 Y$ ++ H8 o7 I8 J8 K8 v{ N. L8 &^ M8 r] N8 ~  k- O8 z} P8 S& C: d, '+ S< 3! (4 Q8 }% )) 3, R8 o5 M% 67 S8 L] w1 J] T8 N1 {] &/ F| U8 #[ s4 m6 .8 &6 V8 i} ^3 W8 X8 Y8 Z8 L1 `8  9 K6 (2 -2 ^2 9- .9 [8 c_ g' -] S] d= X^ +9 @9 #9 $9 2; ^] d' %& %9 _! &9 h* O5 31 p> v3 *9 %5 O{ t= h~ 0, =9 -9 ;9 >9 ,9 &1 '| h* 7) 7/ '9 T< /8 J] <} a. n] !4 i4 B: o: @* ",
")9 .8 !9 {~ 56 &3 a~ p' 9' `& ~9 4' {9 <~ x/ ]9 5| ^9 R| J= /9 |/ 0; G+ ~= s# u{ V/ ]& 5> 1) ~# l{ /  2% h, B+ (| 0@ (9 t  _9 3^ 9. }, j' 0' )# != :9 <9 [9 J= J  }^ z/ $_ r: {[ 7/ W{ }9 M. I~ M2 *4 |9 0_ 19 i{ 8| v[ || 29 39 u% L1 j5 49 s8 H[ I- 59 S) O~ 69 S) 79 89 99 09 B| Q! 6< a9 q: b9 c9 ;] s5 d9 V7 I8 e9 f9 X1 g9 h9 i9 j9 k9 7} l9 S$ r^ a/ B( H) +! 3~ #% S& .+ _+ m9 n9 B/ o9 S] -: c< R7 p9 q9 J~ r9 s9 z' 0! t9 ]& -| (2 -_ u} C~ u9 Q, _@ U] D< %: v9 E_ M_ := w9 x9 y9 X) 5; 0# z9 O~ A9 n! Q4 B9 B<  : F2 h) ;4 C9 D9 !5 :^ I} n< E! &} E9 r7 F9 u9 *7 G9 H9 0< b3 I9 L6 J9 K9 L9 M9 N9 d3 M6 O9 *7 Z/ O~ M# P9 )@ m7 b! [! .$ i{ X^ >6 ,; 5: E$ ], C% 7) 9>  $ N# f} A; 3; @: Q9 j5 0* z/ t: R9 S9 T9 U9 A' V9 W9 T[ 4| Y= Q~ C' A; X9 <* #$ 8/ E. .: r/ Y9 7) f) <6 Z9 ",
">| o< U5 `9 v+ a= F{ 2{ P| r@ L_ H| !4 i+ 35 ({ b:  0 .0 +0 '+ z_ P9 4, V& J% @0 D. #0 h( ~% q- 9: )& $0 F$ Q! %0 &0 *0 x< 3/ r  #$ 9& {; #* z@ #% =0 4' -0 ;0 6~ M2 >0 d= ,0 o  1= M, @> P/ x, N1 '0 )0 L1 !0 U+ r  ~0 ;7 {2 9} {0 k[ ]0 v5 ^0 L( L& `' /0 Z5 %3 w7 (0 S) x> <6 r/ t4 x^ _0 {[ >: :0 Y= o3 <0 [0 }0 39 N6 x% x* #% |0 10 20 G8 P1 w/ 30 '{ 3] '^ R  ]< 2' p- _' &@ D_ 40 {3 50 J] )7 60 }) 70 80 a2 90 00 O2 o3 Q# C5 a0 b0 X3 c0 30 d0 e0 f0 }@ x. D~ g0 h] p= }< t3 (/ =& ,) }4 S( 3~ h0 $9 Q) W% o6 i0 '^ y/ |5 j0 8< ,7 h9 h8 f2 R| G] o3 r5 w& k0 l0 M6 Y5 m0 N4 n0 L1 a1 L[ o0 p0 q0 r0 41 s0 t0 X7 %> u0 s^ n2 ^  c1 v0 w0 x0 u+ e& E) y0 8} s/  ~ z0 ;/ >( b_ A0 8, w> B0 C0 v& t: X^ Z/ D0 E0 F0 h+ 2, 4# G0 H0 I0 #9 y[ J0 H- %[ l: K0 %- ;] L0 ,- M0 Z/ -: x( 4! D_ ",
"N0 M+ O0 I~ 0} P0 Q0 (7 R0 |< 0+ )+ ,= J2 S0 G9 54 T0 U0 V0 5+ W0 M* t  M@ |~ P[ p7 X0 o@ Z, F$ a& K~ Z, !/ C# +~ +  S7 ![ $2 O> P> J$ H& b> )@ B] 9{ Y0 Z0 `0 <3 b|  a .a ^> z/ s^ ;{ M= n< S] U. +a d| X^ Q: O0 @a h) #a $a %a &a *a =a -a _) .6 ;a >a x% L9 +@ ,a 'a )a !a L] -; C- i{ ~a I{ >9 {a f9 x~ ]a ^a /a n9 (a _a L( :a <a V8 [a N4 W5 k- N3 }a H< x3 H[ |a P. <* l= v- u& -_ 1a 2a V- $/ 70 s5 3a J} 4a O= 5a N[ [{ ;4 ,: J3 6a m} 7a 26 8a g< *  ~  7] 9a C9 3/ 4= L& }7 t/ 0a w: )  aa 6< r| ]7 U1 6} B) J+ Y~ S( ba <4 46 +( ca da &} }( o3 ea ^] fa ga L5 ha O# ia X3 &: ja &4 *0 k5 ka 64 .5 la ma na oa pa qa {[ w{ p  3] 8, )> H# $& J+ r$ 9a I= j| Z/ D& B/ p, 6) G4 2' '/ ra sa ta  _ ,; a- ua !9 96 <  Y$ C' v^ &5 +~ va wa xa i* 9, s: ~8 ya x^ f& za Aa Ba Ca ;[ Da L( ",
"b! G~ m9 B( )> 3) Ea %  Fa Ga T1 A: s: [* 52 Ha &_ i} Ia Ja Ka M% /~ 2& La B, z' 8< #} g* }] 6, h+ 2& j5 Ma w4 Y4 Na +8 S$ 0. Z' Oa n* c- u- |@ +_ P= e} .! Pa p_ i' @: J~ .| q+ 7/ 6~ I$ r& v} Qa Ra Sa v] Ta 6~ Ua -/ e[ i: Va L9 Wa c[ Xa Ya O! () _} Za `a ]< [*  b W5 .b 2; >; +b P! O/ @b #b $b Y) 21 %b &b *b =b s3 -b @7 ;b >b ,b j8 'b P@ O( %a B/ @: y| z8 c{ <{ g1 R, )b d' !b ]0 ~b {b e8 +a ]b 59 ^b {4 P7 /b c, 9- A: => T1 k| (b _b :b <b [b i+ +} #= X# C< B+ $; y/ i  K_ _5 x^ 5% r_ 2| }b ~a O[ |b 1b O% 2b ]0 I~ 3b A} 4b 5b !9 V= V3 6b 7b 8b 9b 0b ab 02 M6 bb cb p3 x2 db p) S; ,7 L] _! m0 18 Wa eb fb f8 gb hb @* )# U} !, =$ 3@ A+ ib (| b$ p: jb E= +% L} O| kb T! 9a lb mb G4 i+ nb ^[ ;1 ;1 M# :! 7  h| ob Ca t0 U= :0 pb qb rb U* sb tb B4 y/ 4& 3! ub 3/ vb K3 /} ",
"r1 F: b! D0 2{ a; Y= y4 wb F< +8 N  O2 x  xb yb v; 1b zb Ab T) M% Bb C- c^ z@ A, Cb ab h* e( Db Y= Eb b! Fb 0> t< b5 m7 e$ _*  ! D& u{ S% d: @) C~ n2 Gb Hb }) p7 Ib 67 Jb Kb W5 F{ M+ r' 8{ a/ Lb c[ Mb r_ Nb Ob '/ cb db Pb `8 Qb Rb -; I4 <4 )@ =$ ^| >7 Sb Tb 3~ Ub X5 Vb Wb n; O~ 8/ Ja r7 s3 Xb {~ p/ m2 Yb y6 Zb `b e8 <a  c $8 .c +c @c 1~ _1 '% #c $c %c [{ x, f# @$ J] O! &c [} *c =c -c ;c >c >7 {0 ,c G1 T: {[ y7 )2 'c c2 )c P( 70 !c ~c {c ]c ^c }@ /c h_ )> 93 s+ b| (c L[ k| _c :c '| H1 ^3 K: &6 db T< >3 h( o< L] <c [c <c }c )] |c 1c L< 2c -} 3c 4c L6 5c n| 6c 7c 8c 9c *0 0c ac bc c2 2: e/ cc w8 67 dc ec i' t* u< a. 2' {& }] T< =# l5 !- ~8 db .! q- P= 9* (5 s( fc 2: gc +| 2} P! <! H= R& Y/ /. Y' J+ *- _9 hc n2 ic (9 jc mb r$ n3 Jb P| <: D| kc [* {8 A5 v( lc nb ",
"o! k6 mc 5| '7 nc c1 oc 7_ b( t< E! L( pc .5 qc Xb rc sc j( =& N- I_ R@ 9& => tc i1 uc K$ vc a& wc xc 54 %* N] R& lb =; ,) ~) 2& i' _' h, @) ]> )| V! D> 8/ D: Z2  / E8 yc [3 c} )* B, d( h, 2> p$  9 zc )4 cc 7/ B) Ac 07 Bc Cc Dc d0 Ec o3 Fc Gc Hc Pa Ic @< Jc Z> Kc Lc Mc A7 ._ c< 5}  ~ Nc K] U5 L1 B/ 8| Oc O} '7 _3 Pc Qc Rc Sc Tc Y% q+ m6 Uc Y* Vc (c C~ (; R+ M( }{ 9< F= Wc Xc $/ Yc b_ I| Zc 23 >| 'a 5: z} v/ `c '/  d G< .d +d e/ @d #d $d %d &d *d =d o* g@ |# W! Y' >_ x  -d }< 7_ }1  ( ;d Jb J] {$ )/ >d ,d c2 'd fa )d !d ~d {d 5* ]d ^d /d (d l: _d w7 :d <d [d }d {4 |d 85 S) J0 +~ .5 30 Q^ )0 1d 2d R6 }} E4 |} 7] X# t< }^ |  M* g. ~+ 3d q% 4d r< Q' .2 !_ E& L= 5d 8} 6d 7d 8d 9d 0d f^ ad c! '| 5% ]+ bd cd dd ed fd &| gd hd id e5 c4 2( jd y/ kd s. X^ 72 a. F  R[ ",
"W% c5 ld +( ^c $[ A- )^ ]= K& ~  .3 `% 2' md nd J+ <a od ]9 pd $_ >* ,) C# Q: qd #[ B_ <: ^# a| s+ 5/ '^ ^+ rd i, p_ T( [{ 9% x! Y= !* -~ Z) +% q; v$ sd Q# r/ U@ b> !4 ha %# U+ B3 1' (' N) J7 /c X9 td 83 {[ ud F; vd wd xd f8 O0 yd zd Ad Bd Cd A4 Dd -a /| Ed Q, Fd Gd Hd Id Jd Kd C% T< e3 Ld s} w( 6< #7 Md Nd Qc Od Pd m0 Qd P4 Rd Sd Td ^^ Ud Vd c< Wd s^ Xd `7 Yd R@ q*  :  : >; S: Zd 5: `d `0 a0  e .e }7 '; u[ =7 Dd ,] +e <4 ;7 M2 @e #e $e %e d| &e +a Da {_ 8; t  v[ r2 (6 ]( 4' m7 6> N2 *e -] l| i2 c5 %[ i2 A^ =e )b e6 -e Id +( #7 O< ;e >e ,e :b t9 'e )e -7 !e y/ !4 a[ ~e 30 Q5 *0 {e ({ V3 52 5[ O! dc 8c k| t: w} /1 O| x) ,a %[ `- ]! 3{ 5| %> ]e p> h) ,9 66 ^e /e (e _e :e <e [e }e E# o! |e b5 r! 2& v/ 1e 2e 3e 4e 5e '8 :{ [} 6e :6 !4 G4 y/ 7e U) b, '] ta E4 Hb ",
"X7 v3 Ya 8e 93 9e )2 s+ m> =@ 0e I} ae i{ ]7 be ce de ee [0 ={ 7] >  n> ^+ _) <{ fe b! ={ 1@ D3 p_ :! 62 {{ 0| M] A: ge '; P  e+ z& 0{ ^) he #+ ~$ J+ d' b_ ie %. je x[ 64 ke #= &} p% w. A/ p7 ([ le K_ me dc ne X0 $7 oe pe qe re se M2 te #[ ue $7 ve m( Y4 a9 we P  xe ye ze Ae '7 ^; a| Be Ce De Ee Fe N6 Ge He Ie Je Ke Hb s2 oa Le :[ I9 /( Me Ne Oe E= $9 P- X^ K: n2 s/ W% Pe Qe 7b Re B( L< [[ Se Te $7 s3  e Ue Ve @8 A- <5 We Xe '^ M2 Ye Ze `e  f *( C8 +7 +$ M] 4= B( .f B| 7] P2 d* g, `{ j/ 72 )$ F< b^ )* +f &: @f #f |0 N} a} .c Q] c< $f  c j2 G2 %f &f *f =f -f s^ ;f >f ,f 'f e8 )f !f ~f k6 {f 35 ]f ^f /f B( s  2] `- Me }1 D+ Y$ 3, u: (f `{ M~ ^. (] I- S3 O^ $} _f :f a7 <f y1 [f }f D$ |f z+ k5 1f f, T0 }f 2f Ca v/ U[ i6 3f 4f 7< V9 5f 6f +  Qd Q_ 83 W= I0 e/ 7f ",
"k( 8f rd 09 :f cb Y~ h/ H% l@ y9 S= I{ v+ @6 D8 j$ '7 ;9 O_ 9f j~ _' ]} `; q| D$ 0f U: ,a !  af 3' N9 2| B) G[ R4 ^6 83 t7 g[ e! `@ j> M_ bf K. L{ o% A' M= y+ ^/ cf b0 (} +( <~ J) z/ u& 3/ $[ df @: ef ff gf hf a1 if %3 jf sc kf lf mf nf of pf <! Wd qf rf sf /5 G^ R6 [0 tf uf vf ,[ Gc wf e3 Oe xf 2} yf @8 zf q: Af Bf Cf >f Df y8 G^ Ef Ff k' I9 Gf '+ Hf ^c r< ;| O- If Jf P! Z# K] Kf ._ >e ka o3 te Lf h3 Mf U1 @: 9a Nf q( Of ;d Pf Qf Rf Sf Tf Uf Vf u+  ~ I< N2 41 Pa td S7 X^ Q_ N2 O! Wf s1 Xf ~6 Z~ Yf ={ Zf `f 70 Jc  g .g +g q} :6 @g 0+ .  9{ #g O: $g %g &g *g =g K4 -g ;g >g m/ 2/ ){ I2 t0 n/ ,g V8 'g *f )g $> !g g' Q1 m9 ]: P% B{ L~ r- X  %: *- 1^ b> R# ~g {g B0 9f ]g .g W9 ^g [} #1 e| Qd 9, a[ b$ /g '[ ;# (g _g :g |4 <g A; }~ [g '+ 9a G7 S8 }g U# a- Q' <g Tb ",
"e} O= !  @6 |g 1g H| g= 3] Jb $[ 21 h' 41 .g $7 S! 2g 3g 32 H) f^ 4g E& b[ 5g 6g e9 n> 7g =, Jb s3 -: 8g r( mc !5 `- 1c %> B) $_ r+ <  L) p( [* 9g T. @= Y  0; Za A* 26 0g x~ C! ag bg ~= F- cg [( dg N2 Pe df eg M3 u& fg gg hg ig jg kg >f lg +a mg $5 ng og Pf H8 z' &{ S: /a J6 $[ pg L] qg Sd p8 s3 j~ rg Hb |9 sg tg n/ ug V4 N6 vg )^ y2 v3 5* wg xg }| d1 N) V@ M< a. !5 F1 }a 49 o1 yg q1 zg #= o[ Ag 80 n9 .( ~_ Bg  / c9 Cg }1 i' K6 Dg Eg $/ Fg Gg U* Hg Z8 G1 (e V> 4{ Ub (e `: d# R& _c Ig Ma k+ 51 Jg a- Kg Lg Mg <d Ng v% Og Pg Qg  1 Rg Sg  a 1[ F0 J~ F[ Tg oc Ug Vg Wg Xg C7 u8 51 Yg }f Zg `g  h t: td .h 9e j* w+ J# r/ 51 G7 +h F< a& o% E& @h <! {[ P= '+ =& #h $h !a %h &h *h =h !3 -h ;h 5  >h ,h R} j5 'h d5 Z} m6 )h p/ !h ~h {h .! Z9 k0 U= n5 *_ ]h ^h /e j~ /h ,_ ",
"x< /< b5 (h _h ;+ F^ h4 h[ :h {~ <h [h }h |h 1h __ 2h D2 3h L1 j- V* M< B] n< ;7 4h de `$ .! B| 8} 5h }1 N1 ./ Sa 6h ]^ K: `; J# X= r@ 1' o. 22 !; M@ <{ g@ 7h $2 1} 'c k+ F4 7b *1 m9 Q0 8h 9h J} 0h `4 P~ i' e0 t9 ah Tf 3c bh ch dh eh fh 8|  d x~ gh _: %c <a G8 d[ Ff y| hh B% @< ih v( 62 |0 ;6 ze i6 [~ W8 01 t_ _! Ff jh Ge kh 41 3, _c r@ P! lh 'b mh p! Nb 3~ O# N5 0! nh ,g P| c1 oh [) 05 K_ k6 ph qh rh sh :) a= 9} th G2 || 7| Ec uh n/ vh %7 J} wh x1 xh .5 !a <a yh y9 %| v_ 7{ 4< /| e} -> `2 ;+ zh 0! Ah ze T< &7 Bh =g Ch  a _2 67 Dh Eh 'e Fh |d Gh g[ Z5 |< Hh Ih Jh Kh Kh D~ Lh (2 4: r6 f} )+ c9 Mh M6 Nh Oh Ph 9, M# .: N| )$ t} )@ B! Qh O3 i+ a@ Rh D. O^ a> (~ sc Sh Th Uh Vh 3} :g n5 Wh <: 9> A5 bd Gg 8} V= Xh Z1 tc Yh Zh n3 2: n+ `h &5 <e 67 2! i< O|  i 9_ _{ ",
"<1 Cb $4 p5 P2 L( &@ *_ i} `& h] b5 R7 3h i9 #[ .i +i s3 q1 3# c[ v= Y# F$ [[ w} @i '^ T. Q@ #i  ! 54 D} a~ qf }1 ab J# N% z/ $i H& R^ /< ,) Q| p= }4 6^ =# %i J2 O< &i A[ A' 5a i* *i s| V^ =i -i b4 e2 ;i t3 `a >i ,i k1 o| 'i )i q8 !i 'd Pb _5 ]: w7 G} ~i {i 8e g[ r9 ]i ^i /i (i 20 35 _i :i <i [i ;f 2d {g }i I6 =4 |i re [c )4 Z5 3_ W% g' a0 x9 1i 2i p@ i' a= r2 J7 sg 3i 'a 4i d( 5i 6i L1 We I| y/ %[ 7i F^ U8 `1 p7 !b 8i *7 9i 0i Ze ai {4 bi ci e9 !3 d3 }2 v[ ^d di p: `8 ei V@ _1 (4 ^2 fi gi +i P/ 52 hi }h md ii bc X7 ji ki li mi wh ni .7 oi Ge pi qi 24 ri si lh ti ui |5 66 ,c vi wi xi yi zi Ai |i Bi 63 M} f, B) N) =, Ci ]< h( !- f^ 5} Di Ei b* Y& Fi t^ Gi Hi m{ G0 9! Ii K> 5a 8! O< 5) // h] =< Ji ;7 ff a4 r} ,_ Ki s^ N2 x2 e- w& Li Mi Ni r: Oi _{ Z1 Pi Qi Ri ",
"0, O_ Si &_ !4 n< <{ /i 8} N1 /{ p: w] J2 Ti `d Ng Ui Vi Wi E4 Xi _' r( 8% `2 Yi ii Zi  5 9' 0) `i T@  j I. ~+ B] C& 4[ Y8 Jb .j k- !# '- +j ~) M{ j' %, 8{ @j B/ 0! ~, |6 R4 #j R[ n< Uc 3~ $j ]] ce %j &j /( <5 [3 K9 *j =j -j ;j >j ,j 'j H8 Q5 )j 80 67 @e `0 >7 {5 @8 !j 6c >9 s6 s  ~j Ge y8 {j L2 Yg ]j ^j 4a b! O8 E: .8 S{ /j +| (j <6 _j 0_ Y5 o7 P] :j 7} D. r< N: ]< <j 8| s[ <2 [j }j 54 i} >7 9{ e6 |j wc @j i+ zg 1j 2j 3j 4j 5j >c K0 6j 7j #|  ] D8 @c [c Bi _2 %3 8j 9j 0j 4' t= e| )( t7 ;> aj n} r| bj X7 -4 cj 20 D5 dj || {f =h ej fj !7 gj ;i hj p3 ij jj s8 kj lj mj ma nj 85 ^: k9 M| pe {3 oj j9 pj v| qj rj $_ ~  sj tj '+ o' V/ Y| 5} L3 &} 3; w5 uj H3 #} /7 vj wj xj yj ,:  i <h D_  % I# zj 6# Aj Mi X& Bj Cj &} -/ c| 0. G] [8 Dj Ej 7} Fj |h '_ }h Gj Hj E0 Ij ",
"a6 T( H~ 6< P/ G9 -8 ]5 ~] Jj F< c, {[ (3 Kj Lj y2 Mj Nj Oj .9 Pj %[ 2] #= _d L[ bb ^5 5* R& Qj B( [{ G{ o* 1_ L( /( O[ -} )2 _i ;- t4 5% '% F> s  9_ X) 30 (] Rj )c T1 1~ O- Sj M# o, .1 ^# J7 Tj /| $/ $a Uj v] k+ +e {j >e Vj s6 Qf Wj Xj -_ Ab Yj [) J2 Zj `j  k H{ %b d< '7 .k +k @k #k +c $k %k &k %| *k Wi 07 i: =k c5 Ud -k 1[ |f ]^ ]d h3 G[ i5 ;k u8 >k b] ,k T< -{ [* 'k Cd +9 3] s~ _5 X^ )k !k xf X0  5 *1 ~k ,[ ,d {k w> ]k ^k N1 /k )c (k Nh _k +~ :k -_ E2 <k 90 Va [k D} 74 :~ <{ $4 }k +~ s^ J2 |k a7 U5 .g 26 *( 1k Mb 2k 3k 4k 5k 6k 7k 8k %f [8 9k 0k _2 <4 ak bk ck dk ek fk ^a U0 %a gk hk 84 ik <| N1 m[ W5 '^ b4 )^ a6 f9 y; Xb -* Xb F; `$ m{ ^; n@ ={ g< B1 77 jk kk /} lk U0 $g C% Q~ _| g7 H[ mk O= 8d K5 nk ok pk qk F] O6 Z5 rk Mi !3 >j J= sk _! Ab +( I{ tk uk ",
"h} a; &} W9 87 h( D~ 2% 0% d) vk cf wk ^0 J} G5 xk Wi ec ;9 yk +/ _1 M  a$ )) P7 c9 ]& a- 1( mc 3/ |/ Wc [{ ;( zk Ak Bk I| 7/ S= ,0 =; 0} L~ ^_ i{ =& Y& #c [{ 6g M% Ck (4 g[ Dd `- =  Dk }[ 2{ Ek Fk Gk Hk Ik tb Jk Kk Lk Mk Nk Ok @c Pk $4 #8 3j /{ :| ~d Qk Rk )0 o' T: Sk %3 !] ph Tk $4 rc 'e K9 'j Uk ^k Vk Wk Xk Yk Zk `k X5  l .l +l @l 4[ 67 #l h: 5f $l X^ (} %l L[ N3 &/ [@ B4 Za &l *l Sg =l -l ;l >l .g }f |9 '; M_ ,l 'l )c )l Rc !l Ad 2h ~l /= z+ {l #} Ha ]l ^l Lh /l Fh ^2 wh m~ o1 (l f' zg k5 _l Ya +a 49 :l ue <l [l =b }l |l 1l 2l 3l 4l s} 5l e+ ge 6l 7l 8l Af 9l 0l L5 al bl Y! cl dl el fl |d gl hl il t% 9! *_ N: &| jl !] M] kl L[ t' I[ Z1 V< h* 5@ 0< A( ll 97 ml nl hd ol <d x( #* -} $  +/ !3 N[ pl ql rl sl G8 ,a  ( tl Y[ ul vl I0 wl &: ~[ r= O1 _9 xl yl +9 ",
"Q} N1 [} M% zl _5 ;/ A( c! 7/ j] c_ x( {c o' n| 2~ Al  b Bl ;/ {/ O3 Cl _* O= }f Dl .e U# 6< A7 6b El M- i* .: .< 85 Fl %| V2 D< 1- Gl )^ `* r  9. F; E& r1 we ac Ik .5 Hl ^2 I] f} i# <  z^ Il ^5 f8 A) *g $} $4 He Dd Jl Kl Ll Ml 5j Bl Nl Ol ,# Pl [* Ql 5c r| +5 ]d B^ }] @$ Rl J[ 3a )5 %3 Sl Tl $_ #d ,e Ul Fe Vl mf <0 Wl Xl 88 x. d_ {0 05 <k Ce s: Yl %8 Zl `l q! /~ n: e$  m !5 .m +m 2  0_ 8< G9 @m `:  d F7 *( w8 i( 3a hf #m &f t6 $m %m &m *m >* s5 O[ F3 =m F2 -m ;j ;m r1 >m ~3 x! -} F] Y; Pa ca ,m 'm )m 8c !m w> bj ~m ]f re ;| {m |c ,l ]m S0 ^m /m L< (m _m E2 :m <m <d ;j [m }m e] $a |m }k g8 1m `8 2m 3m P@ #7 t< n: a7 4m Y~ T$ D[ 3/ x  5m 6m L[ f- 7m 54 0b ,b 8m 9m 0m `h am bm _5 l) G4 C% X^ cm j) dm lk |[ em I6 y7 (/ R7 0/ fm gm hm im jm km >7 lm G9 v/ 6f F~ ",
"h] 8d _g !1 mm 43 _) nm [@ /5 q* om pm 0* Q) m/ K{ T} qm Fd j' wi &} L[ }$ B/ O: rm l: Z6 o  %6 @: w[ v| /; i* )} pj sm tm 0@ ~% um vm Mi |! wm o% }4 7) xm #^ >9 t< of zg wl v3 4= p( P- .$ (^ ym Tk 71 Gh Id U: l= dc Ah zm Am Bm fb Cm Dm bi  / G! e[ Em o3 N9 9- t: n! k6 Fm H2 Gm 2~ Hm A# Im Jm bh F^ 6c U1 Km td +9 Lm -} O! Mm Nm 59 @3 Ue Om 8l n^ 'j Pm P= }% Qm n^ 0_ H1 L1 Rm 8c q< ;| Sm Tm |6 Um C8 Vm B: Wm Xm Ym Zm )^ Wh j2 pj `m Ee  n fk +% 6j [~ +  lg Z5 .n +n bk @n v3 #n 6k *4 X# n: 1[ ,b 07 $2 $n %n ,c &n *n 0b =n -n ;n dd v( V2 3j >n ul .e ,n 'n )n !n ~n {n ]n ^n /n }2 || x) 6b )k T5 x_ Hi (n 67 {3 b@ K# T{ )2 ~3 ed  c A- [+ a} _n :n z- a| A/ E1 <n [n +3 Uf bc }n |n 1n 2n v/ h_ P_ r: 3n 54 4n q1 5n Va Lj 6n H1 t9 jd !4 |_ 7n 8n ). 9n 0n an bn sj // cn ",
"U[ r5 +} dn x~ en 3] (e (} -{ V! '/ *c V/ |6 Kc %} ^1 fn n+ b| gn T# Q  f} -{ F% u% ~2 )4 V3 Ag U5 -5 F] v[ hn _| _~ M= (6 +- (^ /' B< -_ `& 8. in p@ C& X^ jn v[ #^ a7 Y[ y9 H| kn W{ v0 9> Pa f4 o7 Ll 97 x2 m7 ^j Xg 9m <0 ~i ln E| Hm mn 3< #} d[ -> >/ nn P  %a mm s5 a& on pn qn f@ #2 Ab rn sn -7 tn un oi 9e Zm >2 _9 C| g* +& {~ M6 vn -: E[ 1k _j !  wn xn Y$ |b <[ zh xn Yk ^^ yn zn i* p3 aa An 3j Bn Cn Dn ]9 (7 En Fn Kc Gn *1 Hn In Jn *f T1 G} un p8 Kn >8 30 Ln Mn |0 q1 Nn On y% X< Pn T[ Qn Rn Sn H3 Tn W8 Un Vn Wn ea Xn Qc Tm bm Yn Zn `n  o :d .o +o @o #o $o %o &o *o ja =o -o ;o >o n! ,o 'o )o !o ~o n/ {o ]o |_ B^ 4c ^~ ^o /o c1 G1 B^ &j G0 !] .  {& '8 ,d o6 (o _o :o <o [o }o {d a4 |o E+ _) 1o hm 2o 3o y7 4o )o [5 5o X1 r} Pe 2: L9 Q# 02 6o 7o 8o 9e <~ |h N{ ",
"$& R} 57 :6 l% +$ <3 C_ }< w} 9o Q~ *j F4 >9 (| ^^ 0o ao 1b bo %} L& `% p} y3 jn co G1 '; K9 !] qi do eo T@ Aj I~ ig _{ $9 !% ^  C: O~ ~j s1 d{ ]= !; _) q+ >7 #} >7 of (3 &/ 7j T1 O# A+ Y: {] fo G5 I2 ea @k U8 Vf On go X9 ho io jo +~ !a 'd 5* v/ y/ >9 K6 nd %[ 2% ko U1 c_ I~ lo mo no oo Gm R8 J} po xb qo ro  f 52 so %j to b3 J} Y= h) ^| Pk =j wd >2 M< b4 ^= 1* j5 `2 G8 uo *0 <i vo J~ wo Mg xo yo zo Ao il }< `i Bo ;c Co )e Do '7 Eo Fo Go L] Ha ^1 m8 J1 m2 v7 s5 Ho Bi Io Jo 43 $g Ko Lo 5[ 0| 1% Ke Mo ic No tm Oo Po D2 Pm %3 al Qo Ro So tf To 1~ t0 Uo so Lh Vo >8 Wo zm 55 Xo Yo 4a I2 i1 Zo `o  p =b .p b3 +p K{ b: j) |/ p5 R5 #g 9, *- <~ ~+ n+ [) .~ 5| cc @p #p 4c $p /3 %p &p Ia &2 *p 35 Ei Ii f2 =p -p ;p >p ,p 'p O0 c| Ge ;f `0 e| b] 3! )p !p $  ~p {p #( ]p ul ",
"u: q+ 7! Q' B: c_ N9 h] N2 9> )0 w( L| tm qj $} v+ ^p /p -} (p O< N3 /2 h( e] <3 _p d_ :p n} +& 5d <p g1 [p {[ C~ f- Y; s! ;] L+ Y* #+ !4 f> 4# h} y] !{ L[ :1 4, e9 41 P2 t9 7/ n! (( .~ o% D6 (3 bh }p :[ 6c C5 %3 k[ %j jl [* v3 pe Ro x9 xn i2 o7 Ib t: Bm [( S5 F^ |p Y~ 1p || Yg p8 2p 3p |0 yi Al 4p 5p fa 6p c2 7p )b 09 ;h 8p P4 (k 9p #f 0p hk ap <; j8 bp r/ Z~ b5 yh cp /^ B( dp a  ep p: Ld {d Tk Me fp gp L2 _2 Wm hp ip jp kp lp mp Pc np op +a pp qp $7 K8 rp sp tp up vp wp xp Wl db yp zp I~ (l /; Ap E5 Bp Ae ;4 Cp x7 xb Dp Ep +3 Fp  a fp Gp Hp Dm Ip Jp Kp Lp Mp Np J4 Op 6j Pp yd E[ Qp Rp |b Sp I| T} 5k W9 X9 Y; 4} ~2 o1 O# T) 9< )) Hb 1/ s5 I% u] yl 6* Tp gk Lo Up Vp Wp 'j wo s4 Xp j3 => +| Yp Zp `p  q A( .q +q ,9 N[ G5 ac z1 G7 Z1  4 @q u% #q $q %q &q ]4 G} ",
";+ y3 *q D' =q ]m ]< -q <% ~  ;q Ke >q Jc &m xf ,q f: !a n5 :~ q+ c, 2] 'q n3 C~ o1 ~3 pd 7! [[ D+ j8 9| $[  $ X^ K/ 9i H{ F& X) )q Y) |[ bg ))  ! Pj k_ t1 L[ M# J- 0%  5 Xg G@ <i n4 :@ ~{ )e K_ $4 Wi $8 !q Ep Dd L2 3i ~q {q ]q Fk ^q Rm Gf /q  $ y2 'l &6 :p y3 c< g@ y6 (q _q :q -7 <q )e -o ia [q $g (h }q ol |q &k 9> ,. 1q K{ /( ]6 [: {p |) 3! 2q 3q R& 57 4q 5q G} f0 _~ qd 6q L9 7q dk 2h 8q fg D7 9q 8< 0q ed bb |p 67 aq sp <0 bq <4 cq dq eq &: {m fq 3p 4c gq Ub hq iq 1m Q7 jq <0 kq =: lq k5 R| 8< Bp mq nq im oq Mj pq qq rq @f Xh s8 sq tq th uq vq wq xq dd &d .o yq zq Aq Bq Bq Cq L5 Dq Eq `8 '; 7b Fq Gq cb om Y8 9| x, 0! S; Hq M% do T2 Iq Jq @l O!  ~ }j *g Kq Lq Yb Mq Nq Oq Pq Qq Oi ;( A5 Rq Sq ej hd Tq il 0! n[ Uq 0+ G] L9 G~ w> B| u% Vq Wq Xq Ap Ni Yq I1 Zq ",
"$}    n9 +7 F2 1~ cc F< <6 S: of 3} (l X7 `q S5  r kh .r J) x% *~ X  ]< 8, +r @r }5 =: n: #r 7| >{ 7< .5 Ib ;o 4l Ze Vp `= 6; $r P. @* F^ ~= h. @_ 5% t} 7< %r x( (7 B] =j /^ r1 -  y/ c, (l &r ,e Ac Wa 9b +~ *r =r n/ M2 -r ,c ha v] m} %8 ;r Mo l| y' Cp #c F! f0 -n fa >r J1 L< P2 Wa h8 ,r )e K_ 'r 2q 8k )r ]d D2 /3 !r hl %} jd ul 2} t: ~r {r j( F3 ]r 9e O} =, ^r /r  9 %  I} S' Ze (r i} G] =f _r k6 Ik K2 ;e :r H5 o[ <r 'b [r }r lo |r }5 Qf X5 G5 1r 2r Xc D} 3r 4r pe 5r na 6r (i 7r am 8r !4 {c ao 3q =_ M9 Lh 9r 0r ar br cr dr !4 Z2 B1 #8 Lp ki 3p E} &k er fr gr 6l hr uq ir qe ]: jr ,: Um ^n kr mh tf 9c E7 O0 Q_  c <! 7b zb lr mr _1 %[ E4 Nf ,[ nr .| '8 /7 +3 &b or |n a0 pr O9 qr G4 ^a ;  +| rr =m sr tr ur vr Q) .| bh <6 !a Zp wr 1c M7 xr B0 yr Yo zr Ar ej /b q1 ",
"7d Ig o3 Br %r X< e/ p( Cr ~j Dr %a  g '0 @: f: Er 3~ `- cg u& X! {$ :6 3< 3; i: >7 52 .g ^c Fr f9 7< M6 D~ $4 /~ 8< Gr xn D3 *  0+ Hr o0 r/ S6 e= ., ^^ v[ v1 k[ q1 sb q( m} C8  $ '+ r_ P_ Ir +9 Jr Kr c9 y9 g[ Lr 6i Mr  o {9 O2 Lh f8 /m Ke !b Nr F} 23 Hm  f $4 4c .9 K] Or ,c W% Pr E[ Qr ]c  f Rr Ee Sr Tr Ur =_ H1 h] b> ~j Ke 15 /^ b0 Vr Wr p3 74 -n Xr Yr &/ C[ F^ -n k| Zr P4 `r  s .s Sk 3j +s tb p0 1i 09 {e Pc fh e2 @s G[ #s Sm $s %s &s ye Mf 7| +a *4 ^^ *s =s -s k: ;s >s ,s 's )s !s ,4 $4 U! ~s 9* {s ]s 5} 6k ^s 3b /s R6 16 (s d0 H5 _s =o En :s <s [s mf }s |s 1s }l 2s Zb /b x2 ^q 3s 4s 5s mb >8 '_ (0 6s &: 7s t= (k -] :1 80 G4 W% D[ 8s 9c sp |b 9* H3 9s em A( J1 0s 9c as )k sq bs 27 cs ds es fs Gi a< 8! gs 98 15 Cj 97 Km .7 _b c5 hs G} is =m js ks K6 c| ls ",
"K% ~[ E4 7| )c O= ;0 7! u[ U$ 9! R  F< W9 (p B| #$ 01 B: P4 N  '8 w2 M/ Qh '; |5 .9 Lj S{ N[ P4 ms 63 P7 E8 || ns os U5 p  r= s] _] {5 01 $2 }^ ^_ E3 7} 9> #} !5 J] ps k5 qs rs xn W% )) v6 gr 9e 3! ss +p ts /^ Mm Wl 67 W4 'b us vs B4 F[ 'e zf (2 ,: T7 zi zg *n ws *( H2 lh .g  2  d xs 3j ys Z2 d< zs {e 8f As Bs Cs ed N} Ds $a L1 K] T{ Es p_ nm qj G} ed <2 y| /^ p7 h0 Ib ]5 -8 >e Fs 4o Pc Gs Hs Dm Is }5 Js ip Jc 'd W8 K_ 07 Ks C5 6r Ls Ms Af Ns )] K9 G8 %4 K/ +7 Os E5 Ps Zb Qs Rs ka b4 ;  Ss Nl O! 1[ 39 Ts (h >m P6 :) Us dl *r !o Vs ]s zm *o Co 5k Ws Xs Ys Zs `s  t .t +t @t O% #t $t j5 %t &t 4b *t Rm =t zd 1^ t9 q* M~ 1' -t a| R~ R5 lk ;t ll Wl >t dm 8d A; ,t 't rc )t *k  2 !t 5n P~ n! x; 25 z} ~t {t ]t ^t /t (t _t :t ~l aj X< yj E9 a7 7d h: <t 5> [t T, }t Zm ",
"@/ =b ]5 mk o5 ~, e8 [* ;/ S6 9> Bj B4 |t t/ ]& 1t 95 H1 %a 0/ 3_ T3 P= Q_ .! S6 2t :[ S' 3t m2 Y: T< q8 4t g< O  c_ g9 M< 5t e& 6t ge /b -2 q( )  'k !4 /b r| N) cb 7b ^o 'r 7t __  5 )< 4$ Pa N/ 8t :8 Ec /^ ;4 of s3 3j 0g 9t 8c z7 gk 0t 09 '/ C6 P1 $7 D} Pe B| h~ at 0! 'k |c f8 s8 bt ct tf nj |k ;7 dt $p 3g &k fq Wj as p5 `& bi et ft Ya nj gt ,} s3 Ae Qj ht (} 63 +f it s5 jt ~k kt lt ^6 mt <0 nt ot }l Xs h) pt qt rt !j st qs =j Q5 tt ut vt Al Pj zb wt sa xt vs @f yt zt 93 At E5 Bt Ct t^ s* pk re G] .8 Ue s* 'n Fr Dt wf Ck Et  e tm }o Ft Gt Ht m} ({ _3 It 1n Z5 Jt lh %7 F7 D' jm Ze 2[ Jd  r y8 Kt Lt /n Mt Nt 9a j( L] [2 :_ Ot Z1 Pt Qt (/ :p lm M7 Rt h6 +~ St Zn Tt (7 k0 yr Lo 49 tj 3  Ut cc ol Vt &5 s4 ]@ Wt `1 *; xa Z/ 15 ,_ 3h Xt x( 64 Gh Lt %0 m{ <h w8 Tb ",
"W% T{ J+ jd ~0 P! :1 U^ 1[ ~3 b_ |; Y' A3 Yt $_ F4 H9 7} 3! n^ !2 M* e- [! i* s! Zt 4c Xt J6 O6 p8 84 0q 23 ^^ u8 Nq P~ (] +& :@ Z) N3 we t: u< `t Y; S6 y| kc `7 zf Fe  u 16 Vg xl .~ _5 h( x0 Z8 >r .u -b <: +u xt H2 Y5 @u Ht #u /m :6 $u 3' %u <2 @< }0 &u *u =u #7 Ce b3 (c -u <0 ;u >u Pm wn ,u ef 'u P4 )u gi k_ !u h: T{ h3 2% ~u 'h bk !b 52 {u )l )l V7 !5 ]u Pb .9 P/ Hi j: k| ^u /u (u _u :u <u [u }u O0 |u Wa J} 1u e/ no 2u Sa Wo n9 Ub 3u ]f >9 4u `7 ]o E2 5u f/ 6u >r fq 7t %8 7u qj F3 Xt f2 8u Dd Hs Gt 9u 9m qj >j 0s fq {c Qf 5k 0u /( au lg I2 bu fr 'd Gf cu Q7 du De S8 eu fu ka <i ]d Oo gu Va Ze o[ )u pk '+ ;7 hu h: ~/  f [{ w& J} r5 iu ju wh ., ku lu mu s6 E2 7c Pd ;h |o wo B/ Y| ,} N! M} nu ou A( pu qu ru su tj :i -; tu &: <{ uu -_ n| vu Hb )h wu xu yu zu ",
"i9 ;m 8q 8c x^ O# B+ `2 |f @< '^ ,= ,d Au 70 Zn H1 ~] &/ t9 Bu <3 Cu Du 2; e[ Eu 1~ 3a @3 $a Fu O: &6 t: Gu 9[ *p X< v* Fi g/ c@ Q  u( -} .* 4[ <+ |) im F] 3i wc {c 7} Hu p! Z5 N1 X< W* #[ Iu {m Xn Ju Ku 'l Lu D+ lg n: @8 6c ]j ;g z} _5 D6 Mu M= Nu y/ tl Ou Pu [0 Qu 8g 62 fr *f Ru 1[ '7 Su 3j Tu 2m 'r $7 'd Uu *( Vu Qp _d Vb '_ Wu J~ 9e Bh Wg Xu >m Yu Nb O: =, m9 ^^ Q| 3^ 5f w( Zu a9 `u re er  v .v +v @v #v %t In $v 0s %v &v *v wg =v Jm `9 }2 md [! Pe ke -v )j p_ ;v m2 Lm H2 >v R_ p8 M7 k[ ,v fm 'v )v xq 4l !v ~v =t E9 1t 8r k: h< {v ]v Fr ^v /v (v %g ~i _v =a 3k :v <v 1p }n [v }v !a [g Ri Kb Cc K5 |v nd 1v 2] 2v 3v :6 B/ 4v de L( {_ k( 5v I~ 6v j~ 7v 8v 9v 0v =g Wo R| av p9 5v bv << tl cv jc _9 25 Ag <g 3c Yo Vc l: dv Ap sr ev fv gv )c hv 4m ){ iv jv kv en ",
"M7 N_ ^] M7 M| Ya g9 )p J) N9 Fd {c 89 of Qc 4b x^ o3 K0 tl D~ a. {~ #^ B| lv 9p vj r9 mv -f X^ cp  9 nv @j @8 Fh ov li O< L[ B] !, `2 !k K/ x^ 1= c2 56 oc m3 ]c _5 D2 *4 P4 R[ [[ pv I< Xb {5 ^a cb )6 st Pb qv }a rv sv *u H9 tv zi uv fr vv vs &{ N6 d| wv ao z2 mo Wm xv 4q yv 2u /^ zv ;j Av Bv rs Cv -k }c  r G^ am *4 Dv [~ 3b Zt Ev P6 5l |6 Fv pa 'f %6 ;v Ib 3/ 2q 0+ 8q Gv `9 Hv Iv 79 Uq $o Jv Kv )i Jm xv Lv 4u Mv Nv Ov 4t Pv Ft {k oj rj Xt t} :a Kb Mc f8 Kc Vl Qv d  K# 2g >} Rv @o Sv Tv Uv 3h N1 k: Gf Vv Vk T} Wv au ,u Xv Yv Zv ]s `v T5 Vk  w Nf .w Xt b3 +w '; Z4 ;v J2 Ul @w Oo Nf #w 6c $w %w <u &w *w 24 R2 =w -w Lj `c $< ;w ;| +| 1b >w ,w Rr 'w )w !w x( U4 #4 ~w Rj Y1 a^ {w Lj t< ]w ~~ Wt =p l: :n !3 Gr ^w Se /w (w _w Dt ;9 tn lb :w <w y6 Z8 |4 jl [w }w |w ",
"^3 1w Ac }[ <2 B% :i Ib u^ Y8 90 r1 2w }2 gi [7 =h || ni }k +t j) %- q) B/ g: (c H[ +  d0 43 G2 Tu Wa O} W~ |9 3w @8 a4 c1 na T  y/ G~ =< pd 4= =9 '% gv 4w 1r G0 `2 _d P! p8 yk Z/ T. v. of %d ]^ S$ To Hn tf D6 C5 o| 5w 70 6w m2 ~j Y5 K6 _1 :k I4 7w E2  o vs Pd 8w ^7 Vs vj 1c h0 8/ 09 8c 9w Bm wh 0w aw w7 no Le cj /2 bw ]d |5 O: Ak w> Y8 =e  / no g[ cw dw 7t )4 ^1 ew Rr )@ fw @$ gw pm o3 G5 hw '0 iw 95 jw 7j o3 kw lw kp Bl |0 F4 O/ mw nw Q= #} Vf ,g ow dr ul `c pw &6 n! Ag @8 qw rw Io sw U: [l a9 tw Vb Vl uw p0 vw -5 ww xw yw 80 4t zw ^6 Aw R7 @w Bw O2 <4 {i Dv #4 6u Cw u: ^1 Dt Dw `v Ew 0o Fw @7 ,n Gw 0s Pf :_ C| =s ;  Hw <o Iw g~ Vc Ok (d Jw Kw 7d Lw %f Mw Nw Ow )v Pw t^ *e P< /< fc Qw Sg _k Iq 1o wc 9c 99 Rw <d n^ gi Sw Vg 4m Tw Js pt Uw @/ {_ +@ ]5 Vw bn ",
")0 n7 Ww Lh O# on E[ P/ &9 Xw }h Yw 07 M6 Zw }1 ns $k we E5 '; t= T[ 63 +| i' {8 K< Bh `w 52 <{ yn Ge dq |5 +u d0 c_  x G} `| K& t< K6 ed B^ i5 8d y3 fg $u -_ 3< En A7 1k 4u 5  T< T< <! >9 &e .x +x @x Ab #x [8 tf )4 oe L9 la $x {0 T5 %x =j i} %4 &x *x 52 t: =x au J| rh n7 o[ d= :g 7r -x ;x >x Df Pu ,x El 'x dp 0j )x Ac }k /^ g1 Ck !x #$ aj U8 ~x +  k9 92 K{ {x 0w ]x |t %f r5 S{ ^x /x J2 jh fa (x {j _x :x od j8 Ek Ok N9 <x eh Ru En uo %w [x }x |x |i =f 1x tw 9l ;v O} 1t 2x 3x !s g8 4x Ci Fc <5 lm fg zs &; 5x Qc L] 8j 6x 7x _3 fq m0 @8 Oo 8x Nh <7 9x 0x &w ax `8 au bx >u $o l0 cx <0 re dx ex fx K9 <5 c| L6 H1 a7 gx hx ;n ix n= k' no /d ]& jx H1 kx mw -h %/ lx mx nx Zb dr ox ca 26 8< hn px -1 qx rx tj M7 sx =5 tx =3 ux I2 Uk 1[ H1 vx &7 t% wx E2 [: xx yx zx Ax ",
"C9 ig xl mb Bx 20 <2 P~ q! 3] 85 @6 Cx '+ d1 c_ 65 1b L1 Um Dx Ex D. c} %> i+ ig G7 db ;m &k 24 pj ^u y2 Fx F6 v] ^: <3 23 E0 t% Gx @: `d +( >9 f: Sa @b Qe t9 `i c3 )6 Hx a7 k6 >5 Ix m5 () j5 R[ V8 p9 Jx Kx Ge P1 6< Ja ~u >/ ax Lx &g G5 Mx F^ 4o ]5 9r A7 Tf Lu {g d1 Dm Nx 0q Ox F} un /m Px Qx Ov 4k 5a Af }2 n7 Rx $d Sx 'u zb 1u )e Tx d0 gp 1[ Id E9 ka 8| Ux Y8 52 o6 Ic t/ /^ L/ Vx Wx Xx 'n p3 Yx Zx `x $5 dc  y .y 'b +y bj Ft @y 8u (m un #y 6< B^ i1 &k 2[ $y us .e )] %y &y S5 Ll *y ^s <3 =y %: wq -y ;y D7 <d >y ,y 'y )e )y xb bb zd '0 Mc !y *4 ~y 'd ~q {y c4 ]y /m p3 E4 ^y /y (y x% _y :y <y {4 [y Nn Al }y |y )] 1o .| 1y 2y ]5 c3 E) R| %a n[ Ri |6 va ;p 3y &q 4y 5y 6y Dn fu cl 7y E0  % )] D~ *e $4 8y ma Sk ka Id 2t 9y 0y i: ay jf Uq #k T7 4: by a^ cy dy ey fy ",
"gy %- hy E& +~ iy o0 jy _f ^1 L9 fp I| J~ dc Q) =b px H2 J2 hn ]9 x/ 7} (; 38 ^a o7 [* ia |) zk ky m2 ly &4 G{ =f Al >8 E~ q: oq y4 n  gr 79 Q] v/ 6~ r6 g[ Up !5 ei ig %| fa j7  / s( i2 (| e2 my ny {2 ]d oy aj ^u py qy o[ L1 wc }[ Hn !q fm ry sy fm !5 Wq ty uy xv vy (d -g @f b_ &6 Sg bj D2 z2 cb pe $( wy 3! xy ;y @8 %v zi yy zy |5 uc Sk m[ |k c2 y9 Bn a& 3[ 8| Ay zw By Q^ u8 Cy Dy mo 1c Xj Pc 1t 5j Bi Ey Fy y/ th C8 Mj No Gy Hy Iy Jy Ky 4t )e z2 +( C8 Ly Vf ip 5c `2 Ub T} 5p yt 3} 7a q} /h V7 1r My Xj !7 z} >| Ny (g Oy W9 `n Py >9 Oj un  a ce Qy Ry Sy Lo cb Ty !f }n sr Uy j9 2x Vy D2 h8 Zm dg 59 ~o Wy Ke |6 M6 ni 's ]k xl x| Zw Xy b0 ja Yy f2 K3 %_ |m ,_ 7y !h Zy `y !y %v no b3 A|  z 'c @m .z Yq ,p V5 Nh P7 r8 +z @z K9 ;w 5} |5 Dt ,_ ;_ 35 #z [0 $z %z &z *z ",
"k{ =z |) ], R@ -z Ke #n @j G5 n7 ae +l ;z 41 J] L1 J] 7| h: k2 k5 !+ X< }) 1~ w8 Xg >z Vf ^3 yt n  ,z w1 O[ 'z ]q .  Sx 1b G~ `$ ={ e9 >e Wr a# 4i {_ J} |n tm G[ 3m )z ze dm Pc :r n! !z w7 fp ~z L} 4a Ue <h {z <r 2s s6 >e Ch ]z *_ w4 +p Wa 2h @< s2 ^z ii 'u ;n /z $g (z _z h< 6c wy :z ~q 9[ zi H4 dh <z [z Av fq }z 79 tm 80 |z &k Cj {0 1z 1{ G^ L< 2z <u r1 Pi g0 }z y/ X3 ^l ]j _1 3z #u 4z 7j }} Kd qj sp k[ gu Dj l/ 5z yb Zv bq 6z 3q 7z fq 52 8z 9z #+ 0z Lh }h c3 'f W9 5v az Vf Y) R} `0 bz O_ r1 cz dz Al x8 +g X1 ez fz pi =b ]j gz hz Ek iz jz 24 )k Dw kz lz R5 An mz %| nz oz *t 5[ od zs pz qz em s6 rz  7 ~d ei sz gr xg Ok L] *l qc :0 P4 ia tz n] md d9 3h qi Y6 ;9 uz fz vz wz `8 ft v( 'd xz [6 yz zz j_ Az /6 9c Bz us Cz `5 32 i+ wf Dz |i ^e }7 %y Ez Fz Gz Hz Iz ",
"[8 i+ 8u Jz qf P5 Kz Lz ^b w8 H6 07 }f ,d Dr i} Ie |5 O_ Gr 15 {[ Mz .q J~ 3/ >| m[ ^1 Nz 23 db A3 T{ Oz `a _r q: Fd Ue Zp (~ ~6 Sq $/ Pz 5m Qz 0+ ]7 Rz ^2 (k C} }o >+ ]& 6c .p Sz /9 ^1 tf ps ne Lt !5 Zb wo ]c /k wl ul m2 _~ Ja i' Tz !9 Kv @e 65 <3 ,r Uz Vz lg Hh V4 Wz R7 r_ Xt Pa x] Xz Bp Sd X1 Yz ky E| Lx Zz 'r `z  A .A +A y6 [8 @A 3b od *b F4 #A $A v] zg a1 %A &A *A $j h: O4 =A q: I2 Dm -A  m /a {j `2 gh rc i* N1 mo Ss Pj Ov 2q ;A +i >A I4 *k <2 I2 0f 4p :i /b n/ 38 ,A Vf 'A )A Yg W9 <a G} 8c y6 C8 ^q !A ~A &{ {A `k V8 95 1p ]A ^A 0k l: /A (A Po oa j8 8j |i ja _A :A Ul <A J4 [A Cf 8k }A |A 1A 2A  2 3A *0 .3 ed 4A ;p 7# 5A 6A )] 1f [0 7A 8A 9A 8v =h '[ 36 !7 0A p3 aA bA #8 cA px _g %m |) F9 )] 0b Gh dA Wv eA Fg gy Ag fA &q J4 $[ U4 Bh am gA T} hA Qs N! 0n ",
"H1 Rj <p iA &7 ._ {{ s! jA |^ kA gv Ib 4' !  .5 x3 lA il Gc 12 -a F} W% G[ ^] j/ J~ :p [^ _d +p u9 Js rc R7 :c pn mA bn nA ea 9e 05 #h bd %l t^ oA s< $j a9 <6 pA fp qA mc m} x9 w7 [t rA Ad :p sA #d qj tA h< uA J6 4l Vk cr `7 7) G# K9 vA o7 cb vq q} $4 ka #( wA {j xA Pu Iq yA -b )6 Xj zA Ls AA BA CA Js M2 _z =o ik 8t DA EA lj FA yt :p GA $u lp Ck HA O5 s/ %: %| A- ]u u8 $a :6 o6 IA JA 93 gg z} 2| 3j :h w[ fa Z1 1~ rs zi -k KA 74 ii LA MA Wl f9 >j G4 )i NA .y Jc c| Dq Rs D2 l< @< %c pi ca 0q OA PA +i D2 I9 5k QA *A {q Mq g8 85 Je RA SA {f Qc TA +@ 0u Kk 4p %p H5 _5 I| pn Nn L] ze ka Wo zv R6 ;j W: m} UA VA WA b3 4: U4 Y1 k_ ql <3 dd XA YA ZA `A  B }v |4 k~ vt 6e sq Zv Nq .B +B .3 @B 2: uk j9 T5 T7 !o 4t *e Jg #B e8 (a uy #8 [e }t %f Qc mc $B %B z# Rt &B *B =B ",
"6< R< @< !e 52 %m z- 7< ,: ~j :!  2 -B O} S} p5 [o 8e .$ ;B N: X1 @k b! >B 2' w3 (9 Y; s2 pv Gc b! 48 Wo v| #} ,B ;j E2 0u Qc 'B Q4 L5 :s D| )B ;e [* '+ ov S) 0f <i /b !B |4 ~B #u ;[ Vy A) 64 .k sn Gw {B s} *0 wh wf L2 {4 Ks &m :4 :_ k: fq ^c Ww 30 Xs Tg No :r #3 ca Mc e2 ]B ^B 4b /B (B _B :B _} <B =e [B E5 ao }B Io r8 |B O[ g> Ec ig d< So >e xg 1B '4 2B _5 )4 (x Hm >f ;4 p! 3B 4B fb Ck w8 3a Mb o8 >r Ks 5B #| ^s <a Pm @< _0  g e2 qt ak =y 6B Q# o3 V8 x7 90 wh =: I8 7B =e /^ 8B 9B -u zw >m 0B H8 aB 6c bB cB dB Nn .n R5 op vv eB Uy 8y E5 `k Ny fB @z gB hB Gf >u vz :y iB (3 jB ;v kB w8 lB G8 nj Y1 mB nB S0  r ^: oB !o sc 07 5[ |_ pB gr ^o Hw <e aB ,_ il qB >m #d :d rB sB Oq tB uB vB ak 0B 07 wB e8 xB s0 27 $z yB zB ]j Ak yz |p Z/ AB BB CB DB 9v EB FB GB HB IB ",
"|o x| J2 5a JB KB |b .5 zl sv Vs v] '^ q} +7 Q] {5 9| t% /^ 8} di Q, c} V/ C% LB uw Km ]5 pB X7 9e *j 9a v% ,4 MB Vg X3 Gd 6h /8 9f +% %3 NB r7 Pa c> >d %b 6b 83 m2 >f OB }1 PB q} QB {p Kd RB 8k SB *( '7 N} Nl Sd Xz T5 }< ,a /7 ;v _{ TB +  ;j nh s3 |s ao <q UB Rk :d VB V4 `q Up vy WB XB YB ZB `B =f sp Ff Ap 3} o7 ha Vb  C .C +C Nq Eq Tg @C #C 0} 7r 95 k1 ^s $C H6 O2 Ep cb tv Y* %C iy K] &C bw Fd Ad 95 [o Fe wk *C Jf vg ir tn ^3 Uz Xj 4j 38 wh 79 bl O/ =C V8 %7 qj -C Ww )] 70 8l Bq Um og >f ;C ih Gw >C g8 ,C al [~ Cc (w Yy _z zq 'C )C *k ]: !C So ~C @8 h8 1r {C ]C +s ^C /C xb &j fz (C tn Dq _C fl %g  l tt ,v :C  x <C @u tx [C }C =m 6c |C w> 3} rn N1 1C =3 pj ]d 2C )c *7 t9 4a 3C R7 51 pm =< =3 G3 |0 K: k{ |b 4C Kv 9b eq 5C t_ _p Lr 6C u8 ei a0 Ew G6 n{ [6 c| ",
"%% (e eB o| N  ah }1 7C 1p )] F^ t% u1 ;h Ca yA Lu Y! c2 #g <~ '; 42 <6 &{ gv 5: Ol 8C 67 wh d1 -7 63 Zo +a xl 7r 9C 0C aC bC %f ~7 $b ~x cC ;g 0h _5 Tb ]d K6 gu 2m BA dC g9 s2 'b S! eC -k Tu _m 3j fC r7 fq p7 gC hC b! H2 h. Xg Hp N1 }0 E8 1~ :n iC jC un kC D5 lC ,d x7 Vi Ud dx YB mC nC oC pC N4 oC (w W8 _2 wq Wi qC (i [5 rC Y5 sC tC %g pi Lt sc ;1 *_ 6< :_ K_ U1 uC vC u0 vq r| wC kz j: xC W8 yC w( _3 k~ Q) zC `y D7 Bj AC Lz t9 -j +s ss ^l BC $l 3s CC 5c DC e9 c9 Up &4 !o ef v( EC O: FC ^m 6b GC hl HC Qa 01 IC Zb JC _x nd >+ /m &6 h0 KC LC hn Rm 1i +a x% L9 MC BC f2 ;7 fC @z NC I9 (| Cw Sr &k OC Ld )v |0 !a db PC '1 qq My QC :A *7 +B i6 s6 Ly ea {7 52 RC Ky }2 SC TC UC Wo m[ m0 m} 05 VC .| WC .m ow  d |c ro XC pm YC Yg ZC `C jl A- 3A  D .D md ]l Ol S3 +D 1o ",
"@D R2 [2 i< Y5 n/ En a9 Ue 4l m6 Q~ #D sp Nn Oo ps *7 0< V5 $D >: K_ >2 4! i* n] M< G9 Ej p7 D9 8< 52 ec %D %6 Rb ze #o Xy -t &D ^w Y= &C {5 Pc *D aj >m =: !8 f2 #3 oC Pf Up N3 y7 H} s9 ql  d :t L{ yt LB yz =D n/ -D Tb ]j ;D <i k9  _ %[ )u rd ck Lv Hn V4 Ao Jx Ng W5 >n >D ,D Ix 'j 1k {A 'D Bl SC 6j ka Df <1 Ol )D `x !D Mj lj ~D  t {D ]d Bq ]D k+ g* _2 ,; !q U5 8| 0+ O: P! 0f di ^D v] fq `y y0 so 6b @< 4w QA Zn |i 5b ;4 +i It /D {e !a (D }p oC _D q7 4k $p J2 !f mC 70 F| :D Yy Xt C8 (| =_ 89 <D qB n/ Lj %p K8 Wo [D }D Zs |D 1D 'u 2D zq no 3D 4D }c !C m8  e i: e| F4 }z 5D  | 9} .k 6D  2 7D 8j |n De yv xB bj c+ 9e 3A 8D =: T7 9D l_ G0 0D aD bD s8 `c Ci cD y/ #o Sr Vb `5 'd dD m_ 7> Uq p3 D~ r9 +i )] eD fD gD 38 2B K5 Df hD iD jD 67 vl T7 7w =3 kD lD !d =B x[ t6 ",
"mD p: nD oD 8< pD qD ig G^ ;4 Fl N  [6 rD %: #[ #3 9k X< sD ,g (| p: r: Ge ^a Oc D2 B[ I= H3 '0 tD im 0l uD i8 vD wD c9  i Vc A- G[ ,: 5u xD E~ F3 yD t0 zD .t r1 AD )0 Gf vd F~ V4 BD /8 CD _i n/ DD nd ;j `2 we ED d_ yt Jd &g Nh s3 FD C8 <r GD }  HD w1 j~ ;] ID u% wv Z8 JD An -b !B ,8 KD LD lx eb d| MD Sp m/ fb *b *o ND lf 46 OD PD &d FD {A Tt 3a *u w[ v( >u [6 QD K| {y jf p8 K6 RD xn Cc ^a {i ja En 7b Gf X9  9 !a ]d *u *( Wo $j 9; 8k SD TD }0 UD 2d VD WD XD [A %8 ]d 5b V3 no Z5 Ub Ah ~y 2h a| &m )e >9 y3 $y YD kf Ye =s Gt ZD 1A ;D G4 `D P4 #| M9 6j r5 6l sv  E GD 52 =B -e Mw X1 tw I| J2 +p .E +E |z @E Z8 3} m} V2 #E (4 9} ~d }8 R| }1 NC 8c $p l+ !h $E M| fr %E !h |u j: Zm Z1 s2 &E s} >r *E vd ox K0 Sm c| jt ^a <d <1 W3 5b =E 0y =g -E __ ;E 46 >E ,E B1 *0 'E ",
"^@ )E <h i9 y4 ul @f 74 ~8 =_ $4 p  30 x% yj >| s8 {$ 7| +( *b t} /| *d !E r: 2] pj g[ $7 :q q! yt Ib ~E @c U8 d< Bi {E 0b ]E ^E im N6 Z4 5b /E %# I{ 8k (E un 3c G^ w1 Ch zc cr V3 ,w ;/ e} x^ T1 _E $8 w4 :E <3 <E ,c [E Ht s7 Gh *0 5u I8 o} ^k }E N} O8 |E _5 F| <{ >y 1E Sk ik  e 2E |z 3E /k p> sp Rx 4E Ao Xo jp d2 fq Ww s} D5 /{ 5E Ad Al E8 Cm !4 %j x3 9< vs 79 $x Qs 6E (k 7E 8E 9E :a D9 Wr 0E >m =f Cm )o P6 $4 aE Lu %A nj +7 :p 9m bE (B cE dE J4 `v ro Df eE  e ,d =5 I8 )_ rh 98 5| zq 2h lg py 7k &: Gq Ov Af Od 5a fE V{ Je gE >j hE @3 M6 Sl ti Qc +x O9 iE 95 jE 3l kE lE c| mE ]d _{ ^; nE oE !f uD !a 3c pE sz Su Kv R7 Gf 3A [6 2x B: Da r4 QC pi qE rE p0 sE '/ tE 9} Dv uE AA &t :A vE K9 cl wE  2 Zk o[ Uk xE L3 pt #3 ]4 yE ,d 0l zE =m tn /a -_ E0 oz Hi AE BE $< ",
"CE |5 jl d_ Ii j( s+ DE gv -; a0 -; Hb X< wi X9 9< :d Q) Z/ Fk I[ ,. pp  ] EE n! +| Ya 95 FE nf GE zb :d %3 HE kp Wa Nh 3! lq 2' {$ gu f4 #= Js IE q! /a JE o[ b5 ii Ve KE fh KB D} LE `u 86 w[ Ff O/ X5 t_ :l !2 83 wh pB 'h #f E[ ME oE NE K6 !a fp w( 5: OE 'd PE tb mo ]B 3u QE RE 7i We ;m E} F[ 6i si tC *f *j ~7 SE TE Sk UE O: Ak Af VE Pu WE xt F! 2h %8 _l 7! H8 21 Al >e XE f8 Ea YE ZE c9 R4 ;g Eg f- y3 6E kh 'D j3 6C :v `E Ng 6i  F .F vt D5 Vg [8 ,c eB Nl G1 ~[ Ze 1c +F @F Hk J~ Lh #| Cs H8 #F %y `8 Jm $F !i %F &F 1q *F PE =F En Pm 7j -F Ku t0 /( 0< Gg Xc p9 z} 3r ;F (/ AA >F /s @z ,F 'F al )F =: L5 !F ~F {F ]F #e (g Ue k+ ^F *e L5 sc tn [o lm Ac /F Ia |j vB 1s re (F _F :F G} N} .3 ^q ({ tn q3 G1 <F xy ZC [F T} #[ ,4 Z} p8 #q }F h: ^s sb ^n 4w |F 1F 2F 3F 4F ",
"k' 5F E0 HD {f 5f w8 xr H) 6F ^^ _y 7F K: N% 'c 0y 8F ^1 i9 9F k{ f8 -] -t /_ .e ;b 2' uj R, Ac m} 35 f- _2 {_ '0 {p }~ W9 {7 jk 0F p, ',  ~ d< d2 !d aF Wj .k s/ bF @3 xf <r -} Zm JB #[ 'j [t +v <h Pm z6 @c +| #u 9p cF dF eF Oe fF Hy I| /b gF Oz G6 re %| %| hF b0 W5 iF jF ,y Wa =e &d {q Vd Ru sp kF [F mh /E O[ -y lF mF K8 nF 1u xe oF pF J4 T: qF He v3 _u ,d #7 -} ;n rF 7g s8 `4 sF >; %7 me Qx tF zB 83 O9 Sr uF Mr `5 vF )l ,l vd wF xF lb yF ^: 3d pi $7 @j cn Mq  $ @< hj 3! ao ;b zF Yk w[ 'c ]0 X1 F; 3v Vl jh J| AF ^z >n BF Jm CF }D DF 7y (3 Ry EF FF xl GF n/ HF Dq )C 02 IF JF vt KF rc To [A LF MF 2h %7 #o NF v( Yl  b 1n kB 2' M3 3] X5 9l P< )e xf Mb Lt OF Wm Ck j8 `B PF QF RF sc IE {q Pv ,g _3 SF 8l `5 ca /( Xv Jz }n '7 2q Dj hf |n X7 r3 v( TF  2 UF ;g nE VF ",
"=+ 8d WF `1 {g ic Kd |6 Il -_ ;9 ({ Yd h3 lm XF B: Xm zv 09 a7 Mo O/ t: k6 3( Qj 74 Ik X5 YF ZF W8 2h >m .8  g Tf D7 E[ Nl `F n/ k7 Ha Am K6 $8 Cm x3 9} C6  G O~ Z| '7 Rd .G K8 [8 g~ *c -; r1 ]q ^o He 48 tf +G @G Wg 6l x2 W5 3g oa Zc &: ,z xm @8 s: `8 #G $G 9l De ip #u H1 K4 %G c2 &G j8 ak 1[ 4s SD *G =G AA 'j -G st Js Wr ;G c< U0 U5 %b ]s >G L5 C| e} n: Ue H: Nq [c I9 Wa *C 2w ,G Dd 2| 7! << c2 5a O9 -k D7 2w jf Kg F3 3s &} f- 'G )G !G ~G ea {G Bp ]G v1 ^G /G Ae 2q D[ 4w fF (G os _G t9 >u 7b G} H4 $y [A Jl Tm qC 6c <4 Cm :G <G [G }G wD |G Vi 1G J2 2G 3G v3 4G 5G 0j mC jw 6G 7G 8G Tg aC 9G kz `E *p -s LB `E Vy {f Ek .t <~ r4 qb r: nj Sy C8 ^C ls f, wf nd 0G ns %d pk lm od aG ig }h I7 }o Lh ;m wq VD bG cG `k ;+ Bn `c Vg Nc 7A P4 Bf 27 *( dG  g eG R7 (p Ez fG ",
"8* Pa }j u8 O[ gG hG @< nd iG Ke R7 jn ol #$ O2 &9 [* y/ 8c ;n (~ s3 $7 Y< :! jG N~ o! 0z Hp Oc <F '0 Dr 7} 8t y6 1r Eh a7 +7 NF tb 5f /c  f Ov >| F< k+ `0 (c )0 ^] 6b kG X< &; ;m 8< Kk H2 W3 $7 qA _9 z2 L] =e ]u PF +g .G lG wn Fg +  Aw p: mG *1 ~G nG /k ~C oG Uk xh `z au pG qG Lm F^ Q) +t [D rG Ws =v Ts 8x :D ,c Ht JB ax FE X< sG ll ,d IE tG uG te Kt =j Y5 +9 O5 #} Oz e! F4 !{ vG }d .n @* wG B3 wc L5 ,z ]f Nq ^b 2b y/ K_ xG yG +y zG AG rh BG /w >u SC [A pk CG Xh DG EG L| PB !8 k[ FG oo 6i od Ld Km GG Ec Cb ^m 3j kp rw 1A HG  o sq f2 IG %t KD *a {A pr Ks b3 Z/ zB EG e2 Lp cr 'z JG KG LG n| c9 )f MG Uu 64 hl NG eb Yl E4 {5 -1 E7 fk Zv OG PG uD dv ;v zc !o 3A HC 8x jh pm QG jf lm RG `5 ,c Sg <i ]0 5> 3} Uv ^p ke 7} wh SG F1 %y d9 k: TG +3 Xk 4u 5a !e 2| I1 UG ",
"7b ^3 6a md n9 Dv qj T3 mm K9 I2 @0 %f I< 5a -7 e/ i6 8, T: VG *1 Pj r| Q^ WG %; XG /| YG w4 ZG v7 6c l0 $p  n >m `G So  H {i 8j p> ,  w: |) .H p> c< u+ Pb lc KB +H 9h 43 P4 JC 7| /c P! X6 @H :~ lp bh Lj vd #H &t 'v $H ei 3u %H &H 95 h8 4c Jt h3 Q7 Xg 3j [t We 3s <{ 2q X7 )x *H }j Ai te 4D rs =H 2u +v or -H ;H bk of An Mo |b br A^ P6 Z2 Bp L5 !j >H /b ii d< 39 >b $y =j le 5: ,H 'H f| ]' t^ Vq .~ 4l )H 6c G5 I1 jd Vj c_ !H ,m kF Dm ~H {H ]H `D 1p ^H Aw D2 ~G |p L5 /H )j 6j |z K] *4 H3 C7 ,z Ef au ,n ;g 8t (H D2 ym cq |v ;e Hy _H `d sz K4 <k Nq lj ZC yt E5 ,d n+ @/ DF ,n z6 ;_ :H <H [H }H 0b Ze us mc lg |H :~ 1H Yg T2 2H n/ Bd @p qb 8! d} Gf ~D tw Wj #m 3H 4H 5H O9 m[ ed 6H 7H :x 0q 8H <~ 9H 5b rs 0H No Ks Zm }b 2' aH Qd  2 D2 0F <4 bH c_ lh cH F} Ui dH vx V/ ",
"Qd >7 83 +z Jt $} Ya 3v eH k( fH G} _C p5 J} gH Kl ed ik ;7 ,g hH  4 3h v( I| +a *_ Vg iH >G ,B Vy jH kH Ok e2 3p tt lH S4 O0 :n X1 kl P- h8 `c }; o1 mH Fe nH H2 Mc :] oH rd |v Ha 5j :_ s^ /{ 41 23 <a (a &: G8 #C -k pH qH Oe rH jf sH -7 i: nj tH tA K{ Jl VB ym Jx uH !o vH wH l0 xH h< yH fh bj ]f zH AH BH 'j Gh :d #| =x H4 Cs Qg V2 ^2 v7 )l 5n ze T: .b Ac ay 7i %G ^i @r X5 O_ CH DH sA 8c V7 th }j EH y4 Ge Nf n| [n N1 ;m FH GH HH lj IH Io Cc xy tH Q) JH KH [E LH G8 =m MH O0 fk NH Ad OH v( bd |) ik Lj F5 Al PH n| fq 2l QH TE V8 K5 On 1j Cm RH d9 35 SH TH UH E5 :G ~v 59 wz 0A Js Wm AG Pm )n VH &q 2g ef &d !s [e >m b6 t: |d #k 30 `5 O= 0< WH :] >j 7a eH }c z} ;c XH 3C YH Uf ZH E8 <n G3 `H Bl a9 ol `5 $o gr qE *6 .p 1v  I .I `A 52 1u Bk +I :2 3] :l Se Sc @I `/ x2 ",
"we #[ lc Ke V4 #I Rt M< 1s 3a _p 5j ~j  2 u% of b4 7} ac AA $I 8} Pc *4 5b d< En 1~ #u Tm %I dp :i He  e L9 'f {A Nu Vk s} ke +7 15 52 @: ge E& 2} .$ 23 V7 oc M| Xx ol 7u A) '/ $8 E~ q! 4c ,g We V3 Xg &I ^s Yw Xj *I ^p >9 ]q #k =I *( Cw [1 md <q S0 $7 Bq @e *d H9 %F <u Xk B/ -I ;I 29 wd ip tA -g Nn .k >m -j tv Oz >I Xt C6 'x >8 LF Uv ,I *t <4 No Vk Cs 'I  m Y8 %6 )I Ly v[ .y iG !I jp n^ |6 ~I 9m v3 _3 @: {j Q^ {I [6 3] AA ]I #8 ^I Cc /I v7 1m (I wo |E -7 Qm ~D  n bh u8  g bl Qu tw Ew d_ cb (p Hm ~_ gy !o cr qC 6j Wm _I +f yF :I >/ <I `j !H od [I }I |I 1I 2I TE oF 9u L1 +8 %v 3I 4I 5I jw 8s At Qo jz 6I 7I NF :v $a *F *g M3 %8 6c pz @/ 8c _a Jr 8I q} 9e 8} T} Hy 9I I9 Kp >y S8 M3 $H ul 0I Pb $g aI NF Ak k{ Sy 'b hz |3 +3 bI ]f xf O< )] Vf v3 Kg px 7u cI n9 dI ",
"w8 O= %f b| qp Dt q} }b 67 b| K9 eI >C ^p l: 'j 0f mc Ba Ku 1p fI 07 #c M6 Ak o6 g[ VB Si An 4t +v gI :v Kg 84 W5 hI iI Cf *_ N6 :_  1 9, }k T1 #} jI M6 Og ]& G# ~x Ie G$ m} @8 >e D6 9< ^c c> nH +H dc ye E} 5B 5G <3  l fC xp kI Vj lI Z0 mI j( 2' |5 zB $} nI a# ^s Rk S) ]d )) 0. C| 1[ oI $o Cv 3m XH vp Lq N4 pI qI 0_ Wj !k  ] rI p> n| 57 Z} Xc zg g9 sI H} K8 tI {j S6 ej uI Wd vI wI *D 2w >d /k S8 xI D+ *4 |b =_ [8 4m 6c J~ )6 9x Tc #B vp yI =v Dm tv X9 7z 4: yv f8 >D HH bb Ly =b zI ~j L9 AI BI 'j :i <4 >f :u CI Zb rB DI EI b| FI od GI HI II JI KI X1 I- Q: zc q6 LI N[ C' ZE MI mB NI OI >m MD =: pw PI QI eq t9 Sw RI h8 SI NF gy fp We Kh 'z au tm I9 8t F7 oE +i jd +s 1b $G O| TI }4 UI =] VI WI du kk 0f XI UG ~, YI @c K4 #/ p| Ww OF 'g 4a tA rn )o R6 s3 l0 =3 lm ",
"2~ `] ]y so >9 ZI *o #k {2 $y Ik y6 `I We ~G x_ Ah Ap Sk 5k $/ o1 `7 *o O_ W8 ;l t* Q_ ^2 pj %} xp G7 q1 !x un [G @b k{ n/ u$ !8 SD UG X7 9F 06 ~x Xy E2 [d Po o) =, `2  J Rj O5 +i n| 5u !B 9r :t $d be fh _b .J zi ;y #( fr qt >u +J X7 5k /c un 'd D2 Q: db eq Gc @J 2G *( 42 _} s} J5 D~ 5b nC ;n Lc #J .k $J 5G Uk |i %J pk zB A+ 43 )r Xj L6 ~7 &J T< O[ x2 =r X5 ^i -B fp zi A5 Vd L_ *J !a ]0 F4 g9 j8 ss <r Ov &J il || Wq Jd t, =J -J ;J e2 ka >J ,J Ai R7 'J <r b} +a Rz ]0 0E 99 E[ =} <I )J :d }s dE )f q} !J {j re ~J {J EH Jc ]J 3C ce b3 9b :d Pa Td Dn 8w EG o3 ro ^J /J (J rc _J Uv Bv :J Kh <J [J Sg ~v Zf gp VC .u cr @e j9 Bf u8 )) wy `i `/ 15 9+ }J L5 |J I4 Pm gy 1J ,A M] 59 5k W3 _G A: 2J 3J 4J 5J `h Aj ,7 dc `8 bm :i -; Pm 6J %y `5 ei ^s {C 1b qb G} Ok $u ue A[ ",
"{k x] .< we 20 F# of Yl F1 ;9 H2 |i &{ 7J K| h< )f ZC *G JG bl 8J TA /3 p4 9J <d k| 0J zg @}  n 5j aJ ]q Gd hE .p Lu bJ cJ x7 N| >B 0_ dJ eJ S9 r  ^! N] ;4 :v ({ %a k| ;e || }0 #c &6 Bj <  Fr cb fJ dg $< vj Up Ru gJ qs Lu 2b Va *0 hJ ;j i] m( Gc )l iJ N6  n jf Pr xi {9 c9 L6 He 41 c9 `i uD .b qv -k ]c %a `j 't xi fC /w iI -] Nl Ts 4t t% $H Wk ;J b2 3< F] yt #u 7} ;l %3 9} jp b| jJ fC w| kJ 43 /3 g: 67 E4 :[ lJ mJ nJ uc wh vf dE .c qt O9 Jy Ye #o ]j KD 's zg Y5 V8 hf /( oJ wy I4 ma Pq xd 84 &b 1G =x bu Mc 9t Um fh 'n pJ 64 MC *b ke m} Kt :l #e s0 B^ Rf Tp =E iI k5 /a To z2 0b ;J W5 qJ 0k rJ C8 sJ +B 6l {I 7i ip {y Vg ]d (a tJ %/ XD fk Q' ,: uJ -_ :x Wm mo _x Su xH So 3l @m vJ wJ oo xJ yJ zJ AJ BJ xt u] e+ 9F tf B6 ia .t N3 N2 <1 &e y4 Sw fb T2 U= s! 4h 9l lb ",
"G} O[ ]q CJ ({ DJ G< Yi GA EJ jB Ze Hn ik W8 [c [F YH Kk &t ;q $u #E FJ (p Al bG }2 A) s! gk Fh GJ cs ]j hl :v Ck Pd Tf *4 N~ Al <h [0 HJ n9 jl ks IJ &{ J~ F2 Io Sj JJ KJ _2 |j (b 5b 46 .d c/ Tk uh 3m ~_ |0 Nj Zs LJ |u MJ ,c y2 NJ N4 Px <i D~ j( L] c9 &m :[ Mg :G OJ  5 ka F| os ~J Iu MH |i hI PJ OE Xx ao QJ ;z ii Yk #m RJ @E ~q 90 D7 D} uA Oq 71 !d bw *g ^i 79 fC SJ Sd TJ ^6 40 UJ  l fj )g <a o! E} v| >g VJ }0 Me SA F3 s6 l{ 6k <0 WJ _D XJ YJ ZJ %1 `J &6  K un /E Bq &f Uf m} *I ZE >m /m Pk Ov nz TA lh $o hr rs .K +K Um 9G Ee zv cp @K nj zd ci bb {_ Cs <o #K  n X9 $K EG xd #d Mq Hd ;c %K SA &K *K {q =K lg >A 0s ]0 W8 'j ~q to QJ no K9 X1 `5 #j vv 3} ;e g8  K L9 -K ;K -f {g i~ 2} a0 Tu JI >K ,K 'K lG vy )K x2 u$ H2 V4 6t af fa [6 e9 `5 t9 43 J2 t^ ]d *4 H8 tJ ",
"s8 !K d_ Hk p: :[ F4 _a L< L9 T5 a0 J9 _~ wy vs Ks !J 5a '0 jB ~K {K .g 95 4a 7> &{ ^0 p_ mc }n wn ]K #| Ff oC ^K )o Sw rk /K M] Ng {& ;+ `: T{ ]7 +I Wr jp [B V4 ~u h: 4t |5 dk a1 !o T# =: P4 d3 _G Lp (K >b bd sc 11 w1 H[ Zg kp _K Ng 5a qt 8* CB *_ :6 Vm CA :K <K x7 Ng +t  K ]v $< {y $p $o lg 89 Bp .s tJ )z [K }K Xt |K fF l: KD Zs =_ Pp Mq Sl 1K N4 2K Xg 3K te Xk #m k| <{ :r pF 4K }[ 5K K6 &9 9a aw Lh r7 6K HH 7K C} ,d Hk 8K xg 9K @t 0K ,n aK 0y bK k: hE .z (B ^l  K cK 1s n< u8 6b dK eK `j w1 fK }l qe ye +a ^m Vg gK Ze Wo hK iK bk .D h8 Q7 jK 3g Vb 5b #J bD &s kK Qf Zm r< lK +z Aw mK nK B/ cr oK pK -x qK $H os M| C8 <3 !9  1 or rK Z/ or $y 3} b( $d $j ha #e G1  b sK tK uK Fr 88 f| &6 )l z6 Lo  w vK XD <w 5u F] >g Dq M_ #| K5 Sy K_ Vl Jd [c n6 _5 ]5 _c H| D_ ",
"Sc 6h <6 U= L] =g 5[ {3 wc Ue wK <q s3 F9 Pu K_ fI 55 Kk }H Ov YB xK B/ F3 yK I| Zh Q) (c [n zK @f PD #| Qe c9 AK Jm 95 Yk yA BK -k fC -n -+ O2 Ga [{ T) fh Bj dp ga *r B| pd e3 q} de || s5 Ah '7 f, 6b o| CK ~d Vp DK d1 (h L5 zv gi tK Xk Vf @c EK Ot FK #o @x M6 3p Ye ig 3r GK s[ 71 HK #w Vj H1 9p AC k' ls <6 9} fm 'd ;d d3 b2 $g )i ]0 8I N4 V3 vg @e :r _3 i: ^= [( 5j P4 %| d1 of IK E2 dj :D 7B +s :r Rm :E c2 s^ yh S) +p V3 ol Vf .p s: Cc J5 JK ~A xv !C >f -f d< GK 7l 2r Ec 5s <I 85 L3 KK LK t9  a xH MK 0l Ll Dr fo 2h %J ez NK {y yH et OK AC zE ]j  g qt 2& W} PK &{ $H #4 QK RK SK  q 's TK 2x UK VK bi ,d 6u %p pi -7 D5 ;n 48 ;c da b| D[ {g x4 In 16 x1 aC 'n >7 74 Pm T7 p8 fp WK XK YK ^a Zf ]F =$ Qj ZK s8 dD Lj 6l `K sA G} I| 6< 7} |0  L 1~ Xm @x $g .L 'c %f k5 ",
"X5 +a 83 U= -} gC +L ]d vj X9 -C 7r xg G} r: c9 .4 [c $d cG =7 @L #L $L /b o| Qf Sp `i 8w zB xE `2 z2 x9 %L $a &L {f -} 6K Ad nq tl S# mG x8 3A ~+ [) k1 Ww O9 [* 5u -s $7 pi 8k 6k >: 'b ^3 :d Ye ;4 t3 DG /m Hp <F K2 _0 >7 nj 15 .3 jh *L t0 $8 {q SD =L i8 t~ 74 so cr dh Sk Id -L ;L D2 aJ xt Dv Z< <4 )0 =e >L #| Lh 4t vy Sk og kH h8 'n x' ,L }c +7 We @f 'L lF }u Cu Oo (] )L Vf  n !L r2 V8 ~L 5b O5 LB Sa Kn #3 95 8s <h ~j j' J} TE mo vA tc Cf {L ]L ca 0b Tb ^L nC #G /L Xt >r Zk Bh zB |j (L {4 6< fr s< ;/ ]z wn `k _L :L Ff 1D jf K8 6E &m HE MD ZJ Rb <L ym [L W% }L Su ,d &: |L Dq gx )6 lh 1L ro a0 &L 'j AA 2L d2 Aw EH ]0 3L O[ Ej G0 4L k' *( v3 8c 21 _o ;r kE ]9 *r }k )D ,[ ~x fp cy P= wD $7 5L $[ D9 ;7 q} |u s3 QJ 5b L< _H 6L yf Nh 'a ({ Fq h8 ag 7L Vf 8L Ov Xx ",
"fh 9L 4t 0L p0 w% oa  g jh 3c 1[ M| s^ Dq aL _H oC bL 7w E} bl @/ 2p Kk xg au yn x2 L2 E9 )c Bh wq [D Mj kw =f Tz iI cL NF 26 dL xl Kk D: *: !9 &9 KK eb 'j eL fL 1I [d gt gL ]^ hL y2 we Pv 9; O! iL -f }h vy @0 4s 02 jL ss e3 @c b| bG bk kL ic Ub lL Lq e2 fp ]4 {p mL Vi tA AC {j Ml SD nL fC 7| b3 0q Cs oL Xd :i R: w1 /{ Lh I} Kl &m 2k pL M6 _5 Mc re V7 e9 o5 6i /z qL X<  G Mm rL sL D8 jK 43 O0 D[ 49 Jc fa z2 q! A^ sc H} @3 *d ~A tL .g `/ LD =B Sg ud 6y uo uL Rx GF xn oE <o &} Ww )e vL qH ze N1 wL _F Pu xL 2[ *o Lu 2h K8 -u FJ sp mh Bq |d :d M| yA vs gp GK {D yL 0u zL AL BL CL DL x% Pr .L *f vq 4k kH Pu Lp .k 7i 6q $4 ]j 9l &6 {j ^p ;j 8j [t  a <h Uv &: Sw 5[ E2 qK  i yj h9 Rz 0q |t s5 zi ![ rn 0d EL Jr LD 7K 3g fl i1 <3 t_ gj 6q 20 4t Cm Ve @E sr 2g {4 Xk 67 ",
"FL >+ 80 qv We }8 -7 Ci f, E! h/ G6 7+ >C j6 Wj #7 GL +9 Rj HL uI IL )o 9| JL J~ Hk KL t0 Bh Dj !B Xs 59 {4 >f i( D5 1G @G Ge LL Ub Qf ML zb X< z- S: .c v] &C  D gj n: :F qz ;e wc ;| dg fC S8 S:  a m6 :n |z HG 8l zb NL u% L2 un V7 x7 >n n3 +g Px D8 2} Wo OL Mj zB PL {2 QL @m .8 :q RL SL N6 TL 7l s5 )7 UL cs #t DK )0 70 3C 07 vt |d B: 7} ye Um |z VB uc :v @8 VL k[ W8 8x 8L WL qg XL rj *r YL Iq Ge #E 8* &j 9n ;| Iq ZL <0 l0 y8 `L Dw jd m[ ^K Bf Bt  M .M ,d )] &: Jc +M 86 #| ]j 1G )l 'D ut nd <d :i K2 Pr ^m ~0 Kt @M jd %y Vl fq #M 3! SI {f 23 tw qt !i VK xp UD $M bl _0 Qo `D Hd Od %M &M Ly *M =M -M i~ -k G9 @8  q vf pi ;M cG DJ D2 >M ]d  n gv t9 Z5 f} (F F3 +M :6 $4 4; jp 3h 3< 9% o5 <{ 35 0< Y8 ga Xk ,M nJ ^6 Pk 'M `n oC )M !M Qf !j Ah rc ;( Fh !x fk 3c Uc Zr ",
"^k L1 >u ^a 'c 4t ~M h8 {M ]M Z!  l ^M /M (M QI *D Ql !z _d _M }u Be jF :M <M [M Ly En 3x Yg Mq ex ^5 }M V4 x2 c_ *4 Sk gG |M 1M 2M &9 Z1 @x 2} tb wh id *r ;m rF 3M &f wc /m #| h: 9m ^2 on Js 4M Ab (k /v <r .! xd @f :[ ^n c/ &w 5M Vf +% p_ ME @E Tk !C K_ X9 |z 6M _x %8 ky 7M Zb FD 8M ea {c @F b| [* 5[ Y0 fw G8 -7 9M jo (e Gl Sg 0M aM Ru Ye ;d ji bM |c -C cM dM {f f9 s^ eM AL fM gM O~ |5 yt }c ek hM iM p8 5M 89 N1 *o jM [0 q1 jf H2 c9 Sc v% kM Ok 9l |n %7 K5 *p ;j |j ^3 >g *0 7a <r lM zA 7r ~d rf mM =n nM G} Pr /b h8 tA 3b y2  K LH Ue 7< zb %J oM pM !C qM rM sM HE KB tM ,n uM _5 ^6 _u vM Jr mB {y Ue '8 ^6 Jn 8r WD 49 @j K5 -n wM 7c zp xM >E Q7 ic =f Ad fm xE }A !5 ]0 ]7 4b :6 ^0 5  r| R4 B0 m} 0C '/ *( yM 7a No 6b Ok re Pm ZG Iu H4 Px zg J2 z2 ,l ,d N2 +e u& ",
":G ni D2 x9 &H C| 3! L9 ;4 zM so ju 15 @d 0C |0 Ov p: AM z} Ee |i _m F2 {e 5k /B le Eu Ol nC 8t c| p3 'b XF 3c r5 #7 ns s3 y3 C8 ~B BM S0 ke *e 2| $6 <k Ae k5 mc }r l8 YF Ue U: @7 N% i: +9 En eI Gw ]4 l[ i' Wo CM Oq ^1 DG m2 {C #g #8 Ya wf gs c2 Ft ~j EH .B _2 Wu D5 `d x% iL .! -5 $l Q] @: +v sz s: &{ DM }g !a R4 2z VK ^s EM 8u FM oC l3 @b 'b Kh Ng zb u[ ~B :q x] %3 9< +7 GM 65 HM mG j2 IM .k JM (p *r K9 `a 4m KM wd LM jM 0s MM Pk ^3 pj jq nC Ew 'b gz En T7 Kn T3 x; <F 9} tb NM LK :s 0G d0 W8 Z/ OM W8 hM PM QM He tf n9 |i Jc v7 <L >C 83 RM y9 6x @b EH SM TM =x Ac s0 [: C| UM VM {J WM nH Io XM YM ZM `M 85 +k 6y Dv lq  N $o .3 am 1D ff 4a Ww #B /K Lu <x .N +N zB (J Xj ^: Zh c| Hx .G _| Ec 0r =b #3 B4 Pd *7 @N #N D_ 'j *b QA  e 0q Sd v( [i Bh Nu ]4 {d -b <{ Mb ",
"`4 F2 ;v tl F2 1{ lb &j ~d br 'n Lh He vy $N fp o1 o| xt im A} Ru %N :p If 6C G5 _5 ~d Gf Nh (g Wo gC F2 &N $b r1 Sa .I Gf un Y5 *N X5 qj -} 49 ]j ,c kH k[ nl v; || =N ]& -N ;N uE H1 gi $x dp &7 n: >e -B >N @c nd cF r: ,N Vk 6# 'N it )x fj Fu _m Ul ^$ +u <3 5f bw )N [z CA ps !N ,z }8 C< %N .5 ,y VB GE  a Qu =g P8 6u ~N  e {N Xj  n Gf az d0 Xg }2 V3 q} <m ~i ]5 ;4 ~f wh ]N m( ^N /N .y kw =f %J (N *o Hp 4i _N Rj wh dg 7L ii .: G} Wo Bi :N Ss Xk }h 9m <N gs f2 ga {g Qf In [N /a }N W5 |N ^K >m (M zA %H ~q &m 'c G8 2h /s =e 'n Fr Sk }l =g ii ,r im xp  r Tn E9 %w RM @K 1N LH ;g +@ DL {D X8 ki +z sE ~4 2N  r {f 0r fh 84 3N Wi p9 !f gy _1 .p Wl K6 v( xK 4N 5a yt Ee Al d| ce Tb *b ov Fr us 9I V4 26 y4 $< D_ 5N Gq 95 vj Ov 8c 9e ce vv hl 1i pG cI wp st i: 6c w[ U8 (g ",
"'; 16 ms nd xd ._ #j @m :D F7 .y 8} we 1~ |6 :x 6N m0 9B MJ C| X9 6i *o =a To Hn )c ~j {j Gf #w lc Gc s8 Yo ^2 P7 xM e2 >m k' ;n P7 xv 7N Z5 Sx 2~ F< WE +8 zg !y 2z O0 8N f_ 9N O< >2 >b +7 k5 ;E (c @E jf 0N yr 'n 9r Hs '/ aN !x gq AK 3e bN n2 Bt .d [6 zb Zc ^1 fk x4 n^ cp }u tf J[ h< EH 8w }r 3j F[ 20 ]& cN )0 ,b HG =f *o ~A lp gu dN V7 Dd lg ~a Ru Mg Y5 [o @f 3v eN lh >z %6 2w fN 5c TE ;g q3 wy ov M] 6i |] =y ]4 gN hI o} MD ao hN 8w Nc iN _c #d lh Ws Sk (a hA (h o5 ]& fD Wi !7 {j jN #8 /a )e `D kN SL @c }5 lN mN p5 nt Fr Kk Gd nN 2b @G uA !8 n7 oN p$ pN )o !s Dt %p _3 na qN Rm rN sN wt _J Fu $y 1D tN *L uN |D 0b /k 5b SC gg ,g %_ U4 ]d )c LD ^l *r vN /a ~_ fh 6b wN fh J~ oE >m *a Su Ua <$ Fr ;] Yi N{ _{ pq [s >m X3 'd N} xN yN X9 +7 kh /B Vg Hm Nl 38 al /( ",
"G7 N3 zN Ok -r N= 1s J6 2p 52 >/ AN %a Vf )u zg so BN ;v c9 S{  ~ fh =x $H _2 Qa {0 Ck G8 4s CN L5 f8 ym Qf _2 Tx 79 fa Tu 'r c2 D7 zi v| .! +7 L3 C8 [G n: DN EN @x 1{ ,d 3s Xc FN Y5 '7 ~a O9 C6 1c ;v ge ;h #F ]z mh wd bd Ac LC {y br T: GN h< z2 ]i 9| :~ Rc 3b HN Nl Ad }z Rm IN ;m ]v JN ,[ aG Br KN Sg {d tb y2 c1 $o wh Lh LN 2i C6 M| Gf u8 nC }8 MN 'v 4l 0l 49 NN 8/ G{ K9 ON P7 PN .y We QN 70 J6 ,m 89 ^H $7 eh nd /] ns RN ]G FG 8w !o 48 pL ;o 9s c5 ]| ui tf We 6c Ec *8 Ak xp x] %8 }} 'd SN 'j TN tf 'l Ze =j UN l0 Rj VN L5 Hk OF }2 P7 WN XN YN NJ `k rn An ZN Jm cF VH Fr `N 6j  O |k bb wo $I ax td `B Dv }z w7 .O [s >e Rb wv M| +O v7 EH U: &G W5 N4 /^ Wv )7 Si !o ;n c| %6 hy 5f @O '0 #O Ue $O %O /| nx &O ~D |K *O K4 7< 4} *o h< =O Ol 6c az -O nd xi e2 Up %} +A ",
"PE ;O =f Ya lb '/ <h xt f4 )r R5 dp M| ah >| b0 nj ul >O xt !i E} ,O ns &{ f8 Z2 'O <0 x] xg Ng 6N :l @8 U: Oz D2 y6 'u Z5 De 52 /M n7 )O `F Ci =g 7) {j n/ !7 !O De wh Ce ~O {O ;o 7K #} -a <6 Ve xg vA qf =e ;g ,d *o cj >F 9L 'l @x }M ]O )e vp 2[ [u Wm tN zc ^O f8 Q, 24 gj os /O [H cl F4  b ip Jr Ee #J cf G9 (O HD $7 or pe =e _O ha |u G1 :O ~B m[ }z z2 IL <O ;o ;g [O /3 un @/ }O |O `f 4m }2 y7 ^2 Ku 1O 79 hl `5 |k Tf 67 x|  b !o YH Zo 2O |A /x rs Ks (3 3O il ^z 3p 'c bi qz 4O _q -M 4t VK 3g 5O K6 -M cl $g aK @x R6 Vy 0I 6O 9[ qi pe Po Wl tA +F PF 7O ef Mg bl 8O 4a XD -t O0 Rv a4 Zf =f $p -u Ad 1I 9O 2k e2 1i 0O Wl 2h Um ca &m 5a OF ye  4 &9 hv LD aO )j gv [O bO cO /3 :x 07 dO eO *4 v[ nr Dq fO 2u ;/ gO (e ;e .t RG cb Ug X7 h0 hO M6 ~q >e (3 ]j Nl 6u jp 1[ _l ",
"5l G8 ,l dm <4 05 C6 $g &/ (4 e2 Wr +% !s Vf Ku x8 iO Zr 3x )6 4t M| 0b 8k Xm Ac ei $C !a 5s 2i jt :q F4 ^6 79 Pu Xx )z >g am 5g jO Lo kO >b f9 3i 0_ 83 #8 ;g Fg lO %| |0 b0 Wo @b :r s8 (4 U1 x] )4 y7 ir Gf 85 mO 4c .I Gf nO 49 w8 +g 6q fI !d oO %A :K co No ZG vn Js Ha 5} #t pO ip ys j: +y 6u ed qO tb _m Qo &n 63 Ae 2u Xm rO u8 $y *b (e L| 0l $o 16 {& 'd ^d N  U1 H5 sO tO pt qj uO :| Ff fp nm Iu 4k K6 qK vO ez nC tb ;g JJ ,m 7K xp .o vN wO xO _k (e Dw Dq 64 yO )0 gt -s nG /w Be Lh J4 Hh $p Hn .B -g Xg E5 cj zO _x al lM jf c9 yv {5 (m !o Lj ~v c| *u AO fq BO x2 Wl ]4 EH CO }y #8 ti dE W8 -f Ru Vl -j {j W8 ,y @q [A $p Wo &t oz (h DO *o ^w E9 8* *b ;t ;j $d ~A >7 j: 52  n /] 5u )4 u% EO U5 xJ [n Q4 &3 7r FO 'n )c 3j b3 }c pB K5 m} GO  d Px &{ j: }u V8 ]q c| HO ",
"#5 U^ Hp dp %_ IO p| '0 il JO $/ $u Hp @O E2 fh |d |z gt [t P~ |1 fr $g ^K TB $o ,e KO Dd LO =o K5 eq >| 2w rt 90 G8 Mf @M x2 I{ W8 fa MO l5 K5 -_ Cp NO n6 1u OO %m Nl V8 +x eH c2 rd t+ lg m2 y| {H cf ,m +u nd xE P4 E8 Ng <u *4 z} ^l K6 PO ez QO RO hI nh ii 8k Kk *o eH 3k SO 4u Nj ]K 3t ;| V7 /] OF TO mO 4a 8r Pc tw kp UO &C ~e %[ EK Fe L5 {4 -7 yf }c VO oj $5 5: c} >b >m 7w 4' WO xt %_ -: k[ *1 'n 5c ka #u RN od vO *a Ce Um 2m 01 &m lg 3C XO L] Zf De Gs O: hw YO lf vt ro [A 67 yt Vk ]N IN bw un tb O/ ~N Tz SL I4 Bv ZO `O  P >e ca 4k 1i Xs sp Tf C8 hw `k .P :v +P 7| @P zi M| /a Iy 3p #P 9O !C fh gv 8c 2| |E :l 8o Mq ff )l TE $P %P Fd *4 s7 @e x_ *o LD u8 79 Wi 99 Vg +O U4 qt $a -u <r @8 u3 B6 -a M] TE Q~ &P /< y7 CC -8 O/ o3 $C Sg *P [c 7F cr ]s  e fC <a =P ",
"<) Hm c< x4 tJ [! pB fF P1 a9 'b Lu 3v Ce 2g /E -P /L D~ ez (2 J~ }2 $p TE C_ *r kh vg -n ii 3a Vg ;P @k M| nd m[ L5 -] $o Ge y9 yi Y5 ma 65 J| >P Sg Qo pe #G ,P mG LK G4 Hn !f 'a ]o h0 {C R5 Jm b| c2 Cs (g 'P |B ux r3 ^q )P mA |s !P ww >g ~P {P ]P KO ^P oC pF X7 #u EC ~e /P cp (P Kb !4 %g #4 Xr Mc K_ _P 9l uE Bf Ln )j 5s G9 zo >m H[ b| k[ q: 9p xf ec Ol ]j n| >r pB !d :P {D 90 <P Ja L(  e vg ys So -M 48 Tk _H >r [P q7 K] eO 2l Df Jo Jm vN $/ }P f5 &k ,e 2s *4 ac au |P wi b3 ,c Xx Wu TG 1P $8 (J 2P XK Ge Ce 3P 8j h< *k 4P 5P vN 6P Yi D9 td ,s Af Ck Jm =O i+ ^P Kd 7P `K LC s6 To `8 pL ^P O9 8P ]4 cb +a {d -j >+ Fv 9P +y _3 Ew s6 :[ l3 _p F[ 7K q} >8 n| :{ [e T7 cH ;e |z xJ {g P7 8c aI ^e ~u O0 ^q <i 15 <F 0P Y1 Uv TD f2 rs <j .k O7 aP bP cP fb dP Qy x_ &P /w ",
"{] 0, Um Q| Rz 4w eP tI wr `9 =j %7 VB Cm bl aJ %| SF Je E2 Zm xl BL U4 J] 8j ap Jx fP >r =: 6q %y Rj eL zc gP Ok <6 hP Cb {d 74 LF vg Tg Zy Rm vN 2w 2h ^d ft ,i 5a `2 Xz em ^] O0 >b T3 *O @e $p q: -7 &6 ~k 'd Cr lo ei [! E} *t >g iP Hx .w 9H ]x VK 9b kM jP U: )g V0 a1 &L kF kP lP +7 7J MM lh _3 mP wf JL Dt ]5 Hb @x Gt |K nP #I |z &m <1 n/ |z QA p7 )0 oP lJ @d Ac pP q1 qs Ff pB qP g0 Og )K Qc Ls fI 7b {H Ek Bi ,b *( S0 k1 k| Ld 8j ;g zO rP P6 -k &b 5[ sP AC jz 2[ tP {J uP Rx =| m6 mi !l -M vP 1p aJ wP H4 u8 M9 :L /m #C Yy Qf }o xP yP Gt QA Ih #e 4r sp r_ >g _o qF 1p /} RN 5r 2i }r #w }z dp zP Xr 38 $H 9l *r Lh %a 95 XK kd h3 -5 G5 og AP 85 BP Nl Z1 JB Bh p3 s} =: Ze *k pe 5s z9 $b Lj 5b 6c 2b _I Ov CP bs H4 %L DJ  q mh ti 2: DP  q Lo we H4 EP 6# b6 -7 !d L9 ",
"n9 fh `8 h0 Z1  0  n E[ Ja aO o* #| b^ Ye RG Vm FP wd G1 Rj GP Ze d_ >7 ei Ck .m X6 !H ^N we |k :L q1 .y xf O~ HP x< IP  d |z >f JP mq KP iI LP ]n Cv 6l T3 Bm MP ff 7J k9 .s f, 64 gp 6w f8 70 g' 0g V8 }5 P% El Pf |u Fq b3 pG K_ NP ;L He ^l Yz G7 OP bi }n O} C8 PP 'C QP RP WD QL SP >u Jr _u {d T5 3m 8t 3y 8l X5 TP sp 1r (3 6l +E  i =o zv nC 5f #I 5B ,q gC 7L so 6y |k dj Ok md ^d UP fr :t re VP WP E2 PD Ah 62 -x XP oE 8w }c [c oE 5} Jy Ko >r yv bj -M Pc Kb E5 mz YP ZP %j `P  Q Tz H2 $E ^s .Q Ye MH yM WN q0 ]d 1i if -( j2 ;e %g ;h +Q 59 w^ sz ~J Js ~J D7 =e |0 @Q #Q $Q %Q (3 0I &Q .n .k NM *Q Gh Ru 3H =5 +% =Q -Q 8< `I =g uP ;Q 15 .I Jx *f Oe )v Jm 2E Eh En s6 .J /| gC ^a oE d2 ik 3e 14 >Q <4 i: :_ *b z- +@ j9 B_ e8 fa 8y Hk @8 R| ]j mh n} nd ,Q <d  N &1 43 n6 ",
",f 'Q 9m (t ,] Ht ak ^2 wh #} .n 79 A) )Q =x CI '7 Wa Ve .y yd wi 2| C6 !Q Nn fp +9 }2 KB {2 Cm Ql $b ~Q V7 9m {Q (2 $a sp Zf Ng ]Q ^Q TE %j @L /Q ]q YM (Q <r X7 hI BA 8x 3v {r @c #[ PE L5 5s _Q O2 qi |b :Q !j ~f H9 OB Fe .5 <n *4 @o SO XN <Q th OJ i: Zc Pk V{ tm ~B [Q }Q |Q .b se DL 1Q :p Vf )u ^P $h ID 2Q lJ B8 of >f 3Q Kk 4Q if R4 }2 tf lF kj =D Vj 3' {4 ea 5Q Pk J2 V8 H8 /E 6Q 7Q 8Q UB Uk o8 p8 '0 D2 /E 3b )0 |c 9Q lj Od 4l =f 26 e9 ;j H8 0Q 9B #d aQ ho @K uz d< ff {u bQ eh *u Av wn |k 3! v7 cQ >r fj -x mO 7l W5 Df dQ 1D Ub rh |0 Kg K4 eQ gj %f fQ gQ hQ .u Ok )o oE iQ jQ ;i h] zB kQ bO lQ TA zi <I bG !_ mQ nQ }0 Ue oQ 6y ]F pQ Le iK |c >b ^3 4t Oc t3 3} 3b ce `8 Nh 8z *0 1D bO qQ %8 LO A} Vg T2 Mb rQ D0 8l 67 q{ <h 0w $< t0 Pr #q y9 S0 X3 7| 9e G} zB 5K ",
"bk =: {4 `8 u3 <a sQ -b ^E e8 ;j b| Ju <0 tQ _5 15 D9 Uv pi *8 E9 '0 P7 ,m ;m }o Wx E| 9m !a 20  q +i ck V4 gC Wq lm Fl L1 pn Hy 'f Mg uQ Kt /j vQ 1[ 1D Kk Qf ^H ao xM m2 6q K6 9} Xm gj )z c< JB xM OF 71 qs %| mg v^ {4 *o ~E P7 ax Q] 1[ ,m 07 Xb wQ 9D :v ~d B$ zB xQ yQ Ww qe 1z zQ }Q &o ;O OE jN VJ @l AQ Bo <r BQ Y[ ]4 ^6 c5 yr xt &4 k: d4 .y j8 S~ bO 2N O@ [2 #= CQ tJ kh c< w4 DQ Qs ps _u 2g ^s (2 fp T5 #F Cv ]0 v( bo MA XD '; 74 Km 79 ~A }z EQ M| FQ GQ L9 +7 aB m[ &k HQ Zz IQ MH RN 4b Wj JQ 'j pL lQ )x Mj Ly KQ pG LQ -u k1 MQ Ku fq ef j8 c> 4s NQ oH Wu OQ nJ ~a dc ,p PQ Xj =n CP dO *g B2 0w 6l al al !s r5 3} $} pk /3 lF 7j ea (p J0 t} 2w P7 #7 eH 2h {4 <i 5[ pj X5 F7 Wi QQ fp Xx J6 I8 ^^ D[ gy >B #G RQ @8 nb SQ ': Lp K$ 3l yv %6 tc >l b3 Pc ~j Wi o| ;+ 07 ",
"Ze Wo L| *I n! @7 y2 }z '0 95 }h TQ Zo ^K UQ ka VQ -k 8O WQ XQ ts >7 *4 ,H YQ un iL d[ =x }o wk Me ZQ NF Ss tf J2 ol `Q I{ nd Iu %g  u VJ ~q %| MA {4 +Q ;v 16 %8 c9 1D  R fq Gk <F ;j Qf Xr _! >u i: 8< [x K| |5 >+ h0 +u bl .5 ts [Q 9m @K 2k Sd .R +R 5a '% y6 'd Jq nH @R -_ dp #R @e $R <u %R gp ,n Wu :r OE !j yA XN w9 .| &R ms XP MA |n Wx  f L| K] re !a OH 05 C6 Zh _d O: a[ Gf Xr *R d0 ap /m [q tt WH >G o| ]q =R -R ;R H9 B: eH 8x Bq O9 M7 <a L] Mq &b 0E t9 nt >R X3 ,R tJ 'R #B a; Hb ]f MB G8 zL D6 7j )R !R ~R cj ep SI {R 94 39 ]R ZP b0 wQ bj ^R }l ]m /R :l 49 (R sG 1~ s3 rc _R ~Q LH ik 8P M6 <r cj N1 E} ,; Z5 QA Jr @3 L| D2 2} '0 wh JG fj __ i6 ;r ,y K0 T} bG 4j |v zi X5 mg 7d )] :R G7 <0 46 dd Wu 8b Sn 2v <R `B y2 x] :1 Pf 3} [R lg +k %w Eg N: }R |R >} '0  _ ",
"OG lg al qe ,d &7 ^3 Dd ea ]m  ~ :i cc %8 zi fF MO 'j V4 Ah Ag wt #8 ;D 8F 0< @3 uc x% E| '7 1i &C jf w1 1r Pa ~M #4 ]c Tm QJ ]z 1R 2R Yg Av 3R 1t EM <1 4R Mc 5R ~j lN 6R uI #u c< 7R 5a h0 <r WQ BL 39 8R 52 6i =R >7 ~u 9R Yk {& v3 0R Zg re ps (I 2l #2 L1 t3 =m Ad aR 8I c< p3 l/ D5 Sf 6R Pr UB QJ oO oJ i9 D2 1t fh -s /m 5s '> !t va v3 Xt 6E S$ g, tb <a o| ,[ `2 X5 ea Oe xp <{ pG bR ;l #D }r 'D d0 v7 Ro :_ wf !5 cR dR >y 95 &: 4j h3 v^ -s ,7 e2 Vf :E Pn  O }2 sp eR fR Af RM YD 7a gR _I hR 5k ;I ;E $s us T5 iR :K En jR rs kR rt |u lR ,] {A 4c [F -u mR 1( `9 nR L] uL oR [t 6q 5c th Yk lj P7 &k wv w7 /H |z n: jw 35 u% #E lD An tf il ({ <0 ~e <d pR GK qR &6 S8 3L +i ]d Nl Ol Pf O2 um rR n! sp v& 5> 5n er #7 bJ Pm {H c< iG sR d2 yp tR 1o F4 ;t uR vR 8H @[ ,; wR xR ",
">g yR }d zR fh ]k [~ Q5 F2 8b <d Ab F2 gr *u bl XF AR ,e 0w #3 Bm !o k[ *c c9 OG q0 :r @j  L Ek BR CR W9 a1 y6 L9 _5 9e ed DR %_ zK ER /s w7 Pr ~A h3 az FR fO >8 mh *b ;d :L 16 `i /m Df lo 32 Ze bk '0 3} GR 8s &C #d h< 1r #k eh KH Ah HR jQ j3 Bk A[ 8O 9q >D KB IR sA x^ _m [c JR nG <b Z5 Gp rp KR x2 -b Gw u8 Vl o1 VE  D eO n| r3 LR XH ;j j: MR xt $7 mG -B |k )e S6 3c UO #g ig )2 NR 2O OR Qo 2x =e  t KQ wK fo Xb }u /7 J4 =| )4 Fl /2 Vk PR Cf ND 3b [5 QR DG Af !j +g Hh {g 8o dD rh Tn na X5 `E ^6 RR o| {y Yx SR 'P d0 (z of Zv 5x m0 TR %f Ov UR VR p( Jx WR [o tQ '= k{ }h XR K5 <u !7  t 64 8l To od {f G[ Vf :} Mq t0 ;{ p3 2h w7 YR =B I{ Dr ZR -f H2 2~ J} Fh kh J4 pB G5 xt S8 X3 30 0s si J} `R ]C @3 P< -} T, L5 /J *4 Kq  S .S t% d_ 12 @8 /i da +S )w Ok @S #S ^3 S3 ",
"$S +7 kp $a &R n< ab 1{ @e 0_ ;R y3 90 #4 ~d @: P= !b `/ wi 4' VB m2 :i %S &S -B Kb K6 *S kw nd Xg ig =S R8 r1 +i ]4 e2 yi -S ;S o3 32 .b Yx $H )6 Tt 3l >S ,S q} 'S l5 Lm %E wH |v %J My {i K9 'n GR t9 bK 95 [M Qs nK qf 8} ;n c9 Ih X7 _0 5P {$ us )S Qu !S +A 0t |A :x 2s ti ~S 8O C2 Xc ./ {S gp 9m MA zK 1D .y ]4 ea 2g Js ]S cj ^S Rx vs :6 yh t3 ha `i #m !9 ]F Ya '7 r< V3 dC '^ /S (S vm &m <m ]q of si #4 Vg >r h8 $[ 9_ _S 6r :S s! _S <S Fg ~G 6K r| }0 [S mA }S =x 6M |S br Tf (z :x VR |N Xt dp 1S wf 'n iO Ky ze ,M 4r HG Yz Yk tf 1c H9 3P 5R |0 V7 Yg 'r fC 4t kR MR 2S 3S Sw R_ G5 4S 5S #w m} 2k 3H &m ma g0 $[ fr l: zN $[ xf ;g L9 !e 9B 8} Hk 4a ~B uc }0 'D +e 5l u% x% Ak VB o3 X3 9p Qo 39 s6 (5 cF 20 vr 59 6S Cw ZP 26 5k 7S .q ^p jp &h zu 8S 9S 0S Y[ _3 85 rK aS ",
"bS <1 %3 $g wh ma Kk cS xM !9 |6 jw p_ dS g3 C6 7} eS Ka #u rd fS Wa vq gS -. s* u8 sA 'j p8 yi {d Ih zv Hm hS 1c 9| G1 L3 kw ]j <1 `y nH iS ef jS Nv 85 kS @K $d y7 J4 mo 73 W5 `9 S6 Sj U5 lS mS qA |J +u Yw Bv pn qC vI $4 9| Ze %a x3 i1 b0 ^1 V5 Xe 'J W5 %f nS tf 1[ o7 $s Um Tu 6c k{ )r <b oS tf Cp '7 qi  n qv )L td Ah T: H| Ni P= eL ;l 7l C8 D[ Mm *( PL h8 Ze ]x s^ WQ 4u G8 y2 pS qS rS lo O~ 2p Mf W8 Id ;g &9 2h 1b UE 'd }] 39 sS zi  K Pu vs (z lg +z zs ze Dm #d tS Qf WQ uS rS D5 lO {y vS pO %u kp *P Zs ,r m6 wS #d OD 'Q Df al ]z Oq xS B6 Ze s6 yS zS Hm %j 79 4j Dq oK AS {H BS :6 CS &p wt Ss }5 3< t^ re *b +v >r $d nz 6j _3 [0 Gr F< _3 Kh &: K{ We DS =b fC cb x4 Lm <| [~ :_ eO +3 N9 l/ n/ ES UF v( &( Rc FS ;4 ^~ GS HS ca a9 V9 IS JS KS T7 )c Hm >E PG =3 LS ",
"MS NS EP iM Iu G} te #w [2 ]5 :n N% b! j2 yK Rz ah -; Pb ~G G9 QN T: em OS PS >{ tJ 'f >9 0! tm K_ QS ]j 2q bG uD aI U5 ky Ze .p @c gC @l ez im RS xd x( r4 Ke *; SS TS  x MB }z Cm )o x9 ;S w7 jd yN ;v =j 6K d9 US Pd ze 0< K8 lz Pd Kh 1[ Bn Tz OF 1D Xm }P RI VS WS ,w ]f W2 a9 s2 %f O9 CA [8 .5 cz aK wo $l 4r XS F^ [n Kd $[ s2 tb 2z PJ c9 #7 (l #w Rj Ld z2 C} Rb Qa Xg Dd YS ZS mH `S aL h< ;y Sd 23 ;i 'd k7 0d Hs %| N1 'u H4 pm ke  b  T $d ~3 |J -7 Ft L5 jN rG My 8K qK SO `I sE C# Ml }z $E .T +v He #4 *4 +T sw rq $p ;o }5 Cj %H @T 6I #T ^! U: xg Ld ZJ 6E (u Ae $T %T Wn ao h0 &T gC YM R5 LO B8 eB tw Yk c1 Kn 'b #t t3 *T Hm fI wg '; `5  2 7a eq =T -T 18 L5 ;T yj T7 [Q )v qF au Vp *7 &6 hl 2] :l  x x4 (K >T )( 6d ,T `9 'T )T !T C1 R6 (e Dj  x C8 Dw ff R6 dF NC ~T ",
"{T ]T ^T /T X< 3k ,y <0 1y (T GQ _T s0 O9 _0 K5 nh #u #o !Q t} Xg ^2 :T <T [T s[ h8 _H x; vg -D <h ,z {2 i+ n9 LB {c Y5 JB zM i9 Rr re d0 Ye !h hd }T |T 1T +I 0F U: o, 0C Wg vq t9 2T 3T  u FM 4T #c 5T jw <b ,z 6T $d g8 Cf AA d1 Gd bj (z bh GP pM +B ^3 7T Lt wy Lv 8T S0 %| 9T C8 em +9 L4 R| AR u0 W9 Oc T{ Ya 0T N6 zv we P6 +u /a xM b5 0a b3 e9 E} {& 7| =e D~ Kd +( 07 ed 79 fI /c aT H9 !a ac }h ,h bT s2 'n /{ 4j Ee cT .g 9n MO vv <u 74 P7 gs #7 w> dT =e eT kz `J bK xf fT ui Hm OQ gT hT p: >7 iT  2 ^s lM {q K8 .b U8 fh |A #o D2 fb xM jT ,e W5 !d )i -5 $o 49 o3 [c '0 P2 Iu *0 Mc M_ `J 4k )K Xc 0q fo <r [6 ~A /E |i )c zg Z5 kT lT k{ mT g: &b W5 D[ |z ]d bc Hs pm |J 4a .b b4 fC G7 n3 ]j jB A7 zi E9 3} nT oT pT <k gu 5u qT rT d9 x_ N1 Jc 0w C8 sT Ae Zp #8 &P tT uT ",
"vT wT xT yT XP Bm Ch dm U5 *( I] R[ C} -; O_ n: N3 ry bO Wi O2 G8 :_ zT AT BT =e ^L fp 4} }h QM H} =x 39 u9 G7 r5 e9 10 <6 {5 pe GO _3 zB &m tw CT DT ET Pi 4n $_ FT M} E4 Yg GT b$ XL 4/ HT X# MG J6 IT xh Nn +E eP ea 7# VA 'x >B Pu ;d Uo R6 ;K w[ xg /x oC te D9 JT KT ir Mc 0r dL MC Od oy h8 un 52 nO o| LT a& 39 7L r$ &k *7  a $N Pr Oo MT 0N h< ;4 NT OT Wq xo T2 mK LO Av {/ Sa r7 PT _^ X^ 9N /m kw >+ I9 Pw ,8 2q Mq Mq ^0 Hm 5b 16 Ay  a ze `j Dq 8k >r +l  b `B QT bl 1p h< !5 $  =D RT Q) *I ST 6w UO TT {u UT =r {j QA D~ k' ,4 /c 3s q7 1| K8 st Ko jw f8 ~y }5 VT mh `q D2 xq c9 &C Rz zp L~ ~v yG  G ro SA 't gv WT XT Hn >u Zn +L [5 <u O} V3 )o  Q YT &t h< mx 0s J2 U5 [* =g eH ]y I7 p| *x L1 og 3e E7 ZT I| `T 0n cc 0F  U .U +U @U bG @6 #U -7 ou lt vq +8 Uf a5 $U %U ",
"&U *U =U L< )v l) ps wt g8 ^3 7| t^ qj HP /k n4 p: E~ K] j8 n! ol W% Pi -U ;U [E &{ s} vg V8 cb >U 6N $8 >9 *: #4 ]4 IM k[ Ac tb *O Rz ~A Sa zi S4 ,U li Dt o1 +9 +T 'U Ja ol Se )U !U ~U :j CA |; El >f #7 9m 2s {U Rj 6c ]U ]B |z ^U @4 F[ Lu le [L 2z :} $p [G /U [D ik ;u (U =S _U :U r- z' Ce xt q} <U h3 Bk v_ R5 q1 [U !b U: =b $5 p8 ~j Am 2p sc &e OG }U Ho ~, 2[ )] v] [8 $x dp Xl |U `r kM k6 <0 Kl ei ;e L( yo 1U >m id D+ Ew j: -k Jh QS #4 :d eF +f 2U GP We _3 #G dc /m 3U 0t -L tA 4U fs 5U )x 6U nG D5 >g bw -5 7U }M Sl QS qR &O (B Zv $g 8U GR gj 9U +x fj 0U +i Al p| }D Df m3 aU /v HL bU 1P 1q bU cU xK Bn @7 He Ih qN 5u x8 ej [9 sc g< 2D .k fC py #j +v X9 dU 18 Ya wc 9> j) c4 ;e ;C *- L< M2 u9 eq Y8 7| ({ w> 46 eU fU gU hU iU jU 0y yj I1 :a Vh ~[ kU 8O do Gz lU ",
"mU nU oU pU (7 -b Ch t9 ud qU 4A [e Q1 :_ Gg wh |b Vg O: rU 4j I4 R7 5/ sU ez jt qj bK s6 E| |0 -u :[ Ze -k 5l pq Yg Xm o| Ok ux &7 z2 ~n %| n7 tU ;  uU d| 1O *_ *p )o }5 $o 8| vU Dz @6 #u wU ~_ Ww Wq }j dD :i xU ^p zs yU rc 3j 2r Wj fA `c zU 'D 9v JG Vk *6 8l AU /a XR BU -k '1 Jc Yk CU l0 K8 BH 7a I4 lo s2 qv zp i2 !r Fd *1 #k @a DU ]0 Ww ^6 ZD aL Vu 2z m( m2 Um `8 EU b2 FU GU HU Tx Bv -C +9 Nu &C ,b 3k '4 l/ IU {4 5l ti =o eh I| gj PF G5 q: vs i3 {H PD |z nN 0t fo Zm ,o GK :b lg ]z :i 90 Um ^O JU h0 Cc {y KU fq '/ vx ]4 8K Zb ]C 9v LU fC 8I [L ^6 Uk b3 )i MU 9N `E t0 4w .q 0I Vb =j NU Qf J6 I. K2 :i |v @J IU MA P] VA Mc -} |z &6 +i I} qp OU 2| Ls .q (] *: F6 3r Qf do c9 zK Dq !z 0% 'b x% )c Gr %Q :t wo ZC PU QU RU SU TU UU !T 'n [6 1u '0 VU Uq YM L] WU XU ",
"YU ZU `U  V Ze Jb ~I 4a ]7 pu W| 58 |c lN |i V2 tf ]j *b Y* .V gl xS +V @V #V >k Q) Ya )c Tf ^s $a m( qa k5 Nz VB $V C6 ^D Rj be *& <) 05 )+ Ss c< Gf 6a ,o 7j %V &V Ur {2 rc 5C pb >P GR 3u (P /G q} e8 *V lj @K ^P uo &/ `d _R gr >z BO jR Q7 )M i@ ;n En 'n tb ], FM wo TE eF ln ]B {J ~d }y G8 jB )L i1 a# D2 Qx $4 ~4 ha aA Um =V br gy K8 %j sp #7 <F 9| -V ]s 8k =_ tm cp N2 ns /: 2% ;V +z Y5 >V ,V Ee C2 Cp X5 'V (g ng =b Wj ]^ wf @O 1S no rd E5 K4 ^0 CS t/ n/ )V ZE uy mI x] @f oi od AO ~D !V ~V 1| Ah bi {V 2[ ]V Q5 ki M6 !j ^V <K 9J %f 2g br /V /s EL !j 'a Zb |u qz )k /x Ce SM _3 Vj 2u -7 H8 Yk 7d O3 (V kH Sk 6j 8} J0 gi Tf _V >n ul 5f 9* E! `I &E uL {C :V 0q 4l -7 W8 <V hS (] Nl +} ;C Ff Ya Hi }p eH X3 ~d no @3 no [V }V |V 1V 2V qH od fk 3V x< 0E >j =h pD 4V 5V ",
"6V 7V 9, cd Zc aj >2 Dq b| m6 H8 <3 0q Mf pk s! gy dT Hm 8V 9} ~N 1k 9V 0V aV bV v7 A7 HL {9 mn k9 NF Vf db #F NF Oz d| )u _] y/ q} cV *( F: V7 ED ^n Sb bi ]j $q >g n8 dV Ks ]4 %| M8 eV |B XR q: Cm J} *P fp Hp eB ti ,e .b FH Qu <u rE ]f #j *f fV !9 @k jB Wn 70 >y Yk ]z 2h i1 ^^  O gV hV Ng {g K6 /] ,c 16 -7 jN iV o: ]} oD jV kV Cs lV #u 1B eI Bf 9r s8 BG $8 Gv mV #t T4 Q9 l| +7 nV oV Dw Gf wR _b QP bh pV ZG .y %j 8< w> -y U: )o qV Wu m/ ^3 AC %u fp qn T} bM Lr /2 )y `y Ov rV Kp sV {f }1 gj pB Ru tV rw 1S z2 |i uV &d gC vV WQ Je ~l (d vS IC wd ao lK 2g #H 5b V8 70 zI !p Wg }p Af d0 Sr +l 2p In mN @8 bh 7i #u 8x }l VD h8  f S4 qv wV ps L# xV Wu 42 wh 2n d9 B: yV !t j7 zV AV C| 5[ -k Hn G5 1p 84 #[ +[ BV CV @m DV &p EV FV GV HV IV |5 67 #3 !h JV h8 /^ KV lb LV ",
"MV NV t% cS #x r7 -_ n! ;m Cj $9 OV Jc 54 ,: Jg )6 {B n9 PV m} >{ QV RV SV TV UV VV _E D2 ;o 6E Tn sO WV ]r O) Zv XD Af !9 6! 1c XV YV S3 )) bc @x 7l fC f4 5d ZV ,c `V Af  W un .W Eh ul 4t C~ +W Wa 0J z2 F4 @W #W ;j Ye =k }f I4 Wl $W !k nf vO (Q dc +7 /E e3 Sg *1 +7 Ng @K fl iz rU ZE }0 i' Ih 95 VH h3 Al ,d %W CQ {4 Wo (k Ib Z2 V8 Tu v] He 0D /a Ww Zk bh  r Ub P7 &W X1 Gc *W =W -W ;W >W &d 5a `1 $_ %} =y 2u &9 D6 Ch Zy +7 K2 6l Ee [D .w mp )/ kF Su QA L< +w D8 46 Q7 }5 c9 (w 6r tH bh 2h :P <r vM Jh [5 Pr ,W VK (h P7 ca y6 'W P4 YH :l Ok ~q nH @k ]s Ls Af {m F7 {  [u Ze :x At ,c Po Yi )W Ac t_ `8 s3 (z Ft 3x }z 6< ,e ef *f y6 (p rU !W ~W {W w( gI Jg (g ]W CC z2 eI >S ^W /W (W ,W zB N4 [n 42 Pe 4l a> t_ eI x4 _W [0 8s :W <W [W y3 O_ E} pk Z5 Ww ff x7 }W |W 1W ",
"2W KD Nl +p [[ 3W +9 4W i: S; 5W 63 S) ^d 6W ]C Ah tK Sc {_ Uj w! 7W 8W 9W 0W aW bW cW os /~ Ku @8 0N _b *0 Gr 6b X1 dW ha wh +p 5s N} oN ov e[ ,7 eW fW wk gW ,n Wu yM pj so YR hW LC Po :[ (] j( =O r| Sg iW jW kW lW J6 eh n{ {H 1p lf mW F~ =f lO V8 Mx Yk *r d3 p3 :E D5 Ls 40 Fe nW Jn v7 *0 &g Yj }0 3C }f `4 fC mG 16 oW ;v Mq Hn Kb RI BR 'j hl ym ^^ L] =y `E Pc pW Ci &k ^c )> O( qW s6 Dd V8 2g zO rW 15 Sg Mc 9| Br [6 >e Y0 b| h9 59 ik eh ;d N4 Ae 5R sW eF D5 y} nd ak re AU ,b 59 Rz 5c Id VT 'J F4 V6 tW @4 uW vW xp ne dT zs I2 %f wW ^l 29 Yw +s lg xW @f e$ `d zq 52 R5 JB =f En Wu ti st uD Ah /( UB /b jh Lu nj 0N )Q /s ^n O9 yW Qs Vr zW AW 7Q n! 0n |A Zv `8 )k 6q }h mi BW CW DW pt @6 8} ge B1 k0 [2 7A 3} EW 6O FW K] 6z GW HW no IW |m <J Jd %f Q' JW Ce .7 ]f KW ",
"LW F4 ;m ea C9 ^5 &} Pa U* S8 #} !o q: !5 MW %( +| 7l Fd xK b* Hw NW OW PW QW RW O@ SW %r 7} 7d 8c 2q 0l `w H8 of Rz $J 5b =D 5c 3g tJ M7 o1 2W TW UW VW +  xc WW 3b aU Ic D6 |u lw sE q0 Pc .b vN XW +B gu YW ZW `W  e {J Vb .k Jv  X R~ q} .5 D9 ol ky 1D yi .X bl Xk Wq d0 X1 '/ >{ 74 HH tw +u I4 VO 23 R4 Ly Ss qO Jl .4 Ly 2: 'r +X qt Vg Yi zv -y Q5 iT ;d ZG h8 KB CS Ku {K G7 l: C3 @X %| mW c! Nh o3 G1 y6 )r pd Wa 2p kH V7 `i pm XJ ze lh Hv 1D (x rw L2 <2 43 ~O bU $8 uD 8l TI z2 .G zO ]4  u @x Cb uM Ce :G #X )n [L $X )c 4k 'u Zq bl k9 vO oy %g %e od %X 8} 4j Ul LH dD !j tA z- <b XH Jt JA EH b| vx 2m ,R dE &X *X :i au %: 'R 39 *t tv WG #s bn }1 iw =X kz <4 ;c 4b Ih *o 02 Y1 UF 8m (D 0j >O k5 Iq -X SM Nh |y N6 tm _{ 'n nH My ;X vj )] <I &w >X ka oo :p 49 KD ,X ,b ",
"`' 'X ao 4b $y Ff O5 L5 j( ;e 48 tA Sd ov -7 _p $} 1[ @3 P| (f )X !X ~X {X ]X ^X /X (X Tc t/ )H _X *D ^p :X +N Mc YB _d {H 0q Pr <X cu pG 1_ C6 a4 ;m Yg No i1 bz %D No ^n +g V3 Ke @f +i }Q kH [X /a MA  n %v }X |X XO *o Ly V7 JB 1X }c Zb x9 D[ ky wf 2X o[ sv 3X }c HG O_ e2 &e ;g :r bU 2q K{  q G7 .5 O2 #N 7i m[ 3a Hn m} &k n] K] h8 59 70 #k ;l lF :[ P% cb th *x .9 <{ 4X Dt X9 Y_ 5X d_ dU _z 6X 7X (s PL ei Ce :Q lf Pd t< Sf ~0 ,d nd 8X O0 o[ 'j 2z 9X lo 0k ]i (v fp ja @4 zA /E au JG 0X ~A Ww <q +7 KT dp @e 0U -D U: VH aX bX .k )i sp eh #w kz em %t vq cX {U #e gq rs  u dX }2 eX ZP L4 xy yp fX W5 Sy C8 Yg gX Vq K8 oi hX ys x_ $a :r ;b Ok ea fq Af *c $y -4 TE $d %_ HA G1 iX 1{ vt Ee jp %G Ee 43 #j T: ^q ps T: jX Z1 Fo Uq k0 kX cP #< `8 *T p| lX Oe zN 2h 4t 8m mX ",
"nX @d nm K0 21 ^s /_ lL Ld =4 Z2 @r 9e Vs O} k5 Lh A: v_ oX O/ Z4 pX qX rX sX tX uX vX wX ]q [* xX yX x{ 3j 93 +7 ~u |u Kl 5b L] j8 |4 8x zX cL 3g dO lp 8t -R AX BX k[ wv Ub *o %| I8 CX DX +3 X! RJ lw K6 q: EX FX Lo GX Y5 =b :r HX dp $p K} +f P6 7T K2 or _3 IX /1 JX gk 5: (2 q( :6 ]j 5a un /B O0 Pi 3_ +i D+ X7 <h -n lh 4m I{ y6 Rj n/ |j $b !K Kv AR yt #w #[ KX 2h Ll TB s3 Ub 30 LX MX GP d2 `i 1D ^c +s [( #u 8t P6 f8 Lu zK O} Af UB NX rj os Fq ju Jr  m 0! sc (3 6b Rx WQ fT x2 =v OX W9 Sg a5 qd ZJ ki bh If [t PX 7l &H *P kw Zs Nh <u Wl HA 4j 9t QX G7 Aw lo 1| [o pk Hk EH RX as 1r SX 1r Ho kk no {d l/ {e aq b3 BM gL l: V6 TX ah UX X3 A6 rU 1S /b ^] VX [o 43 ke <L Ab WX M|  b XX AM Xj  f {4 }w YX ZX pF &6 Bh X< mb nD QC qc `X =T  Y bn N[ R< .Y 7K kJ 5b Kb 83 +Y ",
"@Y N@ ^j K9 Pa We %f 0w E& 4m <L fA tJ 2u xn 6q  m NF jt 8c D+ N: dG C' #Y $Y %Y &Y *Y =Y 5i -Y ;Y g[ [o ,d 1[ oH ez 'V rW ;n !t bx JA 9c sy g@ ;w ]i >Y J6 &R q} #u ~_ LG =: ^d *P xx _5 De &b N% hf `w Zp Ee ,Y 'Y ~q k5 H} Pr `c S4 eX )Y 'b ;d 'Q 3U L] VM +z tC rC WH Sc zw fm !Y r: F~  c :l Ts ]0 s! y2 ~Y ,B p8 OF 51 9t :4 G1 @3 >O  f 48 Kc Wg ,y {Y B| br 1D L2 sA !x H8 ]Y j2 Xt !X >m V{ '; 8/  u B3 e2 eh ei 4z }A 1t Ee |0 lo 48 MJ uD tf .b 14 2d {5 >b s} 5G ^Y '; #}  J qS 'D  u /Y {7 7j @+ HS (Y _Y [G :Y 55 Jd ,F [5 B/ (P ,e jN MA ;g {j Yk g9 ;R o6 -s oi 8x Af <Y CP B^ [Y #| }Y .B po ]d !o |Y 2w Ab 'b ze YB Hy 9u #7 bb mh E| pe (g =e u% cl Ls `9 uD ff 1Y >P :M v_ h8 2Y 3Y 4Y 5Y 6Y [g 7Y rs %a @z ,z K8 8Y n9 `5 Cy 9Y 0Y Xi /{ -k 6c f2 bQ %8 'b Ba ya ,p 3} V9 ",
"{: aY R- 1; bY cY Zv i* 84 n| .7 42 pF B4 )_ sp O/ c_ lq zQ u% ;n F6 cd dY eY fY gY hY iY jY kY lY mY r9 QL ea 7) ka Su Mf ;g PE ip Ze pd /E vN Zm m[ Wl Qu Wr FA i3 D7 nY au 16 w8 y2 Dq [c oY K8 dp :t 6y mt ux pY @k `n Sb &{ -: $x Xs Ac 39 )4 gt 2g /E gC P2 +p |6 5u >} ,a `- +i Rj I1 rh qY 2' Kc G^ !5 rY 3b N| gt `d u& Eb >: gk |J >z Kv sY %d i: gy Nz Ib gI 30 ap h0 dM &g I2 _0 tY Vu ^d Fd Vf *6 E$ %i !5 Pa z3 rt ^F P~ 6N |A 0! pF un 6W H1 0C ym b3 9} $8 (v UB Sd SW ii @f .u >8 !l Q7 d| .u ]5 {U 4r s7 o3 #| gQ v] 2g Xm xS $8 uY vY dk Lq Nv Pq u3 yy wY cS Y5 'D ea 5G 9} He lg `0 [M Id TI of xY  e `d To Sx :v ,P |6 Q^ yq dz pb %5 *a Xt Kv kN AR s8 {A O0 $H Ru qC yY /b Bk zY AY BY Gh CY DY d[ >( EY W9 d6 [0 }t P1 U4 FY  g +t -5 GD 85 O9 GY HY aB }0 IY !p 8< 5* ",
"JY sc KY r5 (h U; || p8 G7 3a 49 1{ j8 M< 6E C6 M| f8 }8 Ri 1r q} Lt LY oH MY NY OY PY QY RY SY TY UY ~P -B W2 VY Ly 0D r8 B} y8 r5 F< K_ >r Xc 8t IL :v #N JB @n WY {g J[ QT YH T: :v  v hs Ue [5 6s Ci ]7 <0 F[ Q7 XY Ub ;u Wu ,8 ^3 nd YY k[ 1| ;e Z2 ~i ps EC nM QA ZY r} _) s5 <3 &b 6b |0 ]B We iO &R ]m F1 Vy :[ s3 (g JO -/ (H `Y 1p so [o G5 Gu  c ~8  Z 4l K8 Lc 0w c2 jV wh J) Wd .Z Tf +Z Af #| K5 XD =D D9 +s Vf ^G g9 F< b5 Lj 1E @8 zB i: |k !7 `q <0 &g [! $_ dC D5 )Q $d zs ka ;r fb Ak s} L1 3} bi Nk zs @Z +x oO #Z `j s2 jf F7 3p Gm $Z HH 32 cE fC Tb Ya eF bO ,z KD [t 4j We /a Df Zh ^6 s< ew jz rn /B @o #X ^m {C #j 'b 83 E5 Ac f5 sB Ok I2 (J |M Js yv %Z $j o' jB Vl }1 qD kh &Z Jz UO *Z 6+ %  =Z Nh @m  h `u Pb j) +p ;t 3H ke nr }z yt 1x -Z 1p ei hh 7r ;g ^p ;Z ",
">Z ,Z {4 f^ v( j: e. U* @k C} $7 wd gQ XJ rs ps BI 9B mR  n |c ]N 0< +i $_ 'Z )Z !Z ~Z {Z ]Z ^Z /Z (Z 0S Y5 {B }z [8 O2 T5 H4  2 'D lb Gc .t 2A -C Ul V4 bl Sk VO @k ~n (8 %b kp 8d Mm ]n LD :6 _Z nN X5 [{ M6 <b *b :Z O: || 4j dp tC `j lC {5 4u Tu ;7 |B  ~ 'c  n @c rh 5> <Z 6z 9' An vy Io $4 Nq `f ,m 3< Ru yD {4 2h T1 <~ fm H4 ]y F4 9S xQ Y5 x] 4l #[ m/ v] gn $2 {0 Sg z6 uh g[ ,l [Z Bl /| O: }Z *4 =D _{ 52 'r z/ %e Kh X8 JC TI /d 6c :_ An ^n ze kH Al 1D *( 7L K2 k' gl C8 jN {p ;e fl Ek MA |Z || ,L d0 DL CS 1Z 8x }2 2Z ]Q _{ AR nw 7C lD kH 3Z PD nt  n 4Z 7w ea ,H {] o3 *t L( ,c n9 t9 {4 fR ze 0H @c K8 5Z Ls HG 0* @o wJ HP }h al `n cb nd 3N SL fa Pv |v ZE 8l ff XJ o| FI My y1 8s E2 ed ,v ,p ra q, !] 3e gi %p Si ], ,7 2Y py xN S{ F[ T2 E2 &6 Iw S0 +i 6Z Xh 7Z 8Z ",
"9Z 0Z |! aZ a0 Yl 3e j8 ~d bZ [; 7K M] ._ >| L9 Al &n n= Pa +9 9n nr cZ 94 5C *( dZ eZ fZ gZ hZ iZ jZ Q] jr 1k J} zo 5m .8 SJ ^n #w ni 54 Ht c2 ky 9e kZ yG 01 lZ ;R -Z (v 43 i} >u ~B *: Lp mZ nZ oZ pZ (x Ty eF MO [6 @7 E8 qZ We 1z vp rZ sZ yH No /} sA J} ;8 tZ uZ Pd 9X E5 vZ fR Hm Iu L6 wZ |d PL sw <4 ,: <0 -] F6 Wm @3 8c o| d| [t pG e9 <r bi B} LB 26 }1 xY {q Ep fh ii Zq rd +9 xZ 52 >z #w [c !B 90 yZ /( At .p zZ AZ BZ WC LC R7 M6 mc @3 +W If ip TE K5 og 0b CZ Xi Oq DZ wM -k x| EZ 6i lp  | %f !] uM SI X8 :v Se Ff ky C6 QA S) >y oz [N  u %Q K5 re 3C |v {A E9 !a p4 E8 cr d0 Rc Yy >D iT 23 FZ #q re 'W dc #E GZ 5j ga hJ aJ $L ]q +3 5s Pm IL 1r +x 6i s3 Ye $y +3 p9 Fy HZ oH &d F4 T2 8H #< IZ uK b2 &; }h ]G (m Kb Mb ]v r} h~ }8 @9 Yk /s Ia Up ak $t So dh Oq JZ KZ ",
"LZ 4< 5v ah nW N  1{ Qc e/ x) I9 n< ~= Ke /1 [t p| $/ x) MZ @4 p8 ei Mc Vk yj NZ OZ PZ QZ RZ SZ TZ UZ !< VZ TE WZ  e 7} /s Mr LM XZ {f wn 5l Q7 L6 bl )L ;e L9 C7 YZ T} Mp &9 Zm ZZ LK `Z  ` .` +` @` #` |E $` 7r eg %a cL Y7 2i %` sG Qf +N wn 4m rd #R wq Ah &` [z au yM Dt EF (I D8 *` `u zK =` @6 [L -` s/ tb ;d %/ Ov 3x dk ^q 48 FX P6 ge P4 oe ;` Ad {z :i Tm >` XP QJ >e 4u 5w [c OJ ,` '` lN %6 K6 ap )` [h >m !` +z #4 2S {P [O ]0 OF ~` #x a0 Jl T5 /m 6K lh {` Z/ +a ]` Iq v[ K2 mO <| x1 Po Zb K1 bh fq _p 7r :q *I `0 *a Uk It <q bj k} [B <h 8J 8t `v 52 ^` /a GD Hw e$ /` #s <i )o $s Ek wc T5 7k ch Qp Bi [c .u ~p :d ax Ae 6j Dv Ky AL [J ~D rB 3u 16 D7 G6 rt Ee >D WC H2 |i dz Pf (` tb {H 3A b: _` 3< m/ {_ `9 fp h: CB 4l ;j ^6 9b x9 '0 :` ff ao X5 ic 8j Fx nG ]f <` [` ",
"}` |` 1` Me >k :t 9p <a |f -} )m $7 >} j= :~ I< H5 2` cI n2 p= O[ hj h< 3` 4` p8 ni 5` 6` 7` |O 8` 9` 0` a` b` M3 *o v7 al wo Qj 6j &R .J c` Vk (} Tm Rx 6N pw d` ;x 3e 8x `2 e` qQ f` g` h` i` j` k` l` }2 SW fE Lm m` [l HC iT '| n` ;S o` Vf kH fK h| p{ p` oz b& Q_ P5 q` r` Db %N 7k 3l }f i1 oi ac jM p9 3_ pB ., !5 A} s` ~J Uv -L xp U[ t` 5d (a 0l @6 :K cb $8 *P HQ 43 (k ]c _3 u` v` ce #0 Ze #s Am xt -H w` W{ gj x` =x y` t7 Hp s5 R7 w1 V4 z` A` -l B` dp `t s8 V8 D+ ,a >8 C` `n re [M Qy K0 hI yw A( ps Ft nD D` 24 gf +Q kw ,4  T E` rd Zt F` 7P 01 <4 1s Hs ,o Fg `j H4 <d qn <i 18 us [B gI Cw 4u [c ;o G` ;C G1 Z2 Io H` I` J` |E 95 9N Fr K` -s ak e2 L` qC [e 48 nJ Ah wy vt <u Mt !C 'b 3c 2B M` d9 6< N` O` mh 3m ^5 .D P` ic NC 1t 3g |0 jw *0 x_ #8 /3 )o Ge Q` R` S` ",
"T` U` kI V` 1> W` Q& t4 v] rW X` En C2 a1 ., B( U! Y` Z` ``   .. .n& + .@ .# .$ .% .L+ 4| *- & .* .= .[Z - .; .e  > .% .#& , .' .(] X_ 7> o* ) .q+ ,0 C- C' p@ p$ z_ 3d -* ! .~ .Z9 ~b { .] .^ ./ .( ._ .: .< .[ .F# l5 ku O{ h+ } .Vj =J H{ =9 | .1 .2 .4A 3 .4 .St jI r= ,< 5 .6 .P0 7 .a  8 .9 .0 .a .b .c .d .e .P# f .g .h .i .j .k .l .m .n .xX o .*~ p .q .r .s .t .u .v .w .&[ a  (# x .y .z .A .B .C .D .E .F .G .H .I .J .K .L .M .N .O .P .Q .R .S .T .U .V .Re W .X .Y .Z .` . .....+..@..#..$..%..&..*..=..<! -..Qd ], b$ ;..>..,..!E R% ' .n< g7 xX '..)..p@ 3% )J t* t. g ..= !..~..{..]..^../..(.._..:..W@ V+ <..[..}..9, |@ |; |..1..Qn 2..3..7m 4..5..6..D- 7..8..9..%P n> )J 0..a..E% #& 6e r> 61 b..c..d..e..f..g..ZY h..G@ i..2< =J j..,/ *Q <] k..l..m..n..o..p..q..r..s..",
"t..MC )d u..v..w..%; %  i} S< je pQ 4a K8 *4 Rv 1i x..y..z..A..B..C..4! r1 D..E..F..G..H..I..J..K..L..M..N..O..P..Hp 'f %8 ~$ `8 .4 ^p {9 $a El Q..~Q R..'j #d ZV @j S..XV N6 )c hR d, /( T..U..V..W..X..Y..Z..`..Hx (2 7L i8 Ld tm hE +(  +.02 9i *_ .+.A3 fp p7 R[ G} A^ 0/ ^^ &b gr (2 Ir !2 -> .1 db r1 3_ o' iy }w W9 [c n[ ++.V= CP fw @+..2 ,d 4: tc O< ~4 #+.L5 79 $+.MA w| $2 fr w5 %+.07 @b t/ >w Z5 &+.%G H6 ,c s3 !9 Zg Qj }2 G1 ]] x2 %  >b }f $J %f z2 .n Uk Ol h8 8L hs Ng Nh &6 ~K >u ;y K6 XT 7r {A AA TM *+.w1 $H ,e )z _a 1p !F `j WH bh }Q kg =+.be '_ ;j L6 )c -+. u (w u$ Ep Kh Zm tb M5 &S :q ;+.Qc >+.b3 #2 Um #8 ,+.'+.z2 9M |k )+.J4 rS fl uD rK X< >| un _k !+.qj Qi ym 5s K9 ya F] %7 pb ~+.{+.]+.^+./+.bU Px 84 ud Ue *8 EG 4: ^3 L3 tn L4 R6 (+._+.-1 O> :+.<+.[+.",
"6e lD 9B zd }+.2! |+.hv Vf cP Q5 LD We 5a 5B N6 1+.2+.3+.4+.5+.6+.7+.8+.P9 9+.0+.a+.b+.c+.d+.e+.f+.g+.h+.i+.j+.k+.l+.yH B} <0 V8 [t kw [E pB /m yR _m m+.EH n+.o+.p+.q+.t< r+.E< 8* s+.t+.u+.v+.w+.x+.y+.z+.A+.bQ -7 2q My %G B+.]d 'r f` At Mb h0 D2 s: Gg _I SI C+.D+.fs Fq Sb +z p8 ~o (u ;m Yu #[ rD {d [c z6 a9 wk z} ;o E} .b +x Rj Q| ^s 2b xK P| 90 f8 dF H6 3j ^m =l Jn :_ rK ,; CS E+.9N c/ !j S4 z9 c_ i} 7| F+.95 sn DD >u n9 zM /a _U nG _I 2c 8k Zx N3 kJ Vg 9L 8k G+.;/ {f |k $b 5P %A Zj w[ T7 wh ME L5 H+.K5 $G /a B: 3D s! 48 NF Jc @n I+.$G +s TE Gu J+.eT #d ,B I{ tF K+..D !9 E: K8 9O Tn <k 'b rs <1 O: /b L+.=_ so M+.zK N+.Pp >r oA Xs X5 vq ~c !V ^` =e 5R O+.:_ az <a Ec )] ux Kb P+.'t `o TP Q+.R+.S+.sF T+.3g -7 `/ Z5 k[ s} K9 fp ZC Mh U+.*0 m6 /8 V+.W+.X+.Y+.Z+.",
"[{ Rc |6 um sc }7 M6 ~G D7 [~ `+.II H4 *4  @.!Y Iw .@.+@.@@.#@.$@.%@.&@.*@.=@.-@.;@.>@.,@.'@.)@.!@.~@.{@.]@.^@./@.(@._@.if |6 i} =: :@.hl ~A <@.2O M6 <0 'X qk [@.}@.|@.1@.2@.3@.4@.5@.6@.7@.8@.9@.0@.a@.b@.c@.d@.aK *H e@.BS zB iK f@.FZ Pa Yz ;t a7 b3 du u+ `F n2 -] !j Ew O0 +@ .p ke 43 G8 cP &e g@.9} `4 ]L _r 5a ka F2 yv Bn c9 _!  2 od Fe N1 al h@.:6 .5 S: <a ;g cG K$ -O o` ~_ -( i@.i1 uh 'D G8 cg {B 8} Xg '7 Ww >V De Nf Fy =H _3 .e My (g Ha ]d CR 3s Ly oi j@.DA Ul k@.+i >u pe lO 3b Xj 3p gG 2C ]r <b ,n cc l@.Yg b5 m@.3C lW Vb EC pL h8 k| 9c XD @o Zb ax ty we xI gv tj h8 E5 #z xz Vg ze @e gC TB @c .a Tf sq D2 n@.lO 5G o@.4a E` zi 5b eo fa EC Go ov ax Lp eq Ce E9 Va _g p@.P` 6z i' W8 p9 q@.r@.[Z b- s@.,8 1S |0 m[ wE |c bj 5b 0f )v wv t@.Hj WH 1q u@.v@.w@.x@..z ",
"V5 }g qs y@.*b ds i} G1 l/ 4c Z8 R5 2b gi z@.^m A@.B@.C@.D@.E@.F@.G@.H@.I@.J@.K@.L@.M@.%U N@.O@.P@.Q@.R@.S@.T@.U@.V@.,G F< Ih HQ WB .k +a h8 9x _2 3C %u (Q 8W W@.X@.Y@.Z@.`@. #..#.+#.@#.##.$#.%#.&#.*#.=#.-#.;#.PG Tx s6 >#.Zb <q CJ <m T: Ng Z1 |d 90 ^3 =h #| MM Dq 6< ,#.'#.xp bM +v /E [n MW @/ _r _5 Pb zv ;w ~a ^a 9m E9 @x VD _I 1D )#.t* S8 y6 .y 1~ H9 16 Pm Iy )e !#.Tl Yi Zb &{ ~#.{#.3L VB M* !] Ke |5 J] /_ ]o bh $_ ]#.G7 5c _u  q {0 {f /( eI nj *t pL +g wn VH o3 ed cj &k L5 _u |c 5j qK ii &m Kl Pk QT MB xt  z .s E[ ]5 @3 EH n9 {4 49 |z @o +L O0 ZP 5G p( {c =o t..^#./#.(#.Om 99 q7 *0 ch _#..u :n @9 v7 lm C8 Mi :#.3m h< <#.+q Yl tc T2 *( Ru kp ez ;n (G fp #3 Ap i( H3 %Z xB [#.}#.RF |#.=Z FB 1#.2#.7k ~` 3#.Qd dd Gc `D R5 =: sn ol lG *k !a nR ~2 1o 4#.5#.6#.$* ",
"7#.54 8#.9#.@: g< 0#.a#.,l b#.-u W8 c#.Mb d#.e#.f#.g#.h#.i#.j#.k#.l#.m#.n#.o#.p#.q#.r#.s#.t#.u#.v#.w#.x#.y#.z#.A#.1V B#.56 C#.;c 3m &m os 1i Sa `V )P Af ,M D#.E#.F#.G#.H#.I#.J#.K#.L#.M#.N#.O#.P#.Q#.R#.S#.T#.Ng w7 2S A` Tn #u eS 64 U#.VX ;S %| 39 im I6 dv V#.W#.&N `Q ]j H1 {y 5G o5 Tu V7 @z ,q 85 -7 dV n] =f Xt gQ <{ 43 '0 8s Ok nf bm fh s2 :^ Bf wl 8l J6 XK X#.Y#.Hh tA )6 P4 O> Z#. D 0q S) `#. d Bl >m <3 w] <i Bm j8 *0 pJ 2m /m gg E} @b eb 8y (3 vq Ge 3v xE $g 'v  $.<0 D7 RP h< (2 .$.Xk `j M6 F7 GD Sk %d O= 8o ]l Sm >8 ;k +$.%s =n @$.vy #$.o3 8t V#.|Q $$.18 %$.4V &$.*$.O1 4q @7 >8 %g gC `y =$.-$.nz ,e Ff >j 8O rv *. E1 tl ;$.>$.,$.a6 ND K8 '$.z` W5 gv ]f 2B N1 I+.Um )$.!$.~$.{$.]$.^: ^$./$.($.5; LC :v ^6 0L Xt py xv eG 3p /w  i [6 @K E9 4: yd _$.VC }W >h 6d ",
"O= :$.W8 @< n: 5d l- +a >y <~ _3 gk [8 <$.[$.$@.}$.|$.1$.2$.3$.4$.5$.6$.7$.8$.9$.0$.S#.a$.b$.c$.d$.e$.f$.g$.h$.i$.j$.k$.{{ G7 Fh Gu pL #j l$.m$.]7 B/ }D 16 n$.o$.p$.q$.r$.s$.t$.u$.v$.w$.x$.y$.z$.A$.B$.C$.MF D$.E$.G} F$.PF 1[ OF oV >b mh bU G$.av }8 bc H$.I$.2U n^ _! <B 8t %X eH <u Qx *E .G .q y2 &x Ah p8 k[ G[ -k J$.M] )z K$.wh #u h8 Ah %J Fu -b <! 7! L$.Ac 2Y }Q M$.rs 'b `2 5l N$.IY g0 _b fp K2 `t Xc b3 43 Pm /| '7 O$.!b }Q od q0 K8 o| -7 *( F7 !] Ze ~i Ip X1 .r ,b P$.6j =D I2 Nj ;A |E ]5 =j SW =I s% 7t 5a 1x #w s/ Q$.Wl mO WN R$.S$.r+.cF [s 4t &N w7 T$.#w U$.1H yz yO ;J .| |k Vl =R !F hC 0+ V$.'d Ah {j W$.X$.Y$.Z$.e8 &d `$. %..%.+%.@%.#%.D2 5a OL [6 od ^2 46 $%.{C %%.&%.*%.=%.-%. Y ;%.bz >%.,%.'%.Sa r3 ]f `y <X 4o Ul /a ip 6s 54 4i be <d {& )%.0< [0 pD yp ",
"9B f8 &6 k' sA @x k6 tN K_ Zn m9 m6 zf !%.~%.{%.]%.^%./%.(%._%.:%.<%.[%.}%.|%.1%.2%.3%.4%.5%.6%.7%.2%.8%.9%.0%.a%.b%.c%.d%.w8 |m e%.f%.os g%.h%.i%.j%.au k%.l%.m%.n%.o%.*#.p%.q%.r%.s%.t%.u%.v%.w%.x%.y%.z%.zB ii 6Z A%.Ht bl sc =g 2h  u :x P6 k{ B%.-s qb /{ HE C%.YF lf ,D <i Ze ky fD aq >T 85 L6 n/ Bd J= G} re pe Xk >f )4 ^s Lh u8 Ag Oy ^L H9 ly ha (l |t .g d3 (p Lu uM xM EC Oc M2 D%.*c .x wh 9h ^s n9 p8 :| ^s P~ rD D7 q} {0 ]j sM Nl s} bi I| zc #u B) u9 hj &d /m 0q R5 zB lX E2 E%.fp cr |6 F%.Pm vt ip Pr ro Y~ -f  f -h RN 7A !s )l oy s} yN `L )c of I6 ;4 {g &t lx M#  N =g G%.z} fj h8 J4 .%.() H%.8K x% Sy ;H I%.J%.K%.L%.M%.<c ,v  H =5 Ha Zk hM K9 h8 4b Ct '7 8w Xa N%.@f K+.O%.P%.Q%.R%.S%.ya T%.U%.V%.W%.X%.-u ka <~ }n qF Y%.vf 'n $t Ih G5 s6 tA ed 84 `E '8 Z%.&Z ",
"0| *f :i G2 ;7 48 n7 .p  n +  py _g (g `%. &..&.+&.@&.#&.$&.%&.&&.*&.=&.-&.;&.>&.,&.'&.)&.!&.~&.{&.]&.^&./&.(&._&.:&.<&.[&.}&.|&.1&.2&.uX 3&.4&.5&.6&.7&.8&.9&.0&.a&.b&.c&.d&.e&.f&.g&.h&.i&.j&.k&.l&.1F m&.Ek 3p 1x n&.ke 5d 4w Yl ]y 9B ;z 2[ x_ *w >8 R_ YO o&.-5 j8 Al Ly AA p&.%3 9b $n >7  a <d C8 67 i} ^1 {` fp @u I+.s8 P4 Mb J) 26 %v K9 t9 El *0 y% Z! %_ 2i Jl q&.We .y ^^ _3 f| r&.l/ &m !9 wc Ja kh Ye W5  e Vy Ue Yg Hn -k jH p8 :[ lw Gf T2 s&.:v o3 t&.mt 9} |d 02 s/ 70 u&.ao }r )d .G K6 RF 84 CA vv Su ii [e y1 7K v&.P6 %v Tc `P w&.Nu x&.Nv 4z y&.Dt H2 nb z&.{I YM '_ Ap So -k wv ^6 A&.X7 &2 B&.nq C&.%| oM D&.E&.F&.G&.Ot }c Wu %A In Cc yD 2A jB zq fq #< tD vR I4 At >u jf H&.c$ I&.J&.K&.,T L&.M&.N&.E  e! 38 >l HJ }c sp CA tA cI ca `n /a EH _H F7 gk O&.gJ P&.Q&.",
"*( $Z Dt R&.S&.gq ]5 e/ $a l: K9 wK Sn T&.U&.V&.W&.X&.Y&.Z&.`&. *..*.+*.@*.#*.$*.%*.&*.**.=*.-*.;*.>*.,*.'*.)*.!*.~*.{*.]*.^*.jY /*.(*._*.:*.<*.[*.}*.|*.1*.2*.3*.4*.5*.6*.7*.8*.9*.0*.a*.b*.c*.d*.e*.gt [z $g ]j AO gp CS bj f*.]f ]f zK FE )i {g 1t Hn Gq g*.h*._I Ds k[ (z i*.]D 6F 4b EF j*.|) nj le /] &t Qr Dm Ov k*.o' [6 |i 9} [n W9 8s V4 */ tO 0b #j }Y o| rc l*.3s <1 >j c2 Ho H[ m*.vA K9 ei 0g le z~ n*.KK -7 4[ Vq o*.P3 cb Xm p*.y6 C& kw S{ Nn {z m* H9 0D fj o[ }k q*.NE GK ~4 *0 r*.s*.ol #k -u z2 |i n} ;K t*.ca )f MM jw E[ #F au !j [O vM Yo zb Kv nj 0u /K 3v Wu v( ow {j 48 7> nq u*.v*./H >V +a 2h w*.H1 @w x*.y*.z*.A*.B*.C*.D*.99 )c 1o ao E*.us uC :v M3 }h Ks s: Mt F*.fd G*.H*.I*.J*.K*.rS /R L*.>W Yp [% dD jf 16 `i =3 cc 'c lq -s SF h: }t k+ %b ig db M*.!a bs ",
",p =3 F^ Hk N*.)* 3[ T: si Uc L2  N O*.P*.Q*.R*.S*.T*.U*.V*.W*.X*.Y*.h` Z*.`*. =..=.+=.@=.#=.$=.%=.&=.*=.==.-=.;=.>=.,=.'=.)=.!=.~=.{=.]=.^=./=.(=._=.:=.<=.[=.}=.|=.1=.2=.3=.4=.5=.6=.7=.8=.9=.0=.a=.}O Po b=.mp ye )l %E |z NF 2h VQ g@.c=.Dq `2 >g V8 ka Vg k+ Wl `2 Dd %d Su d=.Mc 2h e=.:K 6c cr [) Ge 83 -u Ah 3j bU }c /m 5b f=.g=._i .e ic b! *0 !p +3 }u 'D &E M~ @f 70 wo {5 )0 Su h=.;R G^ fo ]q s^ =: pG ]0 Bh (p $0 xa ]d #w ma #d i=.<x LM j=.Nz 83 W[ @E Eu rS 70 sA *+./o 8} d9 PO |d xb lq ]q Ub 5u au :e k=.l=..z /D qO >n dc 6y nj xg Kc KE kw r} ac #D 85 m=.Zs    lm 7K bq >n SF <0 H9 SM sG F1 py sA L9 $y  d n=.o=.p=.q=.r=.ma Bq oC <b 'n s=.98 s} PE <F <U ]o 9X *E  7 YN @p t=.u=.v=.w=.SQ Y1 x=. ^ y=.{( p: z=.5y Cj =3 5Z c| [w A=.B=.c9 G6 1E C=.pm t0 x( :_ D=.E=.",
"Mr li tl P4 qL uD .a ~G  a ll ]r #k )d F=.G=.H=.I=.J=.K=.L=.M=.N=.O=.P=.Q=.R=.S=.T=.U=.V=.W=.X=.o#.Y=.Z=.`=. -..-.+-.@-.#-.$-.%-.&-.*-.=-.--.;-.>-.,-.'-.)-.!-.~-.{-.]-.^-./-.(-._-.:-.<-.H@.[-.}-.|-.1-.2-.oM  b !j Fg 3-.4-.ic kF >+ -b +9 #| D9 zc I2 }h :v Bw ,7 c| 2d 5k 0l 5-.Wj +p 6-.Ly =s 9m &/ T} i( d9 em Ov D7 {N ;j 8U ZJ FD &a F} $o 7-.IP ~a s& xt An br 4k dE jM }P 2} Ng 9. 8-.'c ^^ h8 tb <d $p  d !4 v3 LG L1 }u K8 bG >7 3H |i 5p q7 tb P7 &m ea Xk nO v_ 9-.0-.K8 d< 6c ti >7 !8 /{ AA Ac pQ yA j: Ih a-.b-.c-.no d-.2q Su =R nz 'n 9I 5E e-.Mc ZD j: nO ], f-.Pn #3 g-./K '_ gp h-.$8 2z (N <I 0u ], 9v w} i-.j-.k-.l-.m-.n-.o-.SI 2C Ng b0 L< (G `x 25 x_ ea dD j3 Mp pH 3e 8t pk p-.q-.r-.;C ud s-.Tq E. t-.A5 u-.kh 3I lf %g QA )d *( _3 v-.w-.^3 cl !3 GB x-.y-.z-.mQ ",
"H2 jw V7 v[ ;g |n 0r A-..e Ch .G B-.86 C-.D-.E-.F-.G-.H-.I-.J-.K-.L-.;=.M-.N-.O-.P-.Q-.R-.S-.#=.T-.U-.V-.W-.X-.Y-.Z-.`-. ;..;.+;.@;.#;.$;.%;.&;.*;.=;.-;.;;.>;.,;.';.);.!;.~;.{;.];.^;./;.(;._;.:;.<;.[;.};.S1 Cv 'S Bq N4 {D Ck a0 |i yp vf hA !f +~ @3 z/ d{ -_ 7! qj N3 rK _| TR 8P |;.CG S8 bq Xn ~n :p zB UX F4 Cb p7 %w ym 8t 99 -7 D2 wc $5 Pc P/ A( R5 /( 8l Em _2 1;.oJ HA Ov uD  n 2;.+9 Vf Bk DG lo eF e9 O_ uv => &o wh Pd ]y Rc bO U# T0 +g V3 ;7 8t Tx 1E >9 Dm !d Zx kP ^H #3 &d .w Em n7 fF R6 +3 v% (O R5 3;.4;.<R M| Pr 5;.D7 jF qj ss vZ fE [F 2O >q lL ;j 6s eA 6;.7;.+q u% NC 2[ p: pE Ba VU zK T5 #w E5 9G 8;.9;.0;.a;.b;.c;.d;.e;.m2 cF 0| f;.|n D[ g;.=: S8 mR -X h;.Ue Zf 0u 9m i;.xZ ut =3 lH Wi j;.kd 6h yl k;.l;.({ Qc 07 I_ m;.`2 E4 n;.'d y6 tJ o;.Hw p;.EH q;.pz ",
"ju J} v/ U+ $y n: 59 X3 k( jh 'd eF -; n} |n Zk r;.s;.=*.2$.3%.t;.u;.v;.w;.x;.y;.z;.A;.B;.C;.D;.E;.F;.G;.H;.I;.J;.K;.L;.M;.N;.O;.P;.Q;.R;.S;.T;.U;.V;.W;.X;.Y;.Z;.`;. >..>.+>.@>.#>.$>.%>.&>.*>.=>.->.;>.>>.,>.'>.iw 0q eh ;L LK ,e )>.cP )u Ak -s 'C Ll @/ Fj )b ;l Su d< F2 G8 -M 1r )n <{ CR n/ PL >7 Ix !>.*A j{ ~>.`d vi b0 Vf O< {>.0j >u ns oj re 4N .p rn o| .h 3j 0G ]0 Ng +X pB s  Qw Pj )b _0 M3 eb () V3 |0 23 E5 &m bO ]>.YF 7l ;7 ^>.!5 (G wh gQ ]d m0 zg %$ [L +C CA x8 ft (0 3r z/ mB <: UG !o fA ~Q K+./K />.ef ex mt (L *v [G J1 3x Sy jC gy +A El <k q1 !x !] @8 85 yW (>._>.Gq ]s [C P4 9m :>.rs bt 1p 5f K] <>.[>.}>.|>.1>.2>.3>.4>.$< 5>.I1 bk QL << m7 2x P< P&.}D 6>.7>.R6 7j 8>.9>.0>.sx  7 %Z y8 E2 a7 I1 Xa :C &r {d &H qs K+.H} 95 dR $  a>.{5 -R `T b>.c>._~ d>.Uq ",
"jc x~ '; 4b QA mc `8 /^ Bh )_ x< J2 YV e>.f>.g>.`H h>.i>.j>.k>.l>.m>.n>.o>.p>.q>.r>.s>.t>.u>.v>.+@.w>.x>.y>.z>.A>.B>.C>.D>.E>.F>.G>.H>.I>.J>.K>.L>.M>.N>.O>.P>.Q>. >.R>.S>.T>.U>.V>.W>.X>.Y>.Z>.`>. ,..,.+,.[%.-] xH +O @,.#,.Nd i1 =v $,.fr {] 6i 1D _d Rj {y BP j8 %,.0D y% na Jc uh GM cF 'x 1G tS ;S p8 w7 -n 4[ S0 C6 uY K_ ~f em S) c< lA Ya eI Lh d3 &,.`& kh *,.ux u*.rF lO 09 C| >e =,.s} I8 Nc #4 :r T3 >e Lh =f JB _0 <q 0l rn b=.sn vg -,._C F4 Lg Lf T3 +s 06 2h (J ~i *a 9s L1 K] -8 tw Oy d9 aJ ;T Bq >n ;,.>,.sc .u v7 ~P Xn Z5 Rj ,,.',.Xs ),.`D hW n{ &P ]R K0 !,.Rv ~,.{,.<| (3 WJ ],.wd ^,.9p k[ kR /,.,_ =b (,._,.:,.<,.[,.^-.},.|,.1,.o8 ~D ]] wc 2,.+n tm @4 6q BA Nq 3,.E$.K8 Or x7 K1 2J ~_ Bz gv E3 :h |u 3m j_  a ,M n9 $4 Ud 4,.Ad  n u% #s A; Um 5,.6,.7,.v3 8,.1t ",
"9,.C% o[ Tu e[ #7 $a W5 r4 'h G! 0,.// a,.b,.rn c,.d,.e,.f,.g,.h,.i,.j,.k,.l,.m,.n,.o,.p,.q,.r,.s,.t,.u,.v,.w,.x,.y,.z,.A,.B,.C,.D,.E,.F,.G,.H,.I,.J,.K,.L,.M,.N,.O,.P,.Q,.R,.S,.T,.U,.V,.W,.X,.Y,.Z,.`,. '..'.+'.K8 &d c9 fT ]c @'.|[ 90 60 Zb H4 Ze Mq '/ Id !j 6P {u Pm $o ca ,B Ja Py {g @L Vy od .A  a fp {F 4b cz |p cb ;Q #'.rc p3 0< $'.~_ .k %'..e we yv tw ws &'.*'.4u 5j Av mP Ge zu o5 ,q Nl t% )) :S +v +x ='.U1 XH {d -'.z@.wn T5 @4 n7 Gf 1t |5 ul (~ {y h8 'd T! 'B G7 0< 98 25 ud >E vf J4 lo HP !5 ;'.>'.,'.''.zL Tn B: YN (Q 8l QS Df vP Bq |0 kC =D `u )'.ab !'.-p AP CP k5 K9 ~'.;U ao VU EF <r 3C q1 9n zP {'.]'.^'./'.('._'.:'.<'.['.TK ol }'.d%.2  ~a :x |'.=7 %l c2 1'.SB _l <o Eu A@ 2'.3'.'x }w &p nr XD FK 9G &{ P4 =g hd <c ol g[ le kk 4'.5'.6'.7'.7y So ;7 8'.J1 ",
"Oy O| dc G{ 8m C0 UI [t ^^ qd o( {g Vc 85 b, %/ 9'.0'.a'.b'.c'.d'.e'.f'.g'.h'.i'.j'.k'.l'.m'.n'.o'.p'.q'.r'.s'.t'.u'.v'.w'.x'.y'.z'.A'.B'.C'.FV D'.E'.F'.G'.H'.I'.J'.K'.L'.M'.N'.O'.P'.Q'.R'.S'.T'.U'.V'.W'.X'.Y'.9n -k :i Z'.lQ {H `/ ]j $y VT re T} 8+ V4 `z :v Xt n/ Ub d| $W fg Aw {Y Nq st h< hw yw ay 5l jw 18 CA C6 :1 .y  n wK f| Qc ao P| E9 Bt Ze Cm Ha D[ B| SF jw !m =e `'.sA k_  ).$l @x hF ;b cp +P `w }s lf &b )K .).rd WD +).!V Ol +p p5 ~v F4 G~ ]5 !d En gu >9 lb !m Gm *f gx 1p T} >N QA -_ xp 2c @).#).$).WA 29 pk %).CI &).*).I9 =).;E 2[ -).fp $y 3E ;).>).]h ,).').p8 YV Gc OO ka Fy bl ]f aN 01 F7 )K 48 )).!).~).{).]).^)./).()._).:).<).[).}).|).1).2).>E G< wo L3 3).fg D5 )e Og 4).5).6).H8 m+ tb >E $< 7).Bt 8).U: 9).,B Jn ;K 5d E2 (( |` ^7 }r ls 0).,p >).9% a).",
"!9 +( }1 ic 38 $l    cf a9 +8 8c }h &: bd cG b).c).d).e).f).g).h).i).j).k).i*.l).m).n).o).p).q).r).s).t).u).v).w).x).y).z).U&.A).B).C).D).E).F).G).H).I).J).K).L).M).N).O).P).Q).R).S).T).U).V).W).X).Y).Z).`). !.[z 4a ]0 ,O al fc .!.+!.A: ge >n Yl 1i O0 @E [C @b xt @!.@L G1 O9 Y[ 89 m} 45 <1 od 0J E9 8| -n c< VX m( Ml #!.2{  W $!.$a m0 wd Hn [e @8 S6 ei Xs ls A{ 'b &m 0J O= ke )L %!._3 8k 2k 6T &!.5[ 8j Gm :G 9X aI /2 +u *!.ac e} Fu Gr of jB Vs +7 $/ Z2 <3 E9 J2 <! q1 7'.=!.Pq #y -!.xK {5 CT =m ;!.r5 !3 G0 (F (z [c Hm >!.,!.d0 38 )f @f (~ (d yP _g In '!.)!.Pz !!.Bt J~ !e aN =D 2D FD <1 ~!.dR k: Fd K9 x8 {!.]!.^!./!.(!._!.:!.<!.[!.}!.|!.1!.2!.3!.4!.7m 1r H5 -i 5!.6!.7!.pX F3 |y 8!.9!.0!.a!.b!.s8 @F tA lq ]k sv bD [U WE }o vv e8 vd 6c 8m ]7 sA Bq c!.d!.rc %a gk ",
"j_ 3v Wl Y< j8 k[ |6 e!.%3 O0 3K c| Lf dF ea '6 f!.g!.7V h!.i!.j!.k!.l!.m!.n!.o!. %.p!.q!.}@.r!.s!.t!.u!.v!.w!.x!.y!.z!.A!.B!.C!.D!.E!.F!.G!.H!.I!.J!.K!.L!.M!.N!.O!.E@.P!.Q!.R!.S!.T!.U!.V!.W!.X!.Y!.Z!.`!. ~.7k fT ;v 4W 0a Cs Ok .~.'7 LO .o Jr L9 P7 vs Lq n;.Pk bj q( pi Mq +~.Tx (P %v 2n 7y @~.QH Cm || V= Rk #~.mn $2 mG =o T7 -] co Gt #c O: +s ;e $~.Y5 Tb ^V xt bk <0 DG /m iG Pf %~.<I +9 )i uD dk &~.{d *~.@x hl M6 .] >b Ks @8 te <a oC qh $j 1p G[ >c 6q ys tA KB wo =~.K1 [~ 0J gj ca ][ <u x7 {q Ly }8 @c 0o ka #!.q6 -~.^l -k >z X3 BH vM >M ,c Zk EH #Q ;~.>~.E5 W8 ,~.EI ~o L] TM 9r bk CC nz @8 '~.)~.!~. N ~~.{~.]~.^~./~.(~._~.:~.<~.[~.}~.|~.H-.1~.2~.3~.4~.5~.6~.7~.8~.9~.0~.Ga a~.b~.c~.*!.%$ d~.Uf pk 79 }8 Ia )~.sp HY k{ }5 =s xg qQ )o tm )4 o1 e~.f~.~U wt v/ 67 ",
"1~ o5 9S u% c, E4 z} !x b! &; 1( X1 ^2 1{ 84 gr g~.h~.i~.j~.k~.l~.m~.n~.o~.p~. N .| q~.r~.s~.t~.u~.v~.w~.x~.y~.z~.A~.B~.C~.D~.E~.F~.G~.H~.I~.J~.K~.L~.M~.N~.O~.P~.Q~.R~.S~.T~.U~.V~.W~.X~.Y~.Z~.`~. {..{.+{.0X 5s t< v7 5a 7l Sl EK re eE [E }s D7 X7 26 s} }Q oM 90 _r @{.Ru G9 <k iI %8 ,n YP TA #{.|S h9 'n Qy 9I Ww {Y 9X Od 0G -C nH X3 ${..n %{.LC )x Pc p5 mI rw }Q 5c 5p Uq K8 yt El &{.4t /^ )r uo jM Vm .3 Y_ *0 )o Xg oc i3 cI zi 'n wv d< 15 _G `F j9 c| sH lp Xy R4 yA d< ci Ye P< &d (/ s6 xG bu *{.ZP qH h( I- 2x YB ={.ol ^b VK Zt Uk e2 -{.d2 hf TG |z Nl ;{.Q5 lO B-.>{.YP 1m SO Xj ,{.Ee zi Pm 1N '{.Zm rD '{.){.!{.w'.~{.{{.r).]{.^{./{.({._{.:{.<{.[{.}{.|{.1{.2{.3{.4{.5{.6{.7{.8{.9{.0{.a{.b{.c{.VK ;b d{.xg o| 8r R| D9 3j gr Wi  i &4 /m e{.f{.g{.8d 7s h{.i{.|7 Ci Qe ",
"41 j{.=3 @b {f qj 8e }N :a @8 #s Q~ L[ vy N{ be k{.l{.m{.n{.o{.p{.q{.r{.s{.t{.$b Ug VA u{.v{.w{.x{.y{.z{.A{.B{.C{..-.|>.D{.E{.F{.G{.H{.I{.J{.K{.L{.M{.N{.O{.P{.Q{.R{.S{.T{.+#.U{.V{.W{.X{.Y{.Z{.`{. ]..].49 GK 7i ]: -k <{ Iu }p ~!.xb xa :L -k s8 48 2z Wu Ru [z &{ Ze )o M6 Tc +].@].'l 8I 8w 4s FG $9 $H GM PF EA !i -5 9Q os Tz 7a ky R6 Kb Mc 0G (H lF cb &{ ND #]. j {Q E} $].6l 79 e3 %]./a Wi pL Fr Pd ]x ao rK {C HC [~ || Bn  P :v <v %A E} 64 6i <d Ig dc 6b ^K <~ e} %f ux Wo ha v^ fr &].*4 nj *].)4 rw %g p_ Kv >h [H I2 'Q Mi |< x! |6 w8  N Nq vK =].z1 *K -].;].nq <k >].,].3N D7 bl x8 bh nB Eo ;T ye -b WH >O '].)].!].~].{].]].^]./].(]._].:].<].[].}].|].1].2].3].4].5].6].7].8].9].M'.q,.0].a].b].Y- c].d].<k 8n FS ;r 1E pk Jm e].hu XC >+ 3f f].g].h].i].j].k].Dq 94 ro ",
"kb ;w fa lp fz MB fa ;7 x9  q 1{ l].v% 'r #D -_ =9 m].^%.n].o].p].q].r].s].t].Qx u].<L pX v].w].x].y].z].A].B].C].D].E].F].G].H].I].J].K].L].M].N].O].P].Q].R].S].T].U].V].W].X].Y].Z].`]. ^..^.+^.@^.$p #^.m} 9( $^.sv Mq (3 %^.:i 6x VQ @C dw <m &^.sN eT CQ *^.ns 3j ;v jB )O gr sB =^.nG %v Gw lD -^.W8 >7 .o Af Vl 9n wz X7 zB iC MD }c >A TX ]L ;^.`j cb :_ :v ,c >^.=y ;R (x ,^.2h +F '^.,k /a Ov 6k tJ s} Sd @G ia wA eT _G uM 3a uo 1t 9r JV x7 RM nd <F Cs ~, ck `8 KE P7 G1 Si T< D[ !a |0 ag qc sq l: `i  d L5 X9 Bq bl $l tm O~ jf )^.Mc [l M] Q5 +y [c _u !^.~^.{^.G8 &{ ]^.Jh +v ]R ^^.&4 z} g@.RN K8 j.._o |d /^.(^._^.:^.<^.[^.}^.|^.1^.2^.3^.4^.5^.6^.7^.8^.9^.0^.a^.b^.c^.d^.e^.f^.g^.h^.i^.j^.k^.l^.m^.n^.o^.rr p^.}1 )r nd [s Z} Pk T7 .| ~e q^.<< 4h r^.s^.t^.u^.v^.Z/ s< ",
"al {7 `2 w^.]4 qp 48 Vg rB O} 12 EH jQ 8e <h 3g J> Al x^.y^.z^.A^.B^.C^.N].D^.-2 .k Zj =%.E^.F^.G^.H^.I^.J^.K^.L^.M^.N^.O^.P^.Q^.R^.S^.T^.U^.V^.W^.X^.Y^.Z^.`^. /../.+/.@/.#/.$/.%/.&/.*/.=/.-/.;/.>/.=+ Gh H| 3b Wl Gp F: Yi Ah ,/.3H gj I2 +s B6 EM Fy '/.-b *k 3x Cf sp )/.wk Su IN aN $u G5 T5  b lg Kd p8 -: &6 Qe 40 tw <K mh  t rI bh {[ SF !/.=& F[ H| F| We  n xy .5 gC xi H8 %n @J ~/.6E VB C1 07 `+.P/ L5 l= #$ {/.8/ `Q Ng pk #| ]/..t ^A ]p 0u ~k }1 %g u8 +a 3a t: Wu $[ Up EA 2p gp i+ Rm 0u ^^ [g Gc 18 ^/._u yj 0B GP If 4; Dq ~i }g {( hX }E fT Xs ch JX //.UT AC LT +L {N 8l 2Y ;E &d fC R6 (/.kC @K AA 7d _/.:/.</.[/.}/.|/.1/.2/.3/.4/.5/.[,.6/.7/.8/.9/.0/.|{.h{.a/.b/.c/.d/.e/.f/.g/.h/.i/.j/.|!._,.k/.l/.Nh 9p U: N9 [6 ~q FF q1  g K# m/.bn n/.o/.r5 p/.q/.r/.s/.-/ D2 ",
"cs :v q7 P= u` t/.w8 C& &9 v^ )] +  Br 7l O5 g[ Ga +z E).u/.v/.w/.[d x/.y/.Kb @m +7 ]j hf w[ z/.A/.B/.C/.D/.E/.F/.G/.H/.I/.J/.tX K/.L/.M/.N/.O/.P/.Q/.R/.S/.T/.U/.V/.W/.X/.Y/.Z/.`/. (..(.+(.@(.#(.$(.%(.NY &(.L5 Ru *(.kR s} =(.+Q bp Fr 7r 16 jh B| -(.LB ;(.>(.2[ [d l: I9 _q ky wU !o QQ FZ lM qK AA ek ow 3: UK Lq Ff @].,(.Hn fr '(.)(.{f 4m !(.Zz 2u Xj mC yA Hh ~(.sc kz ;4 Gc {(.^p ](.4b L9 @J .n #} L2 Gn m( )_ zd Xk X1 ^(.Up hf gu 40 /(..S I~ IP E} :f Vj e].TO |5 D2  d uH q} Ab 1{ 1t nd @L 52 '_ 0d '+ og cb Lj Ab ((.T3 @z xM CS mP 9m 3[ _(.kG Pr GI jf JF L3 Kc au &9 ;I h< qC 95 1D ^K N9 wf <s ca @f |R k*.:(.<(.[(.}(.|(.1(.2(.3(.4(.5(.6(.7(..-.8(.9(.0(.a(.b(.c(.d(.e(.f(.g(.h(.i(.j(.k(.l(.m(.n(.o(.We 0Q $l >_ ac K0 ], 2A ,z p(.au 1m gy n;..8 6q q(.r(.s(.t(.u(.+t ",
"n/ A| yP >e M| $4 U) 'w F^ E~ _m md fl $y Ap a7 c! 81 v(.w(.x(.Ba 'b by ;h He re 79 HQ NA ou y(.z(.A(.B(.C(.D(.E(.F(.G(.H(.I(.J(.K(.L(.M(.N(.O(.P(.Q(.R(.1~.S(.T(.U(.V(.W(.X(.Y(.Z(.`(. _.._.+_.@_.#_.]| $_.%_.84 ~B Rj 4[ &_.eh V4 0D {A V- @E }D 'D *_.=_.-_.)C 9l ;_._5 ^d Cw 1D /m F$.m0 ]0 F} WX &2 dp 8O )D 8j &6 {m PE >_.Gw 5p sE >r ,_.sN <u v*.n;.V3 Al %8 VX w7 `y '7 '_.0T =g y% zx rF Wl )_.3g im ^o !_.fr mt -} T: Oe Ep 6{ z} bk '0 ~_.{_.;n 67 Ts oC ^O Ad Nl s: S0 Mq -5 #M _x h0 .Q E2 pC S0 T} ]_.rc >N V$.5G 4j 5f ^_.xa j: Sl /_./^ F7 6c <i Af @L G} (_.yM eH ]j mB D& ^K ex sv {c aX mO LB __.:_.<_.dB sB [_..#.}_.|_.1_.i(.2_.3_.4_.5_.6_.7_.8_.8{.9_.0_.NW a_.b_.c_.d_.e_.f_.g_.h_.i_.j_.k_.l_.m_.n_.)c zA cG $o ln gi :x L< s8 o_.9a |c %f ,c %q ;H p_.q_.r_.4G ~_ k;.",
"Sd |0 bN id vy 6c s_.Qf bG )4 J2  m 'b 2Y *e %f t_.+q u_.v_.w_.TG 8y Zf x_.fa C8 y_.#C 0B z_.A_.B_.C_.D_.E_.F_.G_.H_.B{.I_.J_.K_.L_.M_.N_.O_.P_.Q_.R_.S_.T_.U_.V_.W_.%@.X_.Y_.Z_.`_. :..:.+:.@:.4r #:.`k Yi >q sv $:.#_ bl GU 9m tf q7 zi %:.&:.'r G8 IU ze *:.VJ =:.iO Ee we ;_ H2 or  t -:.;e <x Ek YL Uv ;:.qv Qm $p bj -} -V PF :l 9).WQ fh >:.n: 52 ,:.;] ww N4 3X Wm 39 {/ TE ;c jp B| ':.):.wh K5 E[ dm QM Cv Ck 1u }y AA !:.H% E9 >M ~:.{:.]:.v_ /c z2 x9 [L ;Q `2 Bm '| W8 $_.Sr 'd YH Ek Go f8 AL mG /^ cc E9 ,; t_ /^ Sz ,p ^:.@B d!.xv mt ei bj /:.{g At @c ^p S8 R7 MQ pJ H .(:._:.R4 gy ::.6O <:.*_ [:.3;.ei UB }:.d+.|:.1:.2:.3:.4:.5:.6:.7:.8:.9:.0:.a:.8!.b:.c:.d:.e:.f:.g:.h:.i:.j:.k:.l:.m:.n:.o:.p:.q:.r:.`Q tl du s:.>e fI 95 &: O9 7Z #4 t:.u:.cO 3g ZC v:.w:.x:.FB tm m6 ",
"^2 41 o8 :l jh kh @k fL [0 @F ^3 <h v% 'o wK f2 |d ,4 <~ y:.z:.A:.d| d< hl 9n ik {q Pc [~ !w B:.C:.D:.E:.F:.G:.H:.I:.1:.J:.K:.L:.M:.N:.O:.P:.Q:.R:.S:.T:.U:.V:.W:.X:.Y:.Z:.`:. <..<.+<.@<.#<.9v (/.+s 2S BI 7w mI VK [t )( [6 EC !  Mm yw c]  r [m MK $<.O9 ,_.%<.F& UD 6c &<.ST uY br &6 ~f =e 2M *<.=<.6'.3m C| Dd Mr )y Ug 4= `k -<.VB zM Xg 2[ !A 7l `z aO ;<.mL us KA R7 -L VT I< 6: /M ><.ZG Vm c} F4 _9 Mg H9 Yk O9 @G oC Z4 z/ ,<.w[ :r %N '<.1C n[ dc kM +L Ge 0v jl nR )<.!<.Pe .y >9 #c fz Xz OF +y ]4 wL 4t Cm *f Qs 8O rx ~<.{<.#s rz 9G <k z} %/ #k ]<.30 J) 9u G5 Gu ^<./<.(<.2: |0 #N _<.:<.<<.[<._r xg AN }<.|<.1<.2<.3<.4<.+;.5<.6<.7<.8<.9<.0<.a<.b<.c<.d<.e<.f<.g<.h<.i<.j<.k<.l<.m<.+@.n<.o<.p<.q<.r<.s<.ei Ak ha ZC r| Ad @f H2 >e ~q ],.#t xl !s 4l t<.@P u<.@e v<.|o {f ",
"%{ w<.t< x<.}8 wt Mo Zb l0 &k 1s BL [B W5  c uw (m ;0 @F y<.z<.A<.B<.C<.RN ,{.%n p8 89 D<.E<.F<.G<.H<.I<.S@.J<.K<.L<.M<.N<.O<.P<.Q<.R<.S<.T<.U<.D_.V<.o:.W<.X<.Y<.Z<.`<. [..[.+[.@[.#[.$[.%[.&[.5G ,y Jv C8 *[.,8 =[.os %_ gO -[.;[.>[.9( ,[.'[.)[.![.bl Pr ~[.+a Q&.{[.Zb kp X7 jf Dv .y mo Vu Ub 2A g>.;^.Ak 5G ][.bk wz ^[.'i ;L /[.Jm Za zP )] }0 Am LH 40 mh OL jw zm qe u0 )D )Q pi fb ([.=e Cm /c J4 ,c |) |) ({ 74 ~d >l oo _[.:[.$8 <[.[[.}[.|[.+n r1 mG EH t3 79 `w 1[.79 qh 2[.p_ {& R| %D mt 3[.<h Qp _H >e lg 02 Z5 ,n 4[.5[._4 6[.K/ .2 7[.CC p3 ,d 0J .b Jc 8[._D 9[.0[.a[.##.b[.c[.d[.e[.f[.g[./'.h[.i[.j[.k[.l[.m[.n[.o[.M/.p[.q[.r[.s[.t[.u[.v[.w[.x[.y[.z[.A[.B[.C[.D[.E[.F[.G[.H[.%-.I[.J[.K[.L[.M[.k;.$c N[..B SF <q ^a (m tD Ae R4 oN 8q 0l pm t9 p3 (k yj I0 pm p| dJ O[.",
"b] 52 ,} || P[.|R :p #} >c ]5 ;7 <4 Z2 3j Sy :O PD {7 }k nB Ez Q[.!: R[.S[.T[.U[.V[.+Q }s W[.X[.Y[.Z[.`[. }..}.+}.@}.#}.$}.%}.&}.*}.=}.-}.;}.>}.,}.'}.)}.!}.~}.{}.]}.^}./}.(}._}.:}.<}.[}.}}.|}.KP >C %A 8x Yi [N 6>.>{. g _q en 1}.2}.3}.4}.5}.6}.vn 7}.xd 8}.Jm }Y @3 ef oe KK -$./o e6 xS 95 %0 3* 9}.}0 &t %d 0}.|| a}.fI 3b b}.7T 2i +i :J ^1 W8 8w Ve Ve 6s m} NC 7/ %G ]0 1[ Vf Z- fb #z  2 on Vb LG v7 Rd Nf gG %g ^n Ac _b c}.h' d}.e}.U%.f}.2C tI Wa #4 |t 4I 1c +I .8 /h U0 Pa S0 L< ky  2 6y LB e2 'n *r Sd !j cF <~ fA g}.h}.i}.:F &: .~.j}.e2 k}.l}.!d T: Ho <0 B% `F m}.n}.o}.q>.K;.p}.q}.r}.s}.t}.u}.v}.*#.9%.w}.x}.y}.z}.A}.B}.C}.D}.E}.F}.G}.H}.I}.J_.J}.a_.K}.L}.M}.N}.O}.P}.Q}.R}.S}.T}.U}.V}.W}.X}.Y}.gA DK *f EG Ri wv Z}.}h #j Kz -{ G8 'f `}.gz ]G 0} FX  |.0y EH x3 .|.",
"k6 Z# ~r Hu +|.!4 Ww fa K] 8} Cb ^V >r 4t X3 3b 9e =g ~q Y5 Lj Rw @|.#( c2  J j3 #|.$|.+ .%|.&|.*|.=|.-|.;|.>|.,|.'|.)|.!|.~|.{|.]|.^|./|.(|._|.:|.<|.[|.}|.||.v>.j/.1|.2|.3|.4|.5|.6|.7|.8|.9|.0|.a|.^L b|.+Q aI $y {q 9r Ze c|.3J d|.e|.f|.g|.i$.h|.p^ 5G 7T jB V/ Qa i|.j|.k|.rL D! Ln !l sp zv l|.m|.PE Cv ;+ 0w ~j 09 07 mI 9x *0 8P n|.}z =b JD {~ ka K5 lp 9[.o|.f@.a1 2h Wo 89 J} nd p|.Pq 3X ns P7 q|.L9 S) fa ol *4 8v BX r|.s|.t|.u|.v|.Nv T2 Qf :l =y <r 6E +a #G :v tm xo M] |d  i Ol [6 zi !C 3k w|.*f f2 k5 au +t x|.y|.z|.A|.*4 yi vZ Ll ~y B|.`e |c zv sC %D SI C|.D|.E|.F|.G|.H|.I|.J|.K|.L|.M|.N|..*.O|.2%.P|.Q|.R|.S|.T|.U|.V|.W|.X|.Y|.Z|.`|. 1..1.+1.@1.#1.$1.%1.&1.*1.=1.-1.;1.>1.,1.'1.)1.!1.~1.{1.9B 7L pf >m qt Ky Oe $6 'f r:.O3 O9 yH |d ]1.F2 >7 $y &5 4: ({ %d rn ",
"`2 ze hi F8 Ej x^ on F2 g0 NF Hx ay c< T7 Zj dc +E ^1.&e /1.Rj (1.Ka oH _1.}8 |K I| :1.<1.[1.#}.}1.|1.11.21.31.41.51.61.71.81.91.01.a1.b1.c1.d1.e1.f1.g1.h1.i1.X-.j1.k1.l(.l1.m1.n1.o1.s..p1.q1.r1.s1.t1.u1.v1.XD pM 2z 'b Vt w1.x1.y1.z1.A1.B1.C1.D1.E1.UB /a 8k oC F1.wq G1.YD |u 4[.F: DL ]k QG H1.I1.HY >2 em FD (x fC H1 bk Hm )l eS &^.YF s6 h8 >b tJ So /v p| K2 Mj }i H4 zB 3u <1 He J1.K1.L1.>H -s yv qH c[ h0 ]( N1 )%.M1.km 1o WE N1.qX Q&.O1.#w P1.L5 Ct .b ik $/ ZR M} )6 5u T7 Q: <k (g $/ q0 xl E= `e |A :u ll )v Q1.R1.S1.T1.YP Bh hs 5p QL Q| SM bh oj U1.ps V1.W1.@#.X1.Y1.Z1.`1. 2..2.+2.@2.=&.#2.$2.%2.&2.*2.=2.-2.;2.>2.a@.C}.,2.'2.)2.+;.!2.~2.{2.]2.^2./2.(2._2.:2.<2.[2.}2.|2.12.22.32.42.52.eS 62.xf d0 <4 Bh `8 Bh #t {k 72.zB .7 [6 ;w |c 82.G7 -B Dt @m H9 [5 }7 92.",
"D[ Kt .a iJ ;; =O $[ s3 -7 uc qh #c X5 <D #d !k ye 02.D9 Pm rh oN 4l wf qs a2.dc Kw b2.c2.d2.e2.f2.g2.h2.i2.)}.j2.k2.l2.m2.n2.o2.p2.q2.r2.s2.t2.i@.u2.v2.w2.x2.y2.z2.A2.D~.B2.C2.D2.E2.F2.G2.H2.I2.J2.K2.L2.M2.Wj /^ 9a E8 N2.O2.P2.Q2.R2.S2.T2.U2.V2.W2._3 X2._2 !4 Xk tb Y2.Jg Z2.`2. 3.mb .3.+3.@3.9[ #3.*,.m} GK 65 TR K2 tQ TO $%.K8 cF $3.%3.9! X7 ei Cb |N @x [O &3.dn ]d K# nj *3.L6 =3./m @8 qC 0l oC K6 E: QF ]d ._ 54 Gr (d I1 3D I] @8 ;H .t :a Ba $E 'f ff @8 H9 <4 I1 I7 G0 80 ]L c1 oj .t er YD D7 -3.1{ fp v^ ;3.>3.,3.'3.)3.B2 BH [P !3.I+.D1 ~3.{3.]3.^3./3.(3._3.:3.<3.[3.}3.|3.U-.13.23.33.43.53.63.73.A~.83.93.03.a3.b3.c3.v;.~}.d3.e3.f3.g3.h3.i3.j3.k3.l3.m3.n3.o3.p3.q3.r3.s3.t3.u3.v3.<&.w3.x3.y3.ej Zm @o 5j B1 G9 0r {g dd f_ 1A H1 sr L5 E2 @3.K1 z3.A3.~_ R[ !3 B3.",
"C3.oH >  >: k[ D3..b T< k[ 9v V6 pG L4 I6 `N &k Z4 G1 ul ~P r+.Lu JB E3.F3.G3.]7 Rg H3.I3.J3.K3.L3.M3.N3.L'.O3.P3.Q3.R3.S3.T3.U3.V3.W3.X3.Y3.Z3.`3. 4..4.+4.@4.#4.$4.XU %4.&4.*4.=4.-4.;4.>4.,4.'4.)4.!4.~4.{4.C: Bf bk 9t :y ]@.]4.^4.3*./4.(4._4.:4.],.<4.0q -k [4.,[ 77 1P ha }4.|4.14.yr 24.34.-t *( C8 }h 9} >(.sv 46 *f ]0 Pf gt ZJ ;j  u ,e hM |5 xa ^6 s8 +p Go lN o} 7j 9B >l PG .y 44.3j 54.C8 ]W |v 64.i9 Su )u 74.cG gI )L $/ ]_.xx Nw 8o zd xK 2u G0 :i 84.a7 *D <k az 95 ka 15 th [~ 94.8k ro 04.H4 >O vZ R| aH a4.b4.c4.d4.e4.f4.g4.h4.i4.j4.k4.l4.m4.n4._%.o4.p4.q4.r4.s4.t4.u4.v4.w4.x4.y4.z4.A4.B4.C4.D4.E4.F4.G4.H4.I4.J4.K4.l!.L4.M4.N4.O4.P4.Q4.R4.S4.T4.U4.V4.W4.X4.Y4.Z4.`4. 5..5.+5.@5.#5.$5.%5.&5.Yb f2 Wo 4j Ce od *5.Qp Sy >k =5.ze 9r +a EH 7} Kt Ll 8N [M !,.x; cc ",
"Df .g dq ;* |~ yq $b _{ bw K9 7K *o Rj Oc /M Rj R5 K6 o3 o3 0[ D9 Qa 4j nO rh :[ ~U -5.;5.>5.,5.e$.'5.)5.!5.~5.r3.{5.]5.^5./5.(5._5.:5.<5.[5.}5.|5.15.c,.25.35.45.55.65.75.85.95.05.a5.b5.c5.d5.e5.f5.,4.g5.h5.{3.i5.Nn bl Wu j5.k5.l5.m5.n5.o5.p5.q5.r5.]3 {j Ov i9 o| XO ,F LB ,).s5.t5.u5.Ni fm EC H5 Lo bb hj Sd 'n 6j BU Mo ]W nC L5 <0 nK ys _u v5.vj 9] H2 'n Sg 8} <m w5. 7 i' dx ]z x5.&k }M y5.<B Wq ns zL ZC Vl z5.A5.B5.^6 :^ Zf ao Nq Ji l0 Oe D7 C5.Um :i w7 E0 Wq [t Rj Co |k Bh R| D5.Jn <d ][.qt ei HY >g xG E5.F5.G5.H5.I5.g|.J5.K5.L5.M5.k'./<.N5.O5.P5.Q5.R5.S5.T5.U5.V5.W5.X5.Y5.Z5.`5. 6..6.+6.@6.#6.$6.%6.q5.&6.*6.5].=6.-6.;6.>6.,6.'6.)6.!6.~6.{6.]6.x5.^6./6.(6._6.J~.:6.<6.[6.}6.|6.16.26.36._e 46.i1 me W3 Nl wL 56.2O 5R Z1 4t G} :I `v 2O aN Q[.OU 66.$4 [t e+ *: ",
"F6 2U 76.E# -D 2h O_ >E K1 L9 86.Wm =l :n T7 ,B @3 cr ;9 @3 F^ s3 hM !p !3 HJ .|.>h 96.06.a6.b6.c6.d6.e6.f6.5{.g6.h6.i6.j6.k6.l6.m6.n6.o6.p6.q6.r6.d+ 1W s6.t6.u6.v6.w6.x6.y6.z6.A6.B6.C6.C{.D6.E6.F6.G6.H6.I6.J6.K6.:_ od Xs 4p L6.M6.N6.O6.P6.Q6.R6.S6.T6.uY 'v &C mi F4 SG 8l ,p J` *k ~l U6.3v 0s 0y 85 Y% QR sQ @/ ^n tw ~M V6.tt #8 An dh yR mf W6..o X6.Y6.yv '_ WQ Z6.br Rz !B am `6. 7..7.5p  X mq De 39 :x 79 xp 5s +7.fv Ez *g ro !d ig vy ]j zc G8 @9 Yk -: e6 z+ Ci >B 1D ^5 tm &b .k {g fC =n `k 5D 2s @7.;v #7.$7.%7.&7.*7.=7.-7.;7.AI >7.,7.'7.)7.!7.~7.{7.]7.^7./7.(7._7.:7.<7.[7.}7.|7.t!.17.27.37.47.57.67.77.87.97.07.a7.b7.c7.d7.e7.v!.f7.g7.h7.i7.j7.k7.l7.m7.n7.o7.p7.q7.r7.fG s7.t7.FB u7.v7.w7. a @m Df || ao 8f z2 .b p3 :G wd :O aU x7.oo %F H1 fa HY r3 y7.9F kk z7.",
"}[ ow A7..  M| Fe }< @b 6W 59 @c xt !e <i B7.t9 l0 =b L< .9 _#.1E Pc s} C7.pm li Nv &X D7.E7.I[.F7.G7.H7.I7.}X q=.J7.K7.L7.M7.N7.O7.P7.Q7.R7.S7.T7.U7.V7.W7.X7.Y7.Z7.97.`7.:}. 8..8.+8.@8.#8.$8.%8.&8.*8.=8.-8.;8.>8.$8 OF em ,8.'8.)8.!8.~8.{8.]8.^8./8.(8._8.G+ 1[ ;4 Tn TE :8.Oe <8.'s [8.}8.|8.18.28.1e E8 F3 .q xn D7 e2 W2 D[ wt E[ 52 An =e sp t9 Js nG fG 38.48.58.68.0u |d tm ps 6M 78.Sf @b ka Wm 88.=e AO Lp K9 Zf )] zN /w zs Jy -f Ac ,s jt {d DK <3 ]: |n 1D ac N9 bD y9 w4 Lp -E iI 7y xb Z/ !y 8t K4 zo xv 98.08.a8.b8.91.c8.d8.e8.f8.g8.h8.i8.!7.j8.k8.l8.m8.n8.o8.p8.q8.r8.s8.t8.u8.v8.w8.x8.y8.z8.A8.B8.C8.D8.E8.F8.G8.H8.I8.J8.}~.#-.K8.L8.M8.N8.O8.P8.Q8.R8.S8.T8.U8.{I V8.Cc W8.FF DY |K X8.LT Rg al hI )o *t 3C fh y@.eq Mw wv gq Jh >m ef bi 's r8 -7 wq =z :2 '8 aH vb ",
"zG z} Y8.Rj 0< p5 v3 [w 3c '; Al ~e ;p lb 9J @/ hl %f iL ,b -C yp W8 &4 p3 't Z8.;g +'.`8. 9..9.+9.@9.#9.$9.%9.&9.*9.J'.=9.-9.;9.>9.,9.'9.)9.!9.~9.{9.]9.^9./9.(9._9.:9.<9.[9.}9.|9.1&.19.29.39.49.59.69.5|.i#.79.89.[[.3P :b 99.09.a9.b9.c9.d9.e9.f9.g9.h9.i9.lt -b WB #7 |E Lm ]s j9.k9.l9.m9.n9.o9.p9.kG ]L |a fh >m ZG 2; [8 8| X3 >7 :v 15 An q9.En Cv r9.s9.t9.u9.;E Ua %s v9.>[.ao Vk w9.Dm J2 rn x9.TE Ww e~ l_ ck y9.z9.0L #k :2 iw hA SC 1i x8 qO @8 ha &: D8 Q) -L o| ZN YF !j Zo Qy }D Ye q7  x /] yz |i 7K M7 A9.B9.A8.C9.D9.E9.F9.G9.H9.I9.J9.K9.L9.M9.N9.O9.P9.Q9.R9.S9.T9.U9.V9.W9.X9.Y9.Z9.U-.`9.k#. 0..0.sq /b uR +0.@0.#0.$0.%0.&0.*0.=0.-0.;0.>0.,0.'0.)0.!0.~0.{0.]0.[Y ^0.G3. o (T // |n I2 ^F p;.pX eH fD Pm &N DB Qc ,R sr <x {c LK bo o| n| _3 Gp }8 BP i+ @8 ;g ga nO ",
":G R# /0.hz Jc t/ C} T7 t9 ab %a yt Fe >8 1D I4 tc ov 7w ]4 p| (0.7a 95 _0.M+.:0.,9 @x <0.[0.}0.|0.27.10.20.30.40.50.60.70.80.90.00.a0.b0.c0.d0.qT e0.f0.g0.h0.i0.j0.k0.l0.m0.n0.o0.p0.q0.r0.]%.s0.t0.u0.v0.w0.x0.y0.z0.A0.B0.C0.D0.E0.NV F0.G0.v6.H0.I0.J0.Fr K0.b0 He Bd t' nm aJ *f L0.Po 8` M0.N0.TG sc gy Ah O0.P0.Q0.R0.Zp S0.sp Qj  n wn Xg zB C8 =( T0.#_.U0.k/.4, }x V0.+T {2 aL K_ W0.#u 3a <4 FH &g X0.$e c2 j- Wm Xj ;d 4w nd <F )e &R +p $} fF !(.]d Vf Sy $o V8 .t Y0.Zo Vm Wo =_ ^p V8 N} &/ $b Dt Gk M9 Z0.`0. a..a.+a.@a.#a.$a.%a.&a.*a.=a.-a.;a.>a.,a.'a.)a.!a.~a.{a.Z>.]a.^a./a.(a.l1._a.V_.:a.<a.[a.ou Jn Hs HH a[ }a.JI |a.1a.2a.3a.4a.5a.6a.7a.8a.9a.0a.aa.ba.ZE oN AC lB ca.}t 8K )v R6 da.KE 5n !T H< ea.u8 Hi >g ,[ O9 Uk Mc H4 Sx N2.'z >D uo 9e od Xc -E Jd fa.ja *e ",
"ga.bn Ak )0 &N Il .Q Ni 7m 1p 1[ T2 *u `8 ,8 {g 8F yl `8 |y ha.=B vj V8 ia.ja.ka.la.ma.na.oa.pa.s>.qa.x}.ra.sa.L-.ta.ua.va.wa.xa.ya.za.Aa.Ba.Ca.Da.Ea.Fa.Ga.X3.Ha.Ia.Ja.7+ Ka.La.V}.Ma.Na.Oa.Pa.Qa.Ra.M|.Sa.Ta.Ua.Va.Wa.Xa.Ya.Za.`a. b..b.+b.@b.#b.$b.%b.j_ _3 88 bp HC j: Yz pe Bo &b.*b.=b.-b.;b.>b.,b.'b.TD .t )b.!b._0 8w _e PV 70 ik m` Zo HE Bt V#.yz FR ~b.{b.]b.s=.[s Zx fp y6 $p @+.^b.#4 $G -b ZE Mc )L /b.s=.3u (b.TE w( Tf :O ak #j &4 re _b.8s qt :b.>r fr +L Vc V5 (z <b.Js !m D~ ^/ Sc I~ [b.}b.C=.|b.1b.2b..}.3b.4b.5b.6b.7b.8b.9b.0b.ab.bb.cb.db.eb.fb.gb.hb.ib.jb.kb.lb.mb.nb.ob.e&.pb.qb.rb.sb.tb.47.ub.~q zq `v sc %v =_ rx su vb.wb.xb.yb.zb.Ab.At nO iG =E .E al _u :l Ii Bb.^6 Cb.(Q '!.ja v+ oE  | Db.Tc 8n gQ &5 rD Cb Lj ;4 }5 VK 7o 9c vq 8x ~q CP qQ 7k us Sw Eb.@P ",
"Fb.h^ Gb.!g xo E7 Kd :G Sg 16 .8 MM C% k_ #7 cj &4 O9 *u .z Ze 8< Hb.n| -5 Ib.Jb.tx Kb.Lb.Mb.Nb.Ob.Pb.Qb.Rb.Sb.Tb.Ub.Vb.Wb.Xb.Yb.Zb.`b. c..c.+c.@c.#c.$c.%c.&c.*c.=c.M&.-c.;c.>c.,c.'c.)c.!c.~c.{c.]c.j` ^c./c.(c._c.:c.<c.[c.}c.|c.;0.1c.2c.+m 3c.4c.5c.,B 5n yp D0 !k yp j7 %A <F @N 6c.~<.7c.8c.9c.0c.ac.pr 9S bc.cc.z3.}k [0 @3 >b Dj W8 k[ Jz 49 [E wd Ad dc.ec.fc.gc.X3 hc.YB d0 z2 64 ic.uA jc.Rx 7P 7y 82 HG -| _L &J %8 {H py _2 Lq s8 l0 SA ~q i: ^m de 28 Qj )< 6E Xk ]d Z8 fp 'b G7 3v 43 Y6 Qf HQ kc.lc.mc.nc.2/.oc.pc.qc.rc.sc.tc.A(.uc.vc.wc.}_.xc.yc.zc.Ac.Bc.Cc.Dc.Ec.Fc.Gc.Hc.Ic.K#.Jc.Kc.Lc.Mc.Nc.Oc.L(.Pc.My *7 +B ;4 1n OB Zm `9 %8 Qc.Y[ z3.Rc.Iw H2 qF Sc.E7 ki x2 Tc.Uc.L9 Bi R6 Gr `a Rk O2 ca Vc.v/ [M Wc.8D *o T2 i( 89 ]8 H1 !7 Wl zc gk xv b0 .m s=.!f _3 O_ Xc.fk ",
"Yc.Zc.$3 .q :7 cd 7) j{.'h m{ <1 0s Ei mt 1] `c.Vj  d..d.+d.P6 O: @d.k} 3c !] 'p 46.#d.$d.%d.&d.*d.=d.-d.;d.>d.1!.,d.'d.)d.!d.~d.{d.]d.^d./d.P*.(d._d.:d.<d.[d.}d.|d.A[.1d.,- 2d.3d.4d.[).5d.y%.6d.x8.e).7d.8d.9d.0d.ad.bd.cd.%U dd. b.ed.fd.gd.hd.id.jd.$l C3.b5 kd.ld.}| Wo ]z o[ 7a md.nd.od.pd.qd.rd.4e R+.sd.td.D2 cp ud.GB g6 oo zg Fg ~G 3C *( `z vd.wd.:5.xd.yd.G1 zd.Ad.,n !C Hh Bd.Cd.(x s_ %W *4 s3 EF Bt VN 02 1x XK >l G[ F| ,; %/ 8t Dd.-s `E @c +L VA 9P TE ]& n| eB Jm Ed.$g _x hf wh %F Fd.Gd.Hd.Id.Jd.Kd.Ld.Md.Nd.Od.Pd.Qd.Rd.Sd.Td.b&.Ud.Vd.o<.Wd.Xd.Yd.Zd.`d. e..e.+e.@e.#e.u>.$e.%e.o[.&e.*e.=e.G/.-e.;e.(w yp Yy -%.Dv t^ fa [g 7a _j -1 8,.>e.:d mb fs ,e.F[ O[ Iw Bz @z gQ zs nl !t `5 D3.B% 1t )0 xf Ab NC y1 _^ $} :l c` p: (a hd [s ]s >u {g C6 z2 /^ {i 3v $H n/ a| ",
"`0 'e.vj )e.0| X< Pf .| Fj ,4 tw 9e +%.Ja.!e.~e.{e.]e.^e./e.(e._e.:e.<e.[e.pP }e.|e.1e.2e.3e.4e.5e.6e.7e.8e.9e.pb.0e.ae.be.ce.de.ee.fe.ge.he.ie.je.ke.le. ).me.ne.oe.2J SG pe.qe.re.se.te.ue.ve.we.<!.xe.ye.ze.$;.Ae.Be.Ce.N,.De.Ee.Fe.Ge.He.Ie.Je.Ke.Le.!= dM <i {f !j n| bO AI Gi Me.Ne.Oe.Pe.Qe.Re.Se.i~ hz mJ Mr >u Av #t sq R_ -/ 23 {2 hk $g Xs l< Te.Ue.Ve.We.:d Qh t` Pa X8 Xe.V#.Ye.Ze.#W rG )D zA 4a xE 8w Y5 [Y wf K] `e. f./1.{) ;g So (a &O g8 .f.ae ah Z2 r_ Xt G7 47 .b +f.ip E9 no wf ~F na @f.Ee.#f.$f.%f.&f.*f.=f.-f.;f.>f.08.,f.'f.)f.!f.~f.{f.]f.^f./f.(f._f.:f.,2.<f.[f.}f.|f.1f.2f.3f.v~.4f.5f.6f.7f.8f.LN i3 9f.q;.Zk Dn l< #t %y 0f.3A Qj :8 af.}n px Ai uD AL 1{ uE LO k4 }i Py o7 z2 n@.Hy zN 6f  e P1 jc )0 Ap }/ bf.0B zO 'f .8 G7 on 5K #8 Nh Sw #j wh C8 *E s5 s6 ",
"cf.4; xb _C Ca _9 H1 [( oK a# =h L1 q- Gb.df.ef.ff.gf.hf.if.jf.kf.lf.Qr Cv 5j mf.nf.of.pf.qf.q#.rf.sf.8@.tf.uf.vf.gU wf.`[.xf.yf.zf.Af.Bf.Cf.Df.Ef.Ff.Gf.L0.Hf.If.L&.Jf.Kf.Lf.iU Mf.Nf.Of.Pf.Qf.Rf.wa.Sf.`2.m0.Tf.Uf.Vf.Wf.Xf.Yf.(5.Zf.`f. g..g.+g.@g.#g.$g.bj s8 MK _3 5b ~A #w %g.+7.&g.*g.=g./d.-g.;g.)M Po <L `7 >g.6l Ks &m S0 b2 N+._d ej 1| .2 Yi ,g.'g.)g.!g.r| lM @f 5s Jq Tu =v C5.g0.Qr jN rc <k [c }0 'D F6 cp ~g.Vg P/ MB %w CT 52 >+ Zf 'c yt we 'n 3C 1D sp xg _H B} 8< b0 ~t [} &~.$s <) S0 HC {g.X;.]g.H4.^g./g.(g._g.:g.<g.[g.}g.|g.1g.2g.3g.4g.5g.6g.7g.8g.9g.0g.ag.bg.cg.dg.eg.fg.gg.hg.ig.jg.*U kg.c1.lg.mg.05 ;  gy ng.~q og.K+.H9 4b ~l pg. f.2x hB b| F| qg.rg.98 Hm K9 xv Y5 B4 J4 #o Uk 3P gu ms i1 2m 8y +% Uy G} sg.tg.x& W) 6< ug.9a n6 {A ]j Ce lj $l Lx [} va !y ",
"3} =r t9 k[ Li vg.*@ dc y| 29 DG th V5 wg.q<.xg.h3.yg.zg.Ag.Bg.Cg.u. Lg Dg.+7 I+.Eg.Fg.Gg.Hg.Ig.Jg.Kg.Lg.U&.Mg.Ng.E6.Og.Pg.Qg.Rg.Sg.Tg.Ug.Vg.Wg.Xg.Yg.Zg.`g. h..h.+h.&+ mb @h.#h.$h.%h.&h.*h.=h.-h.;h.t=.>h.,h.'h.C(.)@.(*.)h.!h.~h.Zg.{h.]h.^h.N&./h.(h._h.dc H8 Lh ak lQ NF @B [~ HM :h.<h.[h.}h.|h.Ac 1h.2h.X1 3h.Jd 07 o|  J Ld `4 4a >f Kv Y5 P< 4h.5h.6h.7h.8h.HA 9h.VJ aJ [L 0h.w3 L  ah.!V !V V7 oy Ko +p G8 dm qp @8 7a od bh.ch.lF 51 Ew _6 Qs $j +G qz Gn E9 5u xb $h Nv 59 }7 o[ (g ;d !  Bd 99 6n dh.eh.fh.gh.hh.8e.ih.jh.kh.lh.Qa.mh.nh.oh.ph.qh.rh.sh.th.uh.vh.wh.xh.yh.zh.Ah.Bh.5].Ch.Dh.Eh.Fh.Gh.Hh.Ih.Jh.Kh.Lh.`U /i nq Nh <I '9 G5 S8 N: R5 W| ow <: !9 v/ zB ja [A Mh.)0 T: Nh.Iq 8n 4o ~A fT IG Uf '/ >8 Pa }f f}.x] q;.Jg Oh.Ph.Qh.i| x< 6j t_ ry +z T) Mi X7 v% ka y1 pN ",
"9S x7 Z< T3 L5 T7 De ], Zx ;o Yk Rh.Sh.Th.Uh.Rf.Vh.1(.Wh.Xh.Yh.Zh.`h.(p bF +(  i..i.g` +i.@i.#i.$i.%i.&i.*i.=i.-i.;i.>i.,i.'i.3$.)i.#f.!i.~i.O{.{i.]i.PT ^i./i.(i.U7.vU _i.:i.<i.[i.}i.|i.1i.2i.3i.4i.5i.6i.7i.8i.dd.9i.0i.ai.bi.ci.di.:d.Sh ei.!Z fi.&;.gi.xc ^! 9u T: tA Ba Pt o5 }g c+.hi.ii.ji.Yk :j ki.SI qj TE `i Zq li.&1 Pb I~ <0 ~a ]W ]( mi.CE ni.oi.pi.qi.ri.ca }b.S{ JG si.hf L] ti.<1 hJ &C ui. u =t %d ^2 vi.S: T} D' vv .n *k wi.ij Eq l:  r [c au O= $E 1p _! F2 yj _5 xi.G< `i E} X9 =S 'o T%.yi.zi.Ai.Bi.Ci.6e.Di.Ei.Fi.Gi.Hi.Ii.Ji.Ki.Mb.Li.Mi.Ni.Oi.Pi.Qi.Ri.Si.Ti.Ui.Vi.Wi.Xi.Yi.fh.Zi.`i. j.RZ .j.+j.@j.#j.$j.k;.XV +x 5[ i1 pB Zh  g t9 zG ,b Uq mc %j.[0 6, i_ .g &j.*j.=j.&6 s< F4 (d kw $H Nl 23 <~ x< iL Al KD ^F eH Bj ;Y -j.;j.4c TT 6l 0w ~d K9 kp (` e9 ll >j.gv ",
"G[ ^s W9 .| E2 k7 Kd ^H R5 *y ,j.'j.)j.29.!j.~j.{j.]j.^j./j.==.(j._j.zp Xk 'c ^P :j.<j.d&.[j.}j.|j.1j.2j.3j.4j.5j.6j../.7j.8j.9j.0j.aj.bj.cj.dj.ej.fj.gj.hj.gi.2i.ij.jj.kj.lj.mj.nj.oj.pj.gR qj.rj.d5 sj.tj.uj.vj.wj.xj.uc.yj.zj.Aj.9+.Bj.fY Cj.Ih.Dj.Ej.XH Fj.,:.W9 `w KP Gj.Hj.|d Ij.Z+.Jj.Kj.-7 Pc 46 GN xv Ye A) Pv Lj.`x ({ <c Xj Rj :p *: #( Mj.Nj.Oj.1i.Pj.Qj._:.Mn <u {4 3Z Bl Ld tI '9.H1 ,O 4a kp Xt p*.;w ff um 5'.^q lF Ub Xk Rj.Sj.5f -k Tj.ja :E #+.o7 pw <a fq /( +a K[ }2 :k Km ^n K= j_ =$.Uj.Vj.Wj.Xj.Yj.Zj.`j. k..k.+k.@k.g1.t#.#k.$k.%k.&k.*k.=k.-k.;k.>k.,k.'k.)k.!k.~k.{k.]k.^k./k.(k._k.:k.<k.t2.[k.}k.|k.1k.2k.NX ;C => +i 5c q} 26 Y5 38 >b h: ha Zm Sg G5 ;c 49 1| ii #8 ic #k [o Ng UG 07 |d Oz ha Wq Gf ze 8t #_ 3k.4k.5k.6k.7k.sh `u 1[ Dw $4 ^: oz s/ ]8 8k.`< 3v ",
"[8 x& j7 Qd :p (e {H S8 d1 9k.0k.ak.bk.ck.dk.ek.f_.fk.W(.gk.hk.ik. q [O ;h 2; PX jk.kk.X[.lk.mk.u!.nk.ok.pk.qk.rk.Y,.sk.x'.tk.uk.vk.wk.xk.yk.z1.zk._6.Ak.Bk.i@.Ck.Dk.Ek.Fk.Gk.Hk.Ik./6.Jk.Rt 0s (t (d WH Yp {: Kk.Lk.Mk.Nk.Ok.Pk.Qk.Rk.Sk.Tk.Uk.Vk.Wk.!%._| j|.>u E2 <K Aw _! qt 74 !r @e jf 70 Xk.fp FF zv Yk.Zk.lx L< ]q 'c [c z} fa iI #4 |k PF )L )^.m*.Hi `k. l.9S Jn FE (g kz Rj.Lq @{..l.>; 5j gC |k ]C Ug 58 3s fp 0l Zj eH Si +n |E Ru +l.^n 6s nh @l.s7 '^ Bh ^m gj :z :d aa nf <0 =_ +( Dj :v kX s5.#l.$l.%l.k,.&l.Y_.*l.p4.=l.-l.;l.>l.,l.'l.)l.!l.~l.{l.]l.^l./l.(l._l.:l.<l.[l.<k.}l.|l.1l.Af.2l.3l.4l.5l.6l.7l.8l.9l.0l.yz `z Rm .t >b bi uz )0 AI Ln tw al.bl.Bp Ce D[ X3 Sk /b Jn cc ff ns 2n T: _G ]5 n< $, 0C C~ cl.;c dl.el.fl.gl.s9.hl.;g Ae 5n 0f L2 x% rd  n ce A( 4A 1~ ",
"<1 {q C}  | il.Vl un <1 jl.kl.ll.ml.nl.qb.o'.y^.ol.pl.ql.rl.sl.q-.R5 0f [~ Ub p3 IB tl.ul.vl.wl.xl.O4.q'.yl.zl.Al.Bl.Cl.Dl.El.S>.Kd.7d.Fl.Gl.12.Hl.Il.Jl.w=.Kl.Ll.Ml.Nl.Ol.Pl.Ql.Rl.!9.Sl.v( 4| v( 'o 3l f) &X i4.Tl.Ul.Vl.Wl.Xl.Yl.Zl.`l. m..3..m.}}.+m.@m.#m.Af My hj d  y= cZ Zr _M lj F1 aO 8< 7r ;v 1i hk Pm dq _9 $m.-L H< w1 VU #8 KQ @C ps re YF eA %m.@T .| Ps &m.X5 x] $4 Ho $H 05 *m.3s =j _Y ]s Ac ya 0b =m.5s vg -m.wL 6y nJ 1Q Nq HR Dq ;m.>m.`% 02 @u *d *4 $8 F[ G1 (h {5 ,m.hz Ap  f M6 L+.Cw 'm.)m.!m.~m.{m.w0.]m.^m./m.(m._m.:m.<m.[m.}m.|m.1m.2m.3m.4m.5m.6m.7m.8m.9m.0m.am.8b.bm.cm.dm.em.fm.gm.hm.im.jm.km.lm.I9 `k mm.mK Bh FF Y5  e @e g=.8l ~j ;c nm.om..8 D7 .h Ld Wu !4 Rc G0 pm.=S e8 *0 iK )Q qm.rm.(+.0C sm.|+.tm.um.vm.wm.xm.gQ 3C CT ]j [} ym.No ;m Y< x8 Dt >8 ",
"'_ 74 zm.Am.^[ M_ Bm.m8 ,d Cm.5(.Dm.Em.0/.}7.Fm.Gm.Hm._4.Im.Jm.Km.<5  a Lh %b ;n %q Lm.Mm.Nm.I8.Om.Pm.Qm.Rm.Sm.M=.Tm.Um.LZ Vm.Wm.Xm.Ym.Zm.`m. n..n.+n.~~.@n.#n.$n.%n.&n.*n.=n.-n.;n.>n.lq )_ [#.Zq }d ,n.Lj ,; 6q d9 'n.17 )n.#S !n.~n.{n.]n.^n./n.(n._n.:n.<n.p1 W  [n.}n.|n.1n.'7 2n.3n.4n.#+ 5n.6n.;G nz ^s @f -} Hn X3 'x (h B6 u` Dw Y_ 7n.mo QA w- 0B N[.8n.$p 9n.0n.Ef %y Wu 9B Rm Jd an..%.&w n7 Cc @m 6E  N bi F7 %e Yk 1s 3b Ad K6 *8 9l >T bn.cn.dn.1j Ze en.:R ,M Vv l0 9> fn.D' zi 3} [b em ,9 w[ gn.hn.in.jn.kn.W1.ln.mn.nn.9;.(!.F0.on.pn.qn.rn.sn.tn.un.vn.wn.xn.yn.zn.An.Bn.Cn.Dn.En.Fn.Gn.Hn.In.Jn.Kn.Ln.Mn.Nn.On.Pn.Vg `w Kc ZC cT @G (a ~D dg ~J m[ `g.Qn.Rn.Su $E .!.sc ZC -7 b0 d3 [E c9 cl TX Sn.Tn.Un.Vn.)$ v9 Wn.Xn.Yn.Zn.O).`n. o..o.%d gi Fo =].V8 rs 4a x2 5a (/ ^n ",
"kk y8 +o.Uf @o.G3 4k __.K5 #o.$o.%o.|1.&o.*o.=o.~8.-o.a9 *f Ew F. L6 'n ;o.ed Af c2  z $< >o.,o.'o.)o.!o.~o.{o.|l.]o.^o./o.e2 (o._o. /.^c.:o.<o.[o.L..}o.|o.1o.2o.3o.4o.5o.6o.b:.7o.8o.Ba mo >E v3 z} )x os Ls 1| ,R :n    9o.K: 0o.ao.bo.co.do.eo.fo.go.ho.P*.io.jo.ko.lo.mo.no.'> oo.po.qo.ro.so.*B 78.to.uo.uu re fa /z :0 R7 Ko Dm #e vo.wo.xo.yo.M6.zo.Ao.*l Xo )4 (B Xe c< A< cp dc dp Bo.WE Qu [M k{ O9 Mr 5R Yb 9v PV ,e *t =B <a |p #d Co.Do.pR `n.Eo.Fo.Xc ;v Go.!5 SF Ho.Io.Jo.v3 un x( Ni az Ko./w Sw H$.Lo.Mo.No.Oo.Po.Qo.Ro.So.X;.To.9&.Uo.Vo.Wo.Xo.Yo.Zo.`o.^a. p..p.+p.@p.#p.$p.%p.&p.*p.E+.=p.Ae.-p.;p.>p.,p.$U 'p.)p.Yo !p.~p.nj lB 94 oN nd Wo 2h {p.]p.^p.,4 ;_.*k T7 .e D7  a I+.;m sA sB hu /p.(p._p.:p.<p.[p.}p.|p.1p.2p.3p.4p./g.5p.6p.Y; eq Ac ]0 fF 3g J4 )k y7 7p.zd ",
"8p....9p.KQ 5} ^x 0p.3! ap.bp.cp.49.H6.dp.ep. #.fp.Ah O= B/ Z9 m{ 9N br [6 3} l: n: gp.1: gx hp.ip.jp.kp.lp.mp.np.[5 op.(w 2A pp.qp.rp.sp.tp.up.vp.wp.xp.yp.zp.gj.Ap.Bp.Cp.Dp.*a.Ep.Fp.am Rj ff 8t nj _3 lO Mf Gr JH 3l Gp.Hp.Ip.Jp.Kp.Lp.Mp.Np.Op.Pp.Qp.Rp.Sp.Tp.:4.Up.Vp.3&.Wp.Xp.Yp.i3 2h Zp.vq j3 I2 EQ sb v` E2 )i H9 ~D su `p.)O VS  q..q.+q.@q.#q.$q.%q.&q.6u *q.>n.'e.~L <4 oE =q.-q.;q.>q.$H Vy 6j L2 (o ;4 x( qN {y x4 MB Dc V#.Q7 =_ ,q.'q.7:.)q.!q.~q.{q.]q.^q.}..l[./q.(q._q.zI :q.Hp K6 v3 kz G6 FW <q.[q.}q.|q.1q.2q.3q.4q.5q.6q.7q.8q.9q.0q.aq.bq.cq.dq.eq.fq.gq.hq.iq.jq.kq. j.#o.-9.lq.}2.dd.mq.nq.oq.pq.qq.rq.sq.tq.@..uq.vq.0, H1 cO Wa dz Uq %v sp wq.xq.yq.f;.M6 Yg )o <F zq.'d N1 )j QR  _ nf Aq.Bq.Cq.Dq.Eq.B0.Fq.Gq.Hq.Iq.Jq.Kq.Lq.Mq.Nq._C nD K_ *I )Q Oq.p8 Pq.Qq.Rq.",
"Sq.Tq.ZY Uq.F3 1{ |) zb Vq.!j.Wq.Xq.Yq.Zq.`q. r.S2..r..3 [t +r.@r.ca rD Bt >m V{ 'c j~ #r.|h YM ]k Ez $r.%r.2/ mj )z =$.MK &r.*r.=r.9^.-r.;r.>r.,r.'r.aS a,.)r.!r.~r.{r.]r.^r./r.(r._r.9A Ik :r.@o.Jt <r.Tx cj cr Lh [r.6o }r.|r.aT 1r.2r.3r.4r.5r.6r.7r.F/.Be.8r.G6.D@.9r._a.0r.ar.[n.bk VU Z8 x7 Sy Sd CZ br.cr.<) c5 0v 8u :0 !k >+ mB !q al./k.dr.er.fr.gr.7{.L| Vu +  hr.|L mf uh Yy ir.jr.q1 kr.'8 4a jk ]| >M 5c z} Xg cF Zk lr.p(.(w ^_.mr.nr.or.m:.pr.w%.qr.rr.sr.tr.ur.vr.q!.D2.=f Wr )i OB !i FZ Ov xJ B1 wr.xr.yr.zr.Ar.Br.Cr.|=.A].Dr.Er.Fr.x!.Tb.Gr.Hr.%0.Ir.Jr.Kr.Lr.Mr.Nr.Or.Pr.Qr.Rr.Sr.Tr.Ur.Vr.Wr.Xr.-n.Yr.Zr.`r. s..s.+s.@s..g.#s.or PG lt E2 d9 od $s.%s.&s.x|.C| 7d !i 9S M+.k: *s.iW =s.1; -s.d^.;s.>s.,s.'s.)s.!s.K/.~c.~s.{s.]s.^s./s.(s._s.>7.:s.<s.[s.wt l^ }s.'[ D' ",
"|s.1s.2s.3s.4s.5s.q| 2C rj.G!.6s.7s.8s.Ch.9s.0s.as.bs.cs.ds.es.fs.d( 4l Z8 O[.br 3D tx }k >7 YV .s Ba gx !] X9 gs.@8 YF !c Yy +i hs.is.js.ks.`2.ls.ms.ns.os.=5 Ri ps.qs.rs.ss.ts.v@.us.vs. z ws.p3 Wu WE @k D+ fj IT +3 _j xs.ys.zs.As.Bs.Cs.Ds.Es.Fs.Gs.OS Hs.Is.or.Js.Ks.;2.Ls.1~.Ms.mp ro dh  P 5> 7A z} ;!.0u Ns.Qd 74 6< %/ 4} nG {g Os.Ps.Qs.Rs.Ss.Ts.Us.Vs.ca.Ws.>D [U $p Xs.Ys.Zs.`s. t.3~ De .p 8y hH _3 ({ CP %F Sr 0< .t.+t.@t.#t.$t.%t.H[.&t.|f.*t.=t.q#.-t.;t.>t.Bh.,t.'t.)t.!t.Sp I| us ~] t% 4v ~t.^5 Rq {t.]t.^t./t.(t._t.:t.<t.=7.[t.}t.|t.1t.4<.0^.2t.3/.3t.9^.$t.4t.5t.6t.y1.-;.7t.4&.8t.9t.0t.at.bt.ct.dt.et.ft.gt.ht.it.jt.aW kt.p| V8 v3 aM r5 wd OO lt.}1.mt.fp nt.1~ 5u ot.]y pt.rO qt.rt.st.tt.ut.vt.wt.xt.yt.zt.At.Bt.Ct.Dt.Et.Ft.Gt.Ht.It.i6 il ,d /( Jt.:7 D_ Kt.^& ",
"Lt.Mt.Nt.Ot.&Y Pt.Qt.Cs K8 qk Rt.St.Tt.Ut.=0.+5.Vt.>* ~Q 5u .K (p M| Gc n! a5 yt l6 3c Wt.$p 8r .P N  %,.Xt.QA p| `/ td %d %/ :p Yt.Zt.`t. u..u.+u.@u.#u.$u.%u.&u.*u.R{ =u.-u.;u.>u.,u.'u.x2 tu `i k5 Gf Fr au Kv ]f Yq fG )u.!u.~u.{u.]u.^u.Zm./u.(u.|_.Zm._u.:u.<u.[u.}u.|u.1u.2u.A+ Ru 3u.}h R} ao @m UC t: =g =o W5 QT KP |'.4u.5u.6u.7u.dh.8u.R|.9u.0u.au.bu.cu.{4 =+.Ez Xh Rn.!l ip.du.eu.+  sp 2c w[ j: Jh 8o Xc  x !7 ^p fu.gu.hu.iu.q).ju.8(.#j.ku.lu.mu.nu.ou.%k.pu.qu.ru.su.tu.uu.c> E2 %Z vu.by Dz u, e[ wu.xu.yu.zu.Au.{o.Bu.Cu.{6.Du.Eu.Fu.Gu.Hu.Iu.Ju.Ku.Lu.Mu.Nu.Ou.Pu.:4.Qu.Ru.u/.Su.sX Tu.Uu.Vu.Wu.Xu.Yu.Zu.K}.`u.fi. v..v.MV +v.@v.pi -_ mC aC |v [5 tu f0.#v.$v.f- V#.$l $> :L %v.)s.&v.*v.=v.-v.;v.>v.,v.'v.)v.!v.~v.{v.]v.^v./v.(v._v.Wh.:v.<v.[v.}v.-T ~_ Kz |v.[:.]l >$ ",
"1v.2v.3v.4v.5v.6v.7v.8v.)^ 9v.0v.av.bv.cv.dv.S;.ev.%y 8c -n -] tm fC T} sb n! O! '+ 8H i;.|) Vz ]: hB p;. h 1{ fv.^s ka (d pt )g.gv.hv.iv.9` jv.x5.kv.Lo.lv.h*.mv.ps.OU nv.ov.pv.qv.rv.Xv 94 5[ ay q1 m} +q 04 N{ .u sv.`5 tv.uv.vv.wv.xv.w1.yv.zv.Av.Bv.Cv.Dv.Ev.Fv.Gv.Hv.Iv.Jv.Gv.Kv.;L ad Lv.fC t3 Mv.up /^ 59 '0 Em i3 ~P :G Nv.Ov.Pv.Qv.Rv.Sv.Tv.Uv.<1 gv xa A( zY i6 J2 Ae *I 1s 99 9p Vv.Sm Og hF y6 3E Zr &O [N bQ F5 Wv.Xv.Yv.Zv.`v. w..w.+w.@w.#w.$w.%w.&w.*w.=w.-w.;w.>w.,w.'w.)w.!w.~w.H% {w.K3 Zw ou l$.]w.I&.(r.^w.|=./w.(w.G].:=._w.:w.<w.[w.}w.|w.Vf.1w.b;.2w.3w.4w.5w.6w.Hs.7w.hY 8w.9w.0w.aw.bw.~h.cw.dw.ew.}q.fw.gw.zr.hw.9(.iw.L9 jw.z} L5 <4 ;o.Vg Ce  x kw.M}.wK MT lw.mw.+8.nw.ow.pw.qw.rw.sw.V-.tw.uw.vw.ww.xw.yw.ur.zw.Aw.Bw.Cw.Dw.Ew.Fw.Gw.Hw.Iw.PC t7.0L Jw.xf +% u3 ",
"UU ^o.Kw.Lw.Mw.Nw.Ow.Pw.Qw.Rw.Sw.Tw.9].w4.Uw.Vw.Ww.wf )] op Xw.]j Yw.#s A: j( [g V1 ~o 1{ r8 S0  z ,9 dw ^M `1 i( jT %3 ii lb Zw.`w. x..x.+x.@x.aw.#x.$x.yW Yq %x.&x.*x.=x.-x.;x.>x.,x.'x./8 x4 gu /c x8 :F D6 *o *G [} pn )x.8t.F_.!x.~x.Aq.{x.]x.^x./x.(x._x.:x.<x.[x.}x.|x.$/.1x.O>.Qo ZA &o ZP tu Ok UM 2x.YF 3x.G9 z2 ~Q ;C Pq.4x.5x.6x.7x.8x.9~.9x.0x.cb YD zN ax.LH IE wJ gy 2} Dt !e bx.lx tJ XJ ju t:.#G cx.5f SO n: dx.9%.ex.fx.gx.hx.ix.jx.kx.lx.mx.nx.ox.hx.i8.px.qx..-.rx.2].sx.tx.ux.nh )c 3} Jb.VC :e vx.wx.xx.yx.zx.Ax.Bx.Cx.Dx.Ex. Y pu  7 GJ Fx.Gx.Xa.Hx.bg.Wd.Ix.Jx.Kx.Lx.Mx.Nx.-9.Ox.ct.Px.Qx.,g.Rx.Sx.Tx.'9.Ux.Vx.Wx.Xx.fr.Yx.Zx.Xh  X j( `x.t< 8V pB w( 6s `C  y..y.+y.@y.#y.$y.%y.&y.*y.=y.-y.;y.>y.,y.'y.n1.)y.!y.~y.{y.]y.^y.vw./y.(y._y.:y.<y.[y.}y.R%.vg.|y.1y.2y.3y.",
"&%.4y.5y.}}.6y.7y.8y.kl.9y.e/.D{.v!.%e.M'.0y.ay.8/ z2 by.:v 0/ 0D ly '_ /( F4 <3 n4 S@ >j R< _e -2 %8 [z kz CC 88 s7 ,l {7 0y n7.cy.dy.ey.fy.<y gy.hy.MF Tl iy.@9 jy.ky.ly.my.ny.oy.02 dl Zw Bn 4t 'c D3 Hk Ls 6w Bj <6.G| py.qy.ku.ry.sy.ty.uy.w1.vy.wy.xy.Tb.yy.zy.Ay.By.Cy.Ld.Dy.Ey.vp ]j 7C Fy.w7 Vc |z xV 32 J= e6 Gy.O% 5} p: 2r.Hy.Iy.Jy.Ky.Ly.WX [y &5 i8 D~ V7 X7 jw 49 %u F| Zk My.B5.j( $b d< <q Fc $y lM Xj Nl Ny.-l.Oy.Py.Qy.Ry.N).Sy.Ty.Uy.Vy.Wy.Xy.Yy.Zy.`y. z..z.+z.@z.#z.o{ wd rs jI N3 )b $o <: Bi nr M&.$z.'&.%z.S(.&z.*z.K5.1i.A7.K[ N> Zm =z.-z.2u.ku.;z.>z.S9.,z.'z.)z.!z.~z.{z.]z.Mp.^z./z.(z._z.:z.<z.[z.}z.|z.U@.g1.1z.2z.3z.RC |K 4z.0l Uv EW MM tn pk :l 5z.6z.Tx.7z.0%.8z.M|.9z.0z.az.bz.cz.dz.ez.Th.fz.gz.vt.hz.gx.iz.jz.kz.lz.mz.BT nz.oz.pz.qz.rz.sz.Ml.tz.uz.vz.",
"wz.Qw xz.yz.zz.Az.Bz.Cz.Dz.Ez.Fz.Gz.Hz.Iz.Jz.Kz.Lz.x, le ni H| N[ Kh J~ ~g.ea O: 2/ QC re jt ^3 T8 `4 =o 4b 0d H| T: Uf L4 ]w Mz.8r @3 99 K3 gA -L 0i ti tn qX *3 Ap T2 Nz.Oz.Pz.Qz.dr Rz.Xc p5 b3 P4 ef =f )U @c `j &G Sz.Tz.Uz.Vz.Wz.Xz.Yz.Zz.`z. A.*#..A.+A.@A.l{.#A.$A.%A.&A.*A.=A.>V 6j +l y5.s3 64 Ve <F EB j3 -A.;A.W0.Vv.ag >A.,A.G@.'A.)A.!A.;v V2 )o R6 38 Ad >8 1_ {f lB x3 Xm B' ~A.ar s0 2u *0 {A.ed v/ t0 ]A.^A./A.(A._A.:A.<A.[A.}A.|A.|2.1A.2A.3A.8x.4A.5A.6A.7A.8A.9A.T}.Tq 8R lM 8h..D En 0A.0L aA..p bA.cA.dA.eA.fA.R;.:z.2_ i( lq 1P gA.hA.iA.jA.kA.Ym.lA.mA.nA.5<.oA.pA.qA.rA.sA.tA.uA.vA.wA.xA.yA.zA.AA.BA.~d.CA.DA.wc.EA.FA.').nH FG :p 00 8y Wo GA.f) vr .m N%.HA.IA.JA.KA.LA.k4.MA.`).NA.(x.OA.PA.QA.RA.SA.TA.~c.8^.UA.VA.WA.Ls.XA.!,.YA.ZA.`A. B.GS [b.ys..B.+B.@B.Pc.",
"#B.$B.%B.&B.7v.*B.=B.-B.,7.;B.!&.>B.,B.'B.)B.!B.~B.{B._u 2} /_ <) >e -n &m Xk Xk p: b1 K1 _{ [6 6n av }z ]B.^B.Mm ZG T7 1( :s.`e.XA ql -7 Ur CQ Xj i} 2x JC jt gx {y X7 RF !f vB /B.s4 tj w1 ,c *8 <I 6u @f rG !i #1 (B._B.:B.<B.[B.}B.|B.1B.2B.3B.4B.5B.6B.7B.8B.9B.0B.!;.aB.7%.bB.bv.cB.dB.eB.fB.UT M7 5f %| 4: gB.hB.B5.pm e#.iB.jB.kB.I-.!&.lB.mB.w( Af Kh %a D6 $} Ub 1Q j8 4u }0 /b kl nB.G} *t oB.yi mh tF Ba pB.P8.qB.b%.rB.sB.tB.uB.Qn.vB.wB.xB.yB.zB.AB.Y_.BB.i~.CB.DB.EB.FB.)v.hy H4 GB.so 1[ b3 ~N $< 3'.HB.IB.JB.KB.,t.LB.MB.NB.y/ OB.PB.QB.RB.Ke.SB.Tw.TB.UB.VB.Xa.WB.XB.YB.ZB.l(.`B. C..C.Xg.e9.fi.+C.@C.!n.#C.$C.%C.&C.*C.C1.=C.-C._R br `7 |D <i y6 P4 >9 yS lk ot y2 cH ;C.>C.BB.,C.f7.'C.)C.!C.y+.j` ~C.{C.9r.]C.^C./C.(C._C.:C.<C.&1.tx [C.]R ic.}C.|C.^$.1C.2C.3C.4C.5C.6C.",
"<$.7C.8C.9C.0C.Wq.aC.bC.cC.dC.eC.fC.tw.{c.gC.59.hC.#o.V7 9e S&.(d W9 T7 <3 iC.,4 w( }2 i1 #I Va jC.kC.lC..D jl.mC.nC.oC.d1 gr pC.K] qC.gn.tn fC t0 K8 _2 Wu tf &6 E7 qj rC.x_ l: G9 sC.#u Ac tC.v] VT Hu uC.;% vC.6s 6s D[ wC.xC.yC.zC.AC.BC.CC.DC.EC.FC.GC.HC.IC.Gm.Af.wF JC.KC.LC.MC.NC.OC.PC.QC.RC.[n -r 3v 2t sz SC.vd.TC.7d.UC.VC.WC.gz.XC.YC.ZC.<0 8r ^0 $( ({ L] ke x] zi `C.Fd }s  D.a!.Ew d| 6-.[n .D.+D.gm @D.#D.$D.%D.&D.*D.=D.-D.;D.>D.,D.'D.)D.!D.;i.@-.xy.~D.{D.]D.c5.o<.^D.a  'z u7 /D.(D.'j _D.JX :D.<D.>>.[D.}D.|D.1D.2D.3D.4D.5D.+v.6D.7D.8D.xt.9D.0D.aD.bD.cD.j:.dD.eD.fD.1u.gD.hD.Cf.~z.iD.jD.4i.kD.lD.mD.nD.oD.pD.qD.rD.sD.z1 Gq _Y r1 Ng bt 1t Wq _6 tF Nl c| Yy Dz @D.tD.uD.vD.wD.xD.yD.zD.AD.BD.CD.VB.DD.ED.Fq.FD.GD.wc.HD.ID.JD.KD.LD.,e.MD.ND.YO Om  S OD.!A.Ha.PD.QD.",
"RD.SD.TD.UD.VD.WD.XD.YD.ZD.`D.M|. E..E.+E.@E.w1.#E.$E.Ye.3g Pj &9 HL hl sA Z# o3 Hu Bd f) <| -..%E.&E.zr.*E.3f =E.jv.wt Xi .e ol Yo -E.'x rh Yn YF ;E.{j &5.}5 ^] aA )4 vJ _{ >E.;e k5 gg lM |5 ~z =e +0.0C.,E.'E.-q.i7 o_.W[.8:.)E.!E.~E.{E.]E.^E./E.(E._E.:E.<E.[E.}E.|E.1E.2E.3E.dv.w4.4E.V/.5E.6E.7E.8E.EZ yd cG 9E.0E.aE.bE.cE.dE.eE.fE.gE.hE.iE.jE.BC .p pm G5 NT kE.td ^V 4j %1 cl C+.lE.6z Oq *a dH z7.mE.|[.`2.nE.oE.pE.qE.e(.rE.sE.tE.uE.vE.xA.3l.wE.xE.w%.yE.zE.^s.AE.BE.CE.DE.EE.FE.GE.HE.7l %n nr IE.JE.p0.s;.KE.LE.ME.1@.NE.ft.OE.PE.QE.]~.RE.SE.TE.UE.q5.VE.WE.XE.YE.ZE.9].`E. F..F.+F.Ch.@F.#F.$F.%F. 3.&F.*F.=F.-F.;F.>F.,F.'F.3C e} 8l @f +v gu #q qz 2h }5 Um }c @e /C (z.5e.)F.!F.~F.N-.{F.]F.^F./F.)f.(F.(&._F.:F.<F.[F.}F.|F.1F.hz #k |d =: De %_ &3 E^.2F.nv.-n.3F.4F.5F.",
"fx.6F.7F.8F.9F.0F.aF.bF.`n.cF.4|.dF.JC.&}.eF.fF.DE.gF.hF.MJ iF. i =: jF.o, rK K9 [k E7 `u hv TG kF.lF.T} mF.ca *f En AP nF.,7 oF.pF.tj pe ]0 kp iC 1t VH *P P| 4a '+ jf PZ qF.+p 8c G[ S8 ym VR |k *5.rF.sF.tF.81.N-.uF.vF.wF.xF.bE.yF.zF.AF.s).g(.BF.CF.DF.EF.FF.GF.HF.IF.JF.KF.LF.MF.NF.OF.PF.t}.QF.yA &/ ]j j3 RF.M+.SF.TF.UF.VF.Dw.eB.WF.XF.YF.ZF.`F. m X8  G.Ky 6l .G.:v !o nc fT Wp =x +G.-7 h< Hp cI x_ Qn @G.#G.$G.%G.Ku.&G.*G.K_.=G.-G.;G.J%.>G.,G.'G.)G.!G._-.~G.{G.]G.%o.^G.2/./G.(G._G.:G.<G.&p.c$ [G.}G.|G.1G.m|.2G.3G.4G.=Y 5G.<i.{o.6G.7G.8G.*6.9G.Lq.0G.aG.bG.cG.dG.eG.fG.gG.hG.iG.jG.kG.lG.he.mG.x5.nG.oG.pG.qG.rG.sG.`f.tG.yS s/.fI YO Ov BM H8 x9 Ad =g `i <m 3< uG.av vG.wG.xG.yG.YB.zG.AG.[T BG.7G.CG.DG.EG./*.FG.m#.GG.HG.IG.JG.E9 F6 *_ }z us KG.|o W~ W7.LG.MG.NG.OG.Ww.",
"PG.QG.D2.RG.SG.TG.UG.VG.WG.>@.XG.YG.ZG.OE.`G. H..H.+H.@H.L5 15 Ac ck El K5 ;v k6 %v e] &{ k[ h;./{ n7 fC $8 hf %b G8 XA #H.$H.Zf 0k 2| %f X5 %H.74 0w tb J} 6r Tc &C /] _C KG.T: &H.Vl c9 jf ^k 09 wh GD *H.=H.)}.Ty.>C.x>.-H.;H.>H.,H.'H.)H.!H.~H.{H.]H.^H./H.(H._H.oc.:H.<H.-v Hf.[H.}H.D9.|H.Ix.1H.]_.H4 pm #O GY OU Z@.x8.2H.3H.4H.5H.6H.7H.`|.8H.9H.,h O2 =h od cl vy 0H.V4 aH.bH.cH.j3 dH.Nd TE zB e/ Va eH.fH.gH.hH.iH.oi.jH.&}.kH.lH.mH.V..nH.oH.Kw.pH.qH.rH.sH.9~.4].tH.uH.vH.wH.xH.=e.yH.zH.BD.AH.BH..E.gD.CH.DH.EH.Uz.FH.GH.HH.IH.JH.I0.KH.LH.9t.MH.NH.OH.PH.QH.RH.SH.Y(.TH.UH.VH.WH.XH._x.k,.YH.<k.ZH.`H. I..I.+I.@I.#I. I.cy.$I.%I.&I.|n |p Be F3.G[ 1u Sg o3 GF {m Xv :[ G6 *I.+y.=I.-I.;I.>I.QA.,I.8y.'I.)I.mo.!I.~I.{I.]I.^I./I.(I._I.3D 5f =: De 9a JC B6 8t :I.<I.[I.}I.|I.1I.",
"2I.3I.4I.5I.6I.7I.R(.8I.9I.0I.aI.bI.S6.cI.dI.eI.fI.Pr.gI.hI.Fe yv L` wG Zo iI.=u Su O~ bc g: f| GP Kd #7 Ks jI.qb &: :p kI.lI.B0 mI.>e }5 nI.iy x< '^ Hd D% Uu jQ 'C )4 ,T oI.ax pI.6v mm {A zA 's @,.*u qI.rI.39.sI.tI.uI.vI.8s.Jr.wI.xI.yI.zI.AI.BI.CI.DI.6=.EI.FI.f6.GI.($.HI.II.uJ JI.KI.k<.LI.T1.^3 Zm m'  a cp x8 MI.ED.NI.p,.10.OI.a^.PI.QI.7@.RI.SI.ca E2 -k ba *L MM TI.l|.UI.VI.WI.XI.:0  v $7 vM YI.MC %(.6).ZI.`I. J..J.+J.@J.#J.$J.%J.&J.*J.=J.-J.;J.&=.Q>.>J.+5.Za.k!.gE.,J.'J.)J.r).am.*#.N|.!J.~J.{J.]J.^J./J.=A.(J.{Z _J.:J.<J.[J.}J.|J.1J.2J.cI.3J.4J.5J.6J.E9.)7.7J.wH.v$.8J.#e.5A.9J.0J.aJ.Fe.bJ.t|.cJ.Q+.dJ.eJ.fJ.gJ.hJ.o9 iJ.jJ.<0 O2 Q` yp ,[ ]L Z4 O| /a 00 x8 su 4M c8 w+.kJ.lJ.mJ.nJ.oJ.&G.pJ.~v.qJ.rJ.sJ.tJ.uJ.vJ.wJ.xJ.yJ.: .zJ.1D K5 AJ.09 k[ 70 BJ.CJ.{@ DJ.EJ.FJ.",
"GJ.HJ.IJ.JJ.KJ.LJ.MJ.Y@.NJ.OJ.PJ.QJ.RJ.SJ.TJ.oz.Hp.UJ.VJ.WJ.XJ.YJ.ZJ.`J.w4 T3 ~G 8j  K.wn 7k vR .K.P> Qf x( H2 X7 RJ }~ <0 FD .p tH ):.xa %f Sj O1 ,d pk +K.:b le 3N ]R <~ @K.a).kw.<! 25 |c Ce #K.Qz.<..$K.%K.&K.*K.=K.-K.;K.<%.>K.,K.'K.)K.!K.un.~K.s'.O!.{K.]K.6_.^K.=a./K.(K.pu _K.:K.<K.[K.}K.|K.cM >g Vf [9 1K.2K.3K.4K.M9.5K.6K.7K.6K.8K.9K.0K.aK.~E b] fI q7 9e 'b VU `c bK.cK.dK.eK.fK.!f <6 &O E[ |R D8 gK.hK.Sz.iK.jK.kK.lK..n.mK.nK.oK.pK.:z.qK.rK.sK.XD.NF.tK.uK.vK.wK.xK.yK.zK.AK.BK.CK.cq.DK.EK.FK.Is.Lc.GK.HK.IK.JK.KK.$c.LK.MK.NK.OK.w].PK.QK.RK.SK.TK.UK.VK.WK.4/.XK.YK.ZK.`K. L..L.vX +L.@L.#L.$L.%L.&L.*L.kv.=L.-L.;L.>L.,L.'L.)L.n7 dp Y5 Vf br wn :{ _0 gh fk BC gj Gb.!L.~L.{L.]L.xf.^L./L.(L._L.:L.<L.H@.[L..*.}L.|L.1L.(j.2L.3L.4L.<r 6M j' 6y s} pk Y5 5L.St 6L.7L.8L.",
"9L.0L.O..aL.bL.cL.dL.{o.eL.#9.fL.aV  y.=q.c0.oC.gL.hL.iL.jL.kL.lL.mL.nL.9} [R qv rD u_ wo A` f/ ZZ oL.pL.qL.7i 30 &} mB rL.cj =y #d vq #k sL.{4 tL.{d &4 (u uL.Jl wt 4a IE [w ed L3 h8 gl vL.B_ K+.-7 F3 ~3 T[ wL.*9.xL.yL.zL.[3.AL.BL.CL.DL.EL.FL.GL.k#.zw.HL.IL.JL.KL.LL.ML.NL.28.OL.PL.QL.}t.RL.SL.TL.lo 1D :p Fn.5(.dC.UL.VL.WL.!G.XL.YL.ZL.e[.eE.dB. 7 EH H2 6j 8o j9 #1 `L.Eb. M.)'.4L .M.)l sc $d +M.!V Vg :n @M.26.#M.$M.%M.vX -g.&M.*M.=M.-M.;M.>M.,M.'M.,7.Bu.)M.H_.!M.'4.G>.~M.+w.{M.]M.^M.+[./M.(M._M.:M.<M.xt.[M.}M.|M.1M.2M.3M.LK.4M.5M.6M.7M.8M.^4.9M.0M.aM.bM.cM.dM.eM.fM.gM.d7.hM.iM.jM.kM._[.lM.mM.Ha.q-.nM.|{ oM.pM.qM.rM.sM.tM.uM.vM.i2 Y5 Wl P7 `2 G6 J2 vy e8 o7 !v +@ wM.~G.xM.yM.pn.mc.9^.+A.zM.AM.BM.CM.[B.DM.cq.EM.fG.FM.GM.HM.gz.> .9A Jt IM.O&.:' JM.KM.[V LM.MM.NM.",
"OM.PM.QM.K7.RM.,d.:g.tm.SM.TM.aH.9L.UM.VM.WM.XM.YM.6h km IS ZM.`M. N..N.Y5 nh Q^ 5l dc +N.@N.#N.$N.@I.%N.&N.M6 wo.;r _u Vj $b bh *N./U FM &6 ca =N.N4 #[ ]0 4a 70 -N.;N.}t 35 7> <~ ]j }2 wE F3.Zf 8j !y n/ %f ia =b >N.,N.'N.9$.)N.!N.~N.{N.]N.^N./N.(N._N.:N.<N.[N.j` }N.|N.1N.2N.3N.4N.5N.6N.7N. n.qv._q.8N.9N.0N.aN.bN.cN.dN.eN.fN.1B.+A.hh.rt.ix.n0.gN.hN.}t G9 K+.pk +7 iN.Vf Gq &n jN.PM.d0 +p 0u Cm kN.wE lN.H5.Ap.35.mN.nN.oN.pN.qN.rN.sN.tN.4y uN.^_.{b.vN.`n.cG.wN.xN.yN.zN.AN.BN.CN.DN.EN.FN.GN.HN.IN._M.m{.JN.g` KN.LN.MN.Np.NN.ON.Wx.PN.QN.RN.SN.mq.TN.UN.VN.Zu.WN.XN.YN.ZN.`N. O..O.+O.@O.L}.00.bm.bM.]B.#O.$O.%O.ts.&O.*O.=O.-O.;O.>O.,O.Ll L1 ;e :i Iu K9 |p U@ 'O.)O.M. no #_ !O.~O.{O.]O.^O.}7.d3./O.(O._O.:O.<O.[O.iM.}O.9@.|O.1O.2O.3O.4O.5O.No J} 6O.7O.Vq.8O.9O.0O.aO.H).",
"bO.cO.dO.eO.S6.fO.gO./G.hO.iO.D2.jO.kO.lO.m/.mO.`/ nO.z:.oO.pO.qO.1o.rO.[i .| sO.tO.dO.uO.;C.vO.wO.xO.yO.py.zO.Q5 l: 9c 1y K1 rn N4 eI Q5 *o y[ D9 8l _2 AO.m2 Pa 9p .0 W% #/ BO.X! ^L K8 ^p Ha  D o| 4l lb va #/ 85 (g CO.DO.EO.FO.GO.HO.IO.JO.KO.LO.MO.NO.OO.PO.{C.QO.7_.Yz.RO.SO.TO.UO.VO.Ln.WO.XO.YO.ZO.`O. P..P.+P.@P.#P.$P.%P.&P.*P.=P.*A.-P.o<.;P.>P.U: jm %y uM X} ,P.8D #| ,q vq gr AY Jg cj `k Qc 'P.)P.uO.!P.~P.{P.J~.]P.^P./P.(P._P.:P.<P.sl [P.}P.|P.1P.2P.3P.4P.5P.6P.7P.8P.9P.0P.aP.<L.bP.UH.cP.dP.eP.fP.gP.hP.iP.jP.kP.lP.&C.mP.nP.oP.=x.pP.qP.Oh.rP.sP.tP.uP.vP.wP.xP.yP.zP.AP.BP.CP.`h.DP.n6.EP.FP.GP.HP..B.IP.00.Iz v* JP.KP.LP.MP.NP.OP.PP.fT !o fj QP.RP.Tn.SP.TP.UP.VP.!;.WP.XP.cq.YP.ZP.`D.7A.`P. Q..Q.+Q.@Q.#Q.v>.$Q.%Q.&Q.*Q.=Q.-Q.;Q.>Q.E1.,Q.'Q.)Q.!Q.~Q.NM.{Q.]Q.^Q.",
"PM./Q.k0.(Q._Q.:Q.FA.}!.<Q.[Q.}Q.|Q.1Q.2Q.v/ xG HM 3Q.KG.4Q.+r.5Q.6Q.7Q.8Q.9Q.0Q.aQ.Fd.6Q.bQ.cQ.dQ.eQ.fQ.&p.gQ.c5 Ja H8 (N <1 +7 Pb rt L1 &m 8| p8 HE Nv !p hQ.I9 :r s^ r6 ;f {g _5 ,d Bn `9 2n rc y3 dE 86 v] *7 9e iQ.jQ.Sg.kQ.{7.lQ.mQ.nQ.oQ.pQ. *.qQ.rQ.sQ.tQ.uQ.vQ.wQ.A+.ig.xQ.yQ.zQ.AQ.BQ.Kn.&Y CQ.DQ.EQ.FQ.GQ.<A.HQ.IQ.JQ.KQ.LQ.MQ.Bh.NQ.OQ.x!.]e.PQ.B6 W8 Ng ;<.Nl QQ.6o %G RQ.#k vg SQ.w8 &{ GD v! TQ.hu.UQ.VQ.^8.WQ.w2.XQ.YQ.ZQ.`Q. R..R.gy.+R.@R.#R.$R.uP.%R.&R.*R.=R.!j.-R.;R.r#.>R.,R.(M.'R.+,.)R.!R.~R.fM.9B.Hq.{R.]R.^R./R.(R._R.:R.<R.[R.}R.|R.1R.2R.qF.3R.4R.5R.6R.7R.8R.Pm.9R.+m.0R.aR.bR.cR.dR.#I.eR.fR.GP.r9.gR.hR.iR.*J jR.kR.lR.mR.nR.oR.pR.qR.rR.sR.tR.uR.vR.!;.wR.xR.'B.yR.sR.g!.zR.AR.sB.BR.CR.DR.ER.Ax.FR.GR.V~.HR.IR.ZN.JR.KR.LR.MR.NR.OR.%q.M_.PR.QR.RR.SR.;[ TR.UR.",
"VR.WR.vO.XR.YR.ZR.,E.`R. S..S.+S.@S.#S./o.vs.$S.%S.&S.*S.^o B6 G  tP.Mt.nP.Du =S.-S.;S.>S.,S.lD.'S.)S.!S.dQ.~S.{S.]S.Ek Ec XM K/ VN 52 6c )x xd ]4 Jn bh ^S.zB q1 qE O6 |8 #z E9 {/ Ub |6 &: V6 5b )e Xk +@ 15 S) /S.gv Qq.(S.b@._S.HN.^N.L=.:S.S9.7J.<S.[S.}S.@&.|S.1S.2S.3S.4S.5S.6S.7S.8S.9S.0S.!X aS.bS.cS.dS.9r.eS.fS.g3._O.gS.hS.iS.jS.kS.lS.~B.mS.nS.ZT -s `I :I Ec -h YF S5 ^5 wf 3_ A[..k oS.b4 pS.q-.qS.r9.rS.sS.tS.uS.vS.wS.|5.xS.yS.rK vK #O zS.AS.bt.BS.CS.DS.ES.FS.GS.KE.^g.HS.IS.JS.KS.LS.MS.NS.OS.PS.QS.RS.SS.TS.US.M7.VS.WS.XS.YS.QG.ZS.`S. T..T.ey +T.1<.@T.#T.$T.%T.,h.&T.*T.=T.dm.-T.;T.>T.,T.'T.)T.!T.~T.kP.{T.2f ]T.^T./T.j+.(T._T.:T.<T.[T.}T.~c.|T.1T.2T.3T.4T.5T.6T.vm.7T.fM.8T.9T.0T.g!.aT.Y>.$e.bT.cT.H7.dT.hx.eT.fT.u4.gT.hT.iT.jT.kT.lT.F>.:p.HV mT.nT.oT.`S.pT.qT.",
"rT.nC.sT.tT.uT.vT.wT.(p.c[.3G.MC.&p.qW WO xT..| yT.zT.c).V[ Xh AT.V7.BT.g>.CT.9y >7.DT.ET.FT.oe.GT.HT.IT. c.Gp.JT.KT.LT.MT.Sx A[ <..|j tf @c %v s^ <0 'Z r1 Nq 8g I{ 1i >e Y5 +  &X *o B| Sx ;g >m $g NT.og hv hf OT.PT.QT.RT.ST.Si.TT.UT.VT.WT.XT.YT.ZT.`T.Ou. U..U.4A.!].+U.@U.#U.$U.,f.%U.k{.&U.5}.#r.qW *U.=U.Hv.-U.;U.ln.>U.C2.,U.~F.RO.AN.rl.'U.)U.!U.1i tf <m ~U.{f  g Rx x*. z #[ {U.]U.^U.az }= /U.(U._U.6O.:U.<U.[U.}U.A^.|U.1U.2U.3U.4U.5U.Oq.6U.$T.7U.8U.9U.0U.aU.bU.cU.dU.=a.eU.M9.fU.0g.-i.gU.hU.W=.iU.jU.kU.z+.lU.mU.uS.T@.nU.oU.pU.qU.GW rU.L0.sU.K&.tU.uU.vU.wU.dH.xU.yU.zU.AU.#l.BU.Oh.d<.CU.DU./z.EU.FU.GU.HU.^n.IU.JU.Fk.KU.LU.MU.Mt.NU.+m.OU.PU.QU.SH.G<.RU.SU.TU.gg.e_.UU.VU.K#.WU.XU.YU.ZU.`U. V..V.+V.cT.@V.#V.$V.%V.&V.*V.=V.-V.;V.FL.>V.v;.,V.MC.'V.x1.)V.!V.~V.{V.KJ.",
"]V.^V.[d./V.%q.(V._V. z.:V.Y_.<V.[V.}V.|V.DE {1.J3 4| ap.<y.1V.2V.3V.4V.3Q.p! 0<  t.5V.V7.6V.7V.8V.^+ dO.9V.0V.aV.Y/ yv oK Pb Vf :8 @/ 3g re bV.38 zc cV.P6 W% D% dV.h9 H8 Vc.mg rc yd Qc 67 Z8 'b ^p 'C .!.'C eV.}E fV.gV.j^.hV.!R.Y1.iV.jV.kV.lV.mV.nV.oV.pV.@-.qV.rV.sV.bv.j/.tV.8P.uV.0M.vV.gt.wV.:y.xV.yV.zV.N!.AV.BV.CV.DV.hh.sk.EV.FV.GV.HV.IV.T..JV./i Nt {Y 5G x7 T1 c_ ea f` dC Jc AX }f KV.LV.MV.NV.OV.PV.QV.RV.SV.TV.vB.UV.VV.WV.XV.#U W8.YV.ZV.jr.2R.NW at.`V.GW  W..W.I0.+W.@W.Xy.#W.$W.%&.%W.&W.*W.=W.-W.4T.;W.-a.>W.gV.,W.'W.)W.Gu.!W.nv.<q.~W.!g.kw. J D| {W.ma z:.ni.:5 ]W.a` ^W.mw./W.(W.PK._W.:W.<W.Yr.[W.1y.}W.KP.Tk.|W.1W.2W.qq.3W.7V 4W.5W.p).'B.6W.7W.8W.9W.)y.0W.6H.aW.bW.cW.dW.n'.0g.eW.fW.gW.hW.t,.1x.JS.X-.^O.iW.D{.jW.s;.kW.lW.mW.nW.oW.pW.qW.rW.sW.NL.ts.tW.uW.vW.",
"wW._[.xW.Na.yW.0C.zW.$o.Sb.AW.BW.CW.DW.EW.FW.GW.d~.HW.;!.IW.dK.JW.KW.a5 rT.3'.9D LW.MW.NW.OW.,x.PW.QW.RW.SW.WM.vU r:.dd TW.UW.I# g=.d< ;( k: /7 lB {f s8 #7 NF Vl n[ N! *( 4m YO ~8 G9 VW.Z< 5f h: 5b m0 s4 =e Ue ^J v].WW.O-.kU.+V.XW.YW.ZW.`W. X.IN..X.+X.Ua.Y>.@X.#X.$X.2q.%X.&X.*X.=X.MU..y.P}.-X.;X.>X.,X.'X.P{.)X.!X.~X.-a.&v.~{.cF.{X.p#.]X.^X./X.+[ vg ij <q *_ (X..s [# hF.80 3H _X.:X.<X.[X.}X.|X.1X.2X.3X.4X.5X.6X.CS.)T.7X.8X.9X.0X.r3 F5 c2 3f qi.aX.M` bX.cX.dX.eX.fX.IA.gX.hX.iX.jX.kX.*y.-V.lX.mX.nX.oX.pX.qX.rX.sX.;t.tX.uX.vX.`a.wX.xX.yX.x( zX.AX.|h -4 Rs av BX.CX.DX.Kp.EX.FX.GX.wz.HX.IX.JX.oC.KX.LX.)9.MX.NX.0v.OX.im.bo.PX.QX.RX.SX.TX.b<.UX.%o.VX.WX.vQ.5e.XX.YX.ZX.`X. Y..Y.+Y.@Y.#Y.$Y.G-.%Y.@e.&Y.*Y.=Y.-Y.;Y.>Y.,Y.IN.'Y.)Y.!Y.~Y.{Y.]Y.^Y./Y.h` (Y._Y.:Y.<Y.DW.[Y.",
",}.cL.}Y.aO.|Y.]T 1Y.2Y.3Y.4Y.'f.5Y.6Y.7Y.8Y.9Y.}C.mQ eV.W4.0Y.aY.bY.cY.Q%.I  Vx Vh Fx.@R.c,.dY.eY.fY.gY.7k.r3 wW.6z ge Vj ^2 Cf <0 Zn hY.iY.oN cs o! :_ o3 f, -] mE.E3.!A H9 ,c t0 E} Kc Iq }5 T@ 5d rc +f.-N.`5 w1 5X jY.kY.lY.mY.nY.oY.gU.pY.qY.j_. ;.rY.sY.tY.uY.XK.vY.wY.xY.yY.zY.AY.BY.uy.CY.Vt.DY.EY.Rh.FY.GY.BB.V].Y(.HY.VC.IY.E6.KS.%V.RE.8b.JY.&5 KY.$G LY.}b MY.NY.OY.PY.QY.[G N4 RY.SY.TY.UY.8A.VY.WY.XY.YY.6l.CU.ZY.`Y.(R. Z..Z.AI JD ^l 8H +Z.@Z.0H #Z.$Z.%Z.&Z.QX.[t.a'.*Z.=Z.-Z.;Z.U5.x+.>Z.9m.,Z.'Z.)Z.YC.!Z.~Z.Id.{Z.+y.7o.]Z.^Z./Z.!9.(Z._Z.NM :Z.<Z.f5 ]w [Z.eV.}Z.|Z.=B 1Z.2Z.3Z.4Z.5Z.Jn.@Y 6Z.t6.7Z.8Z.9Z.0Z.aZ.bZ.|R.cZ.PW.{z.dZ.eZ.fZ.)q.gZ.hZ.iZ.jZ.kZ.lZ.mZ.yR.ut.nZ.+P.oZ.vw.`=.pZ.qZ.Y_.rZ.sZ.hx.tZ.qx.uZ.9!.vZ.nA.wZ.:-.xZ.yZ.zZ.[c.lT.}].AZ.BZ.CZ.UK.DZ.EZ.LK.FZ.",
"GZ.HZ.IZ.JZ.vS.KZ.LZ.q5.MZ.NZ.OZ.qP Ij PZ.~3 ;e.QZ.RZ.SZ.TZ.Ck. l.UZ.*h VZ.R&.aM.WZ.xs.{1.XZ.YZ.eO.ZZ.nB.}#.+ .`Z. `.&k  / +s Nq (k >m a4 =h *r.e+ U4 GY jn [) .`.I9 ,o ;w +`.cc _S E9 S0 z} fq D5 Dw E3 q: <6.w( )o wT @`.#`.$`.%`.+i.&`.*`.=`.JQ.-`.;`.>`.8@.,`.Js.'`.)`.!`.~`.{`.=4.75.]`.^`.+5.u3./`.(`.M)._`.Cn.:`.u%.<`.[`.}`.|`.|G.1`._E.2`.3`.4`.][.5`.6`..- 7`.8`.9`.0`.a`.b`.c# 6  c`.|O.ln.d`.,B.Y*.e`.f`.BD.g`.Ue.h`.i`.oN.z/.j`.:F pd k`.l`.m`.np.by Ca.n`.o`.p`.q`.r`.7{.s`.t`.W,.x%.u`.z+.v`.w`.x`.y`.z`.;@.A`.B`.8A.C`.D`.E`.DZ.F`.G`.(d b6 1P pC.B6 %| F6 .| ax.;[ =p H`.I`.J`.aw.K`.L`.M`.N`.O`.P`.Q`.R`.K5.S`.T`.U`.V`.3z.Kl.W`.X`.Y`.PY Z`.``.^F.>i.  +. ++ +@ +# +jf.o<.Js.$ +or.aN.% +& +* += +TD.Jz.- +; +> +, +' +pl.) +! +>`.~ +_c.{ +] +^ +/ +( +_ +ts.HB.: +Uf.< +[ +",
"} +| +1 +2 +3 +4 +5 +6 +7 +wG.8 +jC.9 +0 +VM._j xc ,M.Q%.a +b +c +[9 d +4* Fd.e +nr f +BX.g +h +ir.i +j +KX.k +l +.# t< T5 IL s3 pm >V >9 |K <) ;w /( Y8 *e X1 +( w4 uP G} }r =g pB >g /a yA G8 :a qf Ro ]9 }A Qq }3 m +l#.n +o +p +]E.q +xZ.r +s +t +u +v +w +F}.x +y +jW.z +A +B +(A.C +0D.D +>D.Dm.E +F +G +!q.H +I +J +K +kT. 6.L +m(.C>.=P.M +IC.N +'V.O +P +Q +R +S +,J.BD.T +U +V +W +MJ.X +Sg.Y +-i.Z +` +Za. .+QR.@a...++.+@.+#.+*x.ot _e wp +x $.+%.+4* &.+*.+=.+-.+;.+>.+^X ,.+'.+).+!.+rZ.cq.^I.~.+{.+].+^.+/.+(.+_.+:.+<.+Nz.Zn yO [.+HD xv oa Sm zy ^m Ew i4.hv 79 lZ Nn g>.}.+|.+1.+^W 2.+3.+4.+6Z.5.+kD.6.+7.+pz.8.+9.+0.+a.+b.+}.+c.+d.+e.+f.+a3.g.+QI.h.+i.+j.+k.+l.+]D.m.+n.+o.+p.+1!.j_.q.+r.+s.+t.+u.+v.+6{.g#.Ch.w.+>R.x.+y.+z.+A.+d^.B.+C.+4B.1V D.+7w.WD.E.+F.+RV !0.@h.",
"G.+a8 H.+I.+RY._z.J.+K.+L.+M.+N.+O.+$! P.+Q.+R.+S.+e>.T.+U.+2_ 6n  V V.+W.+jy.S[.X.+^J Y.+Z.+`.+ ++.++Hz +++@++@c.#+++n p8 ]r wf 8V rv 7} Kg Ue wo bb Bt #[ A:.em lL Vf $++jp `8 hs %++m} OG $d Af Xt lO hE &++*++=++-++hh.;++J +>++0].,++'++]Y.)++j(.Jr.!++/}.G-.~++{++e_.K-.]++^++_,./++)j.(++J:._++:++<++4H.[++}++sk.5$. *.|++1++f^.2++2O.3++4++5++6++i!.x.+7++8++X/.9++0++a++b++c++d++e++f++g++h++i++4B.j++k++l++m++n++o++p++Jn.Jj.R8.q++ l.r++-%.0X.s++6#.t++u++'p 7,.v++w++x++c8.y++.w.+[.4%.z++zl.A++rw.B++C++D++E++vm.F++G++P .pk V6 `D $9 uP  2 +n y3 r3 p@.F[ To ^n [c L1 (h BW yU.H++^n.I++gi.J++K++L++M++N++O++P++Q++R++S++T++U++V++W++X++Y++Z++`++R=.w4.g). @+.@++@+@@+#@+$@+%@+&@+$d.*@+=@+-@+;@+>@+,@+'@+)@+bT.VC.!@+eq.~@+{@+*8.'=.]@+^@+/@+(@+Fz.~{._@+:@+<@+[@+RH.}@+|@+1@+{1.",
"mg.2@+3@+LU.GT.4@+5@+6@+w:.7@+2s.8@+9@+,` 0@+sL [b.a@+1^ x3.b@+c@+d@+e@+f@+2W ~,.#- yo.@R.g@+F  h@+tY i@+qP j@+mD.k@+l@+oo |z xl {Q m@+Zb n: /m 09 Sw Ba 3! n@+;f o@+=h $7 $: rj UG k| }5 Nu Up Al 9n rF p@+q@+r@+e_.s@+t@+9~.u@+c++v@+^.+~&.w@+x@+y@+z@+A@+B@+C@+D@+E@+{ +F@+Ct.G@+H@+I@+o0.>A.59.J@+T +F@.9H.K@+L@+FL.M@+N@+O@+P@++P.Q@+7J.@e.R@+S@+T@+U@+V@+W@+X@+w4.Y@+Z@+`@+ #+.#++#+@#+##+o%.$#+%#+&#+*#+>++=#+-#+;#+>#+,#+'#+)#+!Z 02.ha.-+.yz `< 6V.Y.+X3.!#+~#+{#+]#+In.3r.^#+/#+Be.(#+_#+:#+<#+>H.[#+}#+|#+(O.1#+2#+Of.3#+4#+mf ys TE +( xv ,X D+ fk @e Jq 8c /( fg 5#+6#+f5 7#+J.+8#+9#+vO.~r.0#+a#+b#+%c.#v.c#+d#+_h.e#+f#+g#+2y.h#+d@+|,.i#+mL.j#+k#+cA.dk.X/.8$.l#+m#+n#+'Y.o#+p#+q#+r#+=8.Jz.s#+t#+u#+v#+w#+x#+F@.y#+z#+) +A#+&#.B#+yw.0m.C#+D#+E#+F#+G#+H#+I#+J#+bw.K#+L#+0.+I3 ",
"wY M#+N#+O#+dJ P#+Q#+R#+!U |U ]9.!$.ir.S#+V++T#+U#+/>.V#+n+.W#+Hz X#+Y#+Z#+{7 9S J0 `#+qT  $+.$++$+T`.@$+#$+$$+%$+iZ &$+*$+X1 $/ &9 !p W6.v( pw -2 Z} E[ Z< k;. x =$+kj.^o 97 /] v3 Iq R0..3 `e.Ak -$+;$+>$+Zw ,$+'$+z.+k` )$+!$+1!.yw.~$+6K.{$+]$+ k.^$+kS.qr./$+%#.q#.($+Qb._$+N).:$+<$+J:.t#+[$+vT K[.9~.EH.!=.v{.}$+|$+:N.1$+w +2$+3$+4$+5$+6$+7$+8$+uk.)$+9$+0$+a$+sJ.b$+c$+d$+fM.e$+f$+)V.g$+h$+iM.6T.i$+j$+FL.t%.k$+l$+r3.m$+n$+o$+0,.p$+oN GS q$+3z.r$+s$+RZ t$+:H.D'.!i.u$+t!.v$+w$+x$+y$+;a.z$+A$+B$+j:.C$+D$+|G.E$+F$+)V.G$+H$+<q K# b0 Pe wc 1m tx D| 7y Km X5 L5 Yi qt I$+j@+J$+K$+L$+M$+/n.N$+O$+P$+Q$+R$+<d./P.S$+T$+le. Y U$+%+.V$+W$+X$+Y$+Z$+`$+i++0W.Tw. %+6(.13.:3.O9..%+/l.x ++%+@%+:}.UR.#%+$%+%%+&%+Tb.*%+t +=%+xH.-%+v#+;%+>%+Q +aD..E.s.+SM.,%+'%+:y.=9.)%+!%+~%+{%+so.",
"=& UG ]%+^%+/%+Ij (%+Ei _%+fc.:%+<%+[%+}%+|%+1%+e) 2%+I0 ~/ PC f, mX 3%+/< xZ $5 -+.mI.0f.U| L> 4%+5%+6%+7%+HA.A[.8%+9%+0%+a%+:0 b%+uE {f #4 ol 2v m_.c%+[C.}_ 4n pF.d%+m( O2 [e iI e%+Pj Al `w r8 @e y% nq /k FD f%+,3.g%+:}.h%+iS.i%+j%+k%+l%+s`.m%+!l.n%+o%+p%+q%+pV.RS.r%+s%+59.t%+u%+F#+bd.v%+}m.sX.w%+O).x%+y%+z%+A%+m#+B%+C%+T*.#8.D%+E%+F%+ZK.YW.=@.#Y.G%+-r.({.A`.H%+I%+J%+K%+8 +L%+M%+N%+O%+P%+Ds.5*.d&.Q%+R%+S%+T%+U%+,u.V%+W%+X%+Y%+qM rz Z%+,E F5 `%+-g. &+D)..&++&+@&+#&+$&+h^.%&+&&+*&+Xy.=&+-&+;&+>&+,&+'&+)&+!&+~&+Tq.{&+]&+5b _l <4 @r 2u `8 Z8 n/ du p/ FH Lp _F ^&+/&+(&+2t._&+:&+<&+JS [&+}&+|&+1&+2&+3&+aw.4&+gO xj _2.5&+et.6&+=3.7&+8&+>5.*#.9&+VC.0&+a&+b&+4E.c&+d&+e&+f&+g&+vm.4P.(q.h&+i&+I-.j&+k&+F6.VF.$o.l&+3w.t@+m&+n&+o&+s.+Y-.G@+J(.t`.p&+q&+r&+nK.s&+t&+!< T7 ",
"/3 Ph u&+v&+^& h' w&+x&+y&+z&+A&+B&+C&+e}.a#.qF.D&+E&+d5 F&+[Z G&+eV.lb _9 H&+;  C[ -8 2;.D^.I&+!u.me.J&+K&+2o.L&+M&+N&+O&+P&+9% Q&+5j 1F O= ;4 SI ^p n| 1c Z1 R&+,7 f8.0y 35 N6 !o Lx S&+2u 9< zd.T&+O2 *a Af |K U&+V&+W&+e).SM.X&+|G.Y&+Z&+`&+ *+.*+d^.BE.+*+)X.@*+:-.+Y.#*+$*+m(.Yq.%*+&*+**+=*+-*+;*+>*+,*+'*+)*+!*+HD.~*+4T.8K.{*+]*+^*+)&./*+(*+_*+]M.:*+<*+*#.[*+E%+}*+|*+1*+2*+3*+4*+5*+#q.>&.4/.7].6*+7*+W&.vf.8*+9*+0*+6&+a*+b*+c*+d*+tx 1v 4o e*+Q7.q@.f*+g*+h*+i*+j*+k*++E.l*+cF.Y_.m*+n*+o*+p*+Wh.PU.q*+r*+s*+3Y.t*+:Q.WY.98.u*+v*+a( >[.Uk I9 >8 ~a q} P&.&~.CI >q Ni QZ.w*+x*+y*+z*+A*+B*+ah.T$+>N.d1.C*+D*+6.+xs./P.E*+Cd.ey.F*+G*+H*+I*+6q.J*+K*+L*+M*+N*+O*+P*++-.N|.ZW.Q*+yZ.;=.R*+b6.4q.}c.S*+T*+U*+V*+29.o<.'v.W*+H/.]O.X*+F@.Y*+Z*+`*+ =+jg.Va.Ls.h%+he..=++=+@=+#=+$=+p9 ",
";C ZY 5F.%=+&=+__ m: 0Y 2_ bt.*=+a!.Z9 ==+-=+gH ><.;=+ij.bE 3v sz.>=+}` ,=+'=+)=+O#+!=+~=+fX.{=+]=+^=+/=+(=+]=+_=+:=+oC.<=+[=+`6 uK {4 uC %6 Lh F[ [U )v 6q Q% 3A yj uB q8 ig Ly Z/ Cb >E p8 <6 /b 0u 9Q }=+|=+1=+/g $j.2=+3=+4=+sB.^x.S].a[.5=+6=+pl.$`.`P.7=+x}.8=+9=+0=+a=+b=+yy.x8.nA.8].#9._-.c=+U +d=+e=+BN.f=+g=+_N.h=+i=+j=+HL.o.+k=+(@+l=+m=+n=+IN.o +).+o=+C{.p=+q=+:E.OQ.r=+s=+t=+u=+H#.v=+ w.dv.w=+x=+3_.4/.Qu.}[.0'.y=+z=+A=+B=+wO.Cj BV y_ 2/ g5 C=+D=+E=+F=+G=+H=+J%+I=+J=+`{.A`.K=+L=+M=+<u.U&.N=+O=+P=+Q=+R=+S=+T=+U=+hv.vS.V=+b,.7! :v +z fT #c 3j @f <L re !j sj W=+X=+0Z.CQ.H1.3.+Y=+Z=+v++zY 0Q.&h 9.+`=++7.rP. -+.-++-+GW X3.`u.@-+#-+$-+%-+&-+*-+=-+--+;-+>-+,-+'-+)-+!-+xy.yH.{v.~-+P;.{-+]-+^-+/-+(-+,R._-+e/.mJ.*Q.5*.:-+<-+>v.[-+}-+|-+1-+)q.yH.2-+3-+g}.26.yT.dX.~U ",
"G0 4-+5-+^x 6-+ij J3 >e.7-+8-+9-+0-+a-+i}.4v (Z.|C.OX.gs 0v v^ `U b-+/< c-+d-+sb e-+f-+g-+Aj.h-+i-+3v.j-+k-+l-+|U m-+6Q.n-+o-+'+ Ge Su %_ 67 vs yz ,y y6 x( xf 46  % >).5y Q0 {_ /9 em }0 wB G} _H D} *G p-+q-+r-+s-+|l.t-+u-+v-+YP.w-+x-+y-+>H.z-+A-+B-+<x.C-+Ki.D-+{@+E-+F-+'.+WG.G-+H-+I-+Bw.J-+K-+9<.yP.U-.L-+M-+~R.{I.N-+O-+P-+;W.H;.dT.Q-+ V.R-+S-+uJ.uF.T-+U-+V-+W-+X-+Y-+Z-+`-+ ;+.;+Pc.+;+@;+#;+$;+aN.%;+&;+*;+=;+-;+;;+>;+,;+';+);+-%.d!.'p !;+Q.+Y0 'd ~;+{;+Y..];+69.M=.^;+/;+(;+_;+:;+<;+[;+};+|;+1;+2;+if.3;+4;+5;+6;+XE.7;+8;+Wr.A} tb 5l zv yd H9 `8 k;.r9 T5 2k.v* 2;.9;+#d.0;+a;+b;+J..c;++`.d;+u(.}C.0Z.*S.e;+YJ.}.+f;+Z=+_[.g;+h;+i;+~`.j;+k;+l;+rf.m;+n;+o;+p;+w.+q;+b&.DV.bd.r;+OF.s;+#5.9P.t;+tB.u;+2/.y6.iM.v;+w;+x;+y;+z;+J:.&X.s#+Q_.nh.A;+OE.B;+3W. T.R.+{_ $< C;+Jt.",
"C*+v*+D;+t..E;+7s F;+#- u(.G;+H;+I;+J;+bd K;+L;+[8 mi M;+)w || N;+~+.-w 3f bY.F&+O;+P;+Q;+9W d$ Fn.R;+S;+EU.Xu.+-+<P T;+U;+<=+V;+|d Qe 8z f, Vf pB 8e bd W;+Rs =( &_ s/ X;+ah.Y;+ q ;o s8 +L ~o cb I% Z;+`;+ >+.>++>+@>+a~.#>+$>+%>+g++>@+$8.&>+*>+=>+->+Js.;>+EA.>>+,>+~`.'>+kx.)>+!>+~>+{>+&@.]>+^%.^>+Hr.Sy.s}./>+(>+_>+:>+<>+[>+}>+|>+1>+2>+3>+4>+8m.5>+<$+6>+S@+va.>`.7>+3w.sQ.8>+X++9>+0>+a>+b>+M/.c>+d>+e>+V].f>+g>+h>+i>+j>+k>+Nv.l>+sl ;H O1 @F m>+n>+U) Ne.o>+p>+q>+sc.r>+s>+R~./O.t>+u>+T-.v>+@#.w>+Kd.yY.x>+y>+z>+A>+H8.3&.B>+C>+D>+Ul f2 ;9 Vf /c F4 Rm }8 Gr =_ E>+Hz ~U F>+}r.G>+YV.H>+tv.I>+D&.J>+Se K>+L>+L0.M>+N>+O>+P>+f].sT.Q>+R>+~O.)z.S>+13.T>+U>+V>+W>+e5.X>+x4.`@+Y>+Z>+Yx.`>+ ,+.,+Hs.G-.+,+p}.@,+#,+$,+9B.v!.@-.%,+4B.&,+*,+B].3p.g$.=,+-,+~).;,+>,+B% hH zY ,,+Tj.:) ",
"Gr ,j.',+),+!,+nc dy ^; %x.!X ~,+VM.rl {,+N;+],+~[ ^,+,S.(/ /,+U< (,+4U.8n }t 28._,+:,+<,+7&+[,+},+|,+1,+2,+3,+l-+oy.4,+5,+6,+7,+bh J} t9 &j az qz 8,+f}.#t .7 LS .3 @9 N! >S 36 I  5a %: gt .e br 9,+wt.0,+a,+a=.b,+RH.c,+d,+iu.&D.e,+VH.f,+D{.g,+h,+i,+j,+k,+l,+T>+m,+n,+f>+tD.o,+p,+q,+r,+s,+t,+u,+j$+v,+<f.w,+x,+.E.R-.y,+z,+wn.A,+B,+C,+D,+E,+F,+G,+H,+I,+Kq.J,+K,+L,+M,+N,+O,+P,+Q,+R,+S,+T,+U,+V,+W,+X,+Y,+Z,+`,+ '+7(..'++'+0t.@'+#'+iU lm )( 1{ ZH kr.$'+%'+&'+*'+$}.~%.='+-'+;'+>'+_3.,'+''+bN.)'+!'+~'+{'+~2.ih.,s.]'+l,.^'+/'+('+_'+r  :'+Ng <'+*f UG =n 1i Vk ['+K9 pX i6 }'+2o.|'+o, ^^.[} 1'+wa 2'+3'+1%+2U.4'+5'+6'+7'+8'+kl.^'.9'+0'+a'+b'+c'+d'+e'+f'+AV.g'+h'+i'+j'+-v.{C.k'+YG.l'+h7.zW.m'+c3.n'+o'+Yz.p'+i1.q'+C6.r'+!R.s'+t'+u'+(,.v'+}7.`m.w'+1v.x'+y'+vR ]` gD $h C[ z'+",
"I- 2W cY.==+A'+B'+^,+0-+[Z Y! n[ C'+D'+oT.E'+F'+G'+al :  H'+qG.I'+0Z ^e yp [w CX.'} J'+K'+L'+M'+N'+*n.;C.O'+P'+f*+Q'+~Z R'+S'+T'+kj 23 d3 5Z 5* yD In Ab 3g Ak (a pj U'+Lt )u.X/ V'+W'+SZ.i  Vy X'+ P.Y'+Z'+p1.[Q.`'+ )+.)++)+h*+@)+#)+Z-.[u.$)+GR.1!.HB. &.ju.%)+&)+*)+=)+t$.-)+;)+>)+X:.,)+')+w4.rl.))+iW.iM.,7.!)+~)+6=+)&.{)+])+^)+7_./)+()+cF._)+:)+<)+[)+})+|)+1)+2)+o +or.3)+d=+4)+6F.5)+6)+zD.7)+8@.8)+9)+0)+=y.W,+a)+b)+}o.c)+25.DE .h.6q <: d)+ E l$.Sl.e)+f)+g)+h)+}N.i)+j)+Ld.k)+cP.l)+S>+&e.@ +EO.m)+{C.n)+GI.o)+d,+p)+nJ.q)+r)+L@+s)+zA )z d@ De t)+Al {a  B r4 u)+zT.gr nj v)+EB w)+.Z >- =g |K x)+04 y)+hH.`++z)+A)+B)+u3.C)+D)+E)+F)+lZ.oh.G)+H)+v0.I)+cj.~D.]3.J)+K)+L)+M)+N)+`,+O)+P)+Q)+a>+C].R)+|A.I[.%-.S)+T)+U)+r).W1.V)+W)+HK.C)+X)+)q.eL.Y)+Z)+wA.x3.Df #s g>.`)+ !+_V ",
";9 Zw 9C d~.B& a, b+ [s.lu qG.pj..!++!+@!+#!+$!+%!+)> &!+1o 4G *!+(T U[ =!+w* u@.-!+R` i7.;!+>!+(!.,!+'!+;Y 4C.)!+et.!!+~!+{!+'1 ]j 9e <a 4b =+ `0 X7 Bi }h Va }f Ov 2[.Gi =p 0E YM.X5 ;C !p ]!+^!+xJ./!+(!+_!+:!+<!+[!+5T.}!+|!+1!+1u.&w.2!+3!+n*+4!+[D.5!+6!+7!+Ch.{L.8!+Mu.9!+0!+a!+/g.b!+c!+d!+,)+e!+va.%X.O).s).i1.f!+y;.g!+h!+i!+j!+k!+l!+m!+TH.n!+k;+o<.B6.MQ.o!+] +p!+q!+|/.`*.r!+`t.s!+=g.t!+u!+B!.v!+Zm.x!.w!+x!+y!+z!+A!+B!+C!+&r.Dn h5 4o )v D!+8, Rg xx E!+F!+G!+H!+I!+m!+nZ.J!+K!+q'+L!+uH.M!+t`.N!+O!+P!+Q!+R!+S!+T!+U!+V!+W!+X!+FA.Y!+Z!+`!+=r  ~+Zf d2 @z o;.c2 J0 V2 D9 0E .~+Sh Db.n0 >=+wi +~+@~+eZ #~+$~+%~+&~+*~+A].,c.)*.FC.s@+=~+-~+t4.;~+>~+,~+}M.2^.'~+)~+!~+4B.~~+j1.^C.dz.{~+]~+{~+^~+/~+fl.(~+_~+,~+c'.f'+:~+<D.X4.<~+{R.-e.)f.!>+g,+[~+}~+|~+ ~+fq O^ K0 5> S0 '[ ",
"a$ A<.1~+2~+># !,+3~+4~+Y! 5~+6~+7~+8~+9~+0~+*J { .8> w* a~+t% b~+c~+d~+e~+Kl.Y3.f~+gY.eQ.g~+g~+h~+wP.i~+OG.j~+k~+yU.YJ.0v.l~+u4 c| El }0 !8 PM.m~+1 .7c :t R7 ^,.b0 FF kw 7: n~+o~+Kb Dv -!+T!+ 8.p~+q~+r~+s~+t~+u~+-f.9J.v~+CB.w~+x~+y~+z~+!s.A~+m<.B~+C~+D~+E~+F~+G~+H~+;&.I~+hx.J~+K~+DO.L~+2K.M~+N~+O~+P~+a_.Q~+R~+S~+T~+U~+V~+:-+W~+E-+FC.X~+Y~+^}.Z~+`~+rn. {+.{+r,.+{+@{+:-+#{+${+8k.#M.!A.x6.%{+&{+*{+={+-{+Oc.bv.;{+jf.8* :i 'c hy R6 E0 ~q (e hA >{+(K rU.,{+'{+%t.v0.){+!{+P*+~{+{{+o=+G}.UC.]{+^{+/{+==.({+_{+:{+)-.<{+[{+}{+|{+$4.'X.*p.~&+1{+2{+5: ]y 3{+lM Tz ~w.8u ~U G1 S; 4h 4{+s0 0).v( jp.5{+6{+7{+dm.O}.8{+9{+0{+1_.a{+b{+c{+d{+e{+,U.F/.f{+g{+,*.<!+h{+i{+VC.j{+~E.Tg.k{+!c.l{+<T Q,+19.Vh.b=+-a.0].m{+n{+o{+d=+p{+q{+r{+`I.s{+t{+hO.'@+u{+v{+w{+x{+/v j9 y{+z{+A{+lu a5 ",
"qd B{+C{+UZ H% #> =/ @m.YE X`.D{+9,+/W O.+E{+F{+G{+H{+I{+J{+vG K{+2Q.L{+5%+9V.M{+N{+Y7.O{+P{+Q{+R{+S{+T{+3l.U{+V{+W{+X{+Y{+Z{+vz.$/ TR `{+ ]+Pp.kL. B.]=+2E =g ;0 yr W8 h< D +BR..]++]+@]+#]+$]+%]+z%+&]+*]+=]+-]+T +YN.;]+>]+Wh.,]+']+wk.c=+)]+Ua.I3.1w.!]+F].~]+{]+]]+t>.2*+^]+/]+xH.ek.'.+F{.(]+3 +_]+c$ :]+<]+[]+}]+|]+1]+2]+eE.}]+3]+4]+5]+/.+6]+{.+^E.7]+8]+9]+bk.>y.0]+a]+0;.7U.RM >9 I.+xx.b]+c]+d]+e]+O!.&2.f]+g]+}-+h]+i]+Zk K5 j]+=B O: $u.!j Z1 yV Rs k]+l]+m]+&o.n]+o]+{a.p]+q]+r]+s]+t]+C.+9l.u]+eM.v]+f`.w]+u$+x]+y]+z]+%[.RE.A]+YD.mS.B]+C]+cU.D]+E]+&4 CC bc b0 H2 oa R&.n! Zf n0 /C Sh 1o 46.4; F]+G]+H]+I]+J]+Al./)+_O.B!.G}.K]+./.L]+v=+M]+N]+O]+N%+P]+X*+wc.~J.}L.Q]+R]+y$.s0.)f.p$.I8.S]+]x.T]+c]+B#+l1.l,+87.x++W)+$4.U]+aR.V]+  +W]+X]+0y.,G.0..tP.KU.Y]+x; Yh 7S 2v 0/ ",
"Z]+^@ `]+U| $-  ^+.^++^+@^+@I.#^+Fk.dy t..$^+R# %^+&^+ds.p{ *^+z# b*+F&+=^+-^+;^+{,+>^+2t.,^+'^+K5.)^+!^+Sq.Z{+~^+{^+xF 9S.#o.]^+^^+;m {w.=> /^+Z{+(^+do._^+:^+<^+e- [^+}^+;4.|^+1^+2^+3^+8C.R!+L-.4^+5^+ .+6^+oU 7^+8^+9^+0^+M-+a^+b^+c^+d^+e^+GR.{`.b=+f^+g^+Xz.h^+i^+t'.Nu.j^+h/.xH.k^+l^+|G.m^+n^+:=+oT.o^+.s.f|.p^+I#.q^+~++r^+,R.s^+[;+t^+u^+v^+w^+qV.x^+6++$t.y^+R=.z^+A^+B^+C^+|F ]z D^+E^+or.F^+G^+H^+I^+J^+K^+L^+]G.~_.#E.M^+N^+Cf >j #C -s bl.6h 83 O^+xS.P^+Be.1#+U].Q^+R^+S^+kU.T^+U^+V^+95.W^+0].dq.O,+nJ.X^+Xm.Y^+Z^+`^+ /+./++/+6q.@/+W>+#/+$/+]w *4 %/+&/+!o i: /J nm x4 |b =m f, */+2h.=/+Y]+jc C+.-/+;/+=A.>/+KB.,/+'/+)/+!/+~/+{/+]/+wZ.^/+//+D +(/+,4._/+BM.s,.ZU.:/+tk.</+x8.[/+}/+|/+b:.1/+l&+2/+1X.3/+4/+Ep.J8.5/+6/+7/+8/+9/+_++0/+%-+DE.a/+-O.KW.Nz.;H fO f_ Gg ]7 }+.",
"b/+c/+d/+F  e/+f/+D# $& g/+=- h/+^@ i/+j/+k/+Y.+j7 WX t)+~s /Z.l/+DW.m/+2U.n/+qg.o/+Tk.8%+p/+(8.q/+r/+et.s/+t/+u/+v/+w/+x/+y/+z/+A/+B/+1r 25.C/+oC.rb D/+E/++Z.w9.F/+G/+H/+[/+)$+I/+J/+K/+L/+M/+N/+Vf.O/+<*+-H.P/+Q/+R/+S/+OJ.T/+ur.U/+V/+u4.W/+%>+X/+`>+08.Y/+:V.Z/+`/+ (+.(++(+#6.@(+#(+y^+3].pv.bR l>+$(+%(+dt.u*+lG.h&+gE.B!.u{+m!.&(+'R.*(+!-+=(+-(+;(+zg.>(+k#+,(+( +[++YX.'(+;b be pQ )(+!(+~(+{(+](+5<.6%.^(+/(+((+_(+:(+<(+]6.[(+hB /] DO 8r }(+kb >7 ^(.1y.]T Un.|(+{f.1(+2(+3(+4(+5(+`=.6(+_~+Zz.7(+8(+a[.9(+0(+a(+b(+c(+d(+p0.e(+hC.f(+g(+|=.h(+^/+i(+4f Um Jt B3 H2 Pm 2A &: -n Nl =+ .| ;4 l< j(+11 tx pq.k(+Q,+|(.l(+e{+EI.8^.*#.m(+n(+Ut.o(+or.p(+F#+q(+r(+s(+t(+u(+v(+w(+x(+y(+>y.<~.{/+9G.p)+z(+A(+<o.%'+-p.B(+C(+Ln.vv.UV.D(+E(+#g.)v.F(+S=+G(+OV.H(+zY QI !y I(+Ks 4L {c ),+",
"J(+Bo.K(+L(+M(+I- N(+3-+*x.O(+B  P(+Q(+i7 R(+-O.x3.S(+T(+^[ &| U(+*< :+.~( V(+W(+M;+5I.X(+Y(+Z(+`(+ _+6J.D1.Mt.._+jO.+_+>^+@_+HB.#_+$_+%_+e8 &_+&( gc #( *_+nd 8t '!.=_+FP.-_+;_+J9.>_+,_+'_+)_+!_+~_+{_+]_+s`.Dy.Dy.rZ.^_+/_+(_+v0.)$+__+XB.:_+<_+Bg.V)+[_+8=+fS.}_+|_+1_+2_+3_+4_+5_+dq.zx.6_+@D.:]+7_+pp.J..8_+8%+9_+0_+a_+VF.b_+>;+)*.wZ.w;+c_+>`.d_+e_+.'+f_+8>+g_+h_+wF.'@+i_+7k >u In j_+D)+_~+k_+l_+~B.Ux.m_+Ar ><.=( n_+o_+nE uH p_+Pc To G} F4 5> ;h B/ 7,._q.s$+Br.q_+r_+s_+t_+u_+Z{.v_+w_+N|.k_+ZF.=Q.2++G<.x_+0!+y_+z_+A_+5;+x{.B_+C_+D_+E_+F_+W1.G_+H_+I_+J_+Um /( Ru Z4 YF ul K_+t9 ^w G8 J2 'x g>.L_+M_+DE.N_+O_+P_+`<.!&.(.+Q_+R_+S_+]Y.T_+G!+U_+]g.X-.V_+_,.W_+X_+Y_+Z_+`_+ :+XX..:+O).+:+DG.@:+#C.#:+$:+M&.L~ @|.%:+VK.Os.&:+%b.*:+=:+-:+q^+;:+>:+,:+':+:p L2 ):+!:+|2 b0.Ba.",
"~:+{:+]:+mD.>$ ^:+=c /:+(:+_:+::+<:+[:+}:+D{+|:+5F 1:+~ .2:+3:++I.4:+*B 5:+6:+7:+8:+/R.9:+0:+q&+a:+~!+b:+c:+d:+mL.fN &B.e:+f:+g:+8;+h:+i:+j:+k:+l:+m:+n:+`e.jv Xt vj o:+p:+[Q.tK.cG.q:+}).'h.<$.r:+(<.d^./'+]c.s:+5++t:+u:+Y[.J%+M*+v:+w:+x:+>2.y:+z:+hP.A:+B:+C:+Y>.!$+D:+E:+F:+3_+5=+G:+H:+I:+J:+l-+Kp.C'+UZ K:+fN 7c.L:+M:+8>+t3.N:+7 +nw.O:+P:+dN.Q:+R:+g.+S:+C~._,.3G.T:+U:+V:+HL 7A W:+X:+TD.W@+Y:+9s.Z:+`:+d;+ <+qX #k +B In su +G gX G7 5s 8< 46 Qd VH `e.GS v*  y.+w..<++<+@<+<%.#<+$<+P*+l#.fS.%<+&<+*<+=<+iS.-<+;<+xg.M,.><+,<+6d.'<+iz.)<+1w.!<+gZ.~<+=x.{<+]<+'c =B ;y rA T2 /K hc d3 AM M| R0.+'.^<+/<+(<+X4._<+|j.:<+<<+[<+1!.ih.}<+SE.1~.w~.|<+1<+2<+b'.3<+4<+5<+)_+_:+&..L .6<+7<+8<+9<+0<+a<+!W.b<+m:+Wu.e0.c<+d<+e<+KY.GZ %S f<+}C.g<+wT 1!+h<+<!.i<+Hi j<+QG k<+l<+m<+im.z-.",
" K.`=+4`.;^+6! du.8V._n -' n<+dI 8# <_ D# o<+p<+q<+aY.sj.r<+s<+t<+u<+1:+,$.ok hG v<+w<+u*+|P.x<+5l.y<+X:+r{+z<+A<+<W H(+B<+,Q.C<+D<+E<+F<+3&+G<+Gp.H<+I<+dr J<+N;+K<+L<+M<+N<+O<+cb.P<+Q<+n0.R<+-R.:_+S<+T<+%>+DK.U<+)y.V<+W<+X<+Y<+Z<+/g.$ +fN.<L.`<+,~+*o. [+.[++[+I)+@[+#[+*8.##.$[+&>.%[+&[+{9.vU f;+*[+OX.=[+9~+-[+;[+>[+,[+'[+*a.)[+![+5].~[+yY.{[+n).][+y^+^[+DE.j*+/[+([+_[+fK M2 ]R :[+<[+[[+PO.}[+|[+1[+2[+ur d@.E2 t0 {C Sm tM l: Cm 79 zf y> p3 e3 8c 3[+4[+ML.=,+5[+6[+7[+8[+9[+&e.!.+0[+a[+b[+c[+d[+e[+J@.Bn.9P._p.qT.f[+g[+$k.h[+i[+r9.j[+k[+l[+F9 I..Bj.u@.1| 5* Cw (g /b ij we  D *0 h< m[+8d FR n[+o[+nU p[+b%.q[+<Q.r[+s[+`7.t[+u[+v[+(A.I=.B!.vF.tK.w[+x[+y[+z[+A[+AA.B[+C[+D[+E[+}7.V*+F[+G[+3F H[+~#.I[+J[+xU.^n.jk ;V $N.K[+*j.qs.L[+HV ML.E2.M[+xy gI N[+X+.O[+6Q !E ^$.",
"P[+gF.e) 5i y7.Q[+R[+S[+=> 5  >$ T[+b+ (S U[+V[+W[+X[+L# 82.S++D# j[ 'u.Y[+D!+Z[+`[+ }+.}+'V.+}+@}++}+#}+,u.$}+%}+&}+*}+cU.=}+-}+i:+;}+>}+,}+'}+)}+!}+~}+,b CA 4l ;m {}+}!+`>+]}+^}+$@./}+(}+_}+:}+<}+[}+}}+|}+)v.$P.1}+2}+k%+-#+Zh.3}+4}+]v.5}+0%.6}+7}+8}+-#+9}+0}+rh.a}+m&+^O.!`.b}+PF.c}+d}+~W.e}+7-+`3.f}+AW L;+Gk.g}+h}+AA.i}+j}+SN.k}+l}+z..,f.[++m}+n}+m|.o}+G#+p}+WC.q}+r}+s}+WO `1 t}+u}+v}+w}+{X x}+y}+g4 f2 @P H< '0 0*  B B% ]0 +2 Rv mm.z}+A}+B}+G' C}+D}+mw.E}+F}+G}+H}+I}+Lx.J}+K}+L}+M}+N}+O}+_M. E.P}+Q}+-%+R}+S}+T}+U}+I-.V}+W}+*p.X}+Y}+Z}+i4.7} 3#.Ph {( -7 #d *4 B6 +t k;.Ca A} ov ({ %f tP.`}+0B. |+.|++|+@|+#|+$|+%|+&|+F..c'.J9.*|+*V.=|+-|+;|+>|+,|+'|+)|+2^+!|+~|+{X {|+]|+^|+/|+(|+_|+l( :7 :|+<|+4h [|+cO.}|+||+1|+kT wB nh 2|+3|+&h.4|+5|+6|+g .=^+7|+8|+96 9|+0|+",
"@B =2 a|+b|+c|+e<+Ck.d|+e|+f|+y9.St g|+h|+M{+>( i|+ h.|%+gJ 9- r<+j|+k|+@B.l|+m|+2 +n|+o|+p|+q|+r|+s|+t|+u|+v@.E.+JJ.,}.v|+w|+7{+x|+y|+z|+A|+B|+C|+D|+~, E|+>Q.F|+p&+y{.G|+,4.~ +H|+I|+Em.J|+K|+L|+e'+u{+M|+=++$=.VF.O).N|+TH.t).'=.QC.P ++@.>d.EC.%]+O|+P|+&#+Q|+R|+,&.jG.|!+S|+n!+ V.T|+:}.U|+ey K{+k]+U|+V|+W|+X|+4F i@.5}.Y|+Z|+4[+`|+ 1+PY r`..1++1+u:+zD.@1+#1+$1+A>+4/.%1+|S.OO.&1+D3.*1+=1+;3 1 +Y< *1 >=+hv a).r^ 9y m+.hd Hy #O &H.-1+;1+.' D[+g:+>1+,1+'1+)1+oE.!1+m1.~1+g3.{1+7J.]1+.2.^1+/1+F}.FC.(1+~ +_1+yE.:1+-U.-P.<1+h2.*X.i;+[1+}1+aH.|1+]^+[: n/ xv ,b Z} &: X5 >8 !9 G0 *- 8O [e t<.Lj Ya I3 11+.j.21+,3.31+0B.41+3N.*U if.51+&o.G<.61+D{.71+81+91+01+hY fi.a1+b1+c1+d1+e1+f1+g1+h1+i1+j1+t% n[ vU.lk k1+C'+l1+,B 3,.9+ m1+#E )u.j_+n1+o1+gY u=+'p.p1+F&+q1+1H.r1+s1+KU.t1+",
"u1+G| 3: C;+pO.v1+w1+x1+Y! O` F&++-+Ot Ut aT @B y1+WO pB.<: YX Jw.z1+A1+B1+VJ.C1+D1+%E.tF.$D.E1+F1+G1+H1+I1+(8.J1+M/+K1+L1+M1+zV.N1+P..O1+lu.P1+Q1+d(+R1+S1+T1+AZ.U1+V1+W1+p +=)+X1+Y1+Z1+`1+({. 2+W(.H7..2+A#++2+6!+@2+#2+%V.>>.$2+A.+-l.K!.%2+z;+,A.&2+*2+Or.=2+~{+-2+'A.;2+>2+,2.,2+'2+)2+!2+~2+{2+]2+^2+/2+(2+AX _2+:2+<2+S[.[2+*R O.+Kw.uO.Ps.Ae.}2+|2+5T.R(.m'.tK.12+22+-i.R~+1G.)l jz EZ.32+42+52+62+72+il {d R5 jp 9B O# .m 'n n;.z2 82+92+02+a2+b2+6&.c2+d2+N'+_[.QU.e2+b$+f2+g2++i.h2+>@.i2+<O.t$.j2++A.d7.k2+[%.)R.a<. w.Bn.9H.l2+yH.a=.m2+=9.j3.n2+n! S4 <n il o2+O/ l0 J~ 1j }1 L3 %_ zG Oy ,b ^p *I p2+q2+r2+s2+g8.t2+zo.u2+v2+&#+w2+m,.P].x2+8`.WY.t*+y2+z2+A2+B2+Fn.C2+0*+D2+@g.E2+<x.$/+F2+G2+H2+oO.0B }N 1C.X% I2+;  4* mg.J2+TL mb %n.K2+@c.fj.t9.}I.ti.L2+y_ M2+N2+O2+>{+&c.",
";[ '^.P2+2[.Ii Q2+R2+S2+T2+U2+f_ GW.0* p_.1C.V2+W2+6f i' Z* F$ X2+$! Fk.Y2+Z2+`2+ 3+.3++3+jY @3+_Y.32+|@.y(.#3+vS.$3+~|+%3+&3+*3+=3+-3+;3+>3+p1.(y.,3+0$+'3+p&+C~.)3+!3+|/.qx.~3+{3+]3+^3+!J./3+s(+Bw.t(+$f.(3+_3+S>.s_+:3+<3+[3+}3+g!.|3+13+23+FC.33+43+53+-4.yv.63+73+ZE.av.83+E2.w|+93+03+a3+b3+LU.c3+d3+L}.e3+O>+XV f3+bz 3'.g3+{:+F] 3z.yO.aK.h3+i3+j3+k3+l3+m3+iM.h^.eq.=*+n3+o3+,T p3+bS.q3+3c.;3+r3+s3+JU w% Af `h gv F4 rd t3+K5 u3+v3+w3+x3+y3+z3+$h.A3+R` B3+wA.[E.C3+D3+E3+F3+{H.xG.G3+P:+H3+`>+C.+I3+;{+J3+K3+L3+M3+5K.wJ.8e.6*.N3+O3+P3+Cu.Vj.wA.Q3+R3+%j /| S3+^g.T3+U3+8n =O V3+Xt <) U: >| UC mi O9 GN a,.va o9.W3+X3+yy.Y3+Z3+`3+ 4+.4++4+@4+#4+$4+vS.%4+&4+*4+=4+/W.^@.-4+_V.#}+K^+51.;4+>4+r(.pC.!< )X f>.u(.bD 7K >p |c ,4+49 tn '#+U]+V#+l-+'4+v<+7.+)4+bW !4+{X uz.I2+<@ ",
"03+~4+^] z/ {4+b- RF.$  7..(R og.A[.]4+PN ^4+*R /4+b/+^@ (4+_4+9 +HM !'.W%.:4+{!+dQ.<4+[4+}2+:y.q3+}4+|4+14+N`.o-+24+34+44+(8.;O.54+64+74+84+94+0`.p1.04+a4+b4+c4+d4+e4+f4+g4+h4+>X.i4+j4+g3.k4+l4+m4+/g.d6.H|+2O.k` n4+Ez.o4+p4+q4+r4+s4+{j.t4+)7.u4+v4+w4+x4+y4+z4+A4+B4+C4+D4+rv.E4+F4+bc.c%+Sl.G4+W.+H4+I4+PW.I1.J4+K4+I4+R9 L4+2J M4+N4+0S.JJ.O4+P4+Q4+R4+S4+T4+ol.z4+U4+q'+L!+MV.C{+|n.V4+2G.W4+X4+Y4+Z4+`4+(b.5k ({ DO _u WR Ag  5+9k.]e..5++5+qz.EP.Pp.DJ.r{+@5+#5+!1+$5+eb.YP.9m.)N.5=.%5+&5+R|.j_.@P.rZ.*5+=5+-5+L=.k)+~f.rf.;5+>5+,5+On.W>+h:.g1.'5+)5+ 5+!5+^e ~5+{5+]5+'c Pj ^5+'d Dn wh :r !c {4 6-.VC p: cr.&G /5+(5+_5+:5+/&.xl.<5+$y.[5+xN.RH.t/+zV.}5+!W.<4+|5+15+UN.5/+25+9s.35+45+55+jQ.k-+65+o(.48.gy.^; <6.(>.6) J<+M2 Ac $4 75+G!.85+95+05+jC.a5+K$+}Y.b5+c5+aU.d5+Ll.m@.",
"e5+oF.~t Ji f5+0% [: g5+h5+Xh Na e5+gw jD ::+7..i5+T(+j5+9] ,< k5+V$+um a@ 0~+l5+m5+n5+}5+}^+o5+p5+5&.q5+r5+s5+t5+yO.:^+u5+v5+)w.4B w5+x5+M1+y5+z5+A5+B5+C5+D5+;_+E5+F5+G5+`j.H5+I5+J5+/w.K5+'v.8=+L5+|1.^g.M5+hO.N5+O5+^J.P5+P,+J-+`_+U-.U1+Q5+tw.]~.4I.R5+S5+g[+T5+c%.U5+.g.T'+V5+W5+X5+Y5+I{++'.J4+ [ =/ z:.Z5+K<+wc  <+iB `5+ 6+L*.1W.),+wd..6+iY +6+@6+_R.zW.#6+$6+T4+%6+&6+*6+Gz.cS.=6+m5+v4+-6+;6+>6+,6+'6+W5 Ju )6+8c v_ !6+{} ~6+{6+za.]6+^6+S{+/6+(6+_6+:6+<6+[6+}6+b5.v]+|6+,=.16+L=+26+36+>++46+oV.h#.%5+56+@2+66+76+86+%W.uF.96+06+M3.R@.a6+F_.b6+~5.c6+d6+)k h].e6+f6+5e Lt #e *4 =$.rn :q 54 4m Rc Zw Zh g6+9Q Wq iv.w(.kl./e.h6+vT.wT i6+E[.TU j6+Q;+=U k6+i[+l6+m6+n6+Ep.o6+p6+q6+T!+v:+r6+)w.s6+t6+u6+v6+w6+x6+y6+z6+A6+-d xl Tb DA.kq.B6+C6+c:+<&++c.D6+E6+F6+(d.#3+G6+Z[+Q[+",
"E4 B0 =% `J.b7 3# #= [< O{ S(+': sb eH.=,.H6+7..#h Fs s% >( w* g] 4v I6+zj &|  h.b|+w=.aK.J6+K6+L6+Pw.M6+N6+O6+P6+Q6+'X.QE.R6+S6+T6+0(.U6+LV.V6+W6+X6+Y6+Z6+`6+:L. 7+[).Za..7+r^+$1++7+@7+0++V1+<A.!>+#7+l{+[c.9=+$7+a&.uH.%7+&7+t`.*7+=7+U1+-7+F6.u!+V)+;7+4H.>7+@P.>*+]e.,7+'7+Ml.l>+)7+04 XZ.!7+~7+mg.z# {7+P&.*3 ]7+N4+xV 3~+#2 ds WM.^7+/7+(7+_7+7'+9:+:7+C]+<7+J,+x$+[7+!-+}7+|7+17+ N.l^.27+37+P6.47+57+67+77+87+97+07+a7+cf.b7+c7+d7+e7+IP.E6+C6+gI.f7+g7+h7+i7+j7+k7+l7+y,.<<+g(.-W.Y-.-`.m7+*Y.X>+u$.`-+n7+A>.o7+p7+q7+5$.fT.r7+D{.sB.s7+t7+u7+v7+w7+x7+y7+v@.'j 1u fa 35 ,b Sg {4 5k T< `8 (h %3 eH F9 $y +`.5A z7+pm wA.A7+'B.}@.B7+C7+_}+1P.D7+e4.,}.8W E7+F7+UV.G7+H7+#h.I7+J7+K7+L7+M7+z~.N7+O7+P7+Q7+R7+S7+T7+6f i0.U7+zb.V7+f8 uv W7+X7+Y7+3l.>u.>S.GP.*!+[4+Z7+sE.`7+dO.[k.v` ",
"S, &- (] =+  8+C' .8+i5 x! #h ra c..mY +8+@8+>- A[ T1 #8+$8+m! !+ C' r6 u$ %S CX.}.+YJ.c2+%8+&8+*8+|U c<++c.V7.=8+-8+U%.nd.+}+;8+rT.>8+,8+'8+)8+!8+I#. ,+~8+{8+7++b&.X(+J#.]8+^8+>y.D5+(S.7@.#-+/8+RU..E.(8+&-+_8+/I._,.fM.(x.:8+9@.j` 4=+)y.^J.xP.<8+_~+h` >X.ix.-z.[8+}8+|8+~+.(T 18+;=+!7+   28+{,+W5+Xi 38+/6._n 48+7Y.Z1 S(+58+W|+]h 68+K5.78+88+*n.!d.a:+98+jz.hZ.08+]D.a8+e,+b8+c8+d8+e8+<6+{[+f8+k6+H/+D(+g8+h8+i8+j8+u&+u*+k8+l8+m8+n8+D}+o8+T0.je.(^+p8+q8+r8+s8+6@.t8+u8+t@+v8+w8+x8+y8+z8+A8+B8+C8+DK.D8+dF.E8+~++DK.F8+G8+X/+H8+] +I8+J8+K8+L8+M8+|^+N8+{V.YT jM F2 8D +6 O8+&p Lt un *g ov q1 ;b K# ^6 P7 P8+Q8+Ik FV.tH.=:+R8+S8+T8+U8+41.F_.Ju.f^+V8+=1+W8+X8+Y8+Z8+W8+`8+P>+Ku.04+ 9+.9++9+Lt.c4.>^+Pp.@9+#9+]n.#O SC.*!.X;+3..$9+24+=A.%9+&9+*9+Tu.=9+h}+j:+3v.rG.P[+-9+Q&.^; ",
"C^ ;9+I6+g{.=] 4G q{ @+ O^ 2' D] $3 ). >9+,9+'9+j~ )9+@& .E y- l^ (9 $1 &( !9+qW zV o`.C{+~9+*[+{9+C^ Ba.]9+^9+/9+-A.(9+!8._9+9_.:9+<9+[9+}9+PV.|9+19+29+C~.P<+39+49+59+.E.69+#,+79+89+99+Ev.09+a9+t(+`v.~[+b9+q#+c9+d9+PO.6+.e9+c'.NI.D{.DO.^x.9{.f9+g9+=]+h9+rV.U:+i9+g]+O'+j9+<G.k9+5` 4A A# +Z.l9+m9+Pg bn n9+ir.J*.@%.&; 04 e}.n9+r7.U(+o9+c2+p9+q9+r9+&h.s9+{'+t9+_-.y6.,B.v@+u9+v9+w9+x9+y9+z9+A9+<{+B9+t=.jM.@#+!Q.C9+D9+E9+F9+:i.{^+G9+H9+I9+J9+2F.P++K9+|Q.L9+M9+N9+G-+tH.O9+*P.P9+.P.Q9+Hx.R9+B`.(H.$o.S9+sQ.T9+c&.U9+*#.pV.V9+;=.Oc.M8+W9+X9+Y9+/A.Z9+`9+7v.wc k~ |j ]d /i D7 bm G} ea /9 =g 79 E} D[ #k  0+>W xz ,I..0++0+@0+1P.#0+A(.kP.aH.J~.v4+$0+pM.%0+/n.;.+&0+{t.*0+rT =0+FP.4M.rr.-0+;0+N:+>0+,0+0'.'0+)0+|b.SC.i4.N[+v].V6+!0+~0+{0+]0+HH.$h.^0+Oj./0+(0+rG.Ek. U eY t|.3K ",
"&B ]%+:+.Oi }:+UF i| m/+0^ 6+ 6m >4 ~~ ^( /@ ~: t* E$ =9 G! Z, g5+_0+;X oT :0+<0+bO.'0+[0+kl dO.(d gF.HM }0+i@.<+.|0+10+20+30+,E.40+50+60+(Y.70+80+90+(m..9+00+g%+AV.a0+b0+3<+M8+c0+Q:+32.,V.`@.d0+e0+f0+S{+g0+bk.EK.:>+h0+~8+QC. #+Y_.n>.{s.%k.i0+rV.M5+x;.gx. z..*.i0+j0+1H.w9.k0+l0+96 G;+m0+.2 Kt.n0+{h Ei o0+dv t<+p0+2v Rh E'+q0+hH.r0+s0+t0+S$+Ek.c`.u0+v0+_<+p$.6!+& +w0+x^.x0+y0+z0+A0+B0+Vf.C0+CU.C>+g0+D0+E0+U{+F0+IZ.`U GP.G0+H0+2Z.(^+I0+sT.J0+aw.J&+oD.K0+O7+L0+VA.4T.i#.M0+39+}3+T!+N0+O0+P0+Q0+_).R0+;R.)]+S0+T0+{`.yH._-+U0+V0+pW.W0+X0+c<.Y0+8G.#5.Z0+`0+x/  a++[ I# X[  D 9} U5 YD Fr x_ ;j .e 8P /t >n #q .a++a+@a+#a+$a+%a+&a+<k.x1.9W *a+=a+b;+Kp.qW -a+:z.;a+>a+,a+'a+d@+)a+S]+!a+~a+{a+uO.ts.,#+2&.H'+)w hy *q #].k~ F(+<U.]a+^a+/a+j!.(a+aJ.6:+^+._a+:a+<a+&e 3#.[a+B# ",
"x&+rb _! }a+|a+~] 72 h7 =/ 1a+~U 2a+^; ') w) t$ 3a+4a+h+ &< #& l) 4G 5a+x1+6a+7a+8a+9a+B1+`|+0a+5%+aa+k|+i7 ba+{[ ca+rG.j8+kj..3+da+ea+'V.fa+ga+ha+ia+ja+ka+la+SS.N).ma+na+~%.o4+SE.oa+pa+qa+ra+sa+ta+Un.L9+ua+va+wa+xa+4<.ya+N|.$=.za+8J.r,.&A.]v.Aa+Ft.#-+I)+Ba+o]+Ca+k[+Da+wi.Ea+Jf.hH  E .h. 7 Fa+>S Ga+Ha+kI Qw.Ia+^h wu.V8.Ja+@m.iY.@I.Ka+.K.Q$+>#++3+La+,I.Ma+_C.Na+Oa+Pa+ig.lk.Qa+Ra+Sa+Ta+LI.tX.h_+'M.Ua+Va+uc.Wa+W[.Xa+Ya+Za+`a+,q.Rw. b+0@+.b++b+@b+#b+im.$b+L(.35+%b+cb.&b+Hv.*Q.*b+=b+=;+-b+*p.;b+g:+>b+,b+'b+/_+g.+&A.)b+!b+CN.~b+20.&7+{b+Dh. [+PH.]b+^b+/b+w3 B# {) 54 (p 4n ;f ps 2Y Lj Vy oH (b+9B hi =5 Qc y/+_b+:b+<b+M<+[b+}b+z1.|b+Dn.1b+2b+3b+4b+)4+Zg.@9+*L.><.5b+ov.3D.6b+xj.7b+8b+m'+[[+9b+0b+ab+bb+hM cb+&P oI.N[.p:.db+cU.eb+w|+!q.fb+@L.gb+hb+qU >4 gJ ib+<# {) jb+",
"@[ zT N` V(+%^+fc kb+b- h^ )w y1+h~ lb+=9 6| Q# df D] {, R& S9 >q.31 vM.>4 mb+nb+OM.ob+pb+qb+28.z<.rb+&8+sb+b+ x&+tb+ub+vb+P[+<.+wb+xb+yb+vS.zb+Ab+Bb+;D.Cb+Db+Eb+/~.Fb+_-.Gb+L-+bk.Hb+Ib+Jb+Kb+Lb+[a.Mb+[I.Nb+Ob+Pb+-*+Qb+Rb+Sb+q>+Tb+}_+y^.{c.jB.3{.Ub+&-+D0.Vb+Wb+Xb+Yb+oT Zb+Z} 6f -q `b+98 @3  c+9F ks jt .c+`H  +.=+ SC.y'+h5+d5 ]$.W.++c+R7+=3+E9+@c+#c+[).$c+eF.  +%c+&c+*c+=c+:/.-c+;c+>c+ej.,c+87.>c.Wk.'c+)c+jK.!c+~c+{c+zk.]c+^c+/c+bw.uV.n`.(c+),+lp.M}._c+:c+T=+cn.NZ.I +69+6*.<c+[c+}c+K:.|c+7f.}2.g,.!q.1c+2c+Fq.vw.EK.3c+27.4c+5c+[K.6c+4{.7c+8c+9c+ q -2 ._ =: uH << `8 $g 2s |2 =B Bm D6 0c+U{  g ^K pI.hj ac+bc+B1.cc+df.dc+La.ec+fc+jE.[1+gc+4i.hc+ic+jc+%z TL kc+u7.lc+mc+c#+nc+d<.ef.oc+1V fj.r:+z3+pc+^..9e b| `c !a {b.qc+vN.rc+]Q.sc+tc+uc+UJ vc+Gb.Q+.O1 g  wc+xc+}t ",
"|h.wu.9% m_ sb }7 p! /N yc+J  zc+`.+$  >; m/+;2 P2+V* E. j) ^( (& ok Y[+-O.Ac+Bc+Cc+Dc+Ec+ ).i|+*q Fc+Gc+|0+HU g#+T`.Hc+Ic+Jc+N$.e1.Kc+vW.7f.Lc+Mc+Nc+Oc+Pc+Qc+7+.HM.L)+Rc+Sc+&f.%[.Tc+<|.Uc+P`.K0+70+30+_w.RX.Vc+O)+Wc+Xc+Yc+Zc+t7+P]+`c+ d+.d++d+zQ.@d+N-.ak.#d+W@+$d+%d+&d+MC s5.)_ e5+6e F~ M;+N[+hA Rk.M(++k Ez 7s *d+mg.~W.Jb.}V._h.*8+}.+><.ET.35.1b+'3.=d+-d+I/+;d+JO.i$+>d+L,.,d+'d+cs.gR.M6.)d+J.+!d+~d+(d.{d+]d+|~+^d+/d+(d+_d+Q;+z[+:d+<d+[d+}d+NW.PT |d+1d+UR.]C.*~+~L.f'.2d+@`.3d+4d+5d+mG.0:+6d+7d+(8.8d+9d+0d++w.n4+ad+X:.bd+y%.B6.]u.cd+dd+v4+ed+_% Z5 |7 s* $N fd+X5 An Hk ca gd+I@ hd+l2 id+jd+kd+s4 h< S| ld+md+nd+od+}Q.9u.pd+rc.fL.tF.qd+|T g~./n./n.rd+UW.UF Zp.sd+td+yV.ud+g}.vd+.}+wd+xd+yd+mP.}5+zd+Ad+Bd+Cd+0F Dd+TU Ed+Fd+Gd+D<+Hd+Id+5v.lc+Jd+^_.iV *l 0v kb kd &X ",
";( <..j@ F% Kd+|< Ld+Md+Nd+y9.6.+Od+M* 2^ l) .[ ^7 Z- B) &< d. >$ Pd+Qd+RD Rd+vM.Sd+tP.Td+WO e}.f#+e|+`.+['.Ud+X2+`A.#I.Vd+Wd+Xd+Yd+67+o-+o3+PR.Zd+wm.`d+a4+ e+df.9<+%@..e++e+@e+#e+$e+%e+f7+k0.L1+&e+{6+*e+=e+;c+-e+;e+>e+R +C2.,e+F~+'e+:5+)e+!e+~e+8&+ID.{e+E~+]e+'h.^e+f>./e+yc (e+_e+%2 @< :e+BX.R+.3! (p <e+X1 E1 ;[ [e+_|+g}.f#+dO.aT bn }e+$N.|e+1e+2e+3e+`v.4e+|7+]}+W1+N7+B9.o>+|4+5e+/n.2v.xj._R.2v.X:+6e+7e+8e+tF.B1.AT !c+9e+$4+0e+ae+M}.be++c+ce+de+ee+fe+X++&2+Z<+ge+H-.6!+he+M<+ie+je+Ur.vS.uX ML.ME.ke+Nb+le+(_+U0+oV.L~+V0+me+8>+ne+oe+h~+oc+:4+jJ pe+qe+re+se+te+ue+:a pm F+ ve+_9+we+xe+ye+ze+Ae+Be+Ce+U .De+Ee+Fe+n0.Ge+j#+6q.He+Ie+RG.;!+[4+|0+Yg.M&.<+.*!.Je+J>+E3.Ke+kR.k +Le+Me+Ne+Oe+Pe+)d+i>+Qe+Re+Se+`$ <X Te+g+.Ue+Ve+YD.]Q.We+~S.Xe+ v.93+Ye+n/+B&+': Ze+`e+(R  f+",
".f+r{ -> VM.[g W| G! V1 1v ds qi.#'+=/ +f+5a+~~ @f+#f+$f+@_ %$ ,< [< %f+rG.@B.}'+&f+PT *f+=f+::+lO. t.~2+wb+,S.-f+=^+@m.;f+>f+|s.,}+m5+,f+xF v|+r|+,6+'f+HZ.)f+cM.!f+~f+$*+{f+90+9b.1y.]f+A=+^f+Y{+x/+O2+zb+/f+(f+Z!+_f+<++_8+:f+<f+~J.FC.{`.SD.[f+it.g` }f+|f+Q*.1f+2f+3f+|{ J>+V| G+  +.Bm.6: !3 G4 #/ V(+4A +| Q% -; =% I6+N: pX 4f+8-+'E %/+N4+c,.5f+0t.6f+A;+{c.7f+8f+9f+0f+Y*+B0.rA.af+bf+#v.cf+df+qq.*M.PY Pw.h8+ef+_z.U@.ff+gf+>h.hf+Cp.s/+Vs.b~+]B.if+jf+kf+lf+mf+ZG.nf+NI.VB.of+pf+2F.$G.lf+gd.GY.N'+qf+rf+sf+tf+uf+zo.vf+t,+wf+R:.>d+xf+i7.yf+EP.zf+py.Af+Bf+&L.6J.Cf+_e.Df+Ef+Ff+Gf+K6+Hf+If+Jf+]a+Sa+Kf+S .Lf+Mf+Nf+Zv.Of+Pf+c_.Qf+Rf+Sf+Tf+v|+4,+Uf+Vf+^,+Wf+T[+Ij }#.t+.3:+Xf+~Z Yf+Zf+`f+OD.MN. g+/k..g++g+Ey.i6+@g+#g+,I.$g+BZ.J#+_*.Cf.L:+^p.8d+ 3.%g+&g+*B _) *g+0% 6e X[ %; ",
"r% -. m/+) .^& 2* =g+=z K( [g I# -g+@& =% ;. 7...E n5 08 ',+ba+;g+^@ >g+93+,g+_` 'g+)g+Re+!g+~g+VM.|'+{g+ J E4+g +]g+0* e) ^g+/g+(g+_g+:g+<g+z5+dY.[g+ P.}g+^R.D2.|g+1g+2g+:n.GY.3g+4g+5g+{=+6g+7g+*3+b~+Mw.yz.;8+8g+9g+P!+n*+')+K/.0g+p^+Q*+dc+ag+gx.bg+cg+dg+|/.df.V..),+eg+*3 l+  ( '( !: Sq 54 }k i+ G4 fg+@} eV !9.t= gg+4/ k5+2_ ': g( `H.hg+1[.!W.ig+jg+w}+QV.wK.a4+fu.kg+lg+mg+ng+,#+og+pg+I[+>T.Hd+rA.Hf+qg+rg+sg+tg+Ur.ug+vg+wg+xg+yg+zg+Ag+U.+T(+3'.:a+C&+Bg+Cg+Dg+Eg+%o.Fg+>]+Gg+Hg+Ig+HH.Jg+Kg+,d+/e.zg+&Y Lg+W2.y7+<8+#>+'b+Mg+Ng+Og+P}.Pg+Qg+Rg+*8+Y2+OG.0v.;8++}+r9.Sg+Tg+$g.@b+Ug+<g+4~+K(.pT.;O._e.Vg+x/+d8+Wg+qT.Xg+Fl.Yg+v7+Zg+`g+ h+8C.G=..h+jL.78.+h+^A @h+}e FC pX ;M.!S.#B.#B.4i.#h+$h+%h+&h+ZY.*h+-}.=h+Na.P>+py.b9+=G.}{+-h+De+;h+>h+,h+'h+G*+kf+cd 3# )h+*| !h+,- dI ",
"H% ~h+3 .(@ e7 :e+:] {h+]h+^h+E$ 6` /h+(h+]:+_h+:h+<h+D] <..S, [h+b/+}h+}d.3b+3~+FR qW l0+T1.|h+1h+2h+3h+4& j' 4h+y1+5h+,m.6h+7h+C>+8h+9h+Tk.0h+my.24+us.ah+bh+q<.r/+MC.tm.ch+D2.lP.dh+eh+}d+fh+7a+gh+hh+(n.ih+jh+kh+oM.lh+mh+nh+~%.oh+Z'+X9.2}+ph+2~.C|+yW.qh+rh+eE.x'+sh+th+uh+vh+wh+#p [g .& z/ ]t h;.xh+yh+/N 6F ]| S= ^; A<.!3 Q~ a6 zh+[b.Ah+Bh+D=+Ch+cM.)M.EH.H9.u!+rc+Dh+Eh+j6+Fh+Gh+Hh+Ih+Jh+~Z q5+Kh+Lh+9F.Mh+`O.Nh+5*+7&+F9+Oh+Ph+$C.Qh+Rh+Sh+Th+T(+N4+Uh+T$+Vh+6@.p(+D#+Po.Wh+&7+b'.3`.Uz.Xh+YR.ug+Yh+Zh+`h+B3+ i+.i++i+@i+#i+$i+p)+J^.%i+M}.!S.oj.&i+*i+=i+_Y.6b+-i+;i+>i+,i+'i+)i+!i+PK ]5+7@+~i+{i+=L.]i+^i+/i+]Z -8+Pf+(i+[1+G!._i+Ur.Y3.:i+<i+[i+)g+}i+VM.|i+J- y_ 1i+E$ [h+W[+Y8+2i+D}+z/.3i+4i+he.|9.Td.5i+6i+7i+9,+3,+oT.aO.(8.zV 8i+,f.Mh+T0.9i+0i+ai+hG 0@ 7m a. bi+Nt ci+",
"3; P0 di+A% H% T, ei+ib+{& fi+[[ 1a+Y[+ae gi+^; l' %9 U! T' r@ Vv.C&+hi+ii+ji+ki+Rd+4v b,.li+mi+ni+vG oi+pi+el Oi qi+%9 qG.W2+2Q.ri+1H.si+ti+ui+vi+wi+xi+z5+n6+V&+yi+|`.O)+Q,+zi+Ai+Bi+*3+Ci+Di+@9+2y.1h P;+Ei+KP.,^+}h+Fi+.'+Gi+Hi+Ii+:-+Ct.Ji+Ki+f'.Li+y>+[$.Mi+]y.Wk.#h.B&+R# Q+.&f+][ Ni+^i.U|+UL 9Y.2o.n' Y9 H# ]8 }~ Oi+H# nC.=> j) :[.Pi+W.+b7 l-+Qi+aH.ML.:4.-:+ZR.{~+l,.Ri+MN.h}+.B.Si+Ti+44.Ui+:4+Vi+UN.Wi+,8+R7+M6.Xi+#g.Yi+G*+Zi+j1+l>+`i+kO.d~.3~+`|+ j+EW.6:+OU.el..j++j+jz.#*+@j+'D.:F.s~+90+KE.i7+#j+U{+$j+98.%j+Xi+*e+&j+06+*j+tg+=j+iY.-j+,7+a8 oD.;j+25+Cg+>j+kY =Y 9d+,j+'j+PD.)j+:4+jQ.!j+~j+kY gi+%Y {j+0J.,G.]j+QJ.6P.q&+lf.4B La+dQ.^j+&1 Bj./j+|i+'9+.3 (j+,x.t*.^h+n9+]5+_j+:j+<j+ov.vg+a~.[j+8e+}j+|j+Ne+4,+E9+1j+2j+3j++6+!S.Ff.7Z..s.%n.4j+iL.5j+U* 6j+Lm.bi+jL.;M.",
"7j+%^+u<+_7 H% 5+ >4 e) p' ]9.=J -L.$Q 8j+9j+1C.kl _P 7m y! l^ 4* N(+HB 0j+-9+iY.*c.Y! SZ.B' e5 1:+03+_n ': aj+H;+Pg bj+W(+,+.cj+w_.dj+ej+;c+fj+ab+gj+Hf+}}.,}+hj+N8+ij+jj+kj+lj+mj+nj+oj+GP.Cc+:%+*!+pj+`=+5&+qj+Sg+8a+rj+sj+c[.tj+uj+vj+/g.RA.ex.tF.<*+Mq.wj+OR.K]+qd+0j+Gk.^T.xj+yj+/^+KU.zj+jv '> Aj+w& J[+Bj+g~ 38+Cj+J  y1+qG.m+ Dj+pS 8-+Ej+Fj+Gj+7i.:i+Hj+RW Ij+2G.^[+_c+oi.[Y.Gp.{4+6L.@C.'g+Jj+eO.eO.Kj+8b.q/.Lj+xi+Mj+Nj+Oj+>#+Pj+'T +c+.T.Qj+Hi @[ g+ Rj+58+(|+o3+:4.Sj+LR.L%.Tj+Uj+*>+yP.VQ.S)+Gs.Vj+Wj+Xj+ZH.VR.d5+Yj+Zj+`j+6X. k+wV.s/+.k++k+gb+=3+v@.@k+/9+#k+$k+aO.Kh+ B.%k+c|+&k+eo.*k+;n.)i+i:+[V.ej+=k+}g.-k+PY ;k+(*.WQ.>k+'M.1s.,k+'k+)k+N.+KY.!k+<..~k+R9 C' jv Qh ^; {k+8~+ ).%8+lf+]k+^k+/k+]d+(k+FY.UN.0b.MZ._k+>6+:k+*$./z.n-+<k+[k++b+}k+|k+Pg 1k+T) 2k+#= {w.Cj+y1+",
";f+zj Fb h| m~ :9 3k+>- 6| Z0 ]9.P&.g-.>4 c8 F;+U[+I. 4k+0@ e|+B# 5k+(4+(Z.6k+'M.~!+{4+4f+7k+9a+YE $Z.8k+zc+Da `H.9k+8- 0k+wO.ak+bk+ck+dk+ek+i]+1C.6h+fk+gk+hk+Zf.Gj+ik+jk+[9+L}.-L.kk+|O lk+mk+x1+;e.rb+O{ K{+)j+6:+nk+ok+pk+qk+6K.rk+bC.ID.UP.0/+sk+aC. >+I5.tk+9$+uk+Qh+vk+wh+N! X5+#p U< wk+xk+t-._P ^h yk+q> zk+m+ 6| x* Ak+*3 Bk+Ck+Dk+JU.^h+Ek+Fk+*c.Gk+q<.'L.=e+mz.Cf+6y. J.Hk+Ik+x1+Jk+Kk+Lk+Mk+Nk+=%.!#+Ok+Pk+_Y.p6+=a+Qk+*0++n.Ja.%!.,a+(2+u++R.+*L.F# Rk+Sk+Tk+Uk+XN.Vk+xv. z.Wk+69+Xk+Yk+Zk+V&+M<+M<.`k+ l+3|+I[+oT..l+QV.+l+@l+o)+eR._2.AY T1.#l+$l+%l+&l+*l+=l+-l+ji+dl.gR.$R.Z7+;l+>l+,l+,` v&+'l+)l+{#+Z!+!l+)#+9b.~l+{l+4|+]l+6a+`M.m-+^l+/l+n<+aS.8# S3 W=+hn h*.af.!'.@[ Tq 4/ B' B[.K9+(l+_l+W}.:l+#M.i[+<l+^@.-h.@>+]V.3I.n1+0b.za.bw.[l+}l+c2+l^ z0 u+ H6+|l+1l+gw HB J4+",
"W(+2l+&g+]9.3l+q< dI qi+o_.4v 4l+~ .;9+5l+|Z.28+$& 6l+D1 rb+w_.7l+2* S+.8l+9l+[:+Di++_+0l+.8+$$ B  >( al+6Q bl+cl+;^+y{+0l+dl+el+fl+Z7+ni+hi+HU ^x X[+gl+}V.hl+`l.^@ il+Fp.'u.jl+kl+3%+ll+L4+ml+nl+-O.f|+e}.D>+x1+l^ dZ.ol+mG.pl+ql+6{.rl+81.~e+sl+ja+tl+ul+vl+wl+P3+xl+yl+if+3f (4+fg+|_ Bh+g>.i* |@ v{ .c+Ha+o{ 17 =+ `c zl+,w !w.zk+Al+-L.^= L# Bl+/^+6~+s1+_a+Cl+Dl+El+Fl+Hf+[z.JF.N4+Gl+AS Dj+Hl+Il+/=+Jl+OX.]V.u|+@++Kl+}k+Ll+/0+Ml+[%+eH.Nl+i|+Ol+d8 K( /N Pl+4g+=X.!j.o}+5p.Ql+7f+Rl+|]+Qy.D].Sl+{[+MQ.Gs.(*.|2+4G.c~+Tl+yO.Ul+d4+Vl+:y.a4.s$+Wl+Xl+Yl+e>.sT.8c+eo.Zl+8/+`l+ m+VR..m++m+9a+Jb+UJ @m+J1.V5+2k+#m+aU.$m+|z.=3+_q.uX %m+7'+&m+0(.D=+_` 6Q.*m+d} jf+oT V6.j) 4,.*E .  X$ VM.h].aH =m+Y}+m2.k/.Kw.|5+~|+-m+;m+2 +#n.>m+,m+Sq.Jm.Ek.'m+s3.Wi+*3+^@ )m+):+MW.|e L>+!m+HW.1C ~h+",
"~m+Uh+6h cl+/@ d}.zQ  % U< Rj+a+ -2 wh+ K.{m+]m+^m+/m+u) Jw.$& ;^+Bo.Pi+bl+(m+B5.H^ 6C.5< !g+_m+:m+/m+w_.<m+hy [m+0|+,m.H^ ]+.bW -O._h+ba+!#+}m+|m+I  Q%.1m+J[+2m+Dj+3m+4m+g3+~t ~: 5m+nb+6m+vM.9a+fe 4* 9a+C^ d& 7m+DZ.8m+54+9m+^!+0m+zi+am+bm+M,+7S.UA.ja+h,.cm+Cm.z/+5[.)w dm+R# 4v 1%+k( g+ p' ,T em+Si 8> )@ fm+1+ 3( !+ (: gm+g$ f& /; =; hm+Gk.el <a+im+jm+km+r% lm+/U.&0+{0.0V.b+ BT mm+Fp.nm+h7+_,+5%+om+pm+NN.qm+EP.s3.rm+RG.h/+sm+tm+AY um+KT.vm+'a+wm+xm+gI.aV.Cf.|!.[Q.U0+;R.ym+zm+D$+Am+Bm+3G.Cm+g1+oU Dm+9%+Em+Fm+Gm+Hm+b,+mN.t-+~h.Y8+Im+;j+Jm+tP.T.+Oh.PY Km+aL.Lm+K6+Mm+Nm+Tk.,m.V$+Om+<|+Pm+9y Z7+E+.B3+Qm+Rm+b.+dw.nK.u+.Sm+Tm+Um+/& +!+aH ni+U= _] >J YV <% >( i7 ^; |[ #1 Vm+kI Wm+#'+^l+fj+lh+x/+Xm+(^+S+.Ym+]d+Jm.Zm+)l+rT h/+bt.`m+ n+5&+0~+L4+a-+[< .n++n+@n+^&+y# #n+",
"$n+_n S' dX.%n+c8 l0+Qj+Oh &n+r0+W} ]4+j$ *n+31 Rh +m+'H 2* ZO 3k+4f+i +|y.<P 4A I0+Jd+]/ =n+-n+0|+Rh+V| r<+0% 7f w^ iB ;n+{m+>n+/%+il+Jd+,n+3d 5k+,< 'n+}..'k )n+=> Rh ^@ >q.V| [e+_$ x1+qe.t..KT. ^+a4 !n+4A ~n+{n+]n+^n+Tk.xz./n+(n+_n+[l+Wk.:n+<n+[n+}n+{F.x1.Nw.|n+1n+2n+3n+xm 0d :6 Qj+Bb u. -* a_ 4n+(8 a6 I6+*` 5n+a] d@ X: X: W~ hb 0|+sb+6n+7n+a< W'+A& 8n+gh+G{+9n+0n+SW.-O.an+4v bn+t+ ]:+9Y.eY cn+NX.PK EW.S,+4J.-8+-n.m8+DA.J0+d}+ 7./N X`.@'+50+dn+[Y.E9+en+fn+}Q.gn+l<.hn+@d+q~+!=.T!+in+K/.9$+)s.jn+kn+ln+B[.mn+nn+on+pn+Nr.qn+g(+|/+rn+eK.lY Di+k +M}.7i.-l+sn+&9+i:+6d+6u.v* 6) Fm+Ak+tn+#r.n~ -L.un+ ).E4+'p.vn+&B.}'+V$+sL 4n+wn+%^+xn+pg+~n+pR yn+Y& @+ 6+ Pg el I0 ;- A[ Y% zj Pg ;j+zn+An+k +Jm+Bn+]T.PM.aV.Oh. n+&%.Bn+MG.yl+X& wn+l/+Cn+Dn+a-+(2+Z%+En+Fn+Gn+Hn+7a+In+",
"4A l' Jn+v&+E1 {- gJ zl+V| 9a+S, /< Qj+/< ~~ >9+Kn+ic.X% M2+W(+Ln+Mn+bl+Nn+e|+On+St Pn+;^+8- 2a ;g+[V.B=+g-.J3 H^ 0Z 3# sb+V+.Qn+Y|+Rn+2Q.J(+~ .2@.Sn+#. Tn+2~+Un+Vn+Wn+r  _8 y- y# Z% Xn+y# Yn+Zn+`n+d;+U$. o+sL .o+@9+@9+'p.67++o+@o+F#.o~.#o+!q.lG.$o+%o+&o+*o+~m+=o+0d 8- 8- p> ~{ i^ O| L= Y; e7 f^ -( -o+s$ 6+ q. G+ Do.;o+>o+e|+,o+:5 &- ZO 'o+Qj+4F Ei SZ.'n+Jd+!'.)o+%!.U.+i/+e;+(T !o+~o+UJ D1+{o+$< ]w.'p.]o+^o+Cf.db+[` /o+(o+^l+*< }h+x(.4v._o+:o+Vg+~c+*}+<o+OR.;#+[o+}o+|o+1o+ .+O:+_}+{_+Q*+2o+A^+3o+4o+3 +5o+6o+P$+5D.7o+8o+,5+4b.9o+0o+dn+ao+LW.,T bo+co+do+Ll+N2+eo+)k+fo+oj.go+^[ ho+(j+BT 9C Qd+io+hG jo+ko+Rj+lo+=> ~m+28+mo+(h+a@ no+oo+d5 $E.8|+po+y) 8< 9_ -- ]! !1 _m+c6 qo+ro+@G.so+to+1v uo+8-+vo+wo+xo+Ec+(7+|s.*x.yo+Th+aT @V zo+Ao+t~ ::+go+2* 6Q.^T.e5 g3+-F.}V.",
"Jf.0d W2+pi+7..m~ =/ Bo+'1 &h a6 4: eg+UL %> (~ 6| 31 |V.^8 Co+4h+Sd+[e+Wf+Do+!L v* b, Eo+.8+:s.Fo+e~+O| Y/ ~n+Go+|@ 4K ~A.P^ Ho+r% Ak+f$ Io+jo+9= Ho+Jo+Ko+W$ W(+Lo+g  Mo+'- No+Oo+fm+Po+V# 4& m@.o_.Qo+,m.P! )1 @n+I{+ih+Ro+za.F.+So+z1.To+Uo+Vo+'1.Wo+Ue+Xo+9y.Yo+wu.L~ ]$ H# a@ p' F' cd :..e7 X] U* 4^ (_ 5) r@ 9] n> #1 9a+h~ ;+  1 d8 r<+2%+@B.3( X+.kI Zo+m* {4+d~.YV.xh+<g+`o+2_ m_  p+.p+oT l0+'r._d.'E hc++p+@p+fo+KH.7y.@a.#p+$9+0_.%n.c2+5&+NN.$p+%p+&p+/R.*p+wt.=p+-p+8I.>]+P +xv.Z>+h7.;p+0F.>p+,p+PV.-3++g+iv.'p+{j+)p+I|+!p+-0+M6.ji+0S.~p+K6+,a+KX.kf+,}+S6+UV.=X.;h+{p+^t.{Q.]p+&- 3o DU N[ V* 3k+^p+<g+|{ 7L.^g+/p+2~+v; wx.F' (p+~k+p' 7: %; d5 2_ bd 6e *< ^@ _p+mE.sb hG hl+%; :p+v&+4v 9k+F&+<p+[p+}p+;j+,a+|p+}k+kR.1p+&z *u.eK.nl+2p+93+3d tY 3p+N@.4p+5p+Dj+bl+!2+UH ",
"!L AW +j.H% u-.pS JT.6p+DU X[ Wy )s & .#h U. 9..') :e+9+ 6| h4.7p+b8 8p+7a+lY !L pj. & #2 7k+za 7: P| U$+}W 9p+eV 0p+g-.vM.yu /h+ap+ba+bp+YI cp+X$ dp+ep+zq.YX gm+7# s. V! '. )[ Jd+ZO e!.fp+gp+8j+a+ 6| x; 9  28+vn+hp+ip+jp+Y3.kp+4B lp+mp+np+!%.s=+op+RD pp+ji+^D ]4+;- qp+n@ rp+!_ L# y! (; C# U  s& sp+8  tp+J= =/ 5@ Z0 up+4# G@ vp++- 5m+_m+D>+r% V' V| My.Ln+wp+xp+yp+$8+v+ #8+.^+zp+vo .2 Ap+Bp+PW Qj.Cp+qM.Dp+j5.B9.55+,u.Ep+~#+Fp+|8+Gp+Hp+[k.Ip+6z.VK.eo.R6+s8+Jp+Wb+Kp+OR.XF.>X.Lp+Mp+^`.Np+QR.Op+ra+-D.Nh+pv.Pp+7g+Qp+{c+,X.9_.Rp+*k+;m+JT.h7+Sp+W[+Tp+Qg+Up+F.+vS.D6+Vp+N'+#B.^e+Da _m+!( =% Wp+I% ,< }V.F  Xp+Yp+0^ d;+7..Qn+Zp+j$ <# `p+3# 3d |%+]8  q+%[ E# 7;.f_ ;f E' Wp 4`.#'+b, .q+R( {  ^g+&l +q+!$.Tm+@q+#q+W5+Bo.K{+Fk.$q+%q+9b.6j+&q+^7 YI ;S.*J o7.Bk+*q+=q+Ih+d& ap+",
"2( -q+]4+<< k< Q%.;q+1: '^ O^ f= L( X& >q+C% 3` $# H. D& R2 *< 3 ./,+!L v, qo+w_.7m d;+*< ,q+03+'q+KY.!'.}+.3:+==+`n+(r Uh+a-.2%+(h+)q+!q+3n+R&+ba+;} >n+l^ H. Z' w^ ~q+{q+]q+p{ ^q+/q+6{ (q+6) %^+Y& xc =2 N- S| X`.f_ S2+;=++n+_q+:q+cU.<q+5*+Yo+[q+7a+}q+|q+Jb+| +1q+2q+3q+!$ -9+4q+5q+9= 0@ 6q+(_ ,m.(: ~% g@ 8_ )[ Zn+4:+h@ a6 7q+(@ V' b$ u] Qn <# o{ 8q+*E Go+}_ v& ic.UP Ld+R# bu.![ lo+9q+)g+0q+L..aq+2V.bq+cq+3 +i6+dq+eq+^=.fq+/t.9,+/t.yO.eh+T.+gq+NL.9b.hq+)p+iq+jq+kq+n0.5^+To+Fn.lq+Dh.!j+mq+nq+Kj+iq+KK.W++oq+s!+pq+qq+(d.rq+0b+bR #l+tP.sq+tq+!T.5Y.QN.uq+vq+S;+wq+xq+~V.yq+q1+_a+Pn+K( 1'.zq+u<+B=+mO.Aq+Bq+>4 pX 31 h7 a^ Rk+f$ Cq+ce+Dq+9 +X& |l+a- SG Qw r% 9+ G| Eq+Jb.D0 ![ _e+{8 Fq+Vm+4:+Gq+Ah+Hq+Iq+T1.D' Tm+eO.D'+a-+$! 9}.!#+Jq+HW.'9+h}.4^ &n+Kq+qP i7 Lq+OZ I0+A&+",
".R 1k+~s Mq+!  ^( Ot h' n4 6; F~ e} I[ YI x5 a. =J >9+j| y{ Nq+ s Oq+Pq+:h+Qq+Rq+(p+p' 9a+)0+:[.Sq+fY.U2 ==+Jf.Y/ Tq+0 +Uq+y9.Vq+Tn+xc c^ b7 Wq+(& %> ua h4.Xq+~..5~ '9+:_.Oq+}:+K*.Yq+Jq+]9.A& *, $! }, 0. $# t$ W(+96 Zq+EP 4~+`q+hi+n5+nT.dk+*k+ r+Od+'k+.r+ho+/n.[_ 6H w) =/ :[.T, ,m.^. xc `( ^= o{ a] B; Du =@ d}.78 9( e) '$ G# &% y: j$ &D ]A.+r+KU.@r+#r+#1 $r+!- 7> Y|+Mq+%r+VM.%g+C&+l:+3n+&r+%e+RZ.zu ol+*r+@c+=r+ss..5+k[+}Y.pk+P4+^V.-r+5'+R;+zn+;r+%l+,}+u=+n|+>r+r~+it.,r+mq+'r+)r+C|+MJ._9+wT.!r+`g+~r+L9+og+>0+{r+]r+^r+&-._R.Yl.mD.FR ]V.%l+ZI.O`.9Y Lk+/r+@!+&h.D6+fa+Vg+s1+(r+:9 A& j' 4^ ;3 T'+<g+I0+2! _r+H^ :7 m+ ~( Co+Nq+YI @$ -q :r+<r+W'+7k.Qn [r+]g '9+PK 5Q.V5 }r+Aj+z- Y& j[ |r+v&+I{+V| p_.i7 @q+1r+b/+jm+2r+7m :7 2a+=[+3'+C^ Yc Bo.wo+_$ 6m+Ec+3r+5L.2V.4r+R&+",
"xp+-,.bz Wh [g a-+72 5  e] 1C `@ 3; V* v+ G! p< o< {, q~ |$ &- @. 7k.m|+5r+_4+U' Z5+/:+6r+<..S, _e+e5 g-+Go+>L.n/+7r+`.+8r+9r+@ .e) <@ 0r+ar+{. W@ y- 2q+9( Z% u! i  ^. $- m@.S| O` 9= br+j[ N~ La A; w. U& f= cr+3; dr+u) cY.er+50+C{+`U 1H.Ek++N.jm+fr+&_+un+yp+~n.:q+ok gr+hr+b, z[ h7 j> M2+=/ o  W  %!+$$ W$ a- /p+ir+Un+im+jr+;- 6| 1+ 5~ D] @& Y.+yT.>$ &% U& Ld+kr+(q+<%+lr+L6+mr+.++EP vl C&+nr+8_+or+ r+Tl+X[+pr+qr+T*+3W.R{+ff++B.rr+N@.sr+tr+oq+ur+nL.5F.yd.;c+V=+Lm+'8+vr+h,.wr+xr+yr+<*+zr+jt.'L.x:.Ar+r|+Br+*4+Cr+lu.Bc+O +7{.wl+Dr+Er+Fr+Gr+rT g8+=n+Bf+JZ.Hr+Ir+`U Jr+dQ.LP..m+>g+Kr+Lr+Mr+4/ z# Nr+Or+YI 8j+Pr+g-.7> xh+Qr+Lr+ I.Nt T. [r+Pn+7;.ir.lb E'+hm 'H 5m+pX n' e) '( Rr+y&+,- hG U#+9Y.`}.Sr+Jn+Tr+Ur+Vr+/@ !h+7..iB Wr+@B R&+fH Xr+Yr+7f ok :h+{| 3` &r+F;+N- _$ Ac+",
"6n a^ hG .! W& j$ >( Y! T# ov t{ $3 h. => Wp $& w} q~ /& {q+g, R9 4* +6 @. 2V.e}.u) Um+Zr+3l+Yc `r+ s+Sh+.s+C&+|m++s+li+@s+#s+*{ JZ y; im+P0 lo+H. $s+%s+6! &s+Ak+*s+j& 4& ]> C$ (& =s+g/+Z, td+B& r  g. k< x* f  J% Z' -s+S.+>l+$1 ;s+(2+/& 2a+SZ.>s+2k+Kf.hm+,s+wo+Rr+'s+@. ,. ^! q> ^! ~% )s+&% 4~ K$ R& jm+V$+!s+H# )[ EP  1 S2+vM.E- .% M  N- |] ~s+aT E  tn+m;.5* kl R2 '( {s+]s+]9+^s+}..%n+Z[+/s+JT.6~+im.jr.& .@_+(s+#I.P4+_s+:s+<s+[s+}s+V7.my.d<.ts.'u.yz.9i+|s+T'+ae+1s+2s+*4+vc+3s+Cl+_r.4s+wd.5s+6s+7s+IZ.20+5C.aq+8s+9s+Ul+0s+3^+9p+M{+w9.as+uc+Ef.bs+eQ.s1+1[+<q+}h+cs+x/+Fp.B[.ds+zj q> h..`% -O.9j+>J sU g7 Bb kl+es+y1+d}+~( a^ 2* ]' %# fs+gs+ni++^+Zu hs+03+is+An+im+SZ.'l+Oi C^ jl+bl+js+ks+o@ ][ ^4+#1 ls+4& ms+E' ]%+rb+1W.]h.@I.'q+,q+~o+2~+cl+Qn+ns+%S os+7.._. qi+'l+",
"o1+kU ,- 6;  p+.: __ 3) ^8 Ph q, V- 8{ 6H [r+% .>@ V+.I. }! ps+9  qs+<] @n+u<+9( l|+rs+@q+ss+lo+'H Od+ts+us+UF <..&  /:+:Y.el ^) vs+M2+8- ws+M& B. o@ (@ {  d;+B# *Q Q% s% !- `( r+ zq+E' '- xs+G! 2; y- g] ys+9. zs+!E  ^+(< As+Bs+Du :[.*m.$T.Cs+Ds+!g+v; m{ Es+(Z.wx.b+ u, M* Fs+`= u  9% u. R% Gs+Hs+,- )} hl+Is+h@ DX.1m+:e+Js+Ks+_h+6H 7s Ls+Ld+VG hm+vl Z[+z0 z& B; _|+%; tz.[ .Ms+qi+!g+_=+Ns+Os+Iq+Ps+lr+7f Qs+bW /K.!X eu.:4+gj.2y.Rs+Ss+dn+Ur+Ts+Us+Vs+/:+Ws+p_.Jf.Xs+^9.Ys+8a+Zs+F|+`s+qq.l~++s.|0+ak+sq+ t+.t++t+_w.5)+p|+}F.@t+TY.tl+^l+lc+]9+#t+Sh AW gi+zg+=h+$t+,}+>g+vb+Ih+%t+&t+:D.#s+vM.S, $f+=- ZO 9,.0|+m! jm+*t+=t+]A.&f+G# u) -t+a+ 8,.!m+Pd+W%.;t+I0+7Y bu.Nt 3#.Q+.I0+>t+7s <r+el Pq+,t+Y% 't+Un+/h+0. Io+q< {4+L# E  ]%+k< cc )t+U(+!w.~( th+7k.s<+,M.^h+g;.%; !t+}q+",
"ak+kh+$+ ~t+|_ *+ r  Wp+hG 2( a& &% T- sb+Sq x! e|+/h+7m I_ {t+]t+x* Z% @ .(p+^t+iJ./t+(t+7: &%._t+LU.ak+oj.Qd+^[ +B.`r+DX.u5.}e+ok :t+<t+)9+6[ [t+P> G. ;# W@ x* N@ =, Y; UF G  Y$ !$ D] Zb+t+ cV t8 L= *~ C- 2a (& y# wW.{k+`= }t+Pm+z[ V+.F# #n+5&+31 J{+|t+Od+1t+@n+:[.2t+BD n5 Om+x! zs+/& y1+3t+D& 4t+!( Pq+UH gM H| 6% s& .: I[ =# 5t+P9 6t+7t+8t+#S.'} =9 J(+Ei vM.]/  d._e+SZ.7Y 9t+0t+at+7> B&+b/+bt+X% ct+=^+!$.J&+dt+mL.s1+et+v<+s6.ft+Uf+bl+es+W~ Q%. [ %P gh+gt+ht+it+a> Lm.jt+6m+a` .o+k~ N1+P;+kt++b+zg+Yd+&f+xW.k{.lt+mt+eo+nt+<0.ot+h~+pt+E7+KW.9Y  t+GZ.>g+3v.*J N6+{B.0Z. o+ca+qt+3n M; rt+st+3k+][ Tv 'p.4n+tt+<8.XL Z0.:s.ut+>< i^ Un+x) ^:+,$._g g-.VG Ci+vt+za ]:+D# EB kI d;+za rb+wt+!t+Gz ),+D!+_=+g>.dm+_e+6# xt+|_ Gm+%.+yt+{w.6) 0~+W%.zt+(r &^+4r+-9+r% |V.Lk+At+",
"&$+NX.~: ,M.#> $- Bt+:<.9= *, M_ C[ Ct+E. !1 >; 4:+Dt+4q+o) =  Fq+Et+,l+A<.Ft+|s.Gt+Ht+4[+4j+It+/N Jt+R.+Y9 U2 .s+Kt+Lt+[m+7k+Zp.F&+I  Mt+9= g-+>9+^= (< 4! -* t= z5 N! bF Y% !$ y; y! Y= ~8 N7 4& a@ B& BT K& J  a6 Vq+ys+j) xp+@r+7- k( Nt+v; Bo.4 . S Ot+m_ Pt+Kl._q+6a+]%+[_ Qt+;r+c8 2v )J Rt+%$ JZ St+B# 8p+|{ 1! h@ $& Tt+rt+Ut+=/ g/+ & J(+Vt+jk Wt+i4 >J hG #Z.gJ n' Xt+Yt+b, <] !  4g+v+ J{+|y.b$ ==+Zt+zl+Hh+/;  ).`t+ u+u}+.u+EW.+u+]+.@u+v) jv Wh #u+vM.%; zT 7: U.+Cj+2@ K: /h+$u+0j+(m+&n+ri+0S.%j+jO. r+%u+)L.Yr+i[+2-+[g+g`.F|+s/+&u+*u+Nn+=u+q7.0j+nG.D{+-u+pc+4-+;u+>u+0V.,u+6-+1'.H] l^ gg+(p+jm+'u+)u+YI /& Wy I% T= Y|+!u+p  (< m: e}.>=+]| si+>J P(+,m.R. &z [b.nj+Wr+4m+K/ lb+=q./& sj.cl+mo+sb ,s+Pm+~m+6-+~u+fm+_=+0* ~A.vk+j5+s<+1l+dk+bO.ct+N.+2_ {u+`|+=9 ]u+fY.fa+",
"[a+4y.=n+h@ ^8 z0 {| _$ H% ^:+#& (] *t+V| T[ [9 ^u+!1 /u+/& af.2: rt+HT.Sk.(r+#3+n1+(u+ -+9w..Z m`.^V._u+:u+$Z.Bo.]` Jn+PK <u+[u+}u+xh+4F *| ;3 u  a+ V! i= k' @& a+ (_ 38+by J- Wp+{- H% wp+9( z[ g~ |u+*+ ;=+0^ ;e.1u+4A }V.b/+br+3,.5m+q, }* 2@ x! kl .f+_m+sb+Zo+.* l^ Wr+b7 4r+D;+u<+f' x! t~ Z' u$ `|+yp+2u+^D 3u+6t+q, Mr+Yq+H^ S+.X+.E$ Bo.4u+vh+<..!  eH.dJ gJ Aq+5u+t6 6u+&O.H6+.f+/b+bu.7u+P/ %1.Od+5< }p+vt+C^ Ag+@|.8u+F4+;.+`q+'E it+'W.'u.K&.lo+'E 5L.7m t|.&q+'} H. 9u+Un+l@ ,` C#.|{ k5+1v gB.Yr+Rj+Qt+0u+J0+/V.au+bu+ ;+cu+>#+Us.du+Ur.#l+eu+Dc+fu+Ca.gu+Sr+`2+o_.5C.}h+}p+}] 6/ Xr+%# hu+Nr+9,.iu+W$ Fs +f+iv Z[+ju+Ia+ho+]4+ku+`p+!3 lu+mu+rT.nu+ou+8-+pu+Ol+pc+yX {< U2++f+3~+qu+~h++s+Fs 4g+93+/N jL.U| ru+Zo+su+tu+=J uu+sz.,o+`= ~( Pi+vu+0..t~ !9+>4 us+Jn+::+L_+]/ (2+",
"N[+wu+F4+km+P0  $ J{+.+ L~ 4+ H. 3^ H0 |< !@ `n+sb+_8 UI 5& xu+4/  B.yu+zu+h}./m+}h+ar+'S. r+4B b+ Au+C&+Lm.Bu+]h jL.Tq+pS <a+{4+1C.}+.Cu+Q' 9- Du+p, 3%+Eu+Lr+!@ Fu+Gu++|.zq+Wy *| <# 'H 9  Nq+/,+Nt J- J3 2< EP Hu+uu cd lL.Iu+~s Dn+!'.;- (0.6q+4& du.1! gi+Ju+>$ HM J{+~( 2V.m: Jt+X;+~q+<% <h+4u+Aj+1l+_8 bi+pb+`.+H] Gu+d6 os+Wy e|+{n+Gk.,9+Pt+F&+ak+ic.t{ ;3 jt+Oq+*J )=+': Ku+^@ @} pj+V.+tt+Lu+`H Mu+V%+:t+I2+Nu+!2+Lk+nu+Ou+y1+u@.(b+ai+Km.3'.A1+Z! b* 1:+m! z<.Tk.e, Pu+/g PW.qM.Th+Z%+2_ )1 Bb >4 3k+cY.9,+Qu+NG.We.Ru+$d+Su+Tu+Uu+bj+(s+Vu+Wu+m_+b,.1k+>J Al+{m+xt+:Y.fI.bR.44.m/+.8+Xu++|.Zp+w) .8+`r+&_+|t+GW.s<+Yu+Zu+!w.`u+qu+^<. v+0Y [_ Ec+.v+f6 Jn+9+ ;q.nu+^i.9Y wt+dK.X2++v+Qj+5F @v+,o+-q N(+J4+#v+`o+Jf.^8 $v+*c.dI 7: go+PK G  3h+_t+aq+$$ /$. r+ir.$$ 9a+%v+^. 6m+u++"};
