/* XPM */
static char * leaking_wall0_xpm[] = {
"256 256 11503 3",
"   	c #6D6052",
".  	c #5D5247",
"+  	c #746D65",
"@  	c #4C433F",
"#  	c #433E32",
"$  	c #726B63",
"%  	c #69625A",
"&  	c #68645A",
"*  	c #6C6761",
"=  	c #67605A",
"-  	c #7C7770",
";  	c #8B857B",
">  	c #6A645D",
",  	c #726864",
"'  	c #5C5550",
")  	c #58534E",
"!  	c #625D55",
"~  	c #746D67",
"{  	c #5D564D",
"]  	c #555048",
"^  	c #69645D",
"/  	c #6A655E",
"(  	c #6D6762",
"_  	c #645F57",
":  	c #77736B",
"<  	c #6C665C",
"[  	c #5E5954",
"}  	c #58534A",
"|  	c #69645B",
"1  	c #65605C",
"2  	c #5F5954",
"3  	c #635D56",
"4  	c #706C66",
"5  	c #716B61",
"6  	c #655F5A",
"7  	c #605B52",
"8  	c #68625C",
"9  	c #6C645C",
"0  	c #504A44",
"a  	c #595148",
"b  	c #524C45",
"c  	c #69605C",
"d  	c #6C675F",
"e  	c #6D6560",
"f  	c #5E5751",
"g  	c #635D55",
"h  	c #706B65",
"i  	c #706A62",
"j  	c #736C66",
"k  	c #6D655F",
"l  	c #655E56",
"m  	c #605950",
"n  	c #7F776E",
"o  	c #706963",
"p  	c #716A62",
"q  	c #7C726E",
"r  	c #776F68",
"s  	c #7B756D",
"t  	c #625D54",
"u  	c #585149",
"v  	c #605A56",
"w  	c #7F756F",
"x  	c #766F65",
"y  	c #5D5852",
"z  	c #5C5651",
"A  	c #5D5750",
"B  	c #524E46",
"C  	c #79736C",
"D  	c #6B665D",
"E  	c #605A52",
"F  	c #645C55",
"G  	c #635A56",
"H  	c #726C64",
"I  	c #6E665E",
"J  	c #49423E",
"K  	c #4D4A41",
"L  	c #675E57",
"M  	c #7C766F",
"N  	c #736D64",
"O  	c #666158",
"P  	c #656059",
"Q  	c #645F58",
"R  	c #5F5551",
"S  	c #645C57",
"T  	c #564F49",
"U  	c #605D55",
"V  	c #554F48",
"W  	c #655F58",
"X  	c #5D5751",
"Y  	c #625E58",
"Z  	c #534C47",
"`  	c #6C645E",
" . 	c #625D56",
".. 	c #636057",
"+. 	c #625A52",
"@. 	c #6A6660",
"#. 	c #5B574F",
"$. 	c #6F6861",
"%. 	c #605A53",
"&. 	c #514C42",
"*. 	c #545048",
"=. 	c #6B635C",
"-. 	c #6D6660",
";. 	c #5C5551",
">. 	c #615D57",
",. 	c #6B655E",
"'. 	c #6C655E",
"). 	c #7B766D",
"!. 	c #685F5B",
"~. 	c #484239",
"{. 	c #645D55",
"]. 	c #6B6660",
"^. 	c #716962",
"/. 	c #6C665F",
"(. 	c #726E65",
"_. 	c #5A564E",
":. 	c #574E48",
"<. 	c #524B48",
"[. 	c #665F5A",
"}. 	c #514D45",
"|. 	c #534C44",
"1. 	c #6E6B64",
"2. 	c #716863",
"3. 	c #625C52",
"4. 	c #605B56",
"5. 	c #48423B",
"6. 	c #716A61",
"7. 	c #5C574F",
"8. 	c #665D58",
"9. 	c #706C67",
"0. 	c #726F67",
"a. 	c #7D7771",
"b. 	c #6E6860",
"c. 	c #7C756D",
"d. 	c #666359",
"e. 	c #746A64",
"f. 	c #4E4A43",
"g. 	c #585048",
"h. 	c #5F584F",
"i. 	c #7B7266",
"j. 	c #120E06",
"k. 	c #786E68",
"l. 	c #73716A",
"m. 	c #6F6D65",
"n. 	c #655F56",
"o. 	c #5B554F",
"p. 	c #6A645E",
"q. 	c #6D6661",
"r. 	c #666259",
"s. 	c #5F5B53",
"t. 	c #655E58",
"u. 	c #665F5B",
"v. 	c #59544B",
"w. 	c #6E6760",
"x. 	c #69635D",
"y. 	c #67625A",
"z. 	c #56524B",
"A. 	c #4E4943",
"B. 	c #514D49",
"C. 	c #58524A",
"D. 	c #6B685E",
"E. 	c #6E6861",
"F. 	c #57534B",
"G. 	c #605953",
"H. 	c #67635B",
"I. 	c #646059",
"J. 	c #6D675F",
"K. 	c #787269",
"L. 	c #7C7A73",
"M. 	c #666059",
"N. 	c #615E53",
"O. 	c #615D58",
"P. 	c #5A574F",
"Q. 	c #76716A",
"R. 	c #675F59",
"S. 	c #6C665E",
"T. 	c #625E59",
"U. 	c #767068",
"V. 	c #6C6760",
"W. 	c #6F6A63",
"X. 	c #66635E",
"Y. 	c #716E68",
"Z. 	c #74706A",
"`. 	c #7C756E",
" + 	c #59504B",
".+ 	c #6F6863",
"++ 	c #69665E",
"@+ 	c #77716A",
"#+ 	c #605A55",
"$+ 	c #666058",
"%+ 	c #69625C",
"&+ 	c #77736C",
"*+ 	c #6D655D",
"=+ 	c #7B7871",
"-+ 	c #6F675F",
";+ 	c #5B514D",
">+ 	c #877D77",
",+ 	c #57524B",
"'+ 	c #767069",
")+ 	c #5C5850",
"!+ 	c #726E66",
"~+ 	c #8E8985",
"{+ 	c #77706B",
"]+ 	c #7D7A70",
"^+ 	c #605C56",
"/+ 	c #817B76",
"(+ 	c #655E57",
"_+ 	c #6D655E",
":+ 	c #807A73",
"<+ 	c #716B64",
"[+ 	c #7F7872",
"}+ 	c #746F68",
"|+ 	c #676057",
"1+ 	c #5A5651",
"2+ 	c #655D57",
"3+ 	c #6A665D",
"4+ 	c #544F46",
"5+ 	c #7B756E",
"6+ 	c #6F6A60",
"7+ 	c #6E655F",
"8+ 	c #625852",
"9+ 	c #6F6961",
"0+ 	c #5D5953",
"a+ 	c #686156",
"b+ 	c #67635D",
"c+ 	c #666159",
"d+ 	c #5E5750",
"e+ 	c #676258",
"f+ 	c #706862",
"g+ 	c #746D64",
"h+ 	c #6E675F",
"i+ 	c #554D47",
"j+ 	c #6D665D",
"k+ 	c #857D75",
"l+ 	c #66605A",
"m+ 	c #7B746B",
"n+ 	c #7D7971",
"o+ 	c #5B544D",
"p+ 	c #5B564D",
"q+ 	c #746E64",
"r+ 	c #837C76",
"s+ 	c #7A746E",
"t+ 	c #5E5955",
"u+ 	c #6B645B",
"v+ 	c #706762",
"w+ 	c #746C64",
"x+ 	c #685B4D",
"y+ 	c #483C30",
"z+ 	c #6A6357",
"A+ 	c #544C45",
"B+ 	c #4B453E",
"C+ 	c #696359",
"D+ 	c #68605A",
"E+ 	c #716B63",
"F+ 	c #857B73",
"G+ 	c #746D66",
"H+ 	c #857D76",
"I+ 	c #6D6A61",
"J+ 	c #5F5653",
"K+ 	c #645D59",
"L+ 	c #59554F",
"M+ 	c #69615B",
"N+ 	c #645D57",
"O+ 	c #5B554D",
"P+ 	c #6D6A62",
"Q+ 	c #837D73",
"R+ 	c #7E756F",
"S+ 	c #706F66",
"T+ 	c #6E665D",
"U+ 	c #625E56",
"V+ 	c #645F59",
"W+ 	c #6C6661",
"X+ 	c #6B645D",
"Y+ 	c #6F6A62",
"Z+ 	c #766F68",
"`+ 	c #655C55",
" @ 	c #645E5A",
".@ 	c #5F5B54",
"+@ 	c #68645B",
"@@ 	c #69625E",
"#@ 	c #5F5B52",
"$@ 	c #68625A",
"%@ 	c #6F645F",
"&@ 	c #696159",
"*@ 	c #6E6960",
"=@ 	c #675F56",
"-@ 	c #605951",
";@ 	c #665F57",
">@ 	c #6C6660",
",@ 	c #7A7670",
"'@ 	c #685F5A",
")@ 	c #6A605B",
"!@ 	c #716D63",
"~@ 	c #7D7973",
"{@ 	c #8A847B",
"]@ 	c #8F8781",
"^@ 	c #6E6A5E",
"/@ 	c #655F5B",
"(@ 	c #79706A",
"_@ 	c #766E69",
":@ 	c #6A625A",
"<@ 	c #635D57",
"[@ 	c #5C554E",
"}@ 	c #5A554C",
"|@ 	c #5F5C55",
"1@ 	c #5E5850",
"2@ 	c #59544C",
"3@ 	c #5C564E",
"4@ 	c #605952",
"5@ 	c #68615C",
"6@ 	c #605853",
"7@ 	c #686159",
"8@ 	c #7A716A",
"9@ 	c #7D7470",
"0@ 	c #716A64",
"a@ 	c #6C665D",
"b@ 	c #6D655C",
"c@ 	c #57514A",
"d@ 	c #5F5B51",
"e@ 	c #68605B",
"f@ 	c #6A625E",
"g@ 	c #615B55",
"h@ 	c #675E5C",
"i@ 	c #6D675E",
"j@ 	c #625E55",
"k@ 	c #5C584E",
"l@ 	c #6E6962",
"m@ 	c #635B56",
"n@ 	c #716F63",
"o@ 	c #7F7970",
"p@ 	c #655D54",
"q@ 	c #6D665C",
"r@ 	c #4F4B42",
"s@ 	c #69655B",
"t@ 	c #574F4A",
"u@ 	c #5A514A",
"v@ 	c #665D55",
"w@ 	c #736C65",
"x@ 	c #5E5650",
"y@ 	c #6C655F",
"z@ 	c #635C54",
"A@ 	c #696059",
"B@ 	c #5D5551",
"C@ 	c #6E6662",
"D@ 	c #4F4942",
"E@ 	c #57504A",
"F@ 	c #76716B",
"G@ 	c #57514D",
"H@ 	c #574E46",
"I@ 	c #534E44",
"J@ 	c #4F4843",
"K@ 	c #534B46",
"L@ 	c #79716A",
"M@ 	c #665E59",
"N@ 	c #615954",
"O@ 	c #767168",
"P@ 	c #5C544F",
"Q@ 	c #68645C",
"R@ 	c #615B56",
"S@ 	c #453F38",
"T@ 	c #4D463F",
"U@ 	c #615A52",
"V@ 	c #665F56",
"W@ 	c #605649",
"X@ 	c #201913",
"Y@ 	c #70685F",
"Z@ 	c #7D7770",
"`@ 	c #625D59",
" # 	c #7C786E",
".# 	c #69645F",
"+# 	c #6E6A62",
"@# 	c #736E6A",
"## 	c #7C7971",
"$# 	c #67615A",
"%# 	c #79706D",
"&# 	c #5F5C4F",
"*# 	c #716D68",
"=# 	c #605B55",
"-# 	c #58534D",
";# 	c #504B45",
"># 	c #58544E",
",# 	c #635F56",
"'# 	c #5F5751",
")# 	c #5C5650",
"!# 	c #625C55",
"~# 	c #676259",
"{# 	c #554C47",
"]# 	c #79746B",
"^# 	c #6D6760",
"/# 	c #84827B",
"(# 	c #5A554E",
"_# 	c #706B62",
":# 	c #706A63",
"<# 	c #757169",
"[# 	c #716E6A",
"}# 	c #6E6862",
"|# 	c #645E55",
"1# 	c #5D5550",
"2# 	c #6B635E",
"3# 	c #706964",
"4# 	c #6D6962",
"5# 	c #645E56",
"6# 	c #67645E",
"7# 	c #7E7972",
"8# 	c #70665E",
"9# 	c #645E57",
"0# 	c #736D66",
"a# 	c #807A75",
"b# 	c #635C55",
"c# 	c #787068",
"d# 	c #625D50",
"e# 	c #77726B",
"f# 	c #656056",
"g# 	c #6D625F",
"h# 	c #565249",
"i# 	c #6F6963",
"j# 	c #5A5550",
"k# 	c #6C6963",
"l# 	c #6A6760",
"m# 	c #736B67",
"n# 	c #6E6C63",
"o# 	c #837972",
"p# 	c #67605B",
"q# 	c #595248",
"r# 	c #726F65",
"s# 	c #79756E",
"t# 	c #676159",
"u# 	c #7A736C",
"v# 	c #706C64",
"w# 	c #7E7872",
"x# 	c #7C7670",
"y# 	c #5D554D",
"z# 	c #696459",
"A# 	c #77706C",
"B# 	c #5C534A",
"C# 	c #635B53",
"D# 	c #959188",
"E# 	c #7A7269",
"F# 	c #6C685F",
"G# 	c #635C52",
"H# 	c #5B564F",
"I# 	c #68625B",
"J# 	c #706E66",
"K# 	c #807D75",
"L# 	c #443B30",
"M# 	c #585047",
"N# 	c #6D5D51",
"O# 	c #5C544B",
"P# 	c #382E27",
"Q# 	c #756F67",
"R# 	c #80786D",
"S# 	c #8D847D",
"T# 	c #756F66",
"U# 	c #999087",
"V# 	c #665C53",
"W# 	c #625A53",
"X# 	c #534C43",
"Y# 	c #817C70",
"Z# 	c #716960",
"`# 	c #847B76",
" $ 	c #716961",
".$ 	c #79746D",
"+$ 	c #8C8980",
"@$ 	c #6E6961",
"#$ 	c #635D54",
"$$ 	c #7E756A",
"%$ 	c #6E685C",
"&$ 	c #5E594F",
"*$ 	c #827974",
"=$ 	c #857F78",
"-$ 	c #544E45",
";$ 	c #635B57",
">$ 	c #7A7368",
",$ 	c #6A635D",
"'$ 	c #58554A",
")$ 	c #847E78",
"!$ 	c #575149",
"~$ 	c #6D6A60",
"{$ 	c #7E786F",
"]$ 	c #857D77",
"^$ 	c #645C56",
"/$ 	c #5B574E",
"($ 	c #68605C",
"_$ 	c #746E66",
":$ 	c #8E8A7F",
"<$ 	c #6E655C",
"[$ 	c #766B62",
"}$ 	c #9D958C",
"|$ 	c #645F56",
"1$ 	c #6C655D",
"2$ 	c #6F665E",
"3$ 	c #807A72",
"4$ 	c #766C64",
"5$ 	c #7E7771",
"6$ 	c #787167",
"7$ 	c #635A55",
"8$ 	c #57514C",
"9$ 	c #78706A",
"0$ 	c #656157",
"a$ 	c #605A50",
"b$ 	c #5B564C",
"c$ 	c #534B43",
"d$ 	c #635F58",
"e$ 	c #5F5852",
"f$ 	c #5B5751",
"g$ 	c #615C55",
"h$ 	c #716A65",
"i$ 	c #7D776D",
"j$ 	c #5F544C",
"k$ 	c #544943",
"l$ 	c #5D584F",
"m$ 	c #746F6B",
"n$ 	c #5E544E",
"o$ 	c #777066",
"p$ 	c #6F6862",
"q$ 	c #706E67",
"r$ 	c #646157",
"s$ 	c #5D5952",
"t$ 	c #6F695F",
"u$ 	c #676158",
"v$ 	c #706765",
"w$ 	c #5F594E",
"x$ 	c #726D63",
"y$ 	c #6C6560",
"z$ 	c #6C625A",
"A$ 	c #79716B",
"B$ 	c #7D796D",
"C$ 	c #736B65",
"D$ 	c #6E6A63",
"E$ 	c #77736A",
"F$ 	c #675F58",
"G$ 	c #49403A",
"H$ 	c #867F78",
"I$ 	c #4B423C",
"J$ 	c #79726B",
"K$ 	c #69665C",
"L$ 	c #766E68",
"M$ 	c #807B73",
"N$ 	c #777166",
"O$ 	c #7A7770",
"P$ 	c #736E67",
"Q$ 	c #636058",
"R$ 	c #716C64",
"S$ 	c #6D6960",
"T$ 	c #69635C",
"U$ 	c #726A64",
"V$ 	c #5E5550",
"W$ 	c #6A645C",
"X$ 	c #5D5A50",
"Y$ 	c #6A6157",
"Z$ 	c #837A73",
"`$ 	c #676059",
" % 	c #7B746C",
".% 	c #665E5A",
"+% 	c #726C66",
"@% 	c #5F5953",
"#% 	c #635E5A",
"$% 	c #706B64",
"%% 	c #6A655F",
"&% 	c #7B716D",
"*% 	c #817B71",
"=% 	c #6C6861",
"-% 	c #88827C",
";% 	c #656158",
">% 	c #999088",
",% 	c #787468",
"'% 	c #584E49",
")% 	c #746E63",
"!% 	c #777167",
"~% 	c #877D70",
"{% 	c #271C14",
"]% 	c #736659",
"^% 	c #696158",
"/% 	c #948B85",
"(% 	c #7C7870",
"_% 	c #847D75",
":% 	c #665F59",
"<% 	c #8A877C",
"[% 	c #645B59",
"}% 	c #838077",
"|% 	c #605954",
"1% 	c #726D64",
"2% 	c #625C56",
"3% 	c #5F5C54",
"4% 	c #716E67",
"5% 	c #746E65",
"6% 	c #6A635C",
"7% 	c #746D68",
"8% 	c #6A665F",
"9% 	c #75736A",
"0% 	c #5F5A53",
"a% 	c #7D766F",
"b% 	c #6B655C",
"c% 	c #918D85",
"d% 	c #6A645B",
"e% 	c #615952",
"f% 	c #79746A",
"g% 	c #756D65",
"h% 	c #555049",
"i% 	c #8E8A84",
"j% 	c #69675F",
"k% 	c #67605C",
"l% 	c #6D685F",
"m% 	c #6F6B65",
"n% 	c #66625D",
"o% 	c #736A68",
"p% 	c #69635A",
"q% 	c #7E7873",
"r% 	c #5A554D",
"s% 	c #665F58",
"t% 	c #847E77",
"u% 	c #817971",
"v% 	c #7B7571",
"w% 	c #423935",
"x% 	c #706C63",
"y% 	c #635E57",
"z% 	c #6F6661",
"A% 	c #817C74",
"B% 	c #868078",
"C% 	c #5C564F",
"D% 	c #59554A",
"E% 	c #5D574D",
"F% 	c #47413B",
"G% 	c #686359",
"H% 	c #6B6158",
"I% 	c #514A44",
"J% 	c #837B71",
"K% 	c #746F69",
"L% 	c #64615A",
"M% 	c #79726A",
"N% 	c #4D473E",
"O% 	c #726B64",
"P% 	c #7F7770",
"Q% 	c #5E5A52",
"R% 	c #71675F",
"S% 	c #6F6560",
"T% 	c #887E77",
"U% 	c #847C72",
"V% 	c #635E54",
"W% 	c #615854",
"X% 	c #7A766B",
"Y% 	c #656055",
"Z% 	c #827D76",
"`% 	c #5E574F",
" & 	c #877F76",
".& 	c #847B73",
"+& 	c #5F5853",
"@& 	c #524B46",
"#& 	c #554C48",
"$& 	c #675D54",
"%& 	c #524B42",
"&& 	c #564F47",
"*& 	c #827C73",
"=& 	c #6E685F",
"-& 	c #918F86",
";& 	c #8F8E86",
">& 	c #76706B",
",& 	c #85837A",
"'& 	c #322C26",
")& 	c #3C332C",
"!& 	c #2B251C",
"~& 	c #988B81",
"{& 	c #63584E",
"]& 	c #40362E",
"^& 	c #3D352B",
"/& 	c #473D36",
"(& 	c #8A7F75",
"_& 	c #767166",
":& 	c #978E83",
"<& 	c #8C867A",
"[& 	c #726960",
"}& 	c #827C6D",
"|& 	c #797367",
"1& 	c #80786F",
"2& 	c #827A71",
"3& 	c #7C7369",
"4& 	c #9C9289",
"5& 	c #8A8479",
"6& 	c #887F73",
"7& 	c #7C736B",
"8& 	c #888076",
"9& 	c #8A7F78",
"0& 	c #70695E",
"a& 	c #716F62",
"b& 	c #9A9489",
"c& 	c #817A71",
"d& 	c #776E63",
"e& 	c #79736B",
"f& 	c #776F67",
"g& 	c #968F87",
"h& 	c #928A80",
"i& 	c #938A82",
"j& 	c #938B83",
"k& 	c #979088",
"l& 	c #9C948D",
"m& 	c #8B857F",
"n& 	c #99948B",
"o& 	c #989088",
"p& 	c #7F786C",
"q& 	c #8A8176",
"r& 	c #959087",
"s& 	c #A69C95",
"t& 	c #898279",
"u& 	c #9B948B",
"v& 	c #968E84",
"w& 	c #979286",
"x& 	c #948881",
"y& 	c #999288",
"z& 	c #766C65",
"A& 	c #6D6659",
"B& 	c #6B625D",
"C& 	c #79736A",
"D& 	c #767067",
"E& 	c #766F69",
"F& 	c #7C766C",
"G& 	c #615C53",
"H& 	c #756C66",
"I& 	c #726C61",
"J& 	c #888179",
"K& 	c #5D524B",
"L& 	c #7C766E",
"M& 	c #807970",
"N& 	c #57514B",
"O& 	c #726A60",
"P& 	c #736A61",
"Q& 	c #6D655A",
"R& 	c #5C5348",
"S& 	c #696259",
"T& 	c #6A625D",
"U& 	c #5D544E",
"V& 	c #4B413C",
"W& 	c #413630",
"X& 	c #534C45",
"Y& 	c #6E665F",
"Z& 	c #5B534D",
"`& 	c #615B52",
" * 	c #77706A",
".* 	c #6A655A",
"+* 	c #6A6158",
"@* 	c #6B6257",
"#* 	c #6D645C",
"$* 	c #6A5F58",
"%* 	c #4E443F",
"&* 	c #655C57",
"** 	c #645B53",
"=* 	c #49433C",
"-* 	c #423A32",
";* 	c #656258",
">* 	c #5F5750",
",* 	c #7C716B",
"'* 	c #7B756B",
")* 	c #696057",
"!* 	c #777068",
"~* 	c #747168",
"{* 	c #6E6660",
"]* 	c #766B64",
"^* 	c #7F7B6F",
"/* 	c #7E766F",
"(* 	c #7E736D",
"_* 	c #70675E",
":* 	c #797069",
"<* 	c #786F69",
"[* 	c #5B534B",
"}* 	c #6F685E",
"|* 	c #3B342F",
"1* 	c #6B6359",
"2* 	c #7D746C",
"3* 	c #716B60",
"4* 	c #4D4841",
"5* 	c #78756D",
"6* 	c #9A9389",
"7* 	c #665C58",
"8* 	c #504C42",
"9* 	c #5D554E",
"0* 	c #4E4740",
"a* 	c #60574D",
"b* 	c #6B665B",
"c* 	c #797067",
"d* 	c #726A63",
"e* 	c #7B7368",
"f* 	c #918980",
"g* 	c #554E44",
"h* 	c #463E37",
"i* 	c #8B8176",
"j* 	c #35281F",
"k* 	c #7E7264",
"l* 	c #7D7468",
"m* 	c #59574C",
"n* 	c #443D37",
"o* 	c #494137",
"p* 	c #6D645D",
"q* 	c #8B887D",
"r* 	c #756E65",
"s* 	c #6D675D",
"t* 	c #837D75",
"u* 	c #737169",
"v* 	c #635B51",
"w* 	c #5D564F",
"x* 	c #443C33",
"y* 	c #463D36",
"z* 	c #605850",
"A* 	c #5E554F",
"B* 	c #575048",
"C* 	c #89867F",
"D* 	c #948A84",
"E* 	c #584F47",
"F* 	c #433E35",
"G* 	c #2C231C",
"H* 	c #383128",
"I* 	c #4D453F",
"J* 	c #5C5449",
"K* 	c #332B24",
"L* 	c #332C26",
"M* 	c #433B37",
"N* 	c #686058",
"O* 	c #90857C",
"P* 	c #5B5049",
"Q* 	c #433934",
"R* 	c #3C332F",
"S* 	c #5C564D",
"T* 	c #675D55",
"U* 	c #645A54",
"V* 	c #342923",
"W* 	c #2B221C",
"X* 	c #231914",
"Y* 	c #271E16",
"Z* 	c #29211B",
"`* 	c #302822",
" = 	c #1E1A11",
".= 	c #1C150F",
"+= 	c #2E241D",
"@= 	c #2A2019",
"#= 	c #292215",
"$= 	c #201912",
"%= 	c #1A1009",
"&= 	c #292219",
"*= 	c #251C15",
"== 	c #2F281F",
"-= 	c #30281E",
";= 	c #312A20",
">= 	c #392E29",
",= 	c #251D17",
"'= 	c #302823",
")= 	c #292117",
"!= 	c #272017",
"~= 	c #281F19",
"{= 	c #282217",
"]= 	c #241B11",
"^= 	c #2C241A",
"/= 	c #241D15",
"(= 	c #29251C",
"_= 	c #49413C",
":= 	c #534B41",
"<= 	c #3B332B",
"[= 	c #514A3E",
"}= 	c #372F27",
"|= 	c #3E352C",
"1= 	c #3E3A2F",
"2= 	c #5E584C",
"3= 	c #4B4439",
"4= 	c #443A30",
"5= 	c #41352F",
"6= 	c #30261F",
"7= 	c #493B36",
"8= 	c #6E675E",
"9= 	c #393429",
"0= 	c #3A2E27",
"a= 	c #352D23",
"b= 	c #362B26",
"c= 	c #382F25",
"d= 	c #585147",
"e= 	c #443C32",
"f= 	c #40392F",
"g= 	c #2D251C",
"h= 	c #2D271D",
"i= 	c #241811",
"j= 	c #322A21",
"k= 	c #31261D",
"l= 	c #443932",
"m= 	c #372C25",
"n= 	c #211B16",
"o= 	c #3C342C",
"p= 	c #665B50",
"q= 	c #645B50",
"r= 	c #5D5549",
"s= 	c #4D403A",
"t= 	c #5E544B",
"u= 	c #675B53",
"v= 	c #5E554B",
"w= 	c #585049",
"x= 	c #524740",
"y= 	c #5D5447",
"z= 	c #4D433B",
"A= 	c #584D43",
"B= 	c #63564E",
"C= 	c #786E63",
"D= 	c #71695D",
"E= 	c #6D655B",
"F= 	c #82796F",
"G= 	c #6E665C",
"H= 	c #71685E",
"I= 	c #6D645B",
"J= 	c #746D61",
"K= 	c #5F5949",
"L= 	c #685F53",
"M= 	c #726A5E",
"N= 	c #5B544C",
"O= 	c #5E564C",
"P= 	c #5D544B",
"Q= 	c #726B62",
"R= 	c #928B7F",
"S= 	c #7F736B",
"T= 	c #7E756C",
"U= 	c #746961",
"V= 	c #908A7F",
"W= 	c #9A9088",
"X= 	c #99948E",
"Y= 	c #837B70",
"Z= 	c #897F75",
"`= 	c #88807B",
" - 	c #787069",
".- 	c #958B83",
"+- 	c #9C918A",
"@- 	c #8E857D",
"#- 	c #827B72",
"$- 	c #7C746A",
"%- 	c #6B675D",
"&- 	c #6F675C",
"*- 	c #40342B",
"=- 	c #40332B",
"-- 	c #40372F",
";- 	c #60584D",
">- 	c #2F2820",
",- 	c #3C352D",
"'- 	c #4C443B",
")- 	c #4F463C",
"!- 	c #574C40",
"~- 	c #4D463C",
"{- 	c #524A40",
"]- 	c #51473F",
"^- 	c #483E34",
"/- 	c #4D453D",
"(- 	c #6E6558",
"_- 	c #706C5F",
":- 	c #5B5145",
"<- 	c #585144",
"[- 	c #4A4035",
"}- 	c #5A5249",
"|- 	c #50473E",
"1- 	c #524A3E",
"2- 	c #71665B",
"3- 	c #554941",
"4- 	c #6E645C",
"5- 	c #4B4137",
"6- 	c #5B5247",
"7- 	c #61574C",
"8- 	c #675F54",
"9- 	c #7E776A",
"0- 	c #6D6559",
"a- 	c #827B73",
"b- 	c #85796F",
"c- 	c #665C52",
"d- 	c #746D62",
"e- 	c #4A4036",
"f- 	c #60564A",
"g- 	c #655C4F",
"h- 	c #686153",
"i- 	c #695E55",
"j- 	c #564F44",
"k- 	c #676056",
"l- 	c #53483F",
"m- 	c #4C443A",
"n- 	c #8F877E",
"o- 	c #71685A",
"p- 	c #74695F",
"q- 	c #5A5347",
"r- 	c #645E52",
"s- 	c #5B524B",
"t- 	c #867F74",
"u- 	c #534C40",
"v- 	c #574F48",
"w- 	c #82796D",
"x- 	c #736960",
"y- 	c #5D544A",
"z- 	c #989185",
"A- 	c #827C72",
"B- 	c #403931",
"C- 	c #7E746B",
"D- 	c #625C53",
"E- 	c #797267",
"F- 	c #3E362D",
"G- 	c #7F746E",
"H- 	c #73695F",
"I- 	c #655B54",
"J- 	c #857F71",
"K- 	c #726C5C",
"L- 	c #827970",
"M- 	c #6A6159",
"N- 	c #827A70",
"O- 	c #6D665B",
"P- 	c #807A6E",
"Q- 	c #9E978C",
"R- 	c #5E5448",
"S- 	c #676458",
"T- 	c #8F867E",
"U- 	c #6C635C",
"V- 	c #736861",
"W- 	c #908B80",
"X- 	c #837D72",
"Y- 	c #8B8076",
"Z- 	c #615A51",
"`- 	c #60574B",
" ; 	c #6C6257",
".; 	c #564C3F",
"+; 	c #494139",
"@; 	c #797065",
"#; 	c #736A60",
"$; 	c #867D74",
"%; 	c #6C6259",
"&; 	c #7C776E",
"*; 	c #918C82",
"=; 	c #8D857F",
"-; 	c #6F6A5D",
";; 	c #7A7468",
">; 	c #989086",
",; 	c #878277",
"'; 	c #8C847B",
"); 	c #A09892",
"!; 	c #938A7E",
"~; 	c #685F57",
"{; 	c #948C86",
"]; 	c #958E86",
"^; 	c #878177",
"/; 	c #554E46",
"(; 	c #5B5349",
"_; 	c #594E43",
":; 	c #635B50",
"<; 	c #6A665A",
"[; 	c #5F554D",
"}; 	c #595247",
"|; 	c #675E54",
"1; 	c #71695E",
"2; 	c #514C44",
"3; 	c #5D5348",
"4; 	c #726C63",
"5; 	c #594D47",
"6; 	c #625A4F",
"7; 	c #6F665D",
"8; 	c #5F594D",
"9; 	c #5F554C",
"0; 	c #605B4F",
"a; 	c #71695F",
"b; 	c #696357",
"c; 	c #474038",
"d; 	c #51493F",
"e; 	c #5A544C",
"f; 	c #625D52",
"g; 	c #787367",
"h; 	c #736C67",
"i; 	c #645F54",
"j; 	c #867D75",
"k; 	c #746B63",
"l; 	c #625953",
"m; 	c #867E74",
"n; 	c #878276",
"o; 	c #7F766C",
"p; 	c #4A443B",
"q; 	c #5A564D",
"r; 	c #695E59",
"s; 	c #62564F",
"t; 	c #686056",
"u; 	c #6B615A",
"v; 	c #70685B",
"w; 	c #6C6359",
"x; 	c #888077",
"y; 	c #837A6E",
"z; 	c #655A51",
"A; 	c #83776E",
"B; 	c #7D756B",
"C; 	c #888378",
"D; 	c #8C837C",
"E; 	c #776F64",
"F; 	c #726B5E",
"G; 	c #797164",
"H; 	c #6C6457",
"I; 	c #7E7469",
"J; 	c #6A5F57",
"K; 	c #786D63",
"L; 	c #766E62",
"M; 	c #716761",
"N; 	c #83756C",
"O; 	c #776D64",
"P; 	c #71695C",
"Q; 	c #4A4236",
"R; 	c #534A3D",
"S; 	c #4F4840",
"T; 	c #575144",
"U; 	c #6C655B",
"V; 	c #5F574D",
"W; 	c #413930",
"X; 	c #372D25",
"Y; 	c #4F423C",
"Z; 	c #483F37",
"`; 	c #786B58",
" > 	c #7D7060",
".> 	c #96867A",
"+> 	c #7B6D60",
"@> 	c #7D7062",
"#> 	c #6C604F",
"$> 	c #837366",
"%> 	c #827567",
"&> 	c #7C6C63",
"*> 	c #8B7B70",
"=> 	c #88796C",
"-> 	c #847566",
";> 	c #8C8072",
">> 	c #807369",
",> 	c #827566",
"'> 	c #817566",
")> 	c #736A5B",
"!> 	c #8A7A6C",
"~> 	c #645546",
"{> 	c #867666",
"]> 	c #645548",
"^> 	c #605244",
"/> 	c #6A5C50",
"(> 	c #897D72",
"_> 	c #7D6E60",
":> 	c #918174",
"<> 	c #918473",
"[> 	c #8C8374",
"}> 	c #706057",
"|> 	c #887A6C",
"1> 	c #7D6B5E",
"2> 	c #7A6D5E",
"3> 	c #988D7F",
"4> 	c #857767",
"5> 	c #908574",
"6> 	c #887768",
"7> 	c #968779",
"8> 	c #756757",
"9> 	c #97897E",
"0> 	c #97897B",
"a> 	c #9A8C7C",
"b> 	c #938678",
"c> 	c #6D6455",
"d> 	c #837B6E",
"e> 	c #91867A",
"f> 	c #8D8276",
"g> 	c #938B80",
"h> 	c #897E70",
"i> 	c #786C5F",
"j> 	c #7B6F5F",
"k> 	c #64594A",
"l> 	c #948375",
"m> 	c #73675D",
"n> 	c #675C50",
"o> 	c #817669",
"p> 	c #716558",
"q> 	c #8C7F6F",
"r> 	c #7D6E61",
"s> 	c #716458",
"t> 	c #75675F",
"u> 	c #7D7267",
"v> 	c #83776D",
"w> 	c #675D50",
"x> 	c #7E736A",
"y> 	c #7E766A",
"z> 	c #877C73",
"A> 	c #847C74",
"B> 	c #92867B",
"C> 	c #817064",
"D> 	c #6F6155",
"E> 	c #6C6054",
"F> 	c #716556",
"G> 	c #8B7E6D",
"H> 	c #6D6054",
"I> 	c #84786A",
"J> 	c #796D5F",
"K> 	c #7D7266",
"L> 	c #776B5B",
"M> 	c #645448",
"N> 	c #827667",
"O> 	c #8A7D6E",
"P> 	c #897C6F",
"Q> 	c #7E7164",
"R> 	c #8A796B",
"S> 	c #716355",
"T> 	c #716255",
"U> 	c #7C7062",
"V> 	c #796C5F",
"W> 	c #766A61",
"X> 	c #7A7268",
"Y> 	c #72655C",
"Z> 	c #73695C",
"`> 	c #7D746B",
" , 	c #695D53",
"., 	c #86786C",
"+, 	c #8A7E72",
"@, 	c #816E5F",
"#, 	c #8B7F71",
"$, 	c #7F7168",
"%, 	c #7C716A",
"&, 	c #72695E",
"*, 	c #8D8176",
"=, 	c #685F54",
"-, 	c #978C80",
";, 	c #796B61",
">, 	c #9F9789",
",, 	c #766A5F",
"', 	c #72695D",
"), 	c #6C6056",
"!, 	c #81776B",
"~, 	c #695D54",
"{, 	c #7D7166",
"], 	c #887A6E",
"^, 	c #9F9184",
"/, 	c #897E6E",
"(, 	c #7C7162",
"_, 	c #A29386",
":, 	c #9A8E83",
"<, 	c #AAA194",
"[, 	c #807669",
"}, 	c #80756A",
"|, 	c #8D7F76",
"1, 	c #8B7E70",
"2, 	c #96887D",
"3, 	c #786C62",
"4, 	c #60554B",
"5, 	c #5E5648",
"6, 	c #7D7066",
"7, 	c #5D5345",
"8, 	c #645A4F",
"9, 	c #62584F",
"0, 	c #897E72",
"a, 	c #90857A",
"b, 	c #8D7E72",
"c, 	c #9E9085",
"d, 	c #9E8B7E",
"e, 	c #8D8575",
"f, 	c #4E4338",
"g, 	c #45392D",
"h, 	c #7A6F62",
"i, 	c #494338",
"j, 	c #685D51",
"k, 	c #7A6A60",
"l, 	c #83766B",
"m, 	c #8D8274",
"n, 	c #766D60",
"o, 	c #736860",
"p, 	c #312519",
"q, 	c #73685B",
"r, 	c #8D8273",
"s, 	c #887970",
"t, 	c #4C4037",
"u, 	c #6B5F55",
"v, 	c #958C82",
"w, 	c #8E8478",
"x, 	c #76695B",
"y, 	c #7E7468",
"z, 	c #7C7263",
"A, 	c #6D625A",
"B, 	c #7B6F65",
"C, 	c #85756C",
"D, 	c #685B51",
"E, 	c #4B3E33",
"F, 	c #6F6257",
"G, 	c #70655C",
"H, 	c #5F534A",
"I, 	c #676052",
"J, 	c #82766F",
"K, 	c #6E6259",
"L, 	c #5D554B",
"M, 	c #4F443B",
"N, 	c #61564C",
"O, 	c #948578",
"P, 	c #7D7164",
"Q, 	c #7E786A",
"R, 	c #74675E",
"S, 	c #918878",
"T, 	c #796B60",
"U, 	c #524A3D",
"V, 	c #695E53",
"W, 	c #8F8379",
"X, 	c #7D7668",
"Y, 	c #53473F",
"Z, 	c #685D50",
"`, 	c #71675C",
" ' 	c #4E4438",
".' 	c #594C44",
"+' 	c #887B70",
"@' 	c #5D5547",
"#' 	c #756960",
"$' 	c #82786A",
"%' 	c #70675C",
"&' 	c #635848",
"*' 	c #877A70",
"=' 	c #817368",
"-' 	c #85766B",
";' 	c #726756",
">' 	c #5F5449",
",' 	c #968A7A",
"'' 	c #887F70",
")' 	c #86796B",
"!' 	c #877B6E",
"~' 	c #71685B",
"{' 	c #8D8171",
"]' 	c #8B8074",
"^' 	c #655A4E",
"/' 	c #807566",
"(' 	c #928674",
"_' 	c #82776A",
":' 	c #7F7367",
"<' 	c #8D8071",
"[' 	c #62584C",
"}' 	c #897C72",
"|' 	c #887B6F",
"1' 	c #847869",
"2' 	c #908476",
"3' 	c #948778",
"4' 	c #796C61",
"5' 	c #847565",
"6' 	c #7F7264",
"7' 	c #7C6C60",
"8' 	c #675B4D",
"9' 	c #5F5344",
"0' 	c #675B4F",
"a' 	c #55483D",
"b' 	c #665C4E",
"c' 	c #807365",
"d' 	c #6C5F50",
"e' 	c #78685A",
"f' 	c #807668",
"g' 	c #887A6B",
"h' 	c #908477",
"i' 	c #756A5E",
"j' 	c #897D6E",
"k' 	c #807367",
"l' 	c #897F71",
"m' 	c #53483E",
"n' 	c #827968",
"o' 	c #54473C",
"p' 	c #7E6F62",
"q' 	c #786B5E",
"r' 	c #584939",
"s' 	c #64584F",
"t' 	c #6C5F52",
"u' 	c #696155",
"v' 	c #625C50",
"w' 	c #74695B",
"x' 	c #6E625B",
"y' 	c #51473A",
"z' 	c #5A5143",
"A' 	c #595045",
"B' 	c #776B5D",
"C' 	c #594E41",
"D' 	c #4B443B",
"E' 	c #564E44",
"F' 	c #595149",
"G' 	c #595049",
"H' 	c #534943",
"I' 	c #564C45",
"J' 	c #837669",
"K' 	c #888070",
"L' 	c #8D7D6E",
"M' 	c #6B6053",
"N' 	c #92877A",
"O' 	c #564B43",
"P' 	c #625850",
"Q' 	c #645B52",
"R' 	c #675E55",
"S' 	c #72675B",
"T' 	c #948678",
"U' 	c #483F34",
"V' 	c #63564D",
"W' 	c #5E5346",
"X' 	c #6F6456",
"Y' 	c #69594D",
"Z' 	c #8B7C6E",
"`' 	c #827365",
" ) 	c #8D7F6E",
".) 	c #7F7060",
"+) 	c #988475",
"@) 	c #938673",
"#) 	c #9C8F80",
"$) 	c #8F8273",
"%) 	c #8A7B6C",
"&) 	c #867864",
"*) 	c #827262",
"=) 	c #8A7B6A",
"-) 	c #76685B",
";) 	c #64584A",
">) 	c #938778",
",) 	c #6D6159",
"') 	c #6E5F54",
")) 	c #7A6E62",
"!) 	c #6A5D51",
"~) 	c #83776A",
"{) 	c #7E7364",
"]) 	c #74675B",
"^) 	c #77695C",
"/) 	c #847969",
"() 	c #85796A",
"_) 	c #908371",
":) 	c #695D4E",
"<) 	c #85776A",
"[) 	c #7D6E62",
"}) 	c #7A6A5C",
"|) 	c #766655",
"1) 	c #776959",
"2) 	c #7A685B",
"3) 	c #86776A",
"4) 	c #817268",
"5) 	c #88796B",
"6) 	c #8A7C6B",
"7) 	c #7F7262",
"8) 	c #584E41",
"9) 	c #706558",
"0) 	c #897568",
"a) 	c #79685A",
"b) 	c #544539",
"c) 	c #807163",
"d) 	c #635444",
"e) 	c #716659",
"f) 	c #57483C",
"g) 	c #74675A",
"h) 	c #615547",
"i) 	c #615648",
"j) 	c #9A8B7B",
"k) 	c #675B4E",
"l) 	c #A29282",
"m) 	c #78675A",
"n) 	c #52463A",
"o) 	c #4A4039",
"p) 	c #5D544D",
"q) 	c #685E55",
"r) 	c #5F544B",
"s) 	c #52473C",
"t) 	c #564A40",
"u) 	c #534C3F",
"v) 	c #655B51",
"w) 	c #675C4F",
"x) 	c #8E8679",
"y) 	c #554A45",
"z) 	c #7D766E",
"A) 	c #625C54",
"B) 	c #695F55",
"C) 	c #574D44",
"D) 	c #837467",
"E) 	c #645A4E",
"F) 	c #72665C",
"G) 	c #7A7169",
"H) 	c #847A73",
"I) 	c #8E877F",
"J) 	c #756C64",
"K) 	c #7C746D",
"L) 	c #918780",
"M) 	c #7C746B",
"N) 	c #91897E",
"O) 	c #817972",
"P) 	c #766F63",
"Q) 	c #5F524D",
"R) 	c #6D665A",
"S) 	c #706861",
"T) 	c #685E54",
"U) 	c #7B716B",
"V) 	c #6D635A",
"W) 	c #5A544A",
"X) 	c #8B7E75",
"Y) 	c #453C35",
"Z) 	c #53473D",
"`) 	c #7F766D",
" ! 	c #756F64",
".! 	c #948E82",
"+! 	c #6B6159",
"@! 	c #544B43",
"#! 	c #6D675A",
"$! 	c #8F867F",
"%! 	c #6C635D",
"&! 	c #827770",
"*! 	c #7F796D",
"=! 	c #988E88",
"-! 	c #9B958C",
";! 	c #91877E",
">! 	c #968C83",
",! 	c #766D63",
"'! 	c #625548",
")! 	c #4B4139",
"!! 	c #62574B",
"~! 	c #453C30",
"{! 	c #4A4134",
"]! 	c #4A4238",
"^! 	c #4F453B",
"/! 	c #6D5F55",
"(! 	c #675A51",
"_! 	c #796B5F",
":! 	c #5A5442",
"<! 	c #51473C",
"[! 	c #5F544A",
"}! 	c #5D4F44",
"|! 	c #5D5043",
"1! 	c #56483E",
"2! 	c #686052",
"3! 	c #7C7265",
"4! 	c #4C4138",
"5! 	c #51463D",
"6! 	c #554D41",
"7! 	c #55493E",
"8! 	c #675B50",
"9! 	c #6F614E",
"0! 	c #786B5B",
"a! 	c #695C50",
"b! 	c #443D2F",
"c! 	c #6B6258",
"d! 	c #54473B",
"e! 	c #6E5D51",
"f! 	c #7B6D5D",
"g! 	c #817162",
"h! 	c #524437",
"i! 	c #59473D",
"j! 	c #685C50",
"k! 	c #645645",
"l! 	c #746859",
"m! 	c #56493A",
"n! 	c #5C5144",
"o! 	c #73665A",
"p! 	c #695C4F",
"q! 	c #534A3E",
"r! 	c #72675D",
"s! 	c #695B50",
"t! 	c #746A5B",
"u! 	c #695E51",
"v! 	c #67594D",
"w! 	c #605446",
"x! 	c #6D6257",
"y! 	c #817A6D",
"z! 	c #7B6F64",
"A! 	c #786C63",
"B! 	c #847F75",
"C! 	c #7B7067",
"D! 	c #7A6F63",
"E! 	c #5A4E43",
"F! 	c #7F7569",
"G! 	c #878078",
"H! 	c #67635A",
"I! 	c #7D776C",
"J! 	c #72685C",
"K! 	c #6E6458",
"L! 	c #6A655D",
"M! 	c #493F38",
"N! 	c #716A5F",
"O! 	c #6F685C",
"P! 	c #726A5C",
"Q! 	c #50443C",
"R! 	c #83776C",
"S! 	c #8B7F77",
"T! 	c #91847B",
"U! 	c #80746C",
"V! 	c #8A7F70",
"W! 	c #716358",
"X! 	c #867C6E",
"Y! 	c #84766C",
"Z! 	c #776B61",
"`! 	c #4A3E33",
" ~ 	c #786D62",
".~ 	c #5F5349",
"+~ 	c #7C6C61",
"@~ 	c #73685C",
"#~ 	c #7C7A71",
"$~ 	c #6F6762",
"%~ 	c #746C65",
"&~ 	c #615C52",
"*~ 	c #66625A",
"=~ 	c #51473E",
"-~ 	c #7D766D",
";~ 	c #564E46",
">~ 	c #463F38",
",~ 	c #584D47",
"'~ 	c #6E6A60",
")~ 	c #4D4743",
"!~ 	c #5B544E",
"~~ 	c #807872",
"{~ 	c #564E47",
"]~ 	c #635E55",
"^~ 	c #6E6863",
"/~ 	c #6A6559",
"(~ 	c #6B645E",
"_~ 	c #757168",
":~ 	c #565049",
"<~ 	c #625B55",
"[~ 	c #474239",
"}~ 	c #706863",
"|~ 	c #514A43",
"1~ 	c #5D5955",
"2~ 	c #4F4940",
"3~ 	c #6A6259",
"4~ 	c #6A605A",
"5~ 	c #695F59",
"6~ 	c #72655B",
"7~ 	c #847C6F",
"8~ 	c #847871",
"9~ 	c #7A736B",
"0~ 	c #675F5A",
"a~ 	c #6F6761",
"b~ 	c #726C62",
"c~ 	c #534742",
"d~ 	c #514743",
"e~ 	c #584D46",
"f~ 	c #5A544D",
"g~ 	c #77716B",
"h~ 	c #534B44",
"i~ 	c #7D786D",
"j~ 	c #70695F",
"k~ 	c #5A5047",
"l~ 	c #676157",
"m~ 	c #544E46",
"n~ 	c #574D45",
"o~ 	c #71675D",
"p~ 	c #756C67",
"q~ 	c #7D756E",
"r~ 	c #837B74",
"s~ 	c #837E77",
"t~ 	c #857F77",
"u~ 	c #847B72",
"v~ 	c #6B665E",
"w~ 	c #524842",
"x~ 	c #897E76",
"y~ 	c #5E534C",
"z~ 	c #867D70",
"A~ 	c #514B3F",
"B~ 	c #9A918C",
"C~ 	c #6E6358",
"D~ 	c #6A5E53",
"E~ 	c #7A6D64",
"F~ 	c #8B7D72",
"G~ 	c #726A5D",
"H~ 	c #615A50",
"I~ 	c #766E64",
"J~ 	c #625A51",
"K~ 	c #8D8A81",
"L~ 	c #8E8981",
"M~ 	c #746E69",
"N~ 	c #959289",
"O~ 	c #837E79",
"P~ 	c #87837A",
"Q~ 	c #908C83",
"R~ 	c #746D63",
"S~ 	c #4C453F",
"T~ 	c #7C7872",
"U~ 	c #86847D",
"V~ 	c #8F8983",
"W~ 	c #867B75",
"X~ 	c #8B8681",
"Y~ 	c #848179",
"Z~ 	c #7A6F68",
"`~ 	c #7F7775",
" { 	c #7A756D",
".{ 	c #7E7871",
"+{ 	c #706660",
"@{ 	c #807972",
"#{ 	c #8E897E",
"${ 	c #7D7872",
"%{ 	c #807B74",
"&{ 	c #726B61",
"*{ 	c #8C877E",
"={ 	c #86827A",
"-{ 	c #8A837D",
";{ 	c #837E76",
">{ 	c #827E77",
",{ 	c #827E75",
"'{ 	c #716C63",
"){ 	c #7B756F",
"!{ 	c #7C746F",
"~{ 	c #837E75",
"{{ 	c #757069",
"]{ 	c #938E89",
"^{ 	c #78726A",
"/{ 	c #858076",
"({ 	c #868277",
"_{ 	c #8F8A84",
":{ 	c #99988D",
"<{ 	c #928B86",
"[{ 	c #827B75",
"}{ 	c #7C756F",
"|{ 	c #8B837C",
"1{ 	c #746F67",
"2{ 	c #625955",
"3{ 	c #969088",
"4{ 	c #706B67",
"5{ 	c #79746E",
"6{ 	c #817E75",
"7{ 	c #A49D94",
"8{ 	c #675D59",
"9{ 	c #696258",
"0{ 	c #756B61",
"a{ 	c #7C726B",
"b{ 	c #928F85",
"c{ 	c #706B61",
"d{ 	c #544F44",
"e{ 	c #847C71",
"f{ 	c #9D968D",
"g{ 	c #847D74",
"h{ 	c #857C73",
"i{ 	c #61574F",
"j{ 	c #675E56",
"k{ 	c #57544B",
"l{ 	c #7E7973",
"m{ 	c #877E76",
"n{ 	c #938B84",
"o{ 	c #746B65",
"p{ 	c #84837A",
"q{ 	c #7D7870",
"r{ 	c #716A66",
"s{ 	c #7E7A74",
"t{ 	c #79756D",
"u{ 	c #5F5950",
"v{ 	c #5C574E",
"w{ 	c #666057",
"x{ 	c #49453C",
"y{ 	c #89837D",
"z{ 	c #69645C",
"A{ 	c #777267",
"B{ 	c #6F6B60",
"C{ 	c #55524C",
"D{ 	c #7B786E",
"E{ 	c #7E7B72",
"F{ 	c #938D87",
"G{ 	c #807C74",
"H{ 	c #736A62",
"I{ 	c #706A64",
"J{ 	c #747065",
"K{ 	c #8E8881",
"L{ 	c #675D56",
"M{ 	c #807D76",
"N{ 	c #88837C",
"O{ 	c #67605D",
"P{ 	c #76726A",
"Q{ 	c #8C8A82",
"R{ 	c #59564F",
"S{ 	c #6B665A",
"T{ 	c #453F37",
"U{ 	c #716A63",
"V{ 	c #7A736E",
"W{ 	c #827E76",
"X{ 	c #87807A",
"Y{ 	c #6F685F",
"Z{ 	c #837D76",
"`{ 	c #77726C",
" ] 	c #5C5750",
".] 	c #827D78",
"+] 	c #897F78",
"@] 	c #5E524B",
"#] 	c #6B5D51",
"$] 	c #7B746E",
"%] 	c #737069",
"&] 	c #7E7B76",
"*] 	c #89857E",
"=] 	c #5D5850",
"-] 	c #818078",
";] 	c #86807A",
">] 	c #6C6461",
",] 	c #83807C",
"'] 	c #5D574F",
")] 	c #68665E",
"!] 	c #6E6761",
"~] 	c #66615C",
"{] 	c #7D7773",
"]] 	c #66625B",
"^] 	c #4F4A45",
"/] 	c #534D46",
"(] 	c #6D6863",
"_] 	c #6C6862",
":] 	c #58514A",
"<] 	c #67615B",
"[] 	c #615C54",
"}] 	c #64605A",
"|] 	c #7F7971",
"1] 	c #4E4841",
"2] 	c #5C5552",
"3] 	c #55534C",
"4] 	c #504F45",
"5] 	c #5C564C",
"6] 	c #7E7870",
"7] 	c #54514D",
"8] 	c #67625E",
"9] 	c #6B675E",
"0] 	c #534C46",
"a] 	c #69655D",
"b] 	c #79726C",
"c] 	c #868177",
"d] 	c #7D786F",
"e] 	c #5E5853",
"f] 	c #948E89",
"g] 	c #58554E",
"h] 	c #746C69",
"i] 	c #4B463D",
"j] 	c #6A625B",
"k] 	c #4B443D",
"l] 	c #6C6762",
"m] 	c #605E56",
"n] 	c #7A756C",
"o] 	c #807A71",
"p] 	c #928E87",
"q] 	c #8F8B85",
"r] 	c #7A716C",
"s] 	c #7F7973",
"t] 	c #726A67",
"u] 	c #8C8883",
"v] 	c #857F7B",
"w] 	c #6C645B",
"x] 	c #776F6A",
"y] 	c #817B75",
"z] 	c #6D6B5E",
"A] 	c #554C3E",
"B] 	c #564C42",
"C] 	c #615B54",
"D] 	c #787268",
"E] 	c #78726C",
"F] 	c #807D71",
"G] 	c #6D6A64",
"H] 	c #79736D",
"I] 	c #838076",
"J] 	c #7A736D",
"K] 	c #908B83",
"L] 	c #817C75",
"M] 	c #737067",
"N] 	c #87817B",
"O] 	c #706C65",
"P] 	c #7E7A71",
"Q] 	c #8C8782",
"R] 	c #6A675D",
"S] 	c #857E76",
"T] 	c #8C8780",
"U] 	c #8A847C",
"V] 	c #908A82",
"W] 	c #7A766E",
"X] 	c #86827B",
"Y] 	c #77756E",
"Z] 	c #7C7671",
"`] 	c #84807D",
" ^ 	c #89887F",
".^ 	c #848079",
"+^ 	c #8D8A86",
"@^ 	c #6C6961",
"#^ 	c #837D77",
"$^ 	c #86827C",
"%^ 	c #827F77",
"&^ 	c #706D66",
"*^ 	c #8D8980",
"=^ 	c #837A74",
"-^ 	c #767169",
";^ 	c #86817F",
">^ 	c #79766E",
",^ 	c #57524A",
"'^ 	c #6E6C65",
")^ 	c #96918A",
"!^ 	c #88827A",
"~^ 	c #86837E",
"{^ 	c #88827E",
"]^ 	c #9D9994",
"^^ 	c #938E88",
"/^ 	c #7F7B75",
"(^ 	c #8C8982",
"_^ 	c #9B9793",
":^ 	c #87847C",
"<^ 	c #86817A",
"[^ 	c #88867E",
"}^ 	c #8A8681",
"|^ 	c #87807B",
"1^ 	c #737066",
"2^ 	c #888279",
"3^ 	c #8A8680",
"4^ 	c #7F7874",
"5^ 	c #918983",
"6^ 	c #878077",
"7^ 	c #878179",
"8^ 	c #8B867B",
"9^ 	c #8D877F",
"0^ 	c #877C71",
"a^ 	c #635F57",
"b^ 	c #635A53",
"c^ 	c #7D776A",
"d^ 	c #756C60",
"e^ 	c #38312A",
"f^ 	c #736F67",
"g^ 	c #7E7B74",
"h^ 	c #858079",
"i^ 	c #7A736A",
"j^ 	c #7A776E",
"k^ 	c #767268",
"l^ 	c #807C77",
"m^ 	c #807B72",
"n^ 	c #75726A",
"o^ 	c #90877E",
"p^ 	c #6F6B63",
"q^ 	c #615A55",
"r^ 	c #86847C",
"s^ 	c #77726D",
"t^ 	c #857F75",
"u^ 	c #7B736E",
"v^ 	c #757068",
"w^ 	c #7E796F",
"x^ 	c #837F77",
"y^ 	c #736D65",
"z^ 	c #655F57",
"A^ 	c #626057",
"B^ 	c #5D544C",
"C^ 	c #78776F",
"D^ 	c #726C68",
"E^ 	c #69635E",
"F^ 	c #817B73",
"G^ 	c #6F6960",
"H^ 	c #817D73",
"I^ 	c #716B66",
"J^ 	c #78756B",
"K^ 	c #706E68",
"L^ 	c #6F6A64",
"M^ 	c #6A655C",
"N^ 	c #84807A",
"O^ 	c #85827A",
"P^ 	c #766E67",
"Q^ 	c #756E69",
"R^ 	c #898478",
"S^ 	c #6E615A",
"T^ 	c #575045",
"U^ 	c #76746C",
"V^ 	c #7A746D",
"W^ 	c #736F68",
"X^ 	c #736D67",
"Y^ 	c #7D7772",
"Z^ 	c #7E7770",
"`^ 	c #67645B",
" / 	c #76716C",
"./ 	c #6D6965",
"+/ 	c #706D67",
"@/ 	c #6B6760",
"#/ 	c #636059",
"$/ 	c #706A61",
"%/ 	c #5F5A52",
"&/ 	c #655F59",
"*/ 	c #5F5B55",
"=/ 	c #6D6963",
"-/ 	c #635E58",
";/ 	c #76726B",
">/ 	c #7D7672",
",/ 	c #817C77",
"'/ 	c #615855",
")/ 	c #6B655F",
"!/ 	c #6B665F",
"~/ 	c #858077",
"{/ 	c #726D66",
"]/ 	c #6B675F",
"^/ 	c #605B57",
"// 	c #675E5A",
"(/ 	c #635E56",
"_/ 	c #56544C",
":/ 	c #726D67",
"</ 	c #5A5750",
"[/ 	c #554F4A",
"}/ 	c #5C5751",
"|/ 	c #625C57",
"1/ 	c #5D5B4F",
"2/ 	c #8E8782",
"3/ 	c #7F7B73",
"4/ 	c #85827B",
"5/ 	c #6C635F",
"6/ 	c #78746D",
"7/ 	c #675F5E",
"8/ 	c #69625D",
"9/ 	c #5D5851",
"0/ 	c #524F49",
"a/ 	c #625B54",
"b/ 	c #5B5752",
"c/ 	c #626058",
"d/ 	c #54504B",
"e/ 	c #615C5B",
"f/ 	c #605751",
"g/ 	c #6B6561",
"h/ 	c #535247",
"i/ 	c #777469",
"j/ 	c #8B837E",
"k/ 	c #7E7A6F",
"l/ 	c #88837D",
"m/ 	c #807B75",
"n/ 	c #777069",
"o/ 	c #84817E",
"p/ 	c #7F7A73",
"q/ 	c #817973",
"r/ 	c #6B645A",
"s/ 	c #89847F",
"t/ 	c #777169",
"u/ 	c #746B62",
"v/ 	c #534841",
"w/ 	c #8D817A",
"x/ 	c #88847D",
"y/ 	c #747069",
"z/ 	c #88847C",
"A/ 	c #81807A",
"B/ 	c #7F7A72",
"C/ 	c #817E76",
"D/ 	c #87847F",
"E/ 	c #7D7871",
"F/ 	c #8E8B84",
"G/ 	c #7E7D77",
"H/ 	c #776F69",
"I/ 	c #807D78",
"J/ 	c #7D7670",
"K/ 	c #928D88",
"L/ 	c #88847F",
"M/ 	c #7D7972",
"N/ 	c #79766F",
"O/ 	c #757269",
"P/ 	c #6A685F",
"Q/ 	c #79766D",
"R/ 	c #737068",
"S/ 	c #736E68",
"T/ 	c #8B8780",
"U/ 	c #827E7B",
"V/ 	c #8C8581",
"W/ 	c #817A73",
"X/ 	c #827B74",
"Y/ 	c #817F78",
"Z/ 	c #756E67",
"`/ 	c #8A8783",
" ( 	c #78736D",
".( 	c #7C7973",
"+( 	c #8E8883",
"@( 	c #97938E",
"#( 	c #67615D",
"$( 	c #8D8782",
"%( 	c #857F79",
"&( 	c #938F88",
"*( 	c #928D85",
"=( 	c #8C8884",
"-( 	c #8E8B85",
";( 	c #918C84",
">( 	c #88847E",
",( 	c #807B76",
"'( 	c #8C8781",
")( 	c #857E79",
"!( 	c #79736E",
"~( 	c #817B74",
"{( 	c #6A635F",
"]( 	c #8E8980",
"^( 	c #8B837D",
"/( 	c #645D56",
"(( 	c #948A88",
"_( 	c #746B64",
":( 	c #9D968F",
"<( 	c #5E584F",
"[( 	c #645D53",
"}( 	c #7D796C",
"|( 	c #8A847E",
"1( 	c #5B4D41",
"2( 	c #847A6E",
"3( 	c #645A51",
"4( 	c #828077",
"5( 	c #857F76",
"6( 	c #78746B",
"7( 	c #716861",
"8( 	c #817E77",
"9( 	c #625C58",
"0( 	c #64615B",
"a( 	c #7A766D",
"b( 	c #6A605C",
"c( 	c #686358",
"d( 	c #747068",
"e( 	c #87827A",
"f( 	c #5D5652",
"g( 	c #5E5651",
"h( 	c #67625C",
"i( 	c #7F7C75",
"j( 	c #6A625C",
"k( 	c #7E7A73",
"l( 	c #79756A",
"m( 	c #807974",
"n( 	c #544D49",
"o( 	c #5B5450",
"p( 	c #746F6A",
"q( 	c #77746C",
"r( 	c #554E49",
"s( 	c #79706C",
"t( 	c #7F7A74",
"u( 	c #75706A",
"v( 	c #6D6861",
"w( 	c #78685D",
"x( 	c #62594C",
"y( 	c #69605A",
"z( 	c #716B65",
"A( 	c #7B776F",
"B( 	c #716F67",
"C( 	c #746E68",
"D( 	c #78726D",
"E( 	c #726F66",
"F( 	c #605B54",
"G( 	c #5D554F",
"H( 	c #696861",
"I( 	c #79756C",
"J( 	c #827E78",
"K( 	c #6A6560",
"L( 	c #79716E",
"M( 	c #7A7471",
"N( 	c #726D68",
"O( 	c #5E5A54",
"P( 	c #7A7673",
"Q( 	c #7C7970",
"R( 	c #7E7975",
"S( 	c #737268",
"T( 	c #6A645F",
"U( 	c #5D544F",
"V( 	c #918C85",
"W( 	c #6B6860",
"X( 	c #625B59",
"Y( 	c #696660",
"Z( 	c #58564C",
"`( 	c #78736C",
" _ 	c #6C6360",
"._ 	c #605957",
"+_ 	c #868378",
"@_ 	c #79726D",
"#_ 	c #847D78",
"$_ 	c #66645C",
"%_ 	c #6C6A62",
"&_ 	c #767269",
"*_ 	c #69615D",
"=_ 	c #7E7C75",
"-_ 	c #615A54",
";_ 	c #98938C",
">_ 	c #66655A",
",_ 	c #534C48",
"'_ 	c #928E85",
")_ 	c #847F78",
"!_ 	c #8A837F",
"~_ 	c #898480",
"{_ 	c #8B867E",
"]_ 	c #827F78",
"^_ 	c #807874",
"/_ 	c #746C66",
"(_ 	c #7E7970",
"__ 	c #86817C",
":_ 	c #918C87",
"<_ 	c #777269",
"[_ 	c #6C6358",
"}_ 	c #60594F",
"|_ 	c #726C67",
"1_ 	c #8D8780",
"2_ 	c #827D79",
"3_ 	c #817D74",
"4_ 	c #807B77",
"5_ 	c #787670",
"6_ 	c #8D8B84",
"7_ 	c #8A887F",
"8_ 	c #8D8A84",
"9_ 	c #8F8C85",
"0_ 	c #7D7571",
"a_ 	c #807670",
"b_ 	c #888582",
"c_ 	c #736E69",
"d_ 	c #8A8981",
"e_ 	c #7F7A75",
"f_ 	c #84817C",
"g_ 	c #837E7C",
"h_ 	c #7E7976",
"i_ 	c #75716E",
"j_ 	c #838078",
"k_ 	c #85817B",
"l_ 	c #7F7D73",
"m_ 	c #736F6C",
"n_ 	c #7F7875",
"o_ 	c #888580",
"p_ 	c #85847D",
"q_ 	c #75716B",
"r_ 	c #76716D",
"s_ 	c #88837E",
"t_ 	c #68655C",
"u_ 	c #807A74",
"v_ 	c #66615B",
"w_ 	c #7E7E73",
"x_ 	c #837C78",
"y_ 	c #7A7571",
"z_ 	c #827A73",
"A_ 	c #86837C",
"B_ 	c #8E8982",
"C_ 	c #75756D",
"D_ 	c #8C8B86",
"E_ 	c #898380",
"F_ 	c #847F77",
"G_ 	c #6D6860",
"H_ 	c #9D9893",
"I_ 	c #736F65",
"J_ 	c #89887D",
"K_ 	c #959089",
"L_ 	c #867E79",
"M_ 	c #87837C",
"N_ 	c #77726A",
"O_ 	c #544D46",
"P_ 	c #928D84",
"Q_ 	c #7F7C74",
"R_ 	c #8B887E",
"S_ 	c #949087",
"T_ 	c #564A3E",
"U_ 	c #574B42",
"V_ 	c #7F7B74",
"W_ 	c #8D8982",
"X_ 	c #88817E",
"Y_ 	c #848078",
"Z_ 	c #6C685E",
"`_ 	c #6E7063",
" : 	c #827E79",
".: 	c #77746E",
"+: 	c #87847B",
"@: 	c #777369",
"#: 	c #7A7871",
"$: 	c #7A776F",
"%: 	c #807D73",
"&: 	c #88867D",
"*: 	c #817A75",
"=: 	c #6E6C62",
"-: 	c #78736A",
";: 	c #5D5752",
">: 	c #615E56",
",: 	c #7B756C",
"': 	c #78746E",
"): 	c #6B6861",
"!: 	c #69665D",
"~: 	c #7C7972",
"{: 	c #807A77",
"]: 	c #7A7573",
"^: 	c #6F6C63",
"/: 	c #736E66",
"(: 	c #8A867E",
"_: 	c #6E695F",
":: 	c #6F6860",
"<: 	c #6F6758",
"[: 	c #584D44",
"}: 	c #68645E",
"|: 	c #7E7D76",
"1: 	c #6E6A65",
"2: 	c #7C7873",
"3: 	c #58524B",
"4: 	c #706764",
"5: 	c #57554F",
"6: 	c #6B6662",
"7: 	c #7B776E",
"8: 	c #716C67",
"9: 	c #75706B",
"0: 	c #706965",
"a: 	c #645F5A",
"b: 	c #76756E",
"c: 	c #736C64",
"d: 	c #76736C",
"e: 	c #726A66",
"f: 	c #888178",
"g: 	c #7A7771",
"h: 	c #7D746F",
"i: 	c #756E6A",
"j: 	c #716C65",
"k: 	c #776F6D",
"l: 	c #5E5952",
"m: 	c #7F7873",
"n: 	c #686760",
"o: 	c #6C6962",
"p: 	c #75706C",
"q: 	c #5E5851",
"r: 	c #6D6761",
"s: 	c #76706C",
"t: 	c #7B716A",
"u: 	c #615B53",
"v: 	c #716862",
"w: 	c #8B827D",
"x: 	c #7D7B72",
"y: 	c #847D77",
"z: 	c #7B7670",
"A: 	c #75726B",
"B: 	c #6C6960",
"C: 	c #7F7D75",
"D: 	c #7E7971",
"E: 	c #7E7A72",
"F: 	c #8E8785",
"G: 	c #8E8983",
"H: 	c #8A837B",
"I: 	c #70665C",
"J: 	c #807D77",
"K: 	c #7E7875",
"L: 	c #78716C",
"M: 	c #8A8580",
"N: 	c #6C6563",
"O: 	c #6B6460",
"P: 	c #706B66",
"Q: 	c #7F7B76",
"R: 	c #847F79",
"S: 	c #87807E",
"T: 	c #817F76",
"U: 	c #928E88",
"V: 	c #8C877F",
"W: 	c #898582",
"X: 	c #86847F",
"Y: 	c #85857D",
"Z: 	c #918D89",
"`: 	c #83817C",
" < 	c #827B78",
".< 	c #78746C",
"+< 	c #837D78",
"@< 	c #83807A",
"#< 	c #838079",
"$< 	c #88857E",
"%< 	c #807D74",
"&< 	c #827B76",
"*< 	c #82817C",
"=< 	c #77756B",
"-< 	c #7B7570",
";< 	c #8A8780",
">< 	c #5D5653",
",< 	c #85827E",
"'< 	c #867D78",
")< 	c #857F7C",
"!< 	c #87837B",
"~< 	c #807A76",
"{< 	c #8E8A82",
"]< 	c #818077",
"^< 	c #87827C",
"/< 	c #827C78",
"(< 	c #958C88",
"_< 	c #867F7E",
":< 	c #867F7B",
"<< 	c #99958F",
"[< 	c #8E8A85",
"}< 	c #807875",
"|< 	c #7C756C",
"1< 	c #807C75",
"2< 	c #868077",
"3< 	c #837F76",
"4< 	c #A59E98",
"5< 	c #97928D",
"6< 	c #87857D",
"7< 	c #878278",
"8< 	c #443E35",
"9< 	c #7B766F",
"0< 	c #868178",
"a< 	c #76726D",
"b< 	c #908B82",
"c< 	c #7B776D",
"d< 	c #746F6C",
"e< 	c #7A756E",
"f< 	c #625D58",
"g< 	c #746E67",
"h< 	c #77756F",
"i< 	c #8C8A7F",
"j< 	c #87817C",
"k< 	c #877F79",
"l< 	c #6D6A63",
"m< 	c #6D6961",
"n< 	c #6A615C",
"o< 	c #766F6A",
"p< 	c #736F6A",
"q< 	c #605A51",
"r< 	c #68625D",
"s< 	c #796F6D",
"t< 	c #726F68",
"u< 	c #7E7B71",
"v< 	c #707066",
"w< 	c #807E76",
"x< 	c #4A463D",
"y< 	c #7B746D",
"z< 	c #7A796E",
"A< 	c #787169",
"B< 	c #685F55",
"C< 	c #5E5347",
"D< 	c #878279",
"E< 	c #8B8481",
"F< 	c #7D7570",
"G< 	c #6F6B66",
"H< 	c #7D7671",
"I< 	c #76736A",
"J< 	c #7F7E78",
"K< 	c #7B7470",
"L< 	c #716D66",
"M< 	c #706D64",
"N< 	c #646056",
"O< 	c #7E7772",
"P< 	c #7B7873",
"Q< 	c #817A76",
"R< 	c #605754",
"S< 	c #78726F",
"T< 	c #706A65",
"U< 	c #5A554F",
"V< 	c #857F7A",
"W< 	c #6F6964",
"X< 	c #5C5752",
"Y< 	c #625D57",
"Z< 	c #76706A",
"`< 	c #6B6862",
" [ 	c #57524D",
".[ 	c #65635D",
"+[ 	c #848279",
"@[ 	c #69635F",
"#[ 	c #776F6B",
"$[ 	c #766E6A",
"%[ 	c #605855",
"&[ 	c #68665D",
"*[ 	c #747169",
"=[ 	c #756F69",
"-[ 	c #6A675C",
";[ 	c #767167",
">[ 	c #57514E",
",[ 	c #706D65",
"'[ 	c #837C73",
")[ 	c #75756C",
"![ 	c #84807B",
"~[ 	c #76706D",
"{[ 	c #7C7B72",
"][ 	c #87827D",
"^[ 	c #726860",
"/[ 	c #7D7974",
"([ 	c #78736B",
"_[ 	c #837F79",
":[ 	c #76736B",
"<[ 	c #87857F",
"[[ 	c #837C77",
"}[ 	c #78726E",
"|[ 	c #807C76",
"1[ 	c #827C79",
"2[ 	c #827F75",
"3[ 	c #838075",
"4[ 	c #79726F",
"5[ 	c #7C7772",
"6[ 	c #8A857E",
"7[ 	c #878280",
"8[ 	c #78716E",
"9[ 	c #696460",
"0[ 	c #7B7772",
"a[ 	c #7C7A74",
"b[ 	c #8D8A85",
"c[ 	c #8F8E88",
"d[ 	c #827F79",
"e[ 	c #76736E",
"f[ 	c #7A716F",
"g[ 	c #7A756F",
"h[ 	c #706A66",
"i[ 	c #7E7A75",
"j[ 	c #85807A",
"k[ 	c #898780",
"l[ 	c #938C87",
"m[ 	c #89827F",
"n[ 	c #918D88",
"o[ 	c #89847C",
"p[ 	c #928F89",
"q[ 	c #817D77",
"r[ 	c #79786E",
"s[ 	c #87857E",
"t[ 	c #88877F",
"u[ 	c #8B8883",
"v[ 	c #96938B",
"w[ 	c #86817B",
"x[ 	c #898682",
"y[ 	c #817C76",
"z[ 	c #89877F",
"A[ 	c #96938F",
"B[ 	c #8E8A81",
"C[ 	c #93918C",
"D[ 	c #94908C",
"E[ 	c #969089",
"F[ 	c #88817D",
"G[ 	c #828076",
"H[ 	c #8D857E",
"I[ 	c #7C7A72",
"J[ 	c #7C7773",
"K[ 	c #837B76",
"L[ 	c #78766D",
"M[ 	c #8D8984",
"N[ 	c #554B3E",
"O[ 	c #6F665B",
"P[ 	c #908D85",
"Q[ 	c #84817A",
"R[ 	c #76726C",
"S[ 	c #7B7972",
"T[ 	c #6F675D",
"U[ 	c #78716D",
"V[ 	c #6F6D67",
"W[ 	c #85817C",
"X[ 	c #736F69",
"Y[ 	c #797670",
"Z[ 	c #7A756A",
"`[ 	c #88817C",
" } 	c #706B63",
".} 	c #74706B",
"+} 	c #7B7974",
"@} 	c #69655F",
"#} 	c #8A877E",
"$} 	c #6A635E",
"%} 	c #747167",
"&} 	c #68645F",
"*} 	c #7E7B73",
"=} 	c #68635F",
"-} 	c #686360",
";} 	c #79736F",
">} 	c #7A766F",
",} 	c #7F7A76",
"'} 	c #6E6763",
")} 	c #7C7B75",
"!} 	c #85837B",
"~} 	c #77736F",
"{} 	c #8C8073",
"]} 	c #766C5D",
"^} 	c #635C56",
"/} 	c #6A6460",
"(} 	c #6E6A64",
"_} 	c #726C65",
":} 	c #6F6968",
"<} 	c #655E5B",
"[} 	c #6D6561",
"}} 	c #7F7B78",
"|} 	c #77736D",
"1} 	c #686560",
"2} 	c #76746D",
"3} 	c #7D7874",
"4} 	c #76706E",
"5} 	c #7B7773",
"6} 	c #706962",
"7} 	c #6F6C64",
"8} 	c #6D6862",
"9} 	c #646057",
"0} 	c #6F6A67",
"a} 	c #5D5950",
"b} 	c #7B746F",
"c} 	c #75716A",
"d} 	c #797472",
"e} 	c #645953",
"f} 	c #635C58",
"g} 	c #5E5752",
"h} 	c #676058",
"i} 	c #63615C",
"j} 	c #7E7774",
"k} 	c #68625E",
"l} 	c #66645F",
"m} 	c #68635C",
"n} 	c #6B6A5D",
"o} 	c #928B85",
"p} 	c #827C77",
"q} 	c #8D8885",
"r} 	c #8E8884",
"s} 	c #736E6B",
"t} 	c #817E7D",
"u} 	c #7B7672",
"v} 	c #7F7A78",
"w} 	c #847B77",
"x} 	c #695E57",
"y} 	c #736762",
"z} 	c #8C8A86",
"A} 	c #7D7A74",
"B} 	c #7E7A78",
"C} 	c #93918B",
"D} 	c #74716B",
"E} 	c #817D76",
"F} 	c #7A7772",
"G} 	c #736F6B",
"H} 	c #837B79",
"I} 	c #817E78",
"J} 	c #878480",
"K} 	c #6E6963",
"L} 	c #7D7975",
"M} 	c #797772",
"N} 	c #87867E",
"O} 	c #7A7874",
"P} 	c #8A8582",
"Q} 	c #777370",
"R} 	c #88827D",
"S} 	c #828079",
"T} 	c #85847C",
"U} 	c #94908B",
"V} 	c #898580",
"W} 	c #8D8784",
"X} 	c #7B7973",
"Y} 	c #85807D",
"Z} 	c #8A8380",
"`} 	c #7D7A72",
" | 	c #736D68",
".| 	c #78736E",
"+| 	c #74716A",
"@| 	c #807E78",
"#| 	c #8C8981",
"$| 	c #8F8B83",
"%| 	c #8A857F",
"&| 	c #6F6C68",
"*| 	c #7E7C76",
"=| 	c #8E8B87",
"-| 	c #8D8C85",
";| 	c #8E8984",
">| 	c #908F87",
",| 	c #8B8783",
"'| 	c #877E78",
")| 	c #8C8680",
"!| 	c #8C8886",
"~| 	c #94918B",
"{| 	c #87837E",
"]| 	c #938F8A",
"^| 	c #908C84",
"/| 	c #827D75",
"(| 	c #85817A",
"_| 	c #8B847D",
":| 	c #84827A",
"<| 	c #938B87",
"[| 	c #635952",
"}| 	c #81776C",
"|| 	c #827A75",
"1| 	c #797570",
"2| 	c #766F6F",
"3| 	c #7C786F",
"4| 	c #76746E",
"5| 	c #747266",
"6| 	c #8A837E",
"7| 	c #7C7771",
"8| 	c #78706C",
"9| 	c #7A7570",
"0| 	c #6D635E",
"a| 	c #635C57",
"b| 	c #645D58",
"c| 	c #66605E",
"d| 	c #686460",
"e| 	c #716E65",
"f| 	c #807975",
"g| 	c #78776B",
"h| 	c #7C7672",
"i| 	c #6F6B62",
"j| 	c #736D6A",
"k| 	c #949089",
"l| 	c #6C6057",
"m| 	c #7A6C5E",
"n| 	c #756F6D",
"o| 	c #7A7A74",
"p| 	c #797870",
"q| 	c #73706A",
"r| 	c #716E69",
"s| 	c #6C6764",
"t| 	c #6B6961",
"u| 	c #5E5753",
"v| 	c #767571",
"w| 	c #69645E",
"x| 	c #73706C",
"y| 	c #84827C",
"z| 	c #807F77",
"A| 	c #6F6962",
"B| 	c #746E6C",
"C| 	c #84817B",
"D| 	c #5B5850",
"E| 	c #716E66",
"F| 	c #524B47",
"G| 	c #948E86",
"H| 	c #A09991",
"I| 	c #736E62",
"J| 	c #302623",
"K| 	c #928985",
"L| 	c #605C54",
"M| 	c #878079",
"N| 	c #554E48",
"O| 	c #6A665E",
"P| 	c #433E37",
"Q| 	c #8C847C",
"R| 	c #9D9791",
"S| 	c #6A6562",
"T| 	c #625954",
"U| 	c #6B6560",
"V| 	c #73736C",
"W| 	c #817974",
"X| 	c #76736D",
"Y| 	c #73726A",
"Z| 	c #96908A",
"`| 	c #59534D",
" 1 	c #706A67",
".1 	c #6B645F",
"+1 	c #817D78",
"@1 	c #787772",
"#1 	c #8B8680",
"$1 	c #797874",
"%1 	c #7A7674",
"&1 	c #605249",
"*1 	c #6B625C",
"=1 	c #7B7971",
"-1 	c #8A877D",
";1 	c #85807C",
">1 	c #6C6C64",
",1 	c #717068",
"'1 	c #77756C",
")1 	c #79776C",
"!1 	c #807E79",
"~1 	c #8F8B86",
"{1 	c #83827B",
"]1 	c #847F7A",
"^1 	c #727167",
"/1 	c #787671",
"(1 	c #84807C",
"_1 	c #8C8985",
":1 	c #808179",
"<1 	c #8F8883",
"[1 	c #7E7A76",
"}1 	c #7E7A77",
"|1 	c #86817D",
"11 	c #77756D",
"21 	c #898681",
"31 	c #8B8982",
"41 	c #948F8A",
"51 	c #8D8681",
"61 	c #8D8985",
"71 	c #87857C",
"81 	c #94928D",
"91 	c #9B9692",
"01 	c #7F7A79",
"a1 	c #82807B",
"b1 	c #7E7D74",
"c1 	c #8E8A86",
"d1 	c #888681",
"e1 	c #928F8B",
"f1 	c #7B7671",
"g1 	c #999590",
"h1 	c #79786F",
"i1 	c #908B87",
"j1 	c #94908A",
"k1 	c #5D5A55",
"l1 	c #7E7B78",
"m1 	c #938F8B",
"n1 	c #8D8880",
"o1 	c #8A837C",
"p1 	c #665E55",
"q1 	c #574E40",
"r1 	c #8C8882",
"s1 	c #66635B",
"t1 	c #7A7970",
"u1 	c #89837E",
"v1 	c #727067",
"w1 	c #706E65",
"x1 	c #69665F",
"y1 	c #736E65",
"z1 	c #78756F",
"A1 	c #7C7470",
"B1 	c #6D6B61",
"C1 	c #6E6B63",
"D1 	c #797671",
"E1 	c #65635C",
"F1 	c #625F56",
"G1 	c #6B665C",
"H1 	c #6A675E",
"I1 	c #56534B",
"J1 	c #68635E",
"K1 	c #706E64",
"L1 	c #6C6860",
"M1 	c #77746D",
"N1 	c #89847E",
"O1 	c #615A4E",
"P1 	c #7C7262",
"Q1 	c #6B6A63",
"R1 	c #6B6461",
"S1 	c #73726C",
"T1 	c #65605B",
"U1 	c #716C68",
"V1 	c #67625D",
"W1 	c #726D6A",
"X1 	c #6D6A65",
"Y1 	c #56504D",
"Z1 	c #635A58",
"`1 	c #68635D",
" 2 	c #6D6B65",
".2 	c #787570",
"+2 	c #696561",
"@2 	c #5D5A52",
"#2 	c #534A44",
"$2 	c #786E62",
"%2 	c #A0988F",
"&2 	c #A59C92",
"*2 	c #726762",
"=2 	c #736B66",
"-2 	c #70665F",
";2 	c #847A74",
">2 	c #978C81",
",2 	c #36312A",
"'2 	c #827873",
")2 	c #6D685E",
"!2 	c #676358",
"~2 	c #6B645C",
"{2 	c #5D5954",
"]2 	c #7F7972",
"^2 	c #65605A",
"/2 	c #756E6B",
"(2 	c #827B77",
"_2 	c #827C74",
":2 	c #86827F",
"<2 	c #7F7974",
"[2 	c #7C7B74",
"}2 	c #7A726B",
"|2 	c #7D7B78",
"12 	c #74736A",
"22 	c #88817B",
"32 	c #554B43",
"42 	c #7A7870",
"52 	c #7A7872",
"62 	c #7E7673",
"72 	c #7A7875",
"82 	c #7A786E",
"92 	c #867D79",
"02 	c #7C7976",
"a2 	c #8A8481",
"b2 	c #807C78",
"c2 	c #7D7674",
"d2 	c #898680",
"e2 	c #78756E",
"f2 	c #8F8D86",
"g2 	c #84827D",
"h2 	c #7F7E7A",
"i2 	c #847D7A",
"j2 	c #817F7C",
"k2 	c #8C8B84",
"l2 	c #716D6A",
"m2 	c #86827D",
"n2 	c #817F79",
"o2 	c #84837D",
"p2 	c #7D7B77",
"q2 	c #837B7A",
"r2 	c #74736D",
"s2 	c #827F7A",
"t2 	c #83837D",
"u2 	c #908D88",
"v2 	c #847E7C",
"w2 	c #7A7671",
"x2 	c #7E7C78",
"y2 	c #92908A",
"z2 	c #8E8D89",
"A2 	c #827F7B",
"B2 	c #86817E",
"C2 	c #818079",
"D2 	c #8C8B85",
"E2 	c #958C8A",
"F2 	c #807F73",
"G2 	c #918D8A",
"H2 	c #79756B",
"I2 	c #8A8781",
"J2 	c #9C9994",
"K2 	c #8D8785",
"L2 	c #87817D",
"M2 	c #8B8881",
"N2 	c #7B7268",
"O2 	c #72695C",
"P2 	c #9E9892",
"Q2 	c #7F7E76",
"R2 	c #776E67",
"S2 	c #74716C",
"T2 	c #8B867F",
"U2 	c #78786F",
"V2 	c #757167",
"W2 	c #77766D",
"X2 	c #797871",
"Y2 	c #757268",
"Z2 	c #777168",
"`2 	c #625B56",
" 3 	c #615953",
".3 	c #8C837F",
"+3 	c #6C6A61",
"@3 	c #6A6461",
"#3 	c #534E47",
"$3 	c #58534C",
"%3 	c #848378",
"&3 	c #6D6B66",
"*3 	c #747269",
"=3 	c #7B7A73",
"-3 	c #645A50",
";3 	c #7E7C77",
">3 	c #7B7872",
",3 	c #7A7470",
"'3 	c #646058",
")3 	c #706E69",
"!3 	c #7D7B75",
"~3 	c #726D69",
"{3 	c #7E7974",
"]3 	c #66635D",
"^3 	c #696462",
"/3 	c #6E6C66",
"(3 	c #706F67",
"_3 	c #7F7B72",
":3 	c #84827E",
"<3 	c #5F5A54",
"[3 	c #5F5A56",
"}3 	c #86827E",
"|3 	c #7C7975",
"13 	c #837F78",
"23 	c #706D69",
"33 	c #47413A",
"43 	c #767164",
"53 	c #A49D95",
"63 	c #938980",
"73 	c #766C63",
"83 	c #9C928B",
"93 	c #7F776C",
"03 	c #9B9287",
"a3 	c #8E827C",
"b3 	c #989289",
"c3 	c #8D877E",
"d3 	c #5A544B",
"e3 	c #757067",
"f3 	c #6B655B",
"g3 	c #645E59",
"h3 	c #746E6A",
"i3 	c #7D7A75",
"j3 	c #847B79",
"k3 	c #77726E",
"l3 	c #726F69",
"m3 	c #8C8681",
"n3 	c #68655F",
"o3 	c #7D7573",
"p3 	c #746D6A",
"q3 	c #766E6B",
"r3 	c #6E6865",
"s3 	c #87817A",
"t3 	c #8F8882",
"u3 	c #605B4E",
"v3 	c #88827B",
"w3 	c #7F7773",
"x3 	c #7A7A72",
"y3 	c #7B7770",
"z3 	c #7F7C76",
"A3 	c #7A7672",
"B3 	c #75716C",
"C3 	c #797571",
"D3 	c #827D7A",
"E3 	c #837D7A",
"F3 	c #6C6A5F",
"G3 	c #7C7570",
"H3 	c #8A8983",
"I3 	c #75706E",
"J3 	c #7D7B76",
"K3 	c #6C6866",
"L3 	c #7F7C77",
"M3 	c #89857F",
"N3 	c #847E79",
"O3 	c #83827C",
"P3 	c #82807A",
"Q3 	c #85847B",
"R3 	c #7B7673",
"S3 	c #7E7F77",
"T3 	c #787771",
"U3 	c #817E7A",
"V3 	c #7D7C72",
"W3 	c #85847E",
"X3 	c #89827D",
"Y3 	c #7C776F",
"Z3 	c #7F7774",
"`3 	c #918F88",
" 4 	c #918D87",
".4 	c #908E8A",
"+4 	c #7F7E79",
"@4 	c #807B79",
"#4 	c #858480",
"$4 	c #908F89",
"%4 	c #7B796F",
"&4 	c #817F77",
"*4 	c #8B8781",
"=4 	c #8D8882",
"-4 	c #7B736D",
";4 	c #929188",
">4 	c #726A61",
",4 	c #59544A",
"'4 	c #706761",
")4 	c #8B8581",
"!4 	c #817B78",
"~4 	c #89817D",
"{4 	c #75746A",
"]4 	c #948F88",
"^4 	c #67635C",
"/4 	c #7F7D76",
"(4 	c #87807C",
"_4 	c #7F7A71",
":4 	c #968F8C",
"<4 	c #5E5A53",
"[4 	c #908D86",
"}4 	c #787569",
"|4 	c #737269",
"14 	c #736F66",
"24 	c #7C746E",
"34 	c #72706A",
"44 	c #68635B",
"54 	c #64625C",
"64 	c #6B6761",
"74 	c #767270",
"84 	c #504C4A",
"94 	c #6D6B5F",
"04 	c #837E78",
"a4 	c #6B685F",
"b4 	c #67665A",
"c4 	c #88847B",
"d4 	c #675C4D",
"e4 	c #5A5349",
"f4 	c #706664",
"g4 	c #6F6C66",
"h4 	c #76756F",
"i4 	c #756D6A",
"j4 	c #797872",
"k4 	c #817C78",
"l4 	c #756F6C",
"m4 	c #6F6E67",
"n4 	c #655F5C",
"o4 	c #73716C",
"p4 	c #66615A",
"q4 	c #7B7771",
"r4 	c #787070",
"s4 	c #847F7C",
"t4 	c #6C6865",
"u4 	c #75726D",
"v4 	c #6D6764",
"w4 	c #79776F",
"x4 	c #716B67",
"y4 	c #7C7673",
"z4 	c #6E6261",
"A4 	c #8E8780",
"B4 	c #817770",
"C4 	c #94897F",
"D4 	c #898278",
"E4 	c #978F86",
"F4 	c #5D5148",
"G4 	c #746960",
"H4 	c #837C74",
"I4 	c #7A7266",
"J4 	c #807B70",
"K4 	c #8C8479",
"L4 	c #6C615B",
"M4 	c #857E74",
"N4 	c #766B63",
"O4 	c #65625C",
"P4 	c #817A7A",
"Q4 	c #756B68",
"R4 	c #939189",
"S4 	c #6F6D64",
"T4 	c #908882",
"U4 	c #807A7A",
"V4 	c #7A7873",
"W4 	c #7E7C79",
"X4 	c #8D8881",
"Y4 	c #625957",
"Z4 	c #7F7B77",
"`4 	c #817A7B",
" 5 	c #77746F",
".5 	c #78716F",
"+5 	c #7E7E75",
"@5 	c #7C7675",
"#5 	c #86807C",
"$5 	c #787370",
"%5 	c #85817D",
"&5 	c #7D7970",
"*5 	c #837D79",
"=5 	c #85807B",
"-5 	c #7F7D79",
";5 	c #8C8783",
">5 	c #7E7B75",
",5 	c #8B8C84",
"'5 	c #8B8580",
")5 	c #8B8885",
"!5 	c #6F6966",
"~5 	c #8C8983",
"{5 	c #8A8382",
"]5 	c #8A8683",
"^5 	c #878380",
"/5 	c #888781",
"(5 	c #837F7A",
"_5 	c #98938F",
":5 	c #7C7B73",
"<5 	c #96938E",
"[5 	c #807973",
"}5 	c #88837F",
"|5 	c #94928B",
"15 	c #79776E",
"25 	c #80776F",
"35 	c #9B968E",
"45 	c #8E8582",
"55 	c #716B62",
"65 	c #7F7C73",
"75 	c #615B57",
"85 	c #756E68",
"95 	c #828078",
"05 	c #756F68",
"a5 	c #675F5C",
"b5 	c #8B877E",
"c5 	c #7D7873",
"d5 	c #5D5552",
"e5 	c #4F4A42",
"f5 	c #625B53",
"g5 	c #6B6661",
"h5 	c #6B6559",
"i5 	c #7E7672",
"j5 	c #7F7D77",
"k5 	c #7B7572",
"l5 	c #7A7774",
"m5 	c #716C69",
"n5 	c #73706D",
"o5 	c #948F89",
"p5 	c #605C57",
"q5 	c #726A65",
"r5 	c #6F6967",
"s5 	c #6E6B67",
"t5 	c #797771",
"u5 	c #747067",
"v5 	c #65625E",
"w5 	c #564D47",
"x5 	c #928A7E",
"y5 	c #979085",
"z5 	c #A1988F",
"A5 	c #938E86",
"B5 	c #83766E",
"C5 	c #7D756C",
"D5 	c #A7A197",
"E5 	c #877E75",
"F5 	c #766E66",
"G5 	c #8B857A",
"H5 	c #837B72",
"I5 	c #706D62",
"J5 	c #7C726C",
"K5 	c #867F79",
"L5 	c #504B43",
"M5 	c #746C68",
"N5 	c #75706D",
"O5 	c #847D7B",
"P5 	c #87837F",
"Q5 	c #6B6762",
"R5 	c #736C6A",
"S5 	c #8F8B87",
"T5 	c #6F6B67",
"U5 	c #8A8682",
"V5 	c #7B7776",
"W5 	c #6C6B66",
"X5 	c #7C7674",
"Y5 	c #6E6764",
"Z5 	c #67655F",
"`5 	c #6E6B65",
" 6 	c #685E57",
".6 	c #817E79",
"+6 	c #7F7F77",
"@6 	c #73736E",
"#6 	c #74726D",
"$6 	c #787170",
"%6 	c #7D7B74",
"&6 	c #838178",
"*6 	c #797471",
"=6 	c #85837D",
"-6 	c #75736D",
";6 	c #827975",
">6 	c #82817D",
",6 	c #837F7C",
"'6 	c #736C68",
")6 	c #857F7D",
"!6 	c #95948F",
"~6 	c #76746F",
"{6 	c #8A8581",
"]6 	c #87847E",
"^6 	c #7D7A71",
"/6 	c #87867A",
"(6 	c #86837F",
"_6 	c #827C75",
":6 	c #888480",
"<6 	c #89847D",
"[6 	c #898683",
"}6 	c #918B89",
"|6 	c #79756F",
"16 	c #85847A",
"26 	c #908C8A",
"36 	c #82817B",
"46 	c #7F7976",
"56 	c #97948F",
"66 	c #6F6A68",
"76 	c #78706F",
"86 	c #75746C",
"96 	c #878581",
"06 	c #84857E",
"a6 	c #8A8882",
"b6 	c #958E89",
"c6 	c #8F8C86",
"d6 	c #6E675D",
"e6 	c #746860",
"f6 	c #665E53",
"g6 	c #807870",
"h6 	c #757370",
"i6 	c #7B7870",
"j6 	c #706D6A",
"k6 	c #716C66",
"l6 	c #807E77",
"m6 	c #777572",
"n6 	c #7A786D",
"o6 	c #716D65",
"p6 	c #8A867D",
"q6 	c #858078",
"r6 	c #84847B",
"s6 	c #737165",
"t6 	c #656057",
"u6 	c #6C6662",
"v6 	c #5A5652",
"w6 	c #6C675E",
"x6 	c #6A615B",
"y6 	c #6D6864",
"z6 	c #78766E",
"A6 	c #726E67",
"B6 	c #2F2922",
"C6 	c #756A5C",
"D6 	c #797774",
"E6 	c #7C7974",
"F6 	c #75726E",
"G6 	c #716F68",
"H6 	c #5F5952",
"I6 	c #5A5751",
"J6 	c #766F6B",
"K6 	c #7E7B77",
"L6 	c #807E7A",
"M6 	c #746E6B",
"N6 	c #5E5B53",
"O6 	c #797470",
"P6 	c #7C7874",
"Q6 	c #787972",
"R6 	c #7A746F",
"S6 	c #78736F",
"T6 	c #716D67",
"U6 	c #847D76",
"V6 	c #65625A",
"W6 	c #7C7871",
"X6 	c #685F59",
"Y6 	c #4B433D",
"Z6 	c #867B73",
"`6 	c #9E9A91",
" 7 	c #A19B91",
".7 	c #898277",
"+7 	c #938E85",
"@7 	c #837A72",
"#7 	c #6F625F",
"$7 	c #968D86",
"%7 	c #8B827A",
"&7 	c #897E79",
"*7 	c #8E887C",
"=7 	c #938981",
"-7 	c #999488",
";7 	c #524A42",
">7 	c #716F69",
",7 	c #4A433D",
"'7 	c #514945",
")7 	c #8C867F",
"!7 	c #7F776F",
"~7 	c #77726F",
"{7 	c #898581",
"]7 	c #87827E",
"^7 	c #8C8987",
"/7 	c #6E645D",
"(7 	c #888881",
"_7 	c #867F7A",
":7 	c #736E64",
"<7 	c #77716C",
"[7 	c #84837B",
"}7 	c #6A6963",
"|7 	c #7E7C74",
"17 	c #8A8782",
"27 	c #7D7977",
"37 	c #7B7774",
"47 	c #898B83",
"57 	c #85847F",
"67 	c #8E8B86",
"77 	c #817D79",
"87 	c #7F7C79",
"97 	c #837E7B",
"07 	c #79746F",
"a7 	c #6D6763",
"b7 	c #7D7C77",
"c7 	c #736B69",
"d7 	c #807976",
"e7 	c #8D8983",
"f7 	c #8A827F",
"g7 	c #817A77",
"h7 	c #74736C",
"i7 	c #857E7B",
"j7 	c #908B85",
"k7 	c #948E88",
"l7 	c #887F79",
"m7 	c #807873",
"n7 	c #716F64",
"o7 	c #58524D",
"p7 	c #7C7C72",
"q7 	c #7D7C73",
"r7 	c #555149",
"s7 	c #847E7A",
"t7 	c #696761",
"u7 	c #7D7572",
"v7 	c #656058",
"w7 	c #5F5E57",
"x7 	c #686661",
"y7 	c #77716D",
"z7 	c #77736E",
"A7 	c #6D6B62",
"B7 	c #69625B",
"C7 	c #524C43",
"D7 	c #7D6F61",
"E7 	c #796961",
"F7 	c #7A726E",
"G7 	c #635E5B",
"H7 	c #413A36",
"I7 	c #615C57",
"J7 	c #5B5653",
"K7 	c #716867",
"L7 	c #6D6C63",
"M7 	c #6C6B65",
"N7 	c #74726B",
"O7 	c #74706C",
"P7 	c #76736F",
"Q7 	c #777670",
"R7 	c #6F6864",
"S7 	c #6D6662",
"T7 	c #817B79",
"U7 	c #66635C",
"V7 	c #918A81",
"W7 	c #968E85",
"X7 	c #7F7670",
"Y7 	c #887A70",
"Z7 	c #AAA39B",
"`7 	c #7F756D",
" 8 	c #A09C90",
".8 	c #89827C",
"+8 	c #8F857D",
"@8 	c #888379",
"#8 	c #847E73",
"$8 	c #958D83",
"%8 	c #8E847A",
"&8 	c #90897E",
"*8 	c #615E54",
"=8 	c #827976",
"-8 	c #6E6E66",
";8 	c #6C6863",
">8 	c #8C877C",
",8 	c #ABA59E",
"'8 	c #9F968C",
")8 	c #726763",
"!8 	c #9A918A",
"~8 	c #8F887D",
"{8 	c #7D7E78",
"]8 	c #7A7472",
"^8 	c #807B78",
"/8 	c #756E64",
"(8 	c #868279",
"_8 	c #73706B",
":8 	c #797474",
"<8 	c #65625B",
"[8 	c #68615E",
"}8 	c #89837F",
"|8 	c #8A8480",
"18 	c #85817E",
"28 	c #7E7670",
"38 	c #8D8A87",
"48 	c #85837E",
"58 	c #7E7977",
"68 	c #837E7A",
"78 	c #838179",
"88 	c #918A85",
"98 	c #857E7A",
"08 	c #868380",
"a8 	c #84837C",
"b8 	c #7F7A77",
"c8 	c #83807D",
"d8 	c #928D89",
"e8 	c #898983",
"f8 	c #64615C",
"g8 	c #777270",
"h8 	c #605E59",
"i8 	c #8C8785",
"j8 	c #898782",
"k8 	c #928D8C",
"l8 	c #938F8E",
"m8 	c #918C86",
"n8 	c #75756E",
"o8 	c #7F7F79",
"p8 	c #75685D",
"q8 	c #827C7A",
"r8 	c #8B8882",
"s8 	c #837F7B",
"t8 	c #6A6865",
"u8 	c #726F6B",
"v8 	c #858179",
"w8 	c #52504A",
"x8 	c #56504A",
"y8 	c #78746F",
"z8 	c #453E37",
"A8 	c #69655E",
"B8 	c #625E57",
"C8 	c #5D5854",
"D8 	c #737369",
"E8 	c #78776C",
"F8 	c #413F35",
"G8 	c #655852",
"H8 	c #6F6459",
"I8 	c #87867D",
"J8 	c #68645D",
"K8 	c #76716F",
"L8 	c #756E6D",
"M8 	c #635E59",
"N8 	c #625A55",
"O8 	c #6C6561",
"P8 	c #605A57",
"Q8 	c #6F6E69",
"R8 	c #7E7876",
"S8 	c #65645D",
"T8 	c #817C7A",
"U8 	c #787470",
"V8 	c #746F6D",
"W8 	c #5C5953",
"X8 	c #7D756F",
"Y8 	c #817C73",
"Z8 	c #4E453E",
"`8 	c #A29B92",
" 9 	c #9E968D",
".9 	c #9A928C",
"+9 	c #898177",
"@9 	c #938A7F",
"#9 	c #948C84",
"$9 	c #958D85",
"%9 	c #A9A199",
"&9 	c #887F78",
"*9 	c #8F8880",
"=9 	c #9A938A",
"-9 	c #827D74",
";9 	c #837D74",
">9 	c #8F8981",
",9 	c #807771",
"'9 	c #948B84",
")9 	c #7C7268",
"!9 	c #8A817B",
"~9 	c #625A54",
"{9 	c #6B6562",
"]9 	c #5B5453",
"^9 	c #706D68",
"/9 	c #A29E96",
"(9 	c #9B948C",
"_9 	c #A49E94",
":9 	c #88817A",
"<9 	c #A49B94",
"[9 	c #A39C91",
"}9 	c #847D79",
"|9 	c #8C8687",
"19 	c #84847D",
"29 	c #8C8784",
"39 	c #868480",
"49 	c #868381",
"59 	c #615950",
"69 	c #786F66",
"79 	c #777471",
"89 	c #817C79",
"99 	c #7D7A73",
"09 	c #716D69",
"a9 	c #777571",
"b9 	c #4F4A44",
"c9 	c #83817A",
"d9 	c #5C5950",
"e9 	c #86837D",
"f9 	c #7B7A75",
"g9 	c #908E89",
"h9 	c #858581",
"i9 	c #86807D",
"j9 	c #8D8B85",
"k9 	c #766D69",
"l9 	c #8B8683",
"m9 	c #7A7971",
"n9 	c #8C867E",
"o9 	c #92918B",
"p9 	c #7C7A77",
"q9 	c #81807B",
"r9 	c #77716F",
"s9 	c #79706B",
"t9 	c #87837D",
"u9 	c #918C89",
"v9 	c #4C4338",
"w9 	c #69655C",
"x9 	c #827D77",
"y9 	c #857D7B",
"z9 	c #80817A",
"A9 	c #797170",
"B9 	c #6E6B62",
"C9 	c #817C72",
"D9 	c #7F7772",
"E9 	c #726E68",
"F9 	c #6A6861",
"G9 	c #7D7B73",
"H9 	c #535148",
"I9 	c #5F5C52",
"J9 	c #605D56",
"K9 	c #7A7167",
"L9 	c #574F45",
"M9 	c #8F8A85",
"N9 	c #726F6A",
"O9 	c #65615B",
"P9 	c #77746B",
"Q9 	c #726E6C",
"R9 	c #7A7A75",
"S9 	c #726F6C",
"T9 	c #67615E",
"U9 	c #6C6864",
"V9 	c #5E5953",
"W9 	c #7E7776",
"X9 	c #72726A",
"Y9 	c #7E736B",
"Z9 	c #9D948F",
"`9 	c #857975",
" 0 	c #928A83",
".0 	c #969186",
"+0 	c #91887F",
"@0 	c #817970",
"#0 	c #A19E91",
"$0 	c #878076",
"%0 	c #999387",
"&0 	c #8C857B",
"*0 	c #9E958F",
"=0 	c #978E87",
"-0 	c #A39F97",
";0 	c #978F87",
">0 	c #979189",
",0 	c #8C857A",
"'0 	c #5E5552",
")0 	c #686257",
"!0 	c #726C69",
"~0 	c #8A847F",
"{0 	c #959187",
"]0 	c #A49C92",
"^0 	c #59504F",
"/0 	c #4C453D",
"(0 	c #7D7D75",
"_0 	c #7A7773",
":0 	c #75716D",
"<0 	c #756C61",
"[0 	c #74726C",
"}0 	c #74706E",
"|0 	c #6F6E66",
"10 	c #6C6A64",
"20 	c #757670",
"30 	c #8E8D87",
"40 	c #91908D",
"50 	c #7E7C73",
"60 	c #868079",
"70 	c #97958F",
"80 	c #898684",
"90 	c #7E7773",
"00 	c #8E8B88",
"a0 	c #8E8C86",
"b0 	c #8B8983",
"c0 	c #85827D",
"d0 	c #88867F",
"e0 	c #6C6A63",
"f0 	c #9B9592",
"g0 	c #6D6C66",
"h0 	c #7B7970",
"i0 	c #97918C",
"j0 	c #75726C",
"k0 	c #68675E",
"l0 	c #6F6C67",
"m0 	c #6B6764",
"n0 	c #8B8682",
"o0 	c #908F8A",
"p0 	c #878681",
"q0 	c #807F78",
"r0 	c #908B84",
"s0 	c #827A74",
"t0 	c #7C7572",
"u0 	c #807F75",
"v0 	c #535046",
"w0 	c #7D7A78",
"x0 	c #75746F",
"y0 	c #69675E",
"z0 	c #918F87",
"A0 	c #6E6661",
"B0 	c #615852",
"C0 	c #797370",
"D0 	c #727168",
"E0 	c #7D7C76",
"F0 	c #7A7972",
"G0 	c #716F6A",
"H0 	c #4E4842",
"I0 	c #7B7265",
"J0 	c #655B53",
"K0 	c #727169",
"L0 	c #6D6663",
"M0 	c #736B68",
"N0 	c #66605C",
"O0 	c #706966",
"P0 	c #6A675F",
"Q0 	c #817977",
"R0 	c #888680",
"S0 	c #726E69",
"T0 	c #6D6B63",
"U0 	c #7B7674",
"V0 	c #6D6765",
"W0 	c #847F7B",
"X0 	c #A89D98",
"Y0 	c #9D9792",
"Z0 	c #7A7367",
"`0 	c #918A82",
" a 	c #928A7F",
".a 	c #9B9289",
"+a 	c #7C766B",
"@a 	c #8D857D",
"#a 	c #A59C96",
"$a 	c #A39E94",
"%a 	c #888078",
"&a 	c #979289",
"*a 	c #8A827C",
"=a 	c #978D84",
"-a 	c #998B83",
";a 	c #9E948D",
">a 	c #958C86",
",a 	c #A19892",
"'a 	c #776E68",
")a 	c #928C86",
"!a 	c #9B908A",
"~a 	c #9B938A",
"{a 	c #9D978E",
"]a 	c #625F5A",
"^a 	c #75736C",
"/a 	c #7F7C7B",
"(a 	c #756F6A",
"_a 	c #86847E",
":a 	c #868481",
"<a 	c #7C7C74",
"[a 	c #939188",
"}a 	c #726961",
"|a 	c #6A635A",
"1a 	c #7D7C75",
"2a 	c #807F79",
"3a 	c #8B847E",
"4a 	c #6B6962",
"5a 	c #6F6A65",
"6a 	c #686459",
"7a 	c #7B7B75",
"8a 	c #85837C",
"9a 	c #7E7C7A",
"0a 	c #797572",
"aa 	c #76726E",
"ba 	c #8D8A83",
"ca 	c #726E6A",
"da 	c #928E8B",
"ea 	c #817F7A",
"fa 	c #958C89",
"ga 	c #8C8683",
"ha 	c #68605E",
"ia 	c #97958C",
"ja 	c #7A7B73",
"ka 	c #7C7774",
"la 	c #85827F",
"ma 	c #908C89",
"na 	c #878580",
"oa 	c #9A9390",
"pa 	c #3E3730",
"qa 	c #70655A",
"ra 	c #928D8A",
"sa 	c #8B8980",
"ta 	c #8B8884",
"ua 	c #928F87",
"va 	c #74716D",
"wa 	c #89877D",
"xa 	c #908B86",
"ya 	c #787270",
"za 	c #686761",
"Aa 	c #65605D",
"Ba 	c #7A7569",
"Ca 	c #67655C",
"Da 	c #4F4E45",
"Ea 	c #706B6A",
"Fa 	c #433B33",
"Ga 	c #4C453B",
"Ha 	c #4A453B",
"Ia 	c #7E7265",
"Ja 	c #61564B",
"Ka 	c #6A6663",
"La 	c #756D67",
"Ma 	c #615F59",
"Na 	c #868179",
"Oa 	c #655E5C",
"Pa 	c #706C68",
"Qa 	c #6E6966",
"Ra 	c #6B6B64",
"Sa 	c #7F7975",
"Ta 	c #7A7372",
"Ua 	c #7D7673",
"Va 	c #7A7370",
"Wa 	c #817D7A",
"Xa 	c #5E564E",
"Ya 	c #9A958F",
"Za 	c #877F7B",
"`a 	c #9A948E",
" b 	c #7F7771",
".b 	c #867E78",
"+b 	c #9C968C",
"@b 	c #837975",
"#b 	c #8D837D",
"$b 	c #96928A",
"%b 	c #A39E97",
"&b 	c #7D7469",
"*b 	c #A09C94",
"=b 	c #8F8680",
"-b 	c #8C857D",
";b 	c #766F66",
">b 	c #9B948E",
",b 	c #47423E",
"'b 	c #78716A",
")b 	c #9E998D",
"!b 	c #655D58",
"~b 	c #A3A097",
"{b 	c #A69B94",
"]b 	c #8A857A",
"^b 	c #978D85",
"/b 	c #91877C",
"(b 	c #83807B",
"_b 	c #7D7C78",
":b 	c #6A6863",
"<b 	c #8A8B85",
"[b 	c #7D7A76",
"}b 	c #8A8883",
"|b 	c #6F6E64",
"1b 	c #807C79",
"2b 	c #928A86",
"3b 	c #6C6B63",
"4b 	c #84847E",
"5b 	c #777470",
"6b 	c #787672",
"7b 	c #696863",
"8b 	c #888581",
"9b 	c #787873",
"0b 	c #898981",
"ab 	c #8A8482",
"bb 	c #868280",
"cb 	c #8E8C8A",
"db 	c #8F8D88",
"eb 	c #7E7F76",
"fb 	c #63625C",
"gb 	c #7B786F",
"hb 	c #78776E",
"ib 	c #8A8880",
"jb 	c #74726E",
"kb 	c #72726B",
"lb 	c #8F8E87",
"mb 	c #827E7D",
"nb 	c #85827C",
"ob 	c #88837B",
"pb 	c #867F77",
"qb 	c #867C6C",
"rb 	c #756E66",
"sb 	c #827C76",
"tb 	c #8C8A83",
"ub 	c #6A6962",
"vb 	c #797770",
"wb 	c #908A84",
"xb 	c #878782",
"yb 	c #78766F",
"zb 	c #8C8A84",
"Ab 	c #88857F",
"Bb 	c #65625F",
"Cb 	c #8B8984",
"Db 	c #5B5851",
"Eb 	c #5A544E",
"Fb 	c #736964",
"Gb 	c #6B6362",
"Hb 	c #6A6762",
"Ib 	c #737167",
"Jb 	c #5E5B51",
"Kb 	c #7A756B",
"Lb 	c #665B51",
"Mb 	c #68655E",
"Nb 	c #625D5B",
"Ob 	c #6E6A68",
"Pb 	c #63615A",
"Qb 	c #7A7973",
"Rb 	c #89837B",
"Sb 	c #89837C",
"Tb 	c #A0998F",
"Ub 	c #8F8982",
"Vb 	c #9B958B",
"Wb 	c #918882",
"Xb 	c #A7A29A",
"Yb 	c #8F8780",
"Zb 	c #A29B93",
"`b 	c #959189",
" c 	c #9C9890",
".c 	c #908983",
"+c 	c #817673",
"@c 	c #98918A",
"#c 	c #908C81",
"$c 	c #80746F",
"%c 	c #9F9792",
"&c 	c #8E8A7D",
"*c 	c #97928C",
"=c 	c #9E958D",
"-c 	c #A69F96",
";c 	c #978F88",
">c 	c #9D958B",
",c 	c #A19B95",
"'c 	c #A89E97",
")c 	c #7F7D78",
"!c 	c #867E7D",
"~c 	c #8F8C83",
"{c 	c #675D58",
"]c 	c #7F7C78",
"^c 	c #7D7875",
"/c 	c #857E77",
"(c 	c #969189",
"_c 	c #6F6A66",
":c 	c #65665E",
"<c 	c #7E7E76",
"[c 	c #6C6B62",
"}c 	c #7A7775",
"|c 	c #888981",
"1c 	c #908F8B",
"2c 	c #868682",
"3c 	c #84857F",
"4c 	c #7C7875",
"5c 	c #6C6B64",
"6c 	c #767470",
"7c 	c #918E88",
"8c 	c #6E6B66",
"9c 	c #82837D",
"0c 	c #8D8987",
"ac 	c #8B8782",
"bc 	c #878483",
"cc 	c #514C43",
"dc 	c #86807B",
"ec 	c #6D6966",
"fc 	c #6E6E63",
"gc 	c #554F47",
"hc 	c #7E7874",
"ic 	c #898A81",
"jc 	c #5D5951",
"kc 	c #69675C",
"lc 	c #58554C",
"mc 	c #57524E",
"nc 	c #8C8A85",
"oc 	c #7A7572",
"pc 	c #5A524D",
"qc 	c #726E6B",
"rc 	c #7C766D",
"sc 	c #4E473F",
"tc 	c #948E83",
"uc 	c #7E746A",
"vc 	c #73685D",
"wc 	c #5B5249",
"xc 	c #6F6B68",
"yc 	c #68625F",
"zc 	c #59554D",
"Ac 	c #64625D",
"Bc 	c #69615C",
"Cc 	c #817E7B",
"Dc 	c #7C7A76",
"Ec 	c #797973",
"Fc 	c #76716E",
"Gc 	c #80807B",
"Hc 	c #7A7B72",
"Ic 	c #A19A95",
"Jc 	c #7C786D",
"Kc 	c #978E88",
"Lc 	c #928C82",
"Mc 	c #928980",
"Nc 	c #8E867D",
"Oc 	c #A69E94",
"Pc 	c #928D86",
"Qc 	c #9F9A94",
"Rc 	c #9A938B",
"Sc 	c #A09A91",
"Tc 	c #8F8A86",
"Uc 	c #A7A19C",
"Vc 	c #99918A",
"Wc 	c #A09B93",
"Xc 	c #595450",
"Yc 	c #A19992",
"Zc 	c #8E8C83",
"`c 	c #8F887F",
" d 	c #7C776C",
".d 	c #A19C94",
"+d 	c #7A7A73",
"@d 	c #827F7C",
"#d 	c #817F7D",
"$d 	c #908E83",
"%d 	c #5F554E",
"&d 	c #514A42",
"*d 	c #867E7A",
"=d 	c #7C7A75",
"-d 	c #84857D",
";d 	c #635F59",
">d 	c #7E7D78",
",d 	c #696862",
"'d 	c #8D8D86",
")d 	c #989492",
"!d 	c #95918C",
"~d 	c #706E6B",
"{d 	c #85857F",
"]d 	c #73736F",
"^d 	c #8B8A84",
"/d 	c #67645C",
"(d 	c #85807E",
"_d 	c #6E6E69",
":d 	c #868780",
"<d 	c #7B7B74",
"[d 	c #93918A",
"}d 	c #7F8078",
"|d 	c #786E65",
"1d 	c #5B5753",
"2d 	c #8F8A83",
"3d 	c #8D8B83",
"4d 	c #83827D",
"5d 	c #57544E",
"6d 	c #7E7D73",
"7d 	c #928D87",
"8d 	c #838279",
"9d 	c #636159",
"0d 	c #5A5650",
"ad 	c #766F6C",
"bd 	c #6E6C64",
"cd 	c #7B766E",
"dd 	c #7B736C",
"ed 	c #574B40",
"fd 	c #686055",
"gd 	c #7E7A70",
"hd 	c #615859",
"id 	c #76746B",
"jd 	c #716B69",
"kd 	c #6F6965",
"ld 	c #8D8884",
"md 	c #797672",
"nd 	c #7B7471",
"od 	c #756F6E",
"pd 	c #7D7776",
"qd 	c #8C8986",
"rd 	c #9E9891",
"sd 	c #968D85",
"td 	c #8B8579",
"ud 	c #9F948B",
"vd 	c #858175",
"wd 	c #8A827B",
"xd 	c #736C63",
"yd 	c #938F87",
"zd 	c #938C85",
"Ad 	c #9B968A",
"Bd 	c #9A928E",
"Cd 	c #A8A19B",
"Dd 	c #968F89",
"Ed 	c #A39C97",
"Fd 	c #7A7068",
"Gd 	c #98958A",
"Hd 	c #9C988F",
"Id 	c #9E9691",
"Jd 	c #969188",
"Kd 	c #958E88",
"Ld 	c #827F76",
"Md 	c #99938C",
"Nd 	c #A9A39B",
"Od 	c #3F3831",
"Pd 	c #A39994",
"Qd 	c #989187",
"Rd 	c #A49C96",
"Sd 	c #5D5B53",
"Td 	c #7B7775",
"Ud 	c #837E7E",
"Vd 	c #75736E",
"Wd 	c #686057",
"Xd 	c #7F7D7A",
"Yd 	c #888380",
"Zd 	c #848278",
"`d 	c #696560",
" e 	c #8A8982",
".e 	c #7C7D76",
"+e 	c #777772",
"@e 	c #85837F",
"#e 	c #908C88",
"$e 	c #8D8A88",
"%e 	c #8F8C88",
"&e 	c #5B5551",
"*e 	c #726D65",
"=e 	c #7D7676",
"-e 	c #898882",
";e 	c #827B6D",
">e 	c #7D766B",
",e 	c #827E7C",
"'e 	c #76756D",
")e 	c #6D665F",
"!e 	c #75696A",
"~e 	c #88877E",
"{e 	c #443E3B",
"]e 	c #66625C",
"^e 	c #635D58",
"/e 	c #5B5651",
"(e 	c #716864",
"_e 	c #6E6864",
":e 	c #6B6B60",
"<e 	c #5A524C",
"[e 	c #554C43",
"}e 	c #84766B",
"|e 	c #787773",
"1e 	c #6C6462",
"2e 	c #56524D",
"3e 	c #86837B",
"4e 	c #58574E",
"5e 	c #625B58",
"6e 	c #69625F",
"7e 	c #74746A",
"8e 	c #727069",
"9e 	c #797873",
"0e 	c #6C6763",
"ae 	c #A6A29A",
"be 	c #9D958E",
"ce 	c #A5A196",
"de 	c #8B8079",
"ee 	c #908981",
"fe 	c #A9A49C",
"ge 	c #8A847A",
"he 	c #ADA79F",
"ie 	c #98928A",
"je 	c #938D86",
"ke 	c #AEA7A0",
"le 	c #A09891",
"me 	c #9F9A92",
"ne 	c #ADA8A0",
"oe 	c #8E8B82",
"pe 	c #89817A",
"qe 	c #857974",
"re 	c #9F9B95",
"se 	c #64615E",
"te 	c #8F8A81",
"ue 	c #A39D98",
"ve 	c #AAA59E",
"we 	c #B5B1A8",
"xe 	c #3F362C",
"ye 	c #8C8984",
"ze 	c #8D8C86",
"Ae 	c #868580",
"Be 	c #81827A",
"Ce 	c #71706A",
"De 	c #86807E",
"Ee 	c #787871",
"Fe 	c #5D534D",
"Ge 	c #85817F",
"He 	c #706B69",
"Ie 	c #7B7675",
"Je 	c #686361",
"Ke 	c #797674",
"Le 	c #787770",
"Me 	c #5E5A56",
"Ne 	c #6D6964",
"Oe 	c #71726C",
"Pe 	c #898784",
"Qe 	c #83817F",
"Re 	c #84817D",
"Se 	c #898785",
"Te 	c #8B8880",
"Ue 	c #91908B",
"Ve 	c #868582",
"We 	c #90918A",
"Xe 	c #817C7B",
"Ye 	c #74746E",
"Ze 	c #6D6767",
"`e 	c #73716B",
" f 	c #746B67",
".f 	c #807F7A",
"+f 	c #898781",
"@f 	c #949288",
"#f 	c #807B6E",
"$f 	c #78726B",
"%f 	c #79716D",
"&f 	c #7E7B79",
"*f 	c #74726A",
"=f 	c #686660",
"-f 	c #706F69",
";f 	c #5A564F",
">f 	c #605E58",
",f 	c #726A68",
"'f 	c #737168",
")f 	c #484039",
"!f 	c #5C4F45",
"~f 	c #74716E",
"{f 	c #5B5954",
"]f 	c #6D6A66",
"^f 	c #7E7B6F",
"/f 	c #9E978B",
"(f 	c #867B76",
"_f 	c #A19791",
":f 	c #908980",
"<f 	c #8A857B",
"[f 	c #8B827B",
"}f 	c #8C867C",
"|f 	c #958E82",
"1f 	c #837B73",
"2f 	c #99968E",
"3f 	c #827D73",
"4f 	c #9B948F",
"5f 	c #AAA49D",
"6f 	c #ACA69F",
"7f 	c #A9A299",
"8f 	c #7F7A6D",
"9f 	c #98918B",
"0f 	c #97938D",
"af 	c #6A635B",
"bf 	c #524944",
"cf 	c #544C47",
"df 	c #443B39",
"ef 	c #565048",
"ff 	c #8D867F",
"gf 	c #8D8B86",
"hf 	c #6E6C67",
"if 	c #72716B",
"jf 	c #86857E",
"kf 	c #8E8A87",
"lf 	c #807E7B",
"mf 	c #8E8A89",
"nf 	c #958F8C",
"of 	c #8A8684",
"pf 	c #83847D",
"qf 	c #75746E",
"rf 	c #8E8A83",
"sf 	c #7D7A77",
"tf 	c #65615C",
"uf 	c #6A6763",
"vf 	c #7A7A71",
"wf 	c #867F7C",
"xf 	c #8D8A89",
"yf 	c #82796E",
"zf 	c #706A60",
"Af 	c #756F6B",
"Bf 	c #57534A",
"Cf 	c #7B7A72",
"Df 	c #67635E",
"Ef 	c #6D6C68",
"Ff 	c #706960",
"Gf 	c #8E8886",
"Hf 	c #9B978F",
"If 	c #89867E",
"Jf 	c #827A77",
"Kf 	c #7F7977",
"Lf 	c #847E7B",
"Mf 	c #7B7164",
"Nf 	c #6A5D50",
"Of 	c #53514B",
"Pf 	c #77766F",
"Qf 	c #817D7B",
"Rf 	c #6B6964",
"Sf 	c #626059",
"Tf 	c #706967",
"Uf 	c #59544E",
"Vf 	c #6D6C67",
"Wf 	c #675F5B",
"Xf 	c #7B716C",
"Yf 	c #918881",
"Zf 	c #4C443F",
"`f 	c #58504B",
" g 	c #918C81",
".g 	c #99928A",
"+g 	c #9A928B",
"@g 	c #6D675C",
"#g 	c #928B82",
"$g 	c #89847B",
"%g 	c #9C948E",
"&g 	c #7D776B",
"*g 	c #968F85",
"=g 	c #88847A",
"-g 	c #817A70",
";g 	c #A69F99",
">g 	c #8B857E",
",g 	c #A8A49C",
"'g 	c #9B938E",
")g 	c #9B938B",
"!g 	c #918B84",
"~g 	c #A29990",
"{g 	c #9E9993",
"]g 	c #8D8883",
"^g 	c #6B6A65",
"/g 	c #87827F",
"(g 	c #83817B",
"_g 	c #7B7573",
":g 	c #87827B",
"<g 	c #827E7A",
"[g 	c #807A78",
"}g 	c #7B7874",
"|g 	c #898381",
"1g 	c #73716D",
"2g 	c #807D79",
"3g 	c #797773",
"4g 	c #8B8886",
"5g 	c #7F7D7B",
"6g 	c #83837A",
"7g 	c #8B8B85",
"8g 	c #68665F",
"9g 	c #67655D",
"0g 	c #8A8A83",
"ag 	c #807F7B",
"bg 	c #95918A",
"cg 	c #7A716E",
"dg 	c #776E65",
"eg 	c #95908A",
"fg 	c #6C6965",
"gg 	c #776F6C",
"hg 	c #73736B",
"ig 	c #5B5650",
"jg 	c #47443D",
"kg 	c #88867B",
"lg 	c #87857B",
"mg 	c #706C62",
"ng 	c #6F6C65",
"og 	c #717269",
"pg 	c #6D6C65",
"qg 	c #564B44",
"rg 	c #655A50",
"sg 	c #817A72",
"tg 	c #827D7B",
"ug 	c #787471",
"vg 	c #6E6663",
"wg 	c #777771",
"xg 	c #726C6A",
"yg 	c #736C62",
"zg 	c #797971",
"Ag 	c #938C86",
"Bg 	c #8A877F",
"Cg 	c #A19D94",
"Dg 	c #8E8680",
"Eg 	c #9A908A",
"Fg 	c #9F968F",
"Gg 	c #A59D94",
"Hg 	c #6B635B",
"Ig 	c #90857D",
"Jg 	c #938B82",
"Kg 	c #A19A92",
"Lg 	c #877D75",
"Mg 	c #807A70",
"Ng 	c #6D625B",
"Og 	c #948F86",
"Pg 	c #928983",
"Qg 	c #9B9389",
"Rg 	c #918B86",
"Sg 	c #948A82",
"Tg 	c #99958A",
"Ug 	c #958F86",
"Vg 	c #8D867D",
"Wg 	c #958F8A",
"Xg 	c #918A84",
"Yg 	c #756B64",
"Zg 	c #A39B94",
"`g 	c #928C85",
" h 	c #8C867D",
".h 	c #A29D98",
"+h 	c #97938C",
"@h 	c #A59B98",
"#h 	c #8F8A7F",
"$h 	c #838080",
"%h 	c #70665D",
"&h 	c #7F7871",
"*h 	c #7B766C",
"=h 	c #888780",
"-h 	c #7A7473",
";h 	c #6C6C67",
">h 	c #898984",
",h 	c #84837E",
"'h 	c #908985",
")h 	c #999393",
"!h 	c #918E8D",
"~h 	c #888683",
"{h 	c #72706C",
"]h 	c #78716B",
"^h 	c #5E5B54",
"/h 	c #74706D",
"(h 	c #8B8887",
"_h 	c #8A8881",
":h 	c #928988",
"<h 	c #81786B",
"[h 	c #89897E",
"}h 	c #857E7E",
"|h 	c #645E58",
"1h 	c #6E6867",
"2h 	c #918B87",
"3h 	c #878379",
"4h 	c #8F8B84",
"5h 	c #726B65",
"6h 	c #7F7E77",
"7h 	c #6F655F",
"8h 	c #76756C",
"9h 	c #66655D",
"0h 	c #89847A",
"ah 	c #75746B",
"bh 	c #554F40",
"ch 	c #5C5047",
"dh 	c #5E5A55",
"eh 	c #75746D",
"fh 	c #8D8981",
"gh 	c #59524B",
"hh 	c #8B827F",
"ih 	c #9A958D",
"jh 	c #887E75",
"kh 	c #90887E",
"lh 	c #9D9990",
"mh 	c #98928C",
"nh 	c #928E80",
"oh 	c #99908A",
"ph 	c #A59F98",
"qh 	c #918A80",
"rh 	c #817D72",
"sh 	c #7E776F",
"th 	c #ABA39B",
"uh 	c #9A948A",
"vh 	c #837C72",
"wh 	c #A7A098",
"xh 	c #91877F",
"yh 	c #A29E97",
"zh 	c #99958B",
"Ah 	c #A19B93",
"Bh 	c #A09992",
"Ch 	c #A5A09A",
"Dh 	c #A49F95",
"Eh 	c #918E87",
"Fh 	c #908982",
"Gh 	c #ABA69E",
"Hh 	c #A19790",
"Ih 	c #A8A39E",
"Jh 	c #6E6D65",
"Kh 	c #6B6A62",
"Lh 	c #777570",
"Mh 	c #787673",
"Nh 	c #717069",
"Oh 	c #6D6865",
"Ph 	c #7B7A76",
"Qh 	c #7F7B79",
"Rh 	c #7F8079",
"Sh 	c #918F89",
"Th 	c #949291",
"Uh 	c #83847E",
"Vh 	c #808079",
"Wh 	c #93928F",
"Xh 	c #8E8987",
"Yh 	c #8D8B88",
"Zh 	c #6F7069",
"`h 	c #66645E",
" i 	c #84847C",
".i 	c #6E6965",
"+i 	c #84847F",
"@i 	c #78776D",
"#i 	c #7A7974",
"$i 	c #5E534A",
"%i 	c #665D53",
"&i 	c #75736F",
"*i 	c #6F6D66",
"=i 	c #59534E",
"-i 	c #666660",
";i 	c #6A6961",
">i 	c #7A766C",
",i 	c #848178",
"'i 	c #544A46",
")i 	c #433B35",
"!i 	c #605647",
"~i 	c #757471",
"{i 	c #847F7D",
"]i 	c #9C978D",
"^i 	c #676661",
"/i 	c #AEA79F",
"(i 	c #9A948C",
"_i 	c #9F9890",
":i 	c #8B847B",
"<i 	c #978E84",
"[i 	c #5C554D",
"}i 	c #ACA59C",
"|i 	c #948C82",
"1i 	c #AAA099",
"2i 	c #968E89",
"3i 	c #897F77",
"4i 	c #908A80",
"5i 	c #A09793",
"6i 	c #9E978F",
"7i 	c #827C71",
"8i 	c #9D988F",
"9i 	c #ACA39F",
"0i 	c #8F877F",
"ai 	c #A59F97",
"bi 	c #948F8B",
"ci 	c #A09B91",
"di 	c #A29A94",
"ei 	c #C7C2BC",
"fi 	c #908C87",
"gi 	c #7F7B7A",
"hi 	c #61554F",
"ii 	c #948D86",
"ji 	c #8A8980",
"ki 	c #7F7C7A",
"li 	c #787272",
"mi 	c #6D6D69",
"ni 	c #7B7975",
"oi 	c #6E6A67",
"pi 	c #817B7A",
"qi 	c #80807A",
"ri 	c #8B8985",
"si 	c #8B8A86",
"ti 	c #908C86",
"ui 	c #958F8E",
"vi 	c #8C8685",
"wi 	c #958E8D",
"xi 	c #888382",
"yi 	c #797673",
"zi 	c #82817A",
"Ai 	c #787571",
"Bi 	c #89827E",
"Ci 	c #797974",
"Di 	c #857A6F",
"Ei 	c #847B75",
"Fi 	c #5A504B",
"Gi 	c #72716D",
"Hi 	c #59534B",
"Ii 	c #524D46",
"Ji 	c #665E5B",
"Ki 	c #58514C",
"Li 	c #63605B",
"Mi 	c #756D63",
"Ni 	c #564941",
"Oi 	c #6F655A",
"Pi 	c #6A6661",
"Qi 	c #807F74",
"Ri 	c #86877E",
"Si 	c #69605B",
"Ti 	c #59524E",
"Ui 	c #747270",
"Vi 	c #6F675E",
"Wi 	c #A5A098",
"Xi 	c #7B736B",
"Yi 	c #8C847E",
"Zi 	c #999386",
"`i 	c #897E77",
" j 	c #A7A297",
".j 	c #9E968E",
"+j 	c #948C85",
"@j 	c #A59E95",
"#j 	c #968C88",
"$j 	c #898178",
"%j 	c #938D84",
"&j 	c #928B88",
"*j 	c #9B928D",
"=j 	c #908881",
"-j 	c #847E74",
";j 	c #88807D",
">j 	c #877E7A",
",j 	c #89827B",
"'j 	c #A6A095",
")j 	c #9C958D",
"!j 	c #949088",
"~j 	c #47423D",
"{j 	c #887F7A",
"]j 	c #A09B95",
"^j 	c #5E554D",
"/j 	c #807C7A",
"(j 	c #8E8D88",
"_j 	c #8B8784",
":j 	c #8B8480",
"<j 	c #6A6463",
"[j 	c #6F6D69",
"}j 	c #685D54",
"|j 	c #8D8580",
"1j 	c #767570",
"2j 	c #58554F",
"3j 	c #71706C",
"4j 	c #727068",
"5j 	c #646159",
"6j 	c #727066",
"7j 	c #938D88",
"8j 	c #757171",
"9j 	c #8B8584",
"0j 	c #908A89",
"aj 	c #938F8C",
"bj 	c #777671",
"cj 	c #81817A",
"dj 	c #59554E",
"ej 	c #73685E",
"fj 	c #554B45",
"gj 	c #918A88",
"hj 	c #82817E",
"ij 	c #706F68",
"jj 	c #625F57",
"kj 	c #58534B",
"lj 	c #928F88",
"mj 	c #817F75",
"nj 	c #615E55",
"oj 	c #57534D",
"pj 	c #54504C",
"qj 	c #79766C",
"rj 	c #6D695F",
"sj 	c #50463E",
"tj 	c #62574D",
"uj 	c #7E6E65",
"vj 	c #57504D",
"wj 	c #67615C",
"xj 	c #767770",
"yj 	c #807F7D",
"zj 	c #6A615E",
"Aj 	c #322B26",
"Bj 	c #615D54",
"Cj 	c #8C8580",
"Dj 	c #7D726A",
"Ej 	c #7F776D",
"Fj 	c #868379",
"Gj 	c #938C84",
"Hj 	c #8C847D",
"Ij 	c #918883",
"Jj 	c #8A817A",
"Kj 	c #A69E96",
"Lj 	c #968C86",
"Mj 	c #867E77",
"Nj 	c #979089",
"Oj 	c #89807A",
"Pj 	c #A59D97",
"Qj 	c #736B62",
"Rj 	c #ABA19C",
"Sj 	c #8E887E",
"Tj 	c #ABA49D",
"Uj 	c #9C9792",
"Vj 	c #A6A098",
"Wj 	c #9F9B94",
"Xj 	c #A29C94",
"Yj 	c #A39E98",
"Zj 	c #6A6862",
"`j 	c #7B7574",
" k 	c #696563",
".k 	c #7C7878",
"+k 	c #8A867F",
"@k 	c #72726F",
"#k 	c #908580",
"$k 	c #797574",
"%k 	c #75736B",
"&k 	c #787572",
"*k 	c #7C7E77",
"=k 	c #7D7774",
"-k 	c #6E6E65",
";k 	c #817B77",
">k 	c #848682",
",k 	c #918A87",
"'k 	c #8E8E89",
")k 	c #8C8682",
"!k 	c #93897D",
"~k 	c #5E564D",
"{k 	c #8B8A83",
"]k 	c #898685",
"^k 	c #908C85",
"/k 	c #605D57",
"(k 	c #686059",
"_k 	c #58514B",
":k 	c #4E4742",
"<k 	c #635B55",
"[k 	c #756D69",
"}k 	c #6E6F67",
"|k 	c #656159",
"1k 	c #5F5C53",
"2k 	c #6F6B64",
"3k 	c #6C655C",
"4k 	c #837B75",
"5k 	c #554C40",
"6k 	c #777271",
"7k 	c #665D59",
"8k 	c #766D62",
"9k 	c #AEA79D",
"0k 	c #8F8C81",
"ak 	c #938E84",
"bk 	c #848075",
"ck 	c #7F7671",
"dk 	c #948983",
"ek 	c #8F8C84",
"fk 	c #948E85",
"gk 	c #A29D96",
"hk 	c #9D958D",
"ik 	c #9A948B",
"jk 	c #918B82",
"kk 	c #928982",
"lk 	c #AAA7A1",
"mk 	c #A19B98",
"nk 	c #877F78",
"ok 	c #948D8A",
"pk 	c #A4A19A",
"qk 	c #A9A298",
"rk 	c #6F6B69",
"sk 	c #76726F",
"tk 	c #888481",
"uk 	c #878481",
"vk 	c #686461",
"wk 	c #857D7D",
"xk 	c #807871",
"yk 	c #63605C",
"zk 	c #716A67",
"Ak 	c #5F605B",
"Bk 	c #6F6F6B",
"Ck 	c #67645D",
"Dk 	c #7D7876",
"Ek 	c #89857C",
"Fk 	c #898982",
"Gk 	c #81817B",
"Hk 	c #83817D",
"Ik 	c #777268",
"Jk 	c #6A6054",
"Kk 	c #585046",
"Lk 	c #71706B",
"Mk 	c #66655B",
"Nk 	c #5B514C",
"Ok 	c #56514E",
"Pk 	c #5C5753",
"Qk 	c #575352",
"Rk 	c #7D776F",
"Sk 	c #63635C",
"Tk 	c #524E48",
"Uk 	c #514E46",
"Vk 	c #635C59",
"Wk 	c #66645D",
"Xk 	c #615A53",
"Yk 	c #6C675D",
"Zk 	c #6C675C",
"`k 	c #75695C",
" l 	c #756E5F",
".l 	c #74706F",
"+l 	c #6B6A64",
"@l 	c #68605D",
"#l 	c #867D73",
"$l 	c #9E948F",
"%l 	c #979086",
"&l 	c #AB9E97",
"*l 	c #A39E96",
"=l 	c #8C827A",
"-l 	c #B1AAA3",
";l 	c #8D887D",
">l 	c #9F9B92",
",l 	c #A79E98",
"'l 	c #99938A",
")l 	c #5A514C",
"!l 	c #A89F98",
"~l 	c #97918A",
"{l 	c #8D837E",
"]l 	c #B5ACA7",
"^l 	c #7E756E",
"/l 	c #635956",
"(l 	c #898078",
"_l 	c #9D9691",
":l 	c #99968F",
"<l 	c #A49F99",
"[l 	c #585750",
"}l 	c #605C55",
"|l 	c #686561",
"1l 	c #6B6763",
"2l 	c #78786E",
"3l 	c #67645F",
"4l 	c #828179",
"5l 	c #6E6C68",
"6l 	c #66655E",
"7l 	c #676563",
"8l 	c #6D6D64",
"9l 	c #898481",
"0l 	c #83837E",
"al 	c #7F7978",
"bl 	c #8F8D89",
"cl 	c #96918D",
"dl 	c #878582",
"el 	c #8D8986",
"fl 	c #857F7F",
"gl 	c #94918A",
"hl 	c #8E8783",
"il 	c #817F7B",
"jl 	c #8B8A85",
"kl 	c #83796C",
"ll 	c #66605B",
"ml 	c #59564E",
"nl 	c #68635A",
"ol 	c #57534F",
"pl 	c #5A534D",
"ql 	c #595551",
"rl 	c #5C5952",
"sl 	c #7A736F",
"tl 	c #4B463E",
"ul 	c #6D6558",
"vl 	c #786E5F",
"wl 	c #504539",
"xl 	c #807D7A",
"yl 	c #75706F",
"zl 	c #64605B",
"Al 	c #82827D",
"Bl 	c #747469",
"Cl 	c #A69E95",
"Dl 	c #261D17",
"El 	c #615957",
"Fl 	c #413C34",
"Gl 	c #A7A19B",
"Hl 	c #A8A29A",
"Il 	c #978D88",
"Jl 	c #847C76",
"Kl 	c #A09893",
"Ll 	c #A6A19B",
"Ml 	c #98918C",
"Nl 	c #736C61",
"Ol 	c #8C887E",
"Pl 	c #99918B",
"Ql 	c #ADA6A1",
"Rl 	c #776F65",
"Sl 	c #A09994",
"Tl 	c #ACA8A0",
"Ul 	c #918B83",
"Vl 	c #8E877E",
"Wl 	c #8E8781",
"Xl 	c #787371",
"Yl 	c #73726F",
"Zl 	c #4D4641",
"`l 	c #8B8A82",
" m 	c #70675F",
".m 	c #5F5851",
"+m 	c #72716C",
"@m 	c #7D7D77",
"#m 	c #82807C",
"$m 	c #93938D",
"%m 	c #6C695F",
"&m 	c #645B56",
"*m 	c #888883",
"=m 	c #888682",
"-m 	c #81827C",
";m 	c #524B45",
">m 	c #72685D",
",m 	c #797A74",
"'m 	c #65625D",
")m 	c #5E5652",
"!m 	c #5D5B54",
"~m 	c #534F44",
"{m 	c #56524E",
"]m 	c #6D6562",
"^m 	c #5E5852",
"/m 	c #666257",
"(m 	c #5E5D54",
"_m 	c #5C5853",
":m 	c #77776E",
"<m 	c #79726E",
"[m 	c #878178",
"}m 	c #524C46",
"|m 	c #4B453F",
"1m 	c #56473C",
"2m 	c #5E5649",
"3m 	c #584E43",
"4m 	c #6A6662",
"5m 	c #6B6663",
"6m 	c #64635E",
"7m 	c #938B81",
"8m 	c #8F877C",
"9m 	c #9C9389",
"0m 	c #9B9690",
"am 	c #534B47",
"bm 	c #9F9990",
"cm 	c #AFA99D",
"dm 	c #A19A94",
"em 	c #AEAAA3",
"fm 	c #8F8884",
"gm 	c #98948B",
"hm 	c #9A958E",
"im 	c #99908B",
"jm 	c #A19994",
"km 	c #7D7C74",
"lm 	c #615E59",
"mm 	c #72706D",
"nm 	c #696964",
"om 	c #84807E",
"pm 	c #7C7977",
"qm 	c #827C70",
"rm 	c #686961",
"sm 	c #77766E",
"tm 	c #707069",
"um 	c #74736E",
"vm 	c #908F86",
"wm 	c #797372",
"xm 	c #6E6964",
"ym 	c #706F6C",
"zm 	c #807977",
"Am 	c #908E8C",
"Bm 	c #868681",
"Cm 	c #81807D",
"Dm 	c #858280",
"Em 	c #948D88",
"Fm 	c #88857D",
"Gm 	c #8F8C89",
"Hm 	c #87817E",
"Im 	c #7D7E77",
"Jm 	c #999691",
"Km 	c #8E8C88",
"Lm 	c #423C36",
"Mm 	c #584F45",
"Nm 	c #666054",
"Om 	c #8E8986",
"Pm 	c #8F8987",
"Qm 	c #66635A",
"Rm 	c #5B554C",
"Sm 	c #5D5B52",
"Tm 	c #564D4A",
"Um 	c #534F48",
"Vm 	c #605E54",
"Wm 	c #5C5C53",
"Xm 	c #716E64",
"Ym 	c #7B726C",
"Zm 	c #6C6361",
"`m 	c #595146",
" n 	c #867A71",
".n 	c #71675B",
"+n 	c #83817E",
"@n 	c #5E5951",
"#n 	c #706A69",
"$n 	c #A7A299",
"%n 	c #A9A098",
"&n 	c #928B83",
"*n 	c #6D635D",
"=n 	c #ACA9A1",
"-n 	c #A9A49B",
";n 	c #948F85",
">n 	c #968F88",
",n 	c #B1AEA6",
"'n 	c #9D928B",
")n 	c #ABA79F",
"!n 	c #928984",
"~n 	c #9B958D",
"{n 	c #AAA69C",
"]n 	c #A09A95",
"^n 	c #9A9690",
"/n 	c #9B958E",
"(n 	c #716B68",
"_n 	c #777371",
":n 	c #726E6E",
"<n 	c #6A6664",
"[n 	c #93928C",
"}n 	c #898175",
"|n 	c #8E867E",
"1n 	c #65635B",
"2n 	c #6C6460",
"3n 	c #777873",
"4n 	c #6E6A66",
"5n 	c #91908A",
"6n 	c #93908B",
"7n 	c #989690",
"8n 	c #8C8584",
"9n 	c #7E7E79",
"0n 	c #7D7C79",
"an 	c #918F8A",
"bn 	c #7B7C74",
"cn 	c #87867F",
"dn 	c #706F65",
"en 	c #84837F",
"fn 	c #787266",
"gn 	c #898885",
"hn 	c #615C56",
"in 	c #716763",
"jn 	c #5A5851",
"kn 	c #575249",
"ln 	c #67635F",
"mn 	c #716964",
"nn 	c #4E4C45",
"on 	c #605955",
"pn 	c #4D4A42",
"qn 	c #645F5B",
"rn 	c #665B4F",
"sn 	c #6D5E52",
"tn 	c #64574C",
"un 	c #858380",
"vn 	c #7E7D75",
"wn 	c #454139",
"xn 	c #B8B3AB",
"yn 	c #A29C93",
"zn 	c #8E8B83",
"An 	c #ADA7A1",
"Bn 	c #9F9691",
"Cn 	c #8E857F",
"Dn 	c #A09A92",
"En 	c #544D47",
"Fn 	c #A79E99",
"Gn 	c #A09790",
"Hn 	c #AFA59E",
"In 	c #A39D96",
"Jn 	c #8D877D",
"Kn 	c #9F9791",
"Ln 	c #98928D",
"Mn 	c #9B968C",
"Nn 	c #AFA8A2",
"On 	c #A19991",
"Pn 	c #A8A297",
"Qn 	c #BDB4AD",
"Rn 	c #70706B",
"Sn 	c #72746D",
"Tn 	c #9B9691",
"Un 	c #94928C",
"Vn 	c #6E6967",
"Wn 	c #59544D",
"Xn 	c #66625F",
"Yn 	c #84807F",
"Zn 	c #87807F",
"`n 	c #73726D",
" o 	c #83847B",
".o 	c #98968E",
"+o 	c #908D89",
"@o 	c #7F7D74",
"#o 	c #7F7A7A",
"$o 	c #80807C",
"%o 	c #8F8C8A",
"&o 	c #898382",
"*o 	c #6D6967",
"=o 	c #898884",
"-o 	c #8D8988",
";o 	c #8B8577",
">o 	c #656259",
",o 	c #58534F",
"'o 	c #4C4742",
")o 	c #5F5D55",
"!o 	c #555046",
"~o 	c #615853",
"{o 	c #67655E",
"]o 	c #6D6D66",
"^o 	c #59534C",
"/o 	c #605A54",
"(o 	c #65615A",
"_o 	c #68615B",
":o 	c #605B53",
"<o 	c #74736B",
"[o 	c #776E60",
"}o 	c #958A7E",
"|o 	c #6A5F55",
"1o 	c #736D63",
"2o 	c #80837D",
"3o 	c #7C7C78",
"4o 	c #818278",
"5o 	c #7B7A74",
"6o 	c #4A443F",
"7o 	c #868382",
"8o 	c #524E47",
"9o 	c #A69F98",
"0o 	c #9B928A",
"ao 	c #A19D96",
"bo 	c #B2ACA5",
"co 	c #978E8A",
"do 	c #817772",
"eo 	c #A4A099",
"fo 	c #9E988D",
"go 	c #AAA5A0",
"ho 	c #857C77",
"io 	c #938985",
"jo 	c #A6A299",
"ko 	c #AAA6A2",
"lo 	c #928E84",
"mo 	c #A19E94",
"no 	c #63605A",
"oo 	c #696160",
"po 	c #696764",
"qo 	c #74726F",
"ro 	c #888884",
"so 	c #756F65",
"to 	c #746D69",
"uo 	c #6D6A67",
"vo 	c #797473",
"wo 	c #717169",
"xo 	c #706C69",
"yo 	c #575349",
"zo 	c #7C7775",
"Ao 	c #6F6868",
"Bo 	c #98938B",
"Co 	c #807E75",
"Do 	c #87847D",
"Eo 	c #73736D",
"Fo 	c #928E89",
"Go 	c #888785",
"Ho 	c #8D8781",
"Io 	c #95928D",
"Jo 	c #7D7D76",
"Ko 	c #78786D",
"Lo 	c #777368",
"Mo 	c #716C6A",
"No 	c #525047",
"Oo 	c #52504B",
"Po 	c #6F6B61",
"Qo 	c #62605B",
"Ro 	c #6B6A60",
"So 	c #626156",
"To 	c #615755",
"Uo 	c #544F48",
"Vo 	c #78706D",
"Wo 	c #6A6A64",
"Xo 	c #636157",
"Yo 	c #6C6964",
"Zo 	c #6B635D",
"`o 	c #7A7369",
" p 	c #615F56",
".p 	c #463E39",
"+p 	c #736B5C",
"@p 	c #6E6056",
"#p 	c #797A72",
"$p 	c #6B6B66",
"%p 	c #837C7A",
"&p 	c #776D68",
"*p 	c #726B69",
"=p 	c #625E5A",
"-p 	c #89857A",
";p 	c #56524A",
">p 	c #A6A199",
",p 	c #B1ACA4",
"'p 	c #998F89",
")p 	c #9A928D",
"!p 	c #A59D96",
"~p 	c #ACA69D",
"{p 	c #A49E98",
"]p 	c #A8A69C",
"^p 	c #978F8B",
"/p 	c #8B887F",
"(p 	c #62625E",
"_p 	c #73726B",
":p 	c #827A6F",
"<p 	c #615E5A",
"[p 	c #58544F",
"}p 	c #726B66",
"|p 	c #827A78",
"1p 	c #91938C",
"2p 	c #96938C",
"3p 	c #94948D",
"4p 	c #8F8D87",
"5p 	c #918E89",
"6p 	c #7B7B73",
"7p 	c #767671",
"8p 	c #8A8B83",
"9p 	c #82827C",
"0p 	c #8C8C85",
"ap 	c #8F8C87",
"bp 	c #8A8884",
"cp 	c #676054",
"dp 	c #6C6558",
"ep 	c #4E4840",
"fp 	c #514F47",
"gp 	c #6F6D63",
"hp 	c #59524A",
"ip 	c #6A615A",
"jp 	c #605D58",
"kp 	c #6B655D",
"lp 	c #645D54",
"mp 	c #504D44",
"np 	c #544E48",
"op 	c #726B67",
"pp 	c #74695D",
"qp 	c #80736A",
"rp 	c #74736F",
"sp 	c #696662",
"tp 	c #7E7878",
"up 	c #696661",
"vp 	c #736F6D",
"wp 	c #665F5C",
"xp 	c #A3998E",
"yp 	c #362B27",
"zp 	c #504A43",
"Ap 	c #8B857C",
"Bp 	c #9C9B92",
"Cp 	c #796F69",
"Dp 	c #96918C",
"Ep 	c #999591",
"Fp 	c #8E8885",
"Gp 	c #A8A49D",
"Hp 	c #929087",
"Ip 	c #A19893",
"Jp 	c #9F9590",
"Kp 	c #75756F",
"Lp 	c #6F6C69",
"Mp 	c #7C7C75",
"Np 	c #8A8785",
"Op 	c #7E7F7B",
"Pp 	c #696961",
"Qp 	c #746C63",
"Rp 	c #7D7978",
"Sp 	c #6A6960",
"Tp 	c #6F6765",
"Up 	c #595650",
"Vp 	c #676560",
"Wp 	c #6C6A65",
"Xp 	c #66665D",
"Yp 	c #888783",
"Zp 	c #95918D",
"`p 	c #888984",
" q 	c #969591",
".q 	c #564D42",
"+q 	c #372E27",
"@q 	c #5D5A4E",
"#q 	c #514D46",
"$q 	c #534F49",
"%q 	c #5F5A51",
"&q 	c #524D47",
"*q 	c #59514B",
"=q 	c #64645D",
"-q 	c #504C45",
";q 	c #56514A",
">q 	c #463F3C",
",q 	c #4D4840",
"'q 	c #56534C",
")q 	c #696052",
"!q 	c #968C7D",
"~q 	c #5C5145",
"{q 	c #675F53",
"]q 	c #83827E",
"^q 	c #7D7D74",
"/q 	c #868080",
"(q 	c #93918D",
"_q 	c #7A7574",
":q 	c #7C7B77",
"<q 	c #696760",
"[q 	c #6D6C64",
"}q 	c #4C4642",
"|q 	c #83807E",
"1q 	c #AEA7A2",
"2q 	c #958F89",
"3q 	c #8C857E",
"4q 	c #A59D98",
"5q 	c #A5A29A",
"6q 	c #9D958F",
"7q 	c #908A81",
"8q 	c #8E8882",
"9q 	c #B1AAA6",
"0q 	c #A19B94",
"aq 	c #A9A59D",
"bq 	c #8D8581",
"cq 	c #A5A19D",
"dq 	c #47433D",
"eq 	c #6E6D66",
"fq 	c #918C88",
"gq 	c #88827F",
"hq 	c #5E524A",
"iq 	c #756D6B",
"jq 	c #716F6B",
"kq 	c #615D55",
"lq 	c #54524A",
"mq 	c #858279",
"nq 	c #908E87",
"oq 	c #95938D",
"pq 	c #8A8984",
"qq 	c #7C7473",
"rq 	c #928F8A",
"sq 	c #8A8784",
"tq 	c #8C8885",
"uq 	c #81837B",
"vq 	c #918575",
"wq 	c #7F7466",
"xq 	c #4F4C44",
"yq 	c #706860",
"zq 	c #5E5B4E",
"Aq 	c #71675E",
"Bq 	c #56524C",
"Cq 	c #5F5B56",
"Dq 	c #554E47",
"Eq 	c #635F5A",
"Fq 	c #4D4842",
"Gq 	c #87867C",
"Hq 	c #807673",
"Iq 	c #3E382F",
"Jq 	c #6E6454",
"Kq 	c #6E5E53",
"Lq 	c #67594B",
"Mq 	c #56493D",
"Nq 	c #544E42",
"Oq 	c #928C88",
"Pq 	c #9D9892",
"Qq 	c #83837C",
"Rq 	c #898881",
"Sq 	c #837C79",
"Tq 	c #7D7A6F",
"Uq 	c #322922",
"Vq 	c #BCB7B2",
"Wq 	c #524A45",
"Xq 	c #A2A095",
"Yq 	c #908B81",
"Zq 	c #9C948B",
"`q 	c #6E6762",
" r 	c #A09A93",
".r 	c #A89E9B",
"+r 	c #928B84",
"@r 	c #A19C98",
"#r 	c #7C7471",
"$r 	c #615B58",
"%r 	c #464136",
"&r 	c #5A4F4A",
"*r 	c #716D64",
"=r 	c #6A6B64",
"-r 	c #615956",
";r 	c #7F7F76",
">r 	c #6F6E68",
",r 	c #817D75",
"'r 	c #96938D",
")r 	c #817E7C",
"!r 	c #8C8881",
"~r 	c #2D2520",
"{r 	c #7B6F62",
"]r 	c #7B756A",
"^r 	c #564B3F",
"/r 	c #4F483D",
"(r 	c #57524C",
"_r 	c #5C544D",
":r 	c #4C453C",
"<r 	c #584F4A",
"[r 	c #5C5951",
"}r 	c #504943",
"|r 	c #544E47",
"1r 	c #665E56",
"2r 	c #4E4641",
"3r 	c #68655D",
"4r 	c #69635B",
"5r 	c #5D564E",
"6r 	c #4C4740",
"7r 	c #59534A",
"8r 	c #59574E",
"9r 	c #79746C",
"0r 	c #514841",
"ar 	c #7F796F",
"br 	c #4A453D",
"cr 	c #584D3D",
"dr 	c #726C5E",
"er 	c #574F43",
"fr 	c #524942",
"gr 	c #7C756B",
"hr 	c #4F433D",
"ir 	c #3C372C",
"jr 	c #908A83",
"kr 	c #403E31",
"lr 	c #736B63",
"mr 	c #5A5149",
"nr 	c #3C332D",
"or 	c #665E58",
"pr 	c #9F9793",
"qr 	c #939089",
"rr 	c #807C73",
"sr 	c #817871",
"tr 	c #312620",
"ur 	c #ABA8A3",
"vr 	c #908883",
"wr 	c #928C84",
"xr 	c #A59F9A",
"yr 	c #A8A79E",
"zr 	c #AFA9A2",
"Ar 	c #B3AFA6",
"Br 	c #AAA6A1",
"Cr 	c #A39F96",
"Dr 	c #95908C",
"Er 	c #55504A",
"Fr 	c #7C7B70",
"Gr 	c #5C544E",
"Hr 	c #514B44",
"Ir 	c #7F7776",
"Jr 	c #7C7267",
"Kr 	c #6F6A5E",
"Lr 	c #5C5349",
"Mr 	c #96948F",
"Nr 	c #8B897E",
"Or 	c #858274",
"Pr 	c #665E5C",
"Qr 	c #838177",
"Rr 	c #8B8981",
"Sr 	c #66615D",
"Tr 	c #7F7E75",
"Ur 	c #8F8984",
"Vr 	c #8D8A82",
"Wr 	c #6E6A61",
"Xr 	c #615955",
"Yr 	c #7A7373",
"Zr 	c #9B978D",
"`r 	c #655B58",
" s 	c #8C857C",
".s 	c #9F958F",
"+s 	c #5E584D",
"@s 	c #918B85",
"#s 	c #4F463F",
"$s 	c #3A322C",
"%s 	c #6C6258",
"&s 	c #4C463E",
"*s 	c #4D453E",
"=s 	c #857B71",
"-s 	c #574B41",
";s 	c #7E766B",
">s 	c #7A6E66",
",s 	c #50453C",
"'s 	c #7E766E",
")s 	c #675F57",
"!s 	c #4E463E",
"~s 	c #736B64",
"{s 	c #3F3B33",
"]s 	c #413B33",
"^s 	c #646158",
"/s 	c #575347",
"(s 	c #615851",
"_s 	c #46413C",
":s 	c #6B5F58",
"<s 	c #756C63",
"[s 	c #766D66",
"}s 	c #251F18",
"|s 	c #261B13",
"1s 	c #4B4239",
"2s 	c #6F665A",
"3s 	c #7F756B",
"4s 	c #867E73",
"5s 	c #7D736D",
"6s 	c #7C776D",
"7s 	c #867E76",
"8s 	c #39342A",
"9s 	c #60574F",
"0s 	c #474238",
"as 	c #5A5148",
"bs 	c #4A4438",
"cs 	c #302620",
"ds 	c #4F4540",
"es 	c #383027",
"fs 	c #261D16",
"gs 	c #251916",
"hs 	c #221913",
"is 	c #231812",
"js 	c #38302B",
"ks 	c #2A251C",
"ls 	c #454038",
"ms 	c #2D271E",
"ns 	c #120907",
"os 	c #171008",
"ps 	c #150E06",
"qs 	c #211A14",
"rs 	c #5F574F",
"ss 	c #474137",
"ts 	c #89867D",
"us 	c #A6A39F",
"vs 	c #4B483F",
"ws 	c #858075",
"xs 	c #B0ABA5",
"ys 	c #97908A",
"zs 	c #746F66",
"As 	c #46403B",
"Bs 	c #544F4B",
"Cs 	c #5B554E",
"Ds 	c #5F5651",
"Es 	c #201A13",
"Fs 	c #19120B",
"Gs 	c #150C07",
"Hs 	c #18150B",
"Is 	c #211A12",
"Js 	c #342E27",
"Ks 	c #514843",
"Ls 	c #72695F",
"Ms 	c #978C7F",
"Ns 	c #85796C",
"Os 	c #493E36",
"Ps 	c #362E26",
"Qs 	c #332A23",
"Rs 	c #4E453A",
"Ss 	c #352A25",
"Ts 	c #433B34",
"Us 	c #695D56",
"Vs 	c #433C34",
"Ws 	c #453F35",
"Xs 	c #4A423B",
"Ys 	c #4D433C",
"Zs 	c #3D342E",
"`s 	c #564E45",
" t 	c #656053",
".t 	c #6F695E",
"+t 	c #544B41",
"@t 	c #787166",
"#t 	c #49433D",
"$t 	c #2A251A",
"%t 	c #3E392F",
"&t 	c #494138",
"*t 	c #3E372C",
"=t 	c #3F372F",
"-t 	c #40382B",
";t 	c #372D21",
">t 	c #1C130E",
",t 	c #130C04",
"'t 	c #241C15",
")t 	c #251F16",
"!t 	c #281F17",
"~t 	c #18130A",
"{t 	c #2A231C",
"]t 	c #1A110A",
"^t 	c #170F09",
"/t 	c #100A02",
"(t 	c #160B04",
"_t 	c #130F08",
":t 	c #120905",
"<t 	c #17120C",
"[t 	c #0E0A03",
"}t 	c #100501",
"|t 	c #201310",
"1t 	c #1D1308",
"2t 	c #170F0A",
"3t 	c #0E0902",
"4t 	c #130A04",
"5t 	c #2C261C",
"6t 	c #3A3028",
"7t 	c #3A3129",
"8t 	c #453D32",
"9t 	c #483F38",
"0t 	c #4F443F",
"at 	c #5E574D",
"bt 	c #5C544C",
"ct 	c #40382F",
"dt 	c #332A1F",
"et 	c #231910",
"ft 	c #261E15",
"gt 	c #2B2217",
"ht 	c #231A11",
"it 	c #271F17",
"jt 	c #443B31",
"kt 	c #39332B",
"lt 	c #1E190C",
"mt 	c #251A14",
"nt 	c #463F34",
"ot 	c #494036",
"pt 	c #61584D",
"qt 	c #72675E",
"rt 	c #6A6458",
"st 	c #594F47",
"tt 	c #4B423A",
"ut 	c #62554D",
"vt 	c #696054",
"wt 	c #5F574C",
"xt 	c #564B41",
"yt 	c #5F564E",
"zt 	c #53493E",
"At 	c #746760",
"Bt 	c #6C645A",
"Ct 	c #938681",
"Dt 	c #837F73",
"Et 	c #332B23",
"Ft 	c #302A24",
"Gt 	c #352C21",
"Ht 	c #382E26",
"It 	c #4F463E",
"Jt 	c #554C45",
"Kt 	c #4B443C",
"Lt 	c #524941",
"Mt 	c #61564D",
"Nt 	c #413832",
"Ot 	c #4C423A",
"Pt 	c #403933",
"Qt 	c #453D34",
"Rt 	c #4A3F39",
"St 	c #463E36",
"Tt 	c #736A63",
"Ut 	c #6C6559",
"Vt 	c #504A3F",
"Wt 	c #625B50",
"Xt 	c #736D62",
"Yt 	c #676257",
"Zt 	c #5A5348",
"`t 	c #665E54",
" u 	c #685F56",
".u 	c #645B55",
"+u 	c #5C554A",
"@u 	c #5D554A",
"#u 	c #6A6359",
"$u 	c #5F594F",
"%u 	c #666052",
"&u 	c #645950",
"*u 	c #676155",
"=u 	c #675E53",
"-u 	c #584E45",
";u 	c #4E453D",
">u 	c #51453D",
",u 	c #473E34",
"'u 	c #807567",
")u 	c #928577",
"!u 	c #96887B",
"~u 	c #726558",
"{u 	c #837971",
"]u 	c #8D8579",
"^u 	c #6F6258",
"/u 	c #888176",
"(u 	c #80746E",
"_u 	c #766C5F",
":u 	c #988B80",
"<u 	c #63574A",
"[u 	c #736D61",
"}u 	c #70645C",
"|u 	c #867F73",
"1u 	c #888479",
"2u 	c #857E73",
"3u 	c #685E58",
"4u 	c #928C81",
"5u 	c #7E766C",
"6u 	c #84796F",
"7u 	c #847B71",
"8u 	c #5D5045",
"9u 	c #60564D",
"0u 	c #49443D",
"au 	c #493E39",
"bu 	c #72685E",
"cu 	c #595348",
"du 	c #443A2F",
"eu 	c #625A50",
"fu 	c #564940",
"gu 	c #8A7E77",
"hu 	c #99948D",
"iu 	c #A9A4A1",
"ju 	c #7E776E",
"ku 	c #6A655B",
"lu 	c #7B736A",
"mu 	c #382F27",
"nu 	c #625B52",
"ou 	c #8F8B82",
"pu 	c #9C958E",
"qu 	c #948D87",
"ru 	c #A09D96",
"su 	c #9A9186",
"tu 	c #B9B4AC",
"uu 	c #89827A",
"vu 	c #908783",
"wu 	c #98938E",
"xu 	c #6E655D",
"yu 	c #7A726A",
"zu 	c #585247",
"Au 	c #857869",
"Bu 	c #9E8D83",
"Cu 	c #968B7D",
"Du 	c #887D73",
"Eu 	c #746B60",
"Fu 	c #7B7165",
"Gu 	c #867B72",
"Hu 	c #7F736A",
"Iu 	c #6E645A",
"Ju 	c #696056",
"Ku 	c #847C75",
"Lu 	c #978F85",
"Mu 	c #998F86",
"Nu 	c #948980",
"Ou 	c #574C44",
"Pu 	c #A69F97",
"Qu 	c #655D56",
"Ru 	c #82786F",
"Su 	c #9D988E",
"Tu 	c #6B6259",
"Uu 	c #6E6256",
"Vu 	c #7B7069",
"Wu 	c #675C54",
"Xu 	c #787066",
"Yu 	c #5E554A",
"Zu 	c #4B423B",
"`u 	c #4B3F34",
" v 	c #4F483F",
".v 	c #574D41",
"+v 	c #766B61",
"@v 	c #6B6458",
"#v 	c #6F6558",
"$v 	c #988F85",
"%v 	c #8B8178",
"&v 	c #948D85",
"*v 	c #827B71",
"=v 	c #81786D",
"-v 	c #6E6359",
";v 	c #70695B",
">v 	c #888071",
",v 	c #7F7568",
"'v 	c #60584C",
")v 	c #867E75",
"!v 	c #8F8980",
"~v 	c #999189",
"{v 	c #817B6F",
"]v 	c #726962",
"^v 	c #6E6455",
"/v 	c #918680",
"(v 	c #53493C",
"_v 	c #5C514A",
":v 	c #685C51",
"<v 	c #726659",
"[v 	c #51443B",
"}v 	c #655B52",
"|v 	c #7E7367",
"1v 	c #53473E",
"2v 	c #847A70",
"3v 	c #7D7369",
"4v 	c #998C83",
"5v 	c #B0A399",
"6v 	c #787164",
"7v 	c #9B9388",
"8v 	c #978D82",
"9v 	c #978F81",
"0v 	c #887D74",
"av 	c #5A4E45",
"bv 	c #696255",
"cv 	c #76695D",
"dv 	c #82766A",
"ev 	c #72665B",
"fv 	c #998D87",
"gv 	c #504941",
"hv 	c #6E6459",
"iv 	c #837970",
"jv 	c #6A6459",
"kv 	c #3D352D",
"lv 	c #5D574B",
"mv 	c #5F5146",
"nv 	c #7E7365",
"ov 	c #746A61",
"pv 	c #6E665B",
"qv 	c #70685E",
"rv 	c #6E6559",
"sv 	c #665F55",
"tv 	c #7A7166",
"uv 	c #7C7067",
"vv 	c #82766B",
"wv 	c #786D61",
"xv 	c #857B6D",
"yv 	c #7C7568",
"zv 	c #7A7064",
"Av 	c #877C74",
"Bv 	c #5E554C",
"Cv 	c #827670",
"Dv 	c #878075",
"Ev 	c #857C74",
"Fv 	c #7E7466",
"Gv 	c #7B6E68",
"Hv 	c #7A7265",
"Iv 	c #554A41",
"Jv 	c #766A62",
"Kv 	c #7E7666",
"Lv 	c #736957",
"Mv 	c #716153",
"Nv 	c #635548",
"Ov 	c #5B4F43",
"Pv 	c #4C4439",
"Qv 	c #75675B",
"Rv 	c #786D64",
"Sv 	c #8B7D6F",
"Tv 	c #665A50",
"Uv 	c #776F62",
"Vv 	c #7C746C",
"Wv 	c #584E47",
"Xv 	c #807A6D",
"Yv 	c #7B6F66",
"Zv 	c #695E52",
"`v 	c #7F7869",
" w 	c #716658",
".w 	c #82756C",
"+w 	c #585043",
"@w 	c #564A44",
"#w 	c #60584E",
"$w 	c #514940",
"%w 	c #746B61",
"&w 	c #81796D",
"*w 	c #7E7369",
"=w 	c #9C9386",
"-w 	c #6C6357",
";w 	c #8F847A",
">w 	c #4D463E",
",w 	c #908984",
"'w 	c #5F554F",
")w 	c #81796C",
"!w 	c #585249",
"~w 	c #9A9087",
"{w 	c #7E796D",
"]w 	c #827B6F",
"^w 	c #2B271E",
"/w 	c #A29F97",
"(w 	c #81796F",
"_w 	c #5C574D",
":w 	c #B2ACA9",
"<w 	c #8E847F",
"[w 	c #9C938A",
"}w 	c #A29E98",
"|w 	c #948882",
"1w 	c #594F46",
"2w 	c #8A8077",
"3w 	c #81786F",
"4w 	c #676055",
"5w 	c #B0AEAB",
"6w 	c #544D44",
"7w 	c #49443C",
"8w 	c #665A4D",
"9w 	c #8D8173",
"0w 	c #7F7063",
"aw 	c #918376",
"bw 	c #8D8070",
"cw 	c #91877A",
"dw 	c #9E9488",
"ew 	c #92877C",
"fw 	c #948879",
"gw 	c #8A7D6D",
"hw 	c #93867B",
"iw 	c #76675C",
"jw 	c #72655A",
"kw 	c #998D82",
"lw 	c #7A6F65",
"mw 	c #73655C",
"nw 	c #746A5E",
"ow 	c #675A50",
"pw 	c #3F352D",
"qw 	c #ABA198",
"rw 	c #786C60",
"sw 	c #998F7F",
"tw 	c #6F635C",
"uw 	c #756D61",
"vw 	c #A3968B",
"ww 	c #84786C",
"xw 	c #80786C",
"yw 	c #756F5F",
"zw 	c #54493F",
"Aw 	c #897E6F",
"Bw 	c #645E54",
"Cw 	c #988F86",
"Dw 	c #948A7F",
"Ew 	c #A9A397",
"Fw 	c #887C6D",
"Gw 	c #75695B",
"Hw 	c #726759",
"Iw 	c #8A7D73",
"Jw 	c #A19687",
"Kw 	c #736A5C",
"Lw 	c #746C60",
"Mw 	c #877A6F",
"Nw 	c #8A7D72",
"Ow 	c #52473B",
"Pw 	c #8E8377",
"Qw 	c #A2988C",
"Rw 	c #A49C8D",
"Sw 	c #A59B8F",
"Tw 	c #999184",
"Uw 	c #A8A295",
"Vw 	c #948B80",
"Ww 	c #847B6F",
"Xw 	c #827A6B",
"Yw 	c #766D64",
"Zw 	c #62564C",
"`w 	c #7E7266",
" x 	c #8C7D6D",
".x 	c #7B6C5F",
"+x 	c #504133",
"@x 	c #726760",
"#x 	c #8E8171",
"$x 	c #7E7163",
"%x 	c #AA9E95",
"&x 	c #8C7F73",
"*x 	c #807967",
"=x 	c #7D7869",
"-x 	c #8A7F76",
";x 	c #80766B",
">x 	c #8E877A",
",x 	c #8F8476",
"'x 	c #8E8177",
")x 	c #8F8576",
"!x 	c #95877A",
"~x 	c #968D80",
"{x 	c #8F7E73",
"]x 	c #998E80",
"^x 	c #9F9285",
"/x 	c #A2978F",
"(x 	c #A49A8C",
"_x 	c #9F9487",
":x 	c #998F84",
"<x 	c #9F9587",
"[x 	c #9F9386",
"}x 	c #897F73",
"|x 	c #9C9182",
"1x 	c #998E82",
"2x 	c #A69A8D",
"3x 	c #9D9388",
"4x 	c #938C7D",
"5x 	c #7D7065",
"6x 	c #A59C8F",
"7x 	c #A49889",
"8x 	c #9B9084",
"9x 	c #988E80",
"0x 	c #887C70",
"ax 	c #90857B",
"bx 	c #948777",
"cx 	c #756C5F",
"dx 	c #958B7F",
"ex 	c #766960",
"fx 	c #857C70",
"gx 	c #8C7E75",
"hx 	c #706659",
"ix 	c #8F8577",
"jx 	c #837A6D",
"kx 	c #8C8474",
"lx 	c #8E8273",
"mx 	c #958A7C",
"nx 	c #978B7C",
"ox 	c #71655B",
"px 	c #9A8E7F",
"qx 	c #8C7D70",
"rx 	c #857B6E",
"sx 	c #8E8475",
"tx 	c #8D8377",
"ux 	c #A29489",
"vx 	c #887A6F",
"wx 	c #82756A",
"xx 	c #8E8374",
"yx 	c #84756B",
"zx 	c #928578",
"Ax 	c #A69B8E",
"Bx 	c #958B7E",
"Cx 	c #8C8272",
"Dx 	c #95887B",
"Ex 	c #988A7F",
"Fx 	c #93897C",
"Gx 	c #A89C90",
"Hx 	c #A79988",
"Ix 	c #9C907F",
"Jx 	c #908372",
"Kx 	c #867A6D",
"Lx 	c #7A6D5F",
"Mx 	c #72685A",
"Nx 	c #706358",
"Ox 	c #615E57",
"Px 	c #524F4C",
"Qx 	c #9C9690",
"Rx 	c #A8A09A",
"Sx 	c #7C736A",
"Tx 	c #756761",
"Ux 	c #5C574A",
"Vx 	c #897E78",
"Wx 	c #766F67",
"Xx 	c #787067",
"Yx 	c #747268",
"Zx 	c #504843",
"`x 	c #5C534E",
" y 	c #716860",
".y 	c #554F46",
"+y 	c #6A6057",
"@y 	c #625D53",
"#y 	c #4C4741",
"$y 	c #454238",
"%y 	c #6F6660",
"&y 	c #534A43",
"*y 	c #594D45",
"=y 	c #645B51",
"-y 	c #544A40",
";y 	c #4C433D",
">y 	c #675A55",
",y 	c #645A53",
"'y 	c #473F37",
")y 	c #A19B97",
"!y 	c #63584D",
"~y 	c #6A5D53",
"{y 	c #4D4B42",
"]y 	c #4F4741",
"^y 	c #746F61",
"/y 	c #A49993",
"(y 	c #847A6F",
"_y 	c #736A67",
":y 	c #978E86",
"<y 	c #4D453B",
"[y 	c #645B54",
"}y 	c #544A42",
"|y 	c #5B5248",
"1y 	c #3B322A",
"2y 	c #797066",
"3y 	c #A4A098",
"4y 	c #746A5F",
"5y 	c #6E635B",
"6y 	c #A7A39E",
"7y 	c #A8A099",
"8y 	c #82776F",
"9y 	c #8A7E78",
"0y 	c #796D64",
"ay 	c #867E70",
"by 	c #65594E",
"cy 	c #9D8F88",
"dy 	c #807165",
"ey 	c #595147",
"fy 	c #827972",
"gy 	c #5B544B",
"hy 	c #928B80",
"iy 	c #3C3531",
"jy 	c #8F8782",
"ky 	c #817C71",
"ly 	c #81766C",
"my 	c #645952",
"ny 	c #918981",
"oy 	c #A59C95",
"py 	c #797369",
"qy 	c #9C9691",
"ry 	c #706961",
"sy 	c #777067",
"ty 	c #857B77",
"uy 	c #857C75",
"vy 	c #655F54",
"wy 	c #70655F",
"xy 	c #887E72",
"yy 	c #595249",
"zy 	c #514A41",
"Ay 	c #524A46",
"By 	c #796F67",
"Cy 	c #938C83",
"Dy 	c #716A60",
"Ey 	c #7E766D",
"Fy 	c #978D86",
"Gy 	c #837B77",
"Hy 	c #5B5951",
"Iy 	c #514943",
"Jy 	c #403A32",
"Ky 	c #625D5A",
"Ly 	c #655C56",
"My 	c #574E4A",
"Ny 	c #767471",
"Oy 	c #665E57",
"Py 	c #544F4A",
"Qy 	c #757467",
"Ry 	c #61584E",
"Sy 	c #5F5951",
"Ty 	c #615D56",
"Uy 	c #625F55",
"Vy 	c #5D5B56",
"Wy 	c #545049",
"Xy 	c #5F5D57",
"Yy 	c #59524F",
"Zy 	c #57534C",
"`y 	c #545047",
" z 	c #4F453F",
".z 	c #564E48",
"+z 	c #48403A",
"@z 	c #504841",
"#z 	c #504C46",
"$z 	c #3B352E",
"%z 	c #4B433E",
"&z 	c #958F85",
"*z 	c #A39E9A",
"=z 	c #73746C",
"-z 	c #95918E",
";z 	c #3D362E",
">z 	c #564F4B",
",z 	c #999692",
"'z 	c #AEA8A0",
")z 	c #867D7A",
"!z 	c #939187",
"~z 	c #685C52",
"{z 	c #6E6758",
"]z 	c #827369",
"^z 	c #6E635A",
"/z 	c #96928D",
"(z 	c #97948D",
"_z 	c #999390",
":z 	c #8D8C84",
"<z 	c #504A41",
"[z 	c #5D584D",
"}z 	c #5A5350",
"|z 	c #86837A",
"1z 	c #94948C",
"2z 	c #9A948F",
"3z 	c #857E78",
"4z 	c #878880",
"5z 	c #939088",
"6z 	c #7F7870",
"7z 	c #7E7571",
"8z 	c #918E86",
"9z 	c #89857D",
"0z 	c #4D4A44",
"az 	c #766E65",
"bz 	c #7B7877",
"cz 	c #6D6B67",
"dz 	c #726C60",
"ez 	c #89817C",
"fz 	c #524A44",
"gz 	c #9C968F",
"hz 	c #3E3631",
"iz 	c #928A85",
"jz 	c #877E79",
"kz 	c #5A5551",
"lz 	c #5B5852",
"mz 	c #8C857F",
"nz 	c #676561",
"oz 	c #908A86",
"pz 	c #433C38",
"qz 	c #B3ADA6",
"rz 	c #736D6B",
"sz 	c #948D89",
"tz 	c #534E46",
"uz 	c #8D8B81",
"vz 	c #5A574E",
"wz 	c #726761",
"xz 	c #97968C",
"yz 	c #A7A097",
"zz 	c #5E5B50",
"Az 	c #87817F",
"Bz 	c #95928B",
"Cz 	c #726A62",
"Dz 	c #74675C",
"Ez 	c #88857C",
"Fz 	c #908D87",
"Gz 	c #9B9891",
"Hz 	c #85867F",
"Iz 	c #928E8A",
"Jz 	c #8D8C88",
"Kz 	c #7E7675",
"Lz 	c #918C83",
"Mz 	c #68665C",
"Nz 	c #5B5750",
"Oz 	c #8C8A81",
"Pz 	c #7B7371",
"Qz 	c #8F8A82",
"Rz 	c #908C82",
"Sz 	c #6B6863",
"Tz 	c #615D59",
"Uz 	c #7B7B76",
"Vz 	c #74746D",
"Wz 	c #716F65",
"Xz 	c #605A58",
"Yz 	c #666258",
"Zz 	c #847C77",
"`z 	c #73756E",
" A 	c #67665C",
".A 	c #747369",
"+A 	c #8A8985",
"@A 	c #827B6C",
"#A 	c #574E47",
"$A 	c #666459",
"%A 	c #A5A19A",
"&A 	c #A8A29B",
"*A 	c #A8A19A",
"=A 	c #948B88",
"-A 	c #9A938D",
";A 	c #959388",
">A 	c #4F4642",
",A 	c #585450",
"'A 	c #605B5A",
")A 	c #A49F98",
"!A 	c #8A8379",
"~A 	c #827A72",
"{A 	c #9D9590",
"]A 	c #73726E",
"^A 	c #8C847F",
"/A 	c #524F45",
"(A 	c #9D9690",
"_A 	c #817B6E",
":A 	c #5A5044",
"<A 	c #A09C95",
"[A 	c #93908A",
"}A 	c #938F89",
"|A 	c #86877F",
"1A 	c #82827B",
"2A 	c #625F59",
"3A 	c #504D43",
"4A 	c #7A776D",
"5A 	c #8F8881",
"6A 	c #646259",
"7A 	c #6A665B",
"8A 	c #817A78",
"9A 	c #6B6664",
"0A 	c #797271",
"aA 	c #625F5C",
"bA 	c #938C80",
"cA 	c #7B796D",
"dA 	c #9F9992",
"eA 	c #A9A29B",
"fA 	c #ACA7A1",
"gA 	c #A59E9B",
"hA 	c #999489",
"iA 	c #918A83",
"jA 	c #7B7C76",
"kA 	c #6C6663",
"lA 	c #897F79",
"mA 	c #AEA8A3",
"nA 	c #86867D",
"oA 	c #5C5954",
"pA 	c #737170",
"qA 	c #746F65",
"rA 	c #8E8E87",
"sA 	c #878682",
"tA 	c #8F8786",
"uA 	c #5E5042",
"vA 	c #877B71",
"wA 	c #888583",
"xA 	c #787776",
"yA 	c #8F8D84",
"zA 	c #6F6A61",
"AA 	c #8A857D",
"BA 	c #6C6562",
"CA 	c #6C6664",
"DA 	c #8C8582",
"EA 	c #8B817D",
"FA 	c #817A79",
"GA 	c #86857F",
"HA 	c #5D5A54",
"IA 	c #797970",
"JA 	c #7C7D75",
"KA 	c #787372",
"LA 	c #625F5B",
"MA 	c #605E5A",
"NA 	c #706B68",
"OA 	c #67665E",
"PA 	c #6E6B68",
"QA 	c #8F857C",
"RA 	c #8D8680",
"SA 	c #67625F",
"TA 	c #5B504B",
"UA 	c #B7B4AC",
"VA 	c #A49D93",
"WA 	c #817B72",
"XA 	c #A69D9B",
"YA 	c #88857B",
"ZA 	c #625F58",
"`A 	c #7E7877",
" B 	c #7B7B72",
".B 	c #78756C",
"+B 	c #4F4B41",
"@B 	c #777774",
"#B 	c #6F706B",
"$B 	c #9E9B92",
"%B 	c #6A6761",
"&B 	c #7C7876",
"*B 	c #979791",
"=B 	c #66574F",
"-B 	c #938479",
";B 	c #8B8686",
">B 	c #746C67",
",B 	c #8E8E88",
"'B 	c #7D7E79",
")B 	c #888280",
"!B 	c #8D8B82",
"~B 	c #595651",
"{B 	c #716F66",
"]B 	c #403B36",
"^B 	c #71716B",
"/B 	c #7E7F75",
"(B 	c #686763",
"_B 	c #504B46",
":B 	c #66625E",
"<B 	c #665D5A",
"[B 	c #615F5A",
"}B 	c #8C8880",
"|B 	c #7E796E",
"1B 	c #A8A199",
"2B 	c #81817D",
"3B 	c #676362",
"4B 	c #6B6963",
"5B 	c #655E59",
"6B 	c #5D5C56",
"7B 	c #A3A099",
"8B 	c #9F9C97",
"9B 	c #7B7473",
"0B 	c #8D8C82",
"aB 	c #3E3731",
"bB 	c #817975",
"cB 	c #62594D",
"dB 	c #7E7167",
"eB 	c #939087",
"fB 	c #948F8D",
"gB 	c #443C39",
"hB 	c #8E8C82",
"iB 	c #898883",
"jB 	c #837F75",
"kB 	c #756C68",
"lB 	c #6C635E",
"mB 	c #7A7975",
"nB 	c #696461",
"oB 	c #686462",
"pB 	c #85867D",
"qB 	c #6E6E67",
"rB 	c #9C978F",
"sB 	c #8F8985",
"tB 	c #4E4A44",
"uB 	c #28211C",
"vB 	c #B6B1AA",
"wB 	c #BEBAB3",
"xB 	c #312921",
"yB 	c #75726F",
"zB 	c #6B6866",
"AB 	c #6A6867",
"BB 	c #A9A49E",
"CB 	c #3D3931",
"DB 	c #37332E",
"EB 	c #514B47",
"FB 	c #696762",
"GB 	c #797573",
"HB 	c #818178",
"IB 	c #808078",
"JB 	c #858381",
"KB 	c #61594F",
"LB 	c #8E8E86",
"MB 	c #95928C",
"NB 	c #888882",
"OB 	c #39372F",
"PB 	c #8E8C87",
"QB 	c #838277",
"RB 	c #7D7D73",
"SB 	c #6B6960",
"TB 	c #73716E",
"UB 	c #5F5956",
"VB 	c #6A625F",
"WB 	c #706968",
"XB 	c #67665F",
"YB 	c #6F6865",
"ZB 	c #857D7A",
"`B 	c #554A40",
" C 	c #5B5950",
".C 	c #5C534F",
"+C 	c #56534D",
"@C 	c #6F6D68",
"#C 	c #595350",
"$C 	c #504840",
"%C 	c #4F4B43",
"&C 	c #79716C",
"*C 	c #8A887E",
"=C 	c #AEAAA7",
"-C 	c #B0ACA7",
";C 	c #5E5854",
">C 	c #777672",
",C 	c #6F7066",
"'C 	c #77706F",
")C 	c #888482",
"!C 	c #878783",
"~C 	c #9A9795",
"{C 	c #9B9C94",
"]C 	c #85807F",
"^C 	c #878A82",
"/C 	c #7E7D7A",
"(C 	c #90887C",
"_C 	c #6C6557",
":C 	c #70675D",
"<C 	c #807C72",
"[C 	c #9A958C",
"}C 	c #837F7D",
"|C 	c #787971",
"1C 	c #908F88",
"2C 	c #867E7B",
"3C 	c #8A847D",
"4C 	c #615A56",
"5C 	c #6B625E",
"6C 	c #7D7976",
"7C 	c #787870",
"8C 	c #5F5652",
"9C 	c #726B6B",
"0C 	c #898274",
"aC 	c #807971",
"bC 	c #837D7C",
"cC 	c #56514B",
"dC 	c #9F9D94",
"eC 	c #3B3631",
"fC 	c #6C6966",
"gC 	c #767372",
"hC 	c #746C6B",
"iC 	c #706D6C",
"jC 	c #7E7F78",
"kC 	c #5F5D56",
"lC 	c #92928C",
"mC 	c #8B8986",
"nC 	c #8F8F88",
"oC 	c #92877B",
"pC 	c #908278",
"qC 	c #5C5549",
"rC 	c #70706C",
"sC 	c #938D89",
"tC 	c #44413B",
"uC 	c #574D49",
"vC 	c #727369",
"wC 	c #888782",
"xC 	c #837B78",
"yC 	c #645C5B",
"zC 	c #4D4740",
"AC 	c #5B594F",
"BC 	c #6C6C63",
"CC 	c #6D6B60",
"DC 	c #696562",
"EC 	c #5F5752",
"FC 	c #57504C",
"GC 	c #6B6B62",
"HC 	c #868680",
"IC 	c #62615A",
"JC 	c #777574",
"KC 	c #6F655C",
"LC 	c #5D5346",
"MC 	c #544C43",
"NC 	c #BFBAAF",
"OC 	c #443A35",
"PC 	c #524C48",
"QC 	c #666360",
"RC 	c #524D49",
"SC 	c #544E4B",
"TC 	c #443D3B",
"UC 	c #7B7676",
"VC 	c #635F5C",
"WC 	c #696763",
"XC 	c #94938E",
"YC 	c #5E5A57",
"ZC 	c #7F807C",
"`C 	c #7C7B76",
" D 	c #726D6B",
".D 	c #9F9D95",
"+D 	c #56514D",
"@D 	c #7C7C77",
"#D 	c #84827F",
"$D 	c #8F8B89",
"%D 	c #786E64",
"&D 	c #84857C",
"*D 	c #5C5652",
"=D 	c #756D66",
"-D 	c #94928A",
";D 	c #7E7D7B",
">D 	c #8D8F86",
",D 	c #5F5754",
"'D 	c #817E74",
")D 	c #7E7775",
"!D 	c #686762",
"~D 	c #64625B",
"{D 	c #57554A",
"]D 	c #7B7A71",
"^D 	c #787973",
"/D 	c #77706E",
"(D 	c #6A6462",
"_D 	c #706A68",
":D 	c #70706A",
"<D 	c #574C43",
"[D 	c #827668",
"}D 	c #948B81",
"|D 	c #363229",
"1D 	c #48433E",
"2D 	c #5E5C57",
"3D 	c #46403C",
"4D 	c #625E5D",
"5D 	c #746F6E",
"6D 	c #716D6C",
"7D 	c #7B7A79",
"8D 	c #6A6A63",
"9D 	c #666560",
"0D 	c #716C6B",
"aD 	c #898482",
"bD 	c #8B8786",
"cD 	c #635F5B",
"dD 	c #93928D",
"eD 	c #887F74",
"fD 	c #565044",
"gD 	c #807F76",
"hD 	c #847F7F",
"iD 	c #88807C",
"jD 	c #6F7064",
"kD 	c #868281",
"lD 	c #8B837F",
"mD 	c #8C8583",
"nD 	c #5F5C58",
"oD 	c #7C796E",
"pD 	c #413E39",
"qD 	c #75766D",
"rD 	c #64605C",
"sD 	c #827D7C",
"tD 	c #837D7B",
"uD 	c #5F5A55",
"vD 	c #544E49",
"wD 	c #716967",
"xD 	c #7A7270",
"yD 	c #5F5F56",
"zD 	c #62605A",
"AD 	c #726E6D",
"BD 	c #8D8D88",
"CD 	c #6B5F53",
"DD 	c #6B6865",
"ED 	c #63605D",
"FD 	c #605755",
"GD 	c #585550",
"HD 	c #54504A",
"ID 	c #6F6A6A",
"JD 	c #71726A",
"KD 	c #8E8888",
"LD 	c #7E7D79",
"MD 	c #82807D",
"ND 	c #757470",
"OD 	c #958F8D",
"PD 	c #98918F",
"QD 	c #928B7E",
"RD 	c #7C7669",
"SD 	c #665C50",
"TD 	c #918C8A",
"UD 	c #736D69",
"VD 	c #6C6A66",
"WD 	c #7C7472",
"XD 	c #77716E",
"YD 	c #82837A",
"ZD 	c #54534F",
"`D 	c #6B6A61",
" E 	c #696360",
".E 	c #686160",
"+E 	c #726C6B",
"@E 	c #706D63",
"#E 	c #6A6967",
"$E 	c #76706F",
"%E 	c #817668",
"&E 	c #494238",
"*E 	c #8A817C",
"=E 	c #5D584E",
"-E 	c #7A726D",
";E 	c #72716A",
">E 	c #645C58",
",E 	c #6D6666",
"'E 	c #74756E",
")E 	c #38342E",
"!E 	c #615D5A",
"~E 	c #767573",
"{E 	c #72746C",
"]E 	c #605E55",
"^E 	c #7D7C71",
"/E 	c #7E7F79",
"(E 	c #71716A",
"_E 	c #827F73",
":E 	c #888686",
"<E 	c #928F8C",
"[E 	c #8A8583",
"}E 	c #817976",
"|E 	c #918477",
"1E 	c #968E83",
"2E 	c #605E57",
"3E 	c #8B877F",
"4E 	c #7B7475",
"5E 	c #514944",
"6E 	c #676660",
"7E 	c #5F5957",
"8E 	c #635D5A",
"9E 	c #504D47",
"0E 	c #645F5C",
"aE 	c #5C5A51",
"bE 	c #807A79",
"cE 	c #5E5855",
"dE 	c #5A5952",
"eE 	c #5C5450",
"fE 	c #9A9791",
"gE 	c #8D8D89",
"hE 	c #5C4E43",
"iE 	c #82796B",
"jE 	c #6B6056",
"kE 	c #4B4740",
"lE 	c #716F6C",
"mE 	c #706F6B",
"nE 	c #8A8280",
"oE 	c #75716F",
"pE 	c #8B847F",
"qE 	c #877F7C",
"rE 	c #777773",
"sE 	c #8E8C84",
"tE 	c #847B6C",
"uE 	c #827D70",
"vE 	c #575451",
"wE 	c #63615B",
"xE 	c #635E5C",
"yE 	c #767370",
"zE 	c #7C796F",
"AE 	c #615B59",
"BE 	c #635D59",
"CE 	c #5E5D56",
"DE 	c #696860",
"EE 	c #6B6A5F",
"FE 	c #7C7264",
"GE 	c #817467",
"HE 	c #7B7063",
"IE 	c #554B46",
"JE 	c #857D78",
"KE 	c #696960",
"LE 	c #70716A",
"ME 	c #65615E",
"NE 	c #676461",
"OE 	c #6B6864",
"PE 	c #898783",
"QE 	c #6F6F65",
"RE 	c #63615D",
"SE 	c #878680",
"TE 	c #81817C",
"UE 	c #7C7E79",
"VE 	c #8A8686",
"WE 	c #8C8C84",
"XE 	c #8C8074",
"YE 	c #837C70",
"ZE 	c #787168",
"`E 	c #86857B",
" F 	c #645F5D",
".F 	c #5E5950",
"+F 	c #7A726C",
"@F 	c #94908E",
"#F 	c #5F5C56",
"$F 	c #6A6860",
"%F 	c #6C6B67",
"&F 	c #7C7C73",
"*F 	c #5C5852",
"=F 	c #75766F",
"-F 	c #52504C",
";F 	c #5B5351",
">F 	c #6D6665",
",F 	c #676360",
"'F 	c #74746F",
")F 	c #736D6C",
"!F 	c #91857B",
"~F 	c #817565",
"{F 	c #99938D",
"]F 	c #746D6D",
"^F 	c #5C5754",
"/F 	c #92918C",
"(F 	c #6D6361",
"_F 	c #8D8887",
":F 	c #877D71",
"<F 	c #696254",
"[F 	c #65615D",
"}F 	c #726964",
"|F 	c #6F6C61",
"1F 	c #544A47",
"2F 	c #615856",
"3F 	c #615A57",
"4F 	c #615E58",
"5F 	c #7A746C",
"6F 	c #58524E",
"7F 	c #7F7F7A",
"8F 	c #6D6B64",
"9F 	c #49493F",
"0F 	c #867B6E",
"aF 	c #7E7064",
"bF 	c #766B5E",
"cF 	c #A19B8F",
"dF 	c #4C4640",
"eF 	c #666361",
"fF 	c #656360",
"gF 	c #898686",
"hF 	c #666461",
"iF 	c #787874",
"jF 	c #827C7B",
"kF 	c #777372",
"lF 	c #736E6E",
"mF 	c #827A76",
"nF 	c #8E8275",
"oF 	c #867E72",
"pF 	c #645951",
"qF 	c #5D5853",
"rF 	c #686860",
"sF 	c #928E8E",
"tF 	c #626259",
"uF 	c #82827E",
"vF 	c #4B453C",
"wF 	c #65635E",
"xF 	c #686565",
"yF 	c #807D7C",
"zF 	c #5E5653",
"AF 	c #787271",
"BF 	c #636055",
"CF 	c #59554C",
"DF 	c #5B544F",
"EF 	c #6B6462",
"FF 	c #796E63",
"GF 	c #786B64",
"HF 	c #787368",
"IF 	c #635F53",
"JF 	c #514B46",
"KF 	c #766D6C",
"LF 	c #5A5852",
"MF 	c #71736C",
"NF 	c #61615D",
"OF 	c #766E6E",
"PF 	c #8B8583",
"QF 	c #615D5B",
"RF 	c #7B7977",
"SF 	c #7E7B7A",
"TF 	c #7F7D7C",
"UF 	c #635B58",
"VF 	c #8A8A84",
"WF 	c #868581",
"XF 	c #706E6C",
"YF 	c #7D776E",
"ZF 	c #998E85",
"`F 	c #6A6B65",
" G 	c #736C69",
".G 	c #63635A",
"+G 	c #645D5B",
"@G 	c #47463C",
"#G 	c #7E7C72",
"$G 	c #63635D",
"%G 	c #635D5C",
"&G 	c #605E5B",
"*G 	c #686861",
"=G 	c #605F5A",
"-G 	c #544638",
";G 	c #6F635A",
">G 	c #6A6255",
",G 	c #83827A",
"'G 	c #696765",
")G 	c #666460",
"!G 	c #A5A299",
"~G 	c #787573",
"{G 	c #7B7876",
"]G 	c #666662",
"^G 	c #626159",
"/G 	c #867F7D",
"(G 	c #86867F",
"_G 	c #66665E",
":G 	c #867B74",
"<G 	c #645D52",
"[G 	c #69655A",
"}G 	c #6D6B68",
"|G 	c #61605A",
"1G 	c #76766F",
"2G 	c #514C48",
"3G 	c #706766",
"4G 	c #524F48",
"5G 	c #5A524E",
"6G 	c #828178",
"7G 	c #6C6A68",
"8G 	c #4B4743",
"9G 	c #504946",
"0G 	c #6B6361",
"aG 	c #83766A",
"bG 	c #8E8277",
"cG 	c #3F372D",
"dG 	c #504643",
"eG 	c #666056",
"fG 	c #7C7776",
"gG 	c #5D5756",
"hG 	c #757270",
"iG 	c #6B6B65",
"jG 	c #918F85",
"kG 	c #7E7E77",
"lG 	c #91908C",
"mG 	c #999082",
"nG 	c #7D7775",
"oG 	c #72726C",
"pG 	c #7A716B",
"qG 	c #72706B",
"rG 	c #726966",
"sG 	c #7B796B",
"tG 	c #4F473F",
"uG 	c #57554C",
"vG 	c #68675D",
"wG 	c #928C87",
"xG 	c #716865",
"yG 	c #6D6E63",
"zG 	c #4C4C4A",
"AG 	c #787369",
"BG 	c #66655C",
"CG 	c #77766B",
"DG 	c #64635B",
"EG 	c #988D81",
"FG 	c #594F43",
"GG 	c #4F4941",
"HG 	c #58584F",
"IG 	c #A59D99",
"JG 	c #5D5C54",
"KG 	c #B3AFA7",
"LG 	c #A19A97",
"MG 	c #7C7D77",
"NG 	c #717168",
"OG 	c #83847F",
"PG 	c #6F6E65",
"QG 	c #7B7366",
"RG 	c #625950",
"SG 	c #574D46",
"TG 	c #76766E",
"UG 	c #55504B",
"VG 	c #776E6A",
"WG 	c #717067",
"XG 	c #504942",
"YG 	c #58514D",
"ZG 	c #64625A",
"`G 	c #4A463E",
" H 	c #67625B",
".H 	c #5D5344",
"+H 	c #574B3E",
"@H 	c #80756F",
"#H 	c #7A786B",
"$H 	c #53504C",
"%H 	c #777675",
"&H 	c #534F4C",
"*H 	c #6F6C6A",
"=H 	c #7B7474",
"-H 	c #929089",
";H 	c #ACA6A1",
">H 	c #8A8381",
",H 	c #706D6B",
"'H 	c #6E6A69",
")H 	c #92938D",
"!H 	c #85786D",
"~H 	c #887D70",
"{H 	c #64635F",
"]H 	c #6E6D64",
"^H 	c #8A827E",
"/H 	c #7A7A70",
"(H 	c #7A746B",
"_H 	c #59534F",
":H 	c #58564E",
"<H 	c #78746A",
"[H 	c #605852",
"}H 	c #635A54",
"|H 	c #6A6262",
"1H 	c #706459",
"2H 	c #675C4E",
"3H 	c #897F76",
"4H 	c #3F3933",
"5H 	c #5D5A56",
"6H 	c #5D5B57",
"7H 	c #95958D",
"8H 	c #6B6965",
"9H 	c #6E6D68",
"0H 	c #51514A",
"aH 	c #645E5B",
"bH 	c #5B5A54",
"cH 	c #8A8584",
"dH 	c #9A948D",
"eH 	c #66635F",
"fH 	c #8D8B87",
"gH 	c #988C83",
"hH 	c #585245",
"iH 	c #736E6C",
"jH 	c #83837F",
"kH 	c #38322B",
"lH 	c #625F54",
"mH 	c #5D5C53",
"nH 	c #5B5652",
"oH 	c #64645C",
"pH 	c #7D7370",
"qH 	c #6A685D",
"rH 	c #5E5C55",
"sH 	c #6B635F",
"tH 	c #645C59",
"uH 	c #665F5D",
"vH 	c #5E5145",
"wH 	c #4E463D",
"xH 	c #54514C",
"yH 	c #787473",
"zH 	c #7C7474",
"AH 	c #767371",
"BH 	c #72716E",
"CH 	c #615C59",
"DH 	c #A8A09E",
"EH 	c #83837B",
"FH 	c #6D6867",
"GH 	c #90847A",
"HH 	c #91877B",
"IH 	c #60544A",
"JH 	c #5F5753",
"KH 	c #726B68",
"LH 	c #686259",
"MH 	c #5B5953",
"NH 	c #6C6564",
"OH 	c #58524C",
"PH 	c #706559",
"QH 	c #5D574E",
"RH 	c #595954",
"SH 	c #5E5957",
"TH 	c #68675F",
"UH 	c #A9A5A0",
"VH 	c #56514C",
"WH 	c #847F7E",
"XH 	c #59574F",
"YH 	c #4A433C",
"ZH 	c #69685F",
"`H 	c #575650",
" I 	c #747470",
".I 	c #575350",
"+I 	c #877D72",
"@I 	c #9C958A",
"#I 	c #665B52",
"$I 	c #A8A399",
"%I 	c #545148",
"&I 	c #66605D",
"*I 	c #958D89",
"=I 	c #706F6A",
"-I 	c #7D7B71",
";I 	c #696361",
">I 	c #6F6764",
",I 	c #4E4743",
"'I 	c #56504B",
")I 	c #6B6966",
"!I 	c #706E6A",
"~I 	c #695E54",
"{I 	c #837C6F",
"]I 	c #64615D",
"^I 	c #5F5B57",
"/I 	c #6F6F67",
"(I 	c #676160",
"_I 	c #6F6866",
":I 	c #706864",
"<I 	c #908E88",
"[I 	c #74746C",
"}I 	c #978F84",
"|I 	c #897D75",
"1I 	c #686260",
"2I 	c #55524B",
"3I 	c #574F47",
"4I 	c #433D3A",
"5I 	c #615F5E",
"6I 	c #72726E",
"7I 	c #6B6659",
"8I 	c #978E81",
"9I 	c #564B42",
"0I 	c #645B5A",
"aI 	c #767871",
"bI 	c #5B5552",
"cI 	c #5C5B53",
"dI 	c #65655E",
"eI 	c #676862",
"fI 	c #6C6B68",
"gI 	c #6A6561",
"hI 	c #73736A",
"iI 	c #5C5955",
"jI 	c #797972",
"kI 	c #807D7B",
"lI 	c #797270",
"mI 	c #7B7C75",
"nI 	c #57554D",
"oI 	c #4B4440",
"pI 	c #5D5B55",
"qI 	c #72675F",
"rI 	c #656155",
"sI 	c #4D4843",
"tI 	c #656359",
"uI 	c #666561",
"vI 	c #716965",
"wI 	c #616157",
"xI 	c #605A4E",
"yI 	c #413B38",
"zI 	c #5D5A53",
"AI 	c #6E6664",
"BI 	c #5D5754",
"CI 	c #63544B",
"DI 	c #8F8776",
"EI 	c #767066",
"FI 	c #5F5854",
"GI 	c #6A6765",
"HI 	c #6D6766",
"II 	c #76746A",
"JI 	c #59504A",
"KI 	c #5A564C",
"LI 	c #69665B",
"MI 	c #7D8079",
"NI 	c #8C8177",
"OI 	c #8E847B",
"PI 	c #776D63",
"QI 	c #66615E",
"RI 	c #5E5B52",
"SI 	c #5F5D58",
"TI 	c #55514C",
"UI 	c #4A4740",
"VI 	c #69615E",
"WI 	c #666160",
"XI 	c #767369",
"YI 	c #766F6D",
"ZI 	c #6E6767",
"`I 	c #726967",
" J 	c #73685F",
".J 	c #6E6D67",
"+J 	c #5C5B54",
"@J 	c #6F706A",
"#J 	c #605F59",
"$J 	c #716F6D",
"%J 	c #7E7467",
"&J 	c #978B80",
"*J 	c #5A5752",
"=J 	c #605C58",
"-J 	c #46423C",
";J 	c #96918B",
">J 	c #76766B",
",J 	c #6E6A6A",
"'J 	c #908A88",
")J 	c #56534F",
"!J 	c #5C5A52",
"~J 	c #6A6360",
"{J 	c #6A6764",
"]J 	c #7C7571",
"^J 	c #9B9288",
"/J 	c #7D7367",
"(J 	c #514A45",
"_J 	c #635C5A",
":J 	c #57524F",
"<J 	c #5D5C55",
"[J 	c #504A48",
"}J 	c #797875",
"|J 	c #595751",
"1J 	c #696962",
"2J 	c #69685E",
"3J 	c #74766F",
"4J 	c #605B58",
"5J 	c #4A4440",
"6J 	c #48413C",
"7J 	c #787970",
"8J 	c #6B6765",
"9J 	c #6B695F",
"0J 	c #59544F",
"aJ 	c #8C8B83",
"bJ 	c #716E6B",
"cJ 	c #8B7F72",
"dJ 	c #5F5649",
"eJ 	c #6E6765",
"fJ 	c #727268",
"gJ 	c #504842",
"hJ 	c #5B584F",
"iJ 	c #5C5A54",
"jJ 	c #6C615D",
"kJ 	c #61554B",
"lJ 	c #817768",
"mJ 	c #494037",
"nJ 	c #413B32",
"oJ 	c #5F5C57",
"pJ 	c #6F6F68",
"qJ 	c #6A615F",
"rJ 	c #666661",
"sJ 	c #46413D",
"tJ 	c #5E5C54",
"uJ 	c #757570",
"vJ 	c #554E45",
"wJ 	c #9E9B97",
"xJ 	c #94887B",
"yJ 	c #91857A",
"zJ 	c #5E564F",
"AJ 	c #514B45",
"BJ 	c #554F4E",
"CJ 	c #48433C",
"DJ 	c #605857",
"EJ 	c #87877F",
"FJ 	c #625E54",
"GJ 	c #626055",
"HJ 	c #4C4844",
"IJ 	c #5A534E",
"JJ 	c #7A7170",
"KJ 	c #535048",
"LJ 	c #5A5755",
"MJ 	c #87807D",
"NJ 	c #8E8474",
"OJ 	c #5E5B56",
"PJ 	c #53534D",
"QJ 	c #5C5B55",
"RJ 	c #6B6465",
"SJ 	c #797371",
"TJ 	c #56524F",
"UJ 	c #4E4944",
"VJ 	c #49413A",
"WJ 	c #6E695E",
"XJ 	c #8B7F75",
"YJ 	c #6B6354",
"ZJ 	c #5A4F45",
"`J 	c #80817B",
" K 	c #807B7A",
".K 	c #767670",
"+K 	c #908E86",
"@K 	c #5F5E59",
"#K 	c #8A8986",
"$K 	c #90867B",
"%K 	c #49433A",
"&K 	c #736D6E",
"*K 	c #66665F",
"=K 	c #696864",
"-K 	c #6F6C62",
";K 	c #5C5854",
">K 	c #7A7B74",
",K 	c #56544E",
"'K 	c #57544D",
")K 	c #7D7D78",
"!K 	c #8F8887",
"~K 	c #857D6F",
"{K 	c #7B7065",
"]K 	c #939190",
"^K 	c #818179",
"/K 	c #707067",
"(K 	c #605956",
"_K 	c #6A6A62",
":K 	c #686261",
"<K 	c #5C5451",
"[K 	c #514946",
"}K 	c #908A85",
"|K 	c #827F7D",
"1K 	c #6B6563",
"2K 	c #766C5C",
"3K 	c #433732",
"4K 	c #63625D",
"5K 	c #5E5B55",
"6K 	c #66655F",
"7K 	c #4E4A46",
"8K 	c #928A87",
"9K 	c #6D6564",
"0K 	c #7F8077",
"aK 	c #959693",
"bK 	c #938E8B",
"cK 	c #6C645F",
"dK 	c #8A8173",
"eK 	c #72645D",
"fK 	c #918F8D",
"gK 	c #847E76",
"hK 	c #888584",
"iK 	c #857D7C",
"jK 	c #7E7978",
"kK 	c #888483",
"lK 	c #777472",
"mK 	c #8F8E8C",
"nK 	c #534D4A",
"oK 	c #5D5B50",
"pK 	c #827E74",
"qK 	c #534F4A",
"rK 	c #64605D",
"sK 	c #635C5B",
"tK 	c #67605E",
"uK 	c #524D4A",
"vK 	c #83827F",
"wK 	c #6C6256",
"xK 	c #85796E",
"yK 	c #655C54",
"zK 	c #67615F",
"AK 	c #4D4844",
"BK 	c #6D6C62",
"CK 	c #504B42",
"DK 	c #6B635A",
"EK 	c #5A524A",
"FK 	c #7A786F",
"GK 	c #64625E",
"HK 	c #616059",
"IK 	c #45403B",
"JK 	c #666760",
"KK 	c #8A8072",
"LK 	c #50473B",
"MK 	c #6E6D69",
"NK 	c #8A8484",
"OK 	c #747170",
"PK 	c #615B5A",
"QK 	c #635B54",
"RK 	c #979590",
"SK 	c #77776F",
"TK 	c #76766D",
"UK 	c #7B7C73",
"VK 	c #6A6260",
"WK 	c #6F6357",
"XK 	c #675D52",
"YK 	c #524D48",
"ZK 	c #413932",
"`K 	c #8D867B",
" L 	c #A8A19C",
".L 	c #4B423D",
"+L 	c #716966",
"@L 	c #615753",
"#L 	c #57504F",
"$L 	c #877F7D",
"%L 	c #898378",
"&L 	c #554A43",
"*L 	c #6E6F69",
"=L 	c #7F807B",
"-L 	c #5E5B57",
";L 	c #544C42",
">L 	c #7B7976",
",L 	c #675E5B",
"'L 	c #655D5B",
")L 	c #6E7068",
"!L 	c #6F6A69",
"~L 	c #938D81",
"{L 	c #473E37",
"]L 	c #5D574C",
"^L 	c #6D6D65",
"/L 	c #64635C",
"(L 	c #5E5C53",
"_L 	c #959088",
":L 	c #4F4C47",
"<L 	c #5F6059",
"[L 	c #53514E",
"}L 	c #82807E",
"|L 	c #A59E97",
"1L 	c #B1A8A4",
"2L 	c #463F3B",
"3L 	c #73706E",
"4L 	c #47413C",
"5L 	c #575148",
"6L 	c #4E4940",
"7L 	c #3D342D",
"8L 	c #5B524E",
"9L 	c #827B79",
"0L 	c #9A9083",
"aL 	c #887E78",
"bL 	c #918D86",
"cL 	c #90938B",
"dL 	c #878381",
"eL 	c #81807C",
"fL 	c #6B6B61",
"gL 	c #443A32",
"hL 	c #9C968D",
"iL 	c #565046",
"jL 	c #49443A",
"kL 	c #787A71",
"lL 	c #5B524D",
"mL 	c #413B36",
"nL 	c #59514C",
"oL 	c #5D554C",
"pL 	c #786F6C",
"qL 	c #9D9891",
"rL 	c #958D86",
"sL 	c #A7A199",
"tL 	c #7B706A",
"uL 	c #5D564C",
"vL 	c #4B4037",
"wL 	c #504A3E",
"xL 	c #655E54",
"yL 	c #ACA59D",
"zL 	c #6D6B6A",
"AL 	c #7D7472",
"BL 	c #9E968F",
"CL 	c #544A44",
"DL 	c #887C75",
"EL 	c #473F36",
"FL 	c #93908C",
"GL 	c #58544A",
"HL 	c #4D4941",
"IL 	c #786F6B",
"JL 	c #98958E",
"KL 	c #968D8A",
"LL 	c #756D68",
"ML 	c #685E59",
"NL 	c #3D332D",
"OL 	c #6B6059",
"PL 	c #665E52",
"QL 	c #1A180D",
"RL 	c #282119",
"SL 	c #4E4941",
"TL 	c #353027",
"UL 	c #3A342A",
"VL 	c #261C16",
"WL 	c #47403B",
"XL 	c #3C3830",
"YL 	c #3F362F",
"ZL 	c #514B43",
"`L 	c #3C3631",
" M 	c #828073",
".M 	c #9D9491",
"+M 	c #4C453E",
"@M 	c #95908B",
"#M 	c #3A3228",
"$M 	c #373029",
"%M 	c #251C16",
"&M 	c #3D362C",
"*M 	c #372D28",
"=M 	c #A19894",
"-M 	c #938C88",
";M 	c #534D44",
">M 	c #7E786D",
",M 	c #787872",
"'M 	c #928A82",
")M 	c #979790",
"!M 	c #94918D",
"~M 	c #7C7877",
"{M 	c #463E34",
"]M 	c #6A6257",
"^M 	c #464036",
"/M 	c #2B251B",
"(M 	c #625952",
"_M 	c #847B74",
":M 	c #3A3229",
"<M 	c #3C342D",
"[M 	c #5A5850",
"}M 	c #8A8B80",
"|M 	c #6F7067",
"1M 	c #49433E",
"2M 	c #423C37",
"3M 	c #635D53",
"4M 	c #78706B",
"5M 	c #716C61",
"6M 	c #8D837A",
"7M 	c #7B7169",
"8M 	c #766C66",
"9M 	c #514941",
"0M 	c #5C524C",
"aM 	c #60544F",
"bM 	c #615750",
"cM 	c #62594F",
"dM 	c #71685C",
"eM 	c #5C5147",
"fM 	c #71685F",
"gM 	c #878176",
"hM 	c #594D42",
"iM 	c #605549",
"jM 	c #837870",
"kM 	c #60564C",
"lM 	c #5C564A",
"mM 	c #685E52",
"nM 	c #5B5047",
"oM 	c #655D52",
"pM 	c #50473D",
"qM 	c #514840",
"rM 	c #61574E",
"sM 	c #5C534B",
"tM 	c #665C55",
"uM 	c #7B746A",
"vM 	c #5A524B",
"wM 	c #6C615A",
"xM 	c #726B60",
"yM 	c #585148",
"zM 	c #635D52",
"AM 	c #7F7B6D",
"BM 	c #766F64",
"CM 	c #3F392E",
"DM 	c #413931",
"EM 	c #514B40",
"FM 	c #6D6359",
"GM 	c #685D55",
"HM 	c #80796F",
"IM 	c #4C463C",
"JM 	c #4A453A",
"KM 	c #554D46",
"LM 	c #584F48",
"MM 	c #423D34",
"NM 	c #776D66",
"OM 	c #514A40",
"PM 	c #81796E",
"QM 	c #656052",
"RM 	c #5C5548",
"SM 	c #534940",
"TM 	c #686157",
"UM 	c #524A41",
"VM 	c #706560",
"WM 	c #4A423A",
"XM 	c #4A4139",
"YM 	c #555246",
"ZM 	c #635750",
"`M 	c #403930",
" N 	c #413A31",
".N 	c #38322A",
"+N 	c #544C46",
"@N 	c #5D534E",
"#N 	c #4F4742",
"$N 	c #3A332A",
"%N 	c #4C4038",
"&N 	c #443F36",
"*N 	c #403833",
"=N 	c #504940",
"-N 	c #615651",
";N 	c #3F3931",
">N 	c #2F2920",
",N 	c #2E231A",
"'N 	c #3D322B",
")N 	c #403630",
"!N 	c #443D31",
"~N 	c #4D473F",
"{N 	c #453B35",
"]N 	c #453E36",
"^N 	c #403830",
"/N 	c #534942",
"(N 	c #463B38",
"_N 	c #595448",
":N 	c #433F32",
"<N 	c #4E453C",
"[N 	c #60574C",
"}N 	c #686053",
"|N 	c #6A6358",
"1N 	c #685F58",
"2N 	c #696156",
"3N 	c #6C625E",
"4N 	c #595047",
"5N 	c #544E43",
"6N 	c #5C554B",
"7N 	c #534E48",
"8N 	c #534741",
"9N 	c #564D44",
"0N 	c #635E53",
"aN 	c #504A45",
"bN 	c #534A40",
"cN 	c #504741",
"dN 	c #635C53",
"eN 	c #504845",
"fN 	c #57504B",
"gN 	c #433C35",
"hN 	c #5F564D",
"iN 	c #8C837B",
"jN 	c #5D5448",
"kN 	c #716559",
"lN 	c #7D786B",
"mN 	c #8C837A",
"nN 	c #8E857A",
"oN 	c #8D8479",
"pN 	c #9B9189",
"qN 	c #968A82",
"rN 	c #7D7368",
"sN 	c #766C62",
"tN 	c #797068",
"uN 	c #595246",
"vN 	c #8B837B",
"wN 	c #7C7069",
"xN 	c #888274",
"yN 	c #655B50",
"zN 	c #736A5F",
"AN 	c #80756B",
"BN 	c #7E7568",
"CN 	c #82776C",
"DN 	c #80756D",
"EN 	c #7C7068",
"FN 	c #817969",
"GN 	c #82756B",
"HN 	c #7C7266",
"IN 	c #82776B",
"JN 	c #AAA197",
"KN 	c #796D63",
"LN 	c #776E62",
"MN 	c #73695E",
"NN 	c #8B8378",
"ON 	c #827A6D",
"PN 	c #8A8179",
"QN 	c #787065",
"RN 	c #867C70",
"SN 	c #66584F",
"TN 	c #91897A",
"UN 	c #63574E",
"VN 	c #7D7163",
"WN 	c #898174",
"XN 	c #6E6A5F",
"YN 	c #5C584C",
"ZN 	c #847D73",
"`N 	c #7F7B71",
" O 	c #89837A",
".O 	c #7F756E",
"+O 	c #8D867A",
"@O 	c #382F28",
"#O 	c #655D53",
"$O 	c #70685D",
"%O 	c #978E89",
"&O 	c #877D74",
"*O 	c #989390",
"=O 	c #757066",
"-O 	c #7B6F67",
";O 	c #746862",
">O 	c #898377",
",O 	c #887F75",
"'O 	c #887D76",
")O 	c #81776E",
"!O 	c #7C7569",
"~O 	c #857A71",
"{O 	c #786E66",
"]O 	c #69615A",
"^O 	c #5E574E",
"/O 	c #675F55",
"(O 	c #9E988E",
"_O 	c #978F8A",
":O 	c #9D9992",
"<O 	c #8E8380",
"[O 	c #847C73",
"}O 	c #6A6759",
"|O 	c #7C7167",
"1O 	c #5E504B",
"2O 	c #6B6055",
"3O 	c #74685E",
"4O 	c #6A6055",
"5O 	c #7F766A",
"6O 	c #6F665C",
"7O 	c #63574D",
"8O 	c #716963",
"9O 	c #736B5E",
"0O 	c #685D53",
"aO 	c #7B7469",
"bO 	c #857E75",
"cO 	c #7E776C",
"dO 	c #6E685D",
"eO 	c #797269",
"fO 	c #8B867A",
"gO 	c #8B8179",
"hO 	c #6F685D",
"iO 	c #4A413A",
"jO 	c #473C36",
"kO 	c #443E39",
"lO 	c #565348",
"mO 	c #776D61",
"nO 	c #61564E",
"oO 	c #7A7069",
"pO 	c #70665A",
"qO 	c #6E675B",
"rO 	c #7D766C",
"sO 	c #82786E",
"tO 	c #7F786D",
"uO 	c #786F67",
"vO 	c #574F46",
"wO 	c #766D65",
"xO 	c #70695D",
"yO 	c #767063",
"zO 	c #695F58",
"AO 	c #7B7064",
"BO 	c #6B6556",
"CO 	c #60574E",
"DO 	c #5B5348",
"EO 	c #605347",
"FO 	c #746B5F",
"GO 	c #978D7F",
"HO 	c #A2978A",
"IO 	c #5F5248",
"JO 	c #928274",
"KO 	c #8D7C71",
"LO 	c #6D5E51",
"MO 	c #746559",
"NO 	c #78685B",
"OO 	c #867568",
"PO 	c #9A8F7F",
"QO 	c #87786C",
"RO 	c #827367",
"SO 	c #94897A",
"TO 	c #827165",
"UO 	c #817165",
"VO 	c #A19482",
"WO 	c #9F9182",
"XO 	c #8C8070",
"YO 	c #9F9286",
"ZO 	c #97897C",
"`O 	c #726656",
" P 	c #7F7266",
".P 	c #998A7D",
"+P 	c #998879",
"@P 	c #978C7D",
"#P 	c #918373",
"$P 	c #938475",
"%P 	c #9B8D7E",
"&P 	c #A4968E",
"*P 	c #675E4F",
"=P 	c #655A4F",
"-P 	c #8C7E72",
";P 	c #665D50",
">P 	c #978A7E",
",P 	c #786D5F",
"'P 	c #908674",
")P 	c #7E7169",
"!P 	c #574B3F",
"~P 	c #877C6E",
"{P 	c #77695D",
"]P 	c #9B8C7E",
"^P 	c #82786C",
"/P 	c #9B8F81",
"(P 	c #766C5E",
"_P 	c #90887D",
":P 	c #9B9387",
"<P 	c #6B6153",
"[P 	c #A49487",
"}P 	c #887E70",
"|P 	c #8C8275",
"1P 	c #847A6C",
"2P 	c #574E41",
"3P 	c #8D8075",
"4P 	c #756B5E",
"5P 	c #887D6F",
"6P 	c #877B72",
"7P 	c #90897C",
"8P 	c #8A7F74",
"9P 	c #908678",
"0P 	c #8A7B70",
"aP 	c #5F5148",
"bP 	c #756A61",
"cP 	c #8B7F73",
"dP 	c #8A7D70",
"eP 	c #94877C",
"fP 	c #9B8E81",
"gP 	c #968C80",
"hP 	c #685950",
"iP 	c #5E4F44",
"jP 	c #A39484",
"kP 	c #726758",
"lP 	c #807065",
"mP 	c #706357",
"nP 	c #9B8E7E",
"oP 	c #8F8674",
"pP 	c #7D6D5F",
"qP 	c #AB9C8E",
"rP 	c #766C60",
"sP 	c #66594E",
"tP 	c #77685D",
"uP 	c #867A6F",
"vP 	c #8A7F71",
"wP 	c #8C7E73",
"xP 	c #76685D",
"yP 	c #645850",
"zP 	c #958B80",
"AP 	c #867970",
"BP 	c #6A6154",
"CP 	c #8F8478",
"DP 	c #94897E",
"EP 	c #796D61",
"FP 	c #655E4F",
"GP 	c #8E7F75",
"HP 	c #716459",
"IP 	c #51443A",
"JP 	c #797064",
"KP 	c #3F2F29",
"LP 	c #918A7F",
"MP 	c #999388",
"NP 	c #A39B8D",
"OP 	c #9E9389",
"PP 	c #AAA397",
"QP 	c #93877C",
"RP 	c #807769",
"SP 	c #A4998A",
"TP 	c #A29588",
"UP 	c #9E9387",
"VP 	c #AA9D8E",
"WP 	c #A89C8F",
"XP 	c #928476",
"YP 	c #988A7C",
"ZP 	c #9C8D80",
"`P 	c #83796B",
" Q 	c #6E6055",
".Q 	c #A49588",
"+Q 	c #887B6E",
"@Q 	c #9A8D81",
"#Q 	c #9D8E86",
"$Q 	c #8D8175",
"%Q 	c #83776B",
"&Q 	c #A49A8B",
"*Q 	c #A19589",
"=Q 	c #92887C",
"-Q 	c #8A8276",
";Q 	c #7B6D65",
">Q 	c #968D83",
",Q 	c #63574C",
"'Q 	c #9C9286",
")Q 	c #877F75",
"!Q 	c #91847C",
"~Q 	c #857C72",
"{Q 	c #938B7F",
"]Q 	c #9D928A",
"^Q 	c #9C9083",
"/Q 	c #4F453C",
"(Q 	c #4E4638",
"_Q 	c #887D72",
":Q 	c #64584B",
"<Q 	c #776C5E",
"[Q 	c #6A6056",
"}Q 	c #6E6456",
"|Q 	c #84756D",
"1Q 	c #897B6F",
"2Q 	c #675A4C",
"3Q 	c #94897C",
"4Q 	c #74685D",
"5Q 	c #6B6156",
"6Q 	c #5A4C45",
"7Q 	c #968A81",
"8Q 	c #877A75",
"9Q 	c #8F8177",
"0Q 	c #7B7163",
"aQ 	c #82796C",
"bQ 	c #81756A",
"cQ 	c #988E82",
"dQ 	c #8C8076",
"eQ 	c #8D8376",
"fQ 	c #8F8678",
"gQ 	c #867D72",
"hQ 	c #9D978A",
"iQ 	c #9D9289",
"jQ 	c #948A7E",
"kQ 	c #A1968F",
"lQ 	c #83796D",
"mQ 	c #978D83",
"nQ 	c #918A7C",
"oQ 	c #B0A096",
"pQ 	c #998E83",
"qQ 	c #827969",
"rQ 	c #8A8073",
"sQ 	c #96897E",
"tQ 	c #49413B",
"uQ 	c #8A7E75",
"vQ 	c #847870",
"wQ 	c #867A6E",
"xQ 	c #8C8175",
"yQ 	c #776D60",
"zQ 	c #8C8576",
"AQ 	c #817369",
"BQ 	c #7D7265",
"CQ 	c #8A7C73",
"DQ 	c #8F8676",
"EQ 	c #897D71",
"FQ 	c #877C6D",
"GQ 	c #8A7F72",
"HQ 	c #918275",
"IQ 	c #93867A",
"JQ 	c #554B41",
"KQ 	c #6D6353",
"LQ 	c #71665F",
"MQ 	c #4D4437",
"NQ 	c #857F72",
"OQ 	c #655750",
"PQ 	c #575047",
"QQ 	c #73665C",
"RQ 	c #7E7267",
"SQ 	c #6D6459",
"TQ 	c #71665A",
"UQ 	c #7E7269",
"VQ 	c #7A6F64",
"WQ 	c #736A5E",
"XQ 	c #544A41",
"YQ 	c #6C6053",
"ZQ 	c #878173",
"`Q 	c #817B6A",
" R 	c #80766A",
".R 	c #736758",
"+R 	c #655A4D",
"@R 	c #756F62",
"#R 	c #7F756A",
"$R 	c #82766C",
"%R 	c #7A7063",
"&R 	c #6E645B",
"*R 	c #6A5D54",
"=R 	c #5E564B",
"-R 	c #60534A",
";R 	c #7D716B",
">R 	c #92857A",
",R 	c #615348",
"'R 	c #6E6356",
")R 	c #8C8274",
"!R 	c #72665A",
"~R 	c #746659",
"{R 	c #62594A",
"]R 	c #8D8277",
"^R 	c #73655B",
"/R 	c #887C6F",
"(R 	c #615646",
"_R 	c #84786D",
":R 	c #898379",
"<R 	c #74695E",
"[R 	c #857973",
"}R 	c #9C9689",
"|R 	c #665C4F",
"1R 	c #584E40",
"2R 	c #635B4D",
"3R 	c #8E8576",
"4R 	c #6B6358",
"5R 	c #564D43",
"6R 	c #4D433A",
"7R 	c #5B4F45",
"8R 	c #64594F",
"9R 	c #807770",
"0R 	c #594E45",
"aR 	c #60554C",
"bR 	c #645B4C",
"cR 	c #6C625C",
"dR 	c #958D88",
"eR 	c #837E74",
"fR 	c #473D33",
"gR 	c #5B4E47",
"hR 	c #726C5F",
"iR 	c #5D5349",
"jR 	c #827B70",
"kR 	c #A2988D",
"lR 	c #8C7D72",
"mR 	c #9A8B7F",
"nR 	c #968B82",
"oR 	c #897E74",
"pR 	c #837A71",
"qR 	c #585045",
"rR 	c #685D56",
"sR 	c #605750",
"tR 	c #655E55",
"uR 	c #7C7367",
"vR 	c #433830",
"wR 	c #5C5448",
"xR 	c #92867E",
"yR 	c #6F645C",
"zR 	c #7E786B",
"AR 	c #625C4E",
"BR 	c #60554A",
"CR 	c #80786B",
"DR 	c #594C42",
"ER 	c #867F75",
"FR 	c #877B74",
"GR 	c #857A70",
"HR 	c #9A8F81",
"IR 	c #887C71",
"JR 	c #8E8279",
"KR 	c #907F73",
"LR 	c #584D42",
"MR 	c #49433B",
"NR 	c #4E463B",
"OR 	c #695F57",
"PR 	c #4F443D",
"QR 	c #584E46",
"RR 	c #665F54",
"SR 	c #635950",
"TR 	c #857E72",
"UR 	c #71665C",
"VR 	c #817568",
"WR 	c #4F433A",
"XR 	c #584B42",
"YR 	c #3D3529",
"ZR 	c #6A6258",
"`R 	c #403B33",
" S 	c #493D35",
".S 	c #52493F",
"+S 	c #8A7D6F",
"@S 	c #443A31",
"#S 	c #392E25",
"$S 	c #7A7264",
"%S 	c #7E746C",
"&S 	c #646054",
"*S 	c #4F4640",
"=S 	c #6D6259",
"-S 	c #8C8277",
";S 	c #5E554E",
">S 	c #746861",
",S 	c #98948A",
"'S 	c #958B7C",
")S 	c #645C50",
"!S 	c #726963",
"~S 	c #5B5952",
"{S 	c #564F4A",
"]S 	c #4C4743",
"^S 	c #726965",
"/S 	c #756A62",
"(S 	c #7C736D",
"_S 	c #887E7A",
":S 	c #655D59",
"<S 	c #5F5A59",
"[S 	c #847C78",
"}S 	c #7B736F",
"|S 	c #645A56",
"1S 	c #736E63",
"2S 	c #A79E96",
"3S 	c #5F574E",
"4S 	c #93938A",
"5S 	c #949188",
"6S 	c #858178",
"7S 	c #625650",
"8S 	c #574F4B",
"9S 	c #4E4A41",
"0S 	c #544C48",
"aS 	c #969390",
"bS 	c #7C6F65",
"cS 	c #5C4D45",
"dS 	c #716C62",
"eS 	c #818177",
"fS 	c #4F4B46",
"gS 	c #5F524B",
"hS 	c #858177",
"iS 	c #817872",
"jS 	c #77766C",
"kS 	c #4F4943",
"lS 	c #5B544A",
"mS 	c #968880",
"nS 	c #817873",
"oS 	c #97928B",
"pS 	c #81776A",
"qS 	c #7D7165",
"rS 	c #5B5246",
"sS 	c #3A3225",
"tS 	c #484038",
"uS 	c #585650",
"vS 	c #756E6C",
"wS 	c #645F55",
"xS 	c #948F87",
"yS 	c #5D514B",
"zS 	c #776B62",
"AS 	c #777165",
"BS 	c #99978F",
"CS 	c #96948C",
"DS 	c #545146",
"ES 	c #807263",
"FS 	c #5B5141",
"GS 	c #534842",
"HS 	c #595952",
"IS 	c #8B8582",
"JS 	c #808077",
"KS 	c #92918E",
"LS 	c #4A4239",
"MS 	c #85786C",
"NS 	c #5C534D",
"OS 	c #95958F",
"PS 	c #93938F",
"QS 	c #4C443D",
"RS 	c #8B8374",
"SS 	c #797160",
"TS 	c #928E86",
"US 	c #6E6E68",
"VS 	c #938D8B",
"WS 	c #989490",
"XS 	c #463A30",
"YS 	c #5D534B",
"ZS 	c #948E8B",
"`S 	c #6E6D63",
" T 	c #584F4B",
".T 	c #454037",
"+T 	c #737065",
"@T 	c #857E7C",
"#T 	c #5C594F",
"$T 	c #786E69",
"%T 	c #898A86",
"&T 	c #70706D",
"*T 	c #77746A",
"=T 	c #85857A",
"-T 	c #898583",
";T 	c #908A87",
">T 	c #8E8784",
",T 	c #8E8681",
"'T 	c #574C42",
")T 	c #8C8075",
"!T 	c #716958",
"~T 	c #999790",
"{T 	c #716E6C",
"]T 	c #52483E",
"^T 	c #6A685E",
"/T 	c #4D4642",
"(T 	c #746A67",
"_T 	c #59524C",
":T 	c #6B6B63",
"<T 	c #686562",
"[T 	c #95938C",
"}T 	c #7B7A70",
"|T 	c #908E8B",
"1T 	c #86867C",
"2T 	c #82786B",
"3T 	c #95928E",
"4T 	c #5A4B46",
"5T 	c #6F6252",
"6T 	c #7D7464",
"7T 	c #86847B",
"8T 	c #8F8A87",
"9T 	c #80807F",
"0T 	c #695F52",
"aT 	c #918E83",
"bT 	c #77706D",
"cT 	c #6A6361",
"dT 	c #89867C",
"eT 	c #938E87",
"fT 	c #5F524A",
"gT 	c #82837C",
"hT 	c #9D9895",
"iT 	c #7C8077",
"jT 	c #9B9390",
"kT 	c #97908B",
"lT 	c #74716F",
"mT 	c #64635D",
"nT 	c #887F7B",
"oT 	c #71736B",
"pT 	c #8E8F88",
"qT 	c #50473F",
"rT 	c #92887B",
"sT 	c #8B807B",
"tT 	c #6D6D67",
"uT 	c #7F7876",
"vT 	c #94918E",
"wT 	c #706A5C",
"xT 	c #5D5D53",
"yT 	c #6D6F67",
"zT 	c #87877E",
"AT 	c #5D5654",
"BT 	c #8E8D83",
"CT 	c #8E8C85",
"DT 	c #8B7C70",
"ET 	c #867C77",
"FT 	c #6A615D",
"GT 	c #939289",
"HT 	c #7A796F",
"IT 	c #8C8D86",
"JT 	c #8C8C87",
"KT 	c #534843",
"LT 	c #776C5F",
"MT 	c #5F5D59",
"NT 	c #595044",
"OT 	c #68655B",
"PT 	c #65645B",
"QT 	c #777070",
"RT 	c #8A8A81",
"ST 	c #79706F",
"TT 	c #92918D",
"UT 	c #878683",
"VT 	c #908077",
"WT 	c #868075",
"XT 	c #847E7E",
"YT 	c #88887F",
"ZT 	c #898281",
"`T 	c #81827B",
" U 	c #94928F",
".U 	c #655C53",
"+U 	c #877E72",
"@U 	c #65635F",
"#U 	c #8F8E8A",
"$U 	c #878282",
"%U 	c #766F6E",
"&U 	c #6D6057",
"*U 	c #7A7976",
"=U 	c #7B7472",
"-U 	c #7E7E7B",
";U 	c #8B8381",
">U 	c #888282",
",U 	c #8C8379",
"'U 	c #848077",
")U 	c #888880",
"!U 	c #828075",
"~U 	c #9C9995",
"{U 	c #555045",
"]U 	c #948C80",
"^U 	c #796F63",
"/U 	c #62635C",
"(U 	c #74746B",
"_U 	c #918E8C",
":U 	c #847E7D",
"<U 	c #61584B",
"[U 	c #827B6A",
"}U 	c #9E9A94",
"|U 	c #878482",
"1U 	c #95918F",
"2U 	c #979491",
"3U 	c #857F73",
"4U 	c #8D8E88",
"5U 	c #8F8783",
"6U 	c #86867E",
"7U 	c #8C8684",
"8U 	c #8A8071",
"9U 	c #615E5B",
"0U 	c #605C59",
"aU 	c #828279",
"bU 	c #4E443B",
"cU 	c #706458",
"dU 	c #928B81",
"eU 	c #9A9691",
"fU 	c #85857E",
"gU 	c #878982",
"hU 	c #464035",
"iU 	c #7F766E",
"jU 	c #7B7875",
"kU 	c #797A71",
"lU 	c #746C5F",
"mU 	c #565248",
"nU 	c #55514B",
"oU 	c #72736C",
"pU 	c #78796E",
"qU 	c #4C4039",
"rU 	c #8A7C6D",
"sU 	c #63584C",
"tU 	c #6E6866",
"uU 	c #867B77",
"vU 	c #534D47",
"wU 	c #787472",
"xU 	c #68615A",
"yU 	c #918478",
"zU 	c #867C72",
"AU 	c #7C7573",
"BU 	c #847B7A",
"CU 	c #4D4439",
"DU 	c #736858",
"EU 	c #7E7E78",
"FU 	c #5B5550",
"GU 	c #837E7D",
"HU 	c #79776D",
"IU 	c #6D635B",
"JU 	c #777770",
"KU 	c #615C58",
"LU 	c #727269",
"MU 	c #94908D",
"NU 	c #989892",
"OU 	c #9B9B94",
"PU 	c #635D51",
"QU 	c #74756B",
"RU 	c #594F48",
"SU 	c #594F40",
"TU 	c #747367",
"UU 	c #9A968F",
"VU 	c #8F8A88",
"WU 	c #8B8B83",
"XU 	c #736760",
"YU 	c #A09B94",
"ZU 	c #827F74",
"`U 	c #858481",
" V 	c #59524D",
".V 	c #848379",
"+V 	c #81756B",
"@V 	c #67665D",
"#V 	c #7E7674",
"$V 	c #68615F",
"%V 	c #676359",
"&V 	c #4E483D",
"*V 	c #716553",
"=V 	c #605F58",
"-V 	c #4D4541",
";V 	c #77786E",
">V 	c #9F9A96",
",V 	c #827973",
"'V 	c #848177",
")V 	c #9F9C94",
"!V 	c #8B8785",
"~V 	c #423E34",
"{V 	c #91867B",
"]V 	c #6D6563",
"^V 	c #4A4038",
"/V 	c #706255",
"(V 	c #6B6360",
"_V 	c #9E9893",
":V 	c #7B7370",
"<V 	c #82847B",
"[V 	c #8A857C",
"}V 	c #8E8577",
"|V 	c #8B877C",
"1V 	c #928F86",
"2V 	c #544940",
"3V 	c #988C7E",
"4V 	c #504C43",
"5V 	c #7B7270",
"6V 	c #5F5955",
"7V 	c #736B6A",
"8V 	c #7A7371",
"9V 	c #4A423D",
"0V 	c #847964",
"aV 	c #857F74",
"bV 	c #84776D",
"cV 	c #85867E",
"dV 	c #777871",
"eV 	c #6E6E6A",
"fV 	c #989590",
"gV 	c #919289",
"hV 	c #5B524C",
"iV 	c #94877B",
"jV 	c #676156",
"kV 	c #56544D",
"lV 	c #5D514E",
"mV 	c #796C5C",
"nV 	c #746E62",
"oV 	c #777473",
"pV 	c #67645A",
"qV 	c #7E7E74",
"rV 	c #62615C",
"sV 	c #7C7C76",
"tV 	c #918D8B",
"uV 	c #807B6F",
"vV 	c #5B5146",
"wV 	c #7A7469",
"xV 	c #514E43",
"yV 	c #6E6562",
"zV 	c #7B766B",
"AV 	c #4D4137",
"BV 	c #786F62",
"CV 	c #5D5753",
"DV 	c #484037",
"EV 	c #665C4D",
"FV 	c #6C6967",
"GV 	c #8F9186",
"HV 	c #919089",
"IV 	c #606058",
"JV 	c #4D4846",
"KV 	c #756A5F",
"LV 	c #615F58",
"MV 	c #616156",
"NV 	c #48433B",
"OV 	c #7D796F",
"PV 	c #8D8C87",
"QV 	c #7F7E74",
"RV 	c #8F918B",
"SV 	c #5B584E",
"TV 	c #959084",
"UV 	c #72645A",
"VV 	c #776F66",
"WV 	c #6F6763",
"XV 	c #62625A",
"YV 	c #847563",
"ZV 	c #5E5C56",
"`V 	c #746C6A",
" W 	c #595250",
".W 	c #59504C",
"+W 	c #5F5A57",
"@W 	c #4C4643",
"#W 	c #8B8B86",
"$W 	c #949189",
"%W 	c #54483E",
"&W 	c #8A817D",
"*W 	c #959190",
"=W 	c #494038",
"-W 	c #7C7469",
";W 	c #949389",
">W 	c #4B3D37",
",W 	c #7F7566",
"'W 	c #6B6767",
")W 	c #7C7B71",
"!W 	c #595652",
"~W 	c #817A74",
"{W 	c #665C59",
"]W 	c #403934",
"^W 	c #7B7A77",
"/W 	c #4A433E",
"(W 	c #5F5549",
"_W 	c #92867C",
":W 	c #514D47",
"<W 	c #6D6969",
"[W 	c #89887E",
"}W 	c #7F766B",
"|W 	c #6A665C",
"1W 	c #66645A",
"2W 	c #8E7E73",
"3W 	c #5C554F",
"4W 	c #585349",
"5W 	c #241E19",
"6W 	c #6C6C65",
"7W 	c #74756D",
"8W 	c #6E6D6B",
"9W 	c #777170",
"0W 	c #5E544A",
"aW 	c #8E877B",
"bW 	c #4E4640",
"cW 	c #6B625F",
"dW 	c #8B8380",
"eW 	c #99948F",
"fW 	c #655D5A",
"gW 	c #4F4A43",
"hW 	c #8A8886",
"iW 	c #706156",
"jW 	c #807266",
"kW 	c #5D5651",
"lW 	c #88817F",
"mW 	c #8D8684",
"nW 	c #968F8D",
"oW 	c #847E75",
"pW 	c #96928E",
"qW 	c #897E75",
"rW 	c #766D6B",
"sW 	c #69675D",
"tW 	c #5A5855",
"uW 	c #615A4F",
"vW 	c #786A5E",
"wW 	c #5A5446",
"xW 	c #67655B",
"yW 	c #6D695E",
"zW 	c #837C7B",
"AW 	c #7F7E7C",
"BW 	c #898072",
"CW 	c #58544B",
"DW 	c #86857D",
"EW 	c #908B8A",
"FW 	c #9E9690",
"GW 	c #7F776A",
"HW 	c #565147",
"IW 	c #5D5352",
"JW 	c #867A6C",
"KW 	c #51483D",
"LW 	c #807772",
"MW 	c #AAA29E",
"NW 	c #908E85",
"OW 	c #595950",
"PW 	c #68685F",
"QW 	c #4F4A47",
"RW 	c #8C8180",
"SW 	c #554F49",
"TW 	c #6D6F64",
"UW 	c #746D6B",
"VW 	c #645C51",
"WW 	c #807674",
"XW 	c #5C5851",
"YW 	c #4C433A",
"ZW 	c #756A5D",
"`W 	c #919087",
" X 	c #605B59",
".X 	c #84736D",
"+X 	c #86847A",
"@X 	c #5D5855",
"#X 	c #615A58",
"$X 	c #625A56",
"%X 	c #585850",
"&X 	c #78706E",
"*X 	c #665F5E",
"=X 	c #8D8D87",
"-X 	c #767367",
";X 	c #847B70",
">X 	c #4C4A41",
",X 	c #827B7A",
"'X 	c #4C4841",
")X 	c #95938B",
"!X 	c #A89C91",
"~X 	c #8B8A80",
"{X 	c #7D7675",
"]X 	c #80796D",
"^X 	c #4D4A43",
"/X 	c #5A574D",
"(X 	c #7B7062",
"_X 	c #443E37",
":X 	c #8E8880",
"<X 	c #8E8580",
"[X 	c #615D52",
"}X 	c #786E67",
"|X 	c #75695D",
"1X 	c #92887D",
"2X 	c #525048",
"3X 	c #8C8B88",
"4X 	c #777870",
"5X 	c #88807E",
"6X 	c #5B5149",
"7X 	c #978C82",
"8X 	c #766E6C",
"9X 	c #474337",
"0X 	c #857B6A",
"aX 	c #44423C",
"bX 	c #8F8D85",
"cX 	c #706763",
"dX 	c #45453D",
"eX 	c #4A453E",
"fX 	c #807D7D",
"gX 	c #79716F",
"hX 	c #67655A",
"iX 	c #93867E",
"jX 	c #747267",
"kX 	c #878080",
"lX 	c #5F584C",
"mX 	c #7D756A",
"nX 	c #6F6665",
"oX 	c #82837B",
"pX 	c #3C3128",
"qX 	c #87786A",
"rX 	c #625A4E",
"sX 	c #4B453D",
"tX 	c #97938B",
"uX 	c #8B8B87",
"vX 	c #736A66",
"wX 	c #878182",
"xX 	c #7F7469",
"yX 	c #645E5C",
"zX 	c #676463",
"AX 	c #7E7168",
"BX 	c #7F7369",
"CX 	c #51483B",
"DX 	c #52473E",
"EX 	c #5D5650",
"FX 	c #8E8B89",
"GX 	c #524B43",
"HX 	c #827768",
"IX 	c #968E82",
"JX 	c #6C6D65",
"KX 	c #7C7A78",
"LX 	c #878781",
"MX 	c #4E4A3F",
"NX 	c #746D60",
"OX 	c #887F71",
"PX 	c #68615D",
"QX 	c #848076",
"RX 	c #7D6C61",
"SX 	c #605D59",
"TX 	c #736961",
"UX 	c #757170",
"VX 	c #757571",
"WX 	c #898786",
"XX 	c #938D8A",
"YX 	c #7F7F78",
"ZX 	c #50463D",
"`X 	c #867B6F",
" Y 	c #5B5B53",
".Y 	c #626056",
"+Y 	c #8E8D8A",
"@Y 	c #92908B",
"#Y 	c #8D867C",
"$Y 	c #838280",
"%Y 	c #726F64",
"&Y 	c #605D53",
"*Y 	c #433930",
"=Y 	c #837567",
"-Y 	c #50463B",
";Y 	c #706C6A",
">Y 	c #96908B",
",Y 	c #6E685E",
"'Y 	c #524D42",
")Y 	c #6A6052",
"!Y 	c #766D68",
"~Y 	c #6E6B61",
"{Y 	c #6E6C69",
"]Y 	c #8E877D",
"^Y 	c #635A4D",
"/Y 	c #8B8B84",
"(Y 	c #6B6967",
"_Y 	c #847F76",
":Y 	c #6A6A61",
"<Y 	c #877969",
"[Y 	c #5F564B",
"}Y 	c #8D8A80",
"|Y 	c #655E5A",
"1Y 	c #71716D",
"2Y 	c #807C7B",
"3Y 	c #594E46",
"4Y 	c #73695A",
"5Y 	c #776E61",
"6Y 	c #8F8885",
"7Y 	c #7E7A79",
"8Y 	c #7E8079",
"9Y 	c #6C6157",
"0Y 	c #534E4C",
"aY 	c #625956",
"bY 	c #8D8686",
"cY 	c #75766C",
"dY 	c #817465",
"eY 	c #828278",
"fY 	c #454036",
"gY 	c #828177",
"hY 	c #6F6F69",
"iY 	c #696663",
"jY 	c #554D44",
"kY 	c #7C6E5F",
"lY 	c #817868",
"mY 	c #6E6B6A",
"nY 	c #8D8783",
"oY 	c #7A7C74",
"pY 	c #8E8A88",
"qY 	c #67675C",
"rY 	c #5A5246",
"sY 	c #6B5E50",
"tY 	c #857B70",
"uY 	c #73746D",
"vY 	c #564F43",
"wY 	c #8B7F70",
"xY 	c #89817E",
"yY 	c #89817F",
"zY 	c #635D5B",
"AY 	c #776E69",
"BY 	c #7F7B70",
"CY 	c #595349",
"DY 	c #827468",
"EY 	c #767870",
"FY 	c #4F4A46",
"GY 	c #887F7C",
"HY 	c #50483F",
"IY 	c #382921",
"JY 	c #6D6355",
"KY 	c #645B4E",
"LY 	c #605147",
"MY 	c #696A61",
"NY 	c #605F55",
"OY 	c #747066",
"PY 	c #5B564E",
"QY 	c #908273",
"RY 	c #84867E",
"SY 	c #717268",
"TY 	c #514B41",
"UY 	c #5B4F46",
"VY 	c #958978",
"WY 	c #54463A",
"XY 	c #5E5A51",
"YY 	c #666358",
"ZY 	c #4D4339",
"`Y 	c #615649",
" Z 	c #5B4F42",
".Z 	c #57534E",
"+Z 	c #7F7A70",
"@Z 	c #9B9893",
"#Z 	c #959288",
"$Z 	c #8F8B88",
"%Z 	c #726158",
"&Z 	c #6D6151",
"*Z 	c #877F7E",
"=Z 	c #8A8A7F",
"-Z 	c #94938B",
";Z 	c #867B70",
">Z 	c #828176",
",Z 	c #625A57",
"'Z 	c #6F6361",
")Z 	c #766C61",
"!Z 	c #7F746B",
"~Z 	c #3C352C",
"{Z 	c #756D64",
"]Z 	c #2E261C",
"^Z 	c #2B251D",
"/Z 	c #3E342F",
"(Z 	c #39332C",
"_Z 	c #554D49",
":Z 	c #908D82",
"<Z 	c #4D473D",
"[Z 	c #6C625F",
"}Z 	c #56554B",
"|Z 	c #99958E",
"1Z 	c #6C635B",
"2Z 	c #7F7D72",
"3Z 	c #483F36",
"4Z 	c #8C8B82",
"5Z 	c #98958C",
"6Z 	c #524E42",
"7Z 	c #37322B",
"8Z 	c #50423A",
"9Z 	c #786B5F",
"0Z 	c #595043",
"aZ 	c #372E25",
"bZ 	c #6B6665",
"cZ 	c #463E3A",
"dZ 	c #3D3430",
"eZ 	c #474036",
"fZ 	c #77786D",
"gZ 	c #7A776C",
"hZ 	c #756968",
"iZ 	c #49413D",
"jZ 	c #4D443E",
"kZ 	c #3C3228",
"lZ 	c #8E8578",
"mZ 	c #4D4943",
"nZ 	c #534B48",
"oZ 	c #645C54",
"pZ 	c #464138",
"qZ 	c #7D7B6F",
"rZ 	c #727065",
"sZ 	c #2B221B",
"tZ 	c #5B5143",
"uZ 	c #8D857A",
"vZ 	c #635C51",
"wZ 	c #6C6158",
"xZ 	c #3F3429",
"yZ 	c #4A3F36",
"zZ 	c #564E43",
"AZ 	c #393427",
"BZ 	c #40362F",
"CZ 	c #393126",
"DZ 	c #332820",
"EZ 	c #312821",
"FZ 	c #3E312B",
"GZ 	c #282319",
"HZ 	c #383129",
"IZ 	c #473F39",
"JZ 	c #443B34",
"KZ 	c #30271D",
"LZ 	c #2D241A",
"MZ 	c #3C332A",
"NZ 	c #312C23",
"OZ 	c #1F150A",
"PZ 	c #352A23",
"QZ 	c #22160F",
"RZ 	c #3E352B",
"SZ 	c #2F2520",
"TZ 	c #190F08",
"UZ 	c #211810",
"VZ 	c #251F14",
"WZ 	c #39332A",
"XZ 	c #2C221A",
"YZ 	c #2A201A",
"ZZ 	c #352E27",
"`Z 	c #262019",
" ` 	c #2C241D",
".` 	c #251F17",
"+` 	c #231912",
"@` 	c #2B2019",
"#` 	c #211711",
"$` 	c #271D16",
"%` 	c #393029",
"&` 	c #3C312A",
"*` 	c #3C362B",
"=` 	c #32281D",
"-` 	c #231A12",
";` 	c #261D13",
">` 	c #241D13",
",` 	c #453E34",
"'` 	c #473C35",
")` 	c #3B3426",
"!` 	c #544C41",
"~` 	c #2A2318",
"{` 	c #383427",
"]` 	c #464137",
"^` 	c #3D332C",
"/` 	c #544D41",
"(` 	c #574F49",
"_` 	c #4D423C",
":` 	c #2E231C",
"<` 	c #261A17",
"[` 	c #3B3128",
"}` 	c #271B15",
"|` 	c #2F271D",
"1` 	c #322D23",
"2` 	c #655A54",
"3` 	c #40372E",
"4` 	c #2E281E",
"5` 	c #5E584E",
"6` 	c #251B14",
"7` 	c #3A362A",
"8` 	c #463D30",
"9` 	c #6C6155",
"0` 	c #7C6F64",
"a` 	c #7F7567",
"b` 	c #4E423E",
"c` 	c #463D34",
"d` 	c #4C413B",
"e` 	c #4D4539",
"f` 	c #392F28",
"g` 	c #534C42",
"h` 	c #585145",
"i` 	c #4E443C",
"j` 	c #3E342A",
"k` 	c #625A4D",
"l` 	c #686258",
"m` 	c #4D443C",
"n` 	c #564A43",
"o` 	c #423830",
"p` 	c #524943",
"q` 	c #514741",
"r` 	c #4A423C",
"s` 	c #4F453E",
"t` 	c #564F46",
"u` 	c #372E26",
"v` 	c #382E29",
"w` 	c #483E39",
"x` 	c #40382E",
"y` 	c #463D39",
"z` 	c #332D27",
"A` 	c #2E251F",
"B` 	c #201810",
"C` 	c #1D160E",
"D` 	c #21190F",
"E` 	c #231C15",
"F` 	c #362D26",
"G` 	c #363228",
"H` 	c #3F362E",
"I` 	c #3A3029",
"J` 	c #342B1F",
"K` 	c #231611",
"L` 	c #1B140D",
"M` 	c #21160D",
"N` 	c #1D120C",
"O` 	c #1E180E",
"P` 	c #2C221B",
"Q` 	c #2E2720",
"R` 	c #322A25",
"S` 	c #1B120A",
"T` 	c #302B22",
"U` 	c #2A241A",
"V` 	c #2E241B",
"W` 	c #423930",
"X` 	c #453B34",
"Y` 	c #3F3531",
"Z` 	c #6C645D",
"`` 	c #81796B",
"  .	c #8C8579",
". .	c #746B5E",
"+ .	c #847C70",
"@ .	c #767065",
"# .	c #686158",
"$ .	c #584C49",
"% .	c #433B32",
"& .	c #433E33",
"* .	c #2C1F1C",
"= .	c #1D170F",
"- .	c #1D140D",
"; .	c #140E06",
"> .	c #151006",
", .	c #191208",
"' .	c #180F08",
") .	c #171108",
"! .	c #322D26",
"~ .	c #2F271F",
"{ .	c #1C160E",
"] .	c #332E26",
"^ .	c #473E36",
"/ .	c #332C24",
"( .	c #1A1409",
"_ .	c #1F1411",
": .	c #181006",
"< .	c #201711",
"[ .	c #352C26",
"} .	c #1F1811",
"| .	c #2A221C",
"1 .	c #261F18",
"2 .	c #342D25",
"3 .	c #221B14",
"4 .	c #1F1610",
"5 .	c #19110B",
"6 .	c #241B14",
"7 .	c #180E08",
"8 .	c #1B150D",
"9 .	c #201712",
"0 .	c #1A110B",
"a .	c #231E15",
"b .	c #1A0F09",
"c .	c #1B140E",
"d .	c #231A15",
"e .	c #1F1611",
"f .	c #20160E",
"g .	c #170F08",
"h .	c #29241C",
"i .	c #1D150D",
"j .	c #1B120B",
"k .	c #221C14",
"l .	c #2B211C",
"m .	c #322D24",
"n .	c #5B5147",
"o .	c #4D4237",
"p .	c #6B6057",
"q .	c #74685B",
"r .	c #90867A",
"s .	c #9C9589",
"t .	c #7C7165",
"u .	c #8E8075",
"v .	c #91867E",
"w .	c #80756C",
"x .	c #6B6155",
"y .	c #7E776D",
"z .	c #81736B",
"A .	c #655F50",
"B .	c #847A71",
"C .	c #787365",
"D .	c #73675E",
"E .	c #8C847A",
"F .	c #827A6E",
"G .	c #757064",
"H .	c #665C54",
"I .	c #645E53",
"J .	c #534B42",
"K .	c #7A7669",
"L .	c #6E6759",
"M .	c #70645B",
"N .	c #A29C8D",
"O .	c #696256",
"P .	c #6B6357",
"Q .	c #7C7468",
"R .	c #8A8074",
"S .	c #8B8478",
"T .	c #887E73",
"U .	c #726A5F",
"V .	c #746F64",
"W .	c #82776E",
"X .	c #847973",
"Y .	c #92897F",
"Z .	c #7D7466",
"` .	c #43372E",
" ..	c #6A6256",
"...	c #867C75",
"+..	c #9F9991",
"@..	c #6A6153",
"#..	c #8A7E74",
"$..	c #8B8276",
"%..	c #7A6D65",
"&..	c #4F473B",
"*..	c #5F574B",
"=..	c #574F44",
"-..	c #584E42",
";..	c #71675A",
">..	c #5A534A",
",..	c #72695B",
"'..	c #665D54",
")..	c #6C6156",
"!..	c #675953",
"~..	c #564C46",
"{..	c #9A9288",
"]..	c #928C89",
"^..	c #39342C",
"/..	c #5A4D47",
"(..	c #6E645E",
"_..	c #534945",
":..	c #463D37",
"<..	c #453F3A",
"[..	c #635B52",
"}..	c #3E362C",
"|..	c #676256",
"1..	c #665A54",
"2..	c #685E56",
"3..	c #62584E",
"4..	c #7F776B",
"5..	c #605C52",
"6..	c #847971",
"7..	c #9A8E86",
"8..	c #747063",
"9..	c #6E6258",
"0..	c #7B726A",
"a..	c #857D73",
"b..	c #796E62",
"c..	c #968E86",
"d..	c #4E433B",
"e..	c #90887F",
"f..	c #7B7367",
"g..	c #595346",
"h..	c #484035",
"i..	c #5D594C",
"j..	c #555247",
"k..	c #5B554B",
"l..	c #6E675C",
"m..	c #564F45",
"n..	c #776E64",
"o..	c #888075",
"p..	c #5C5148",
"q..	c #63594E",
"r..	c #5F584D",
"s..	c #544C44",
"t..	c #675D57",
"u..	c #625B51",
"v..	c #7C6F6B",
"w..	c #8A7F73",
"x..	c #99897A",
"y..	c #877A6C",
"z..	c #776A5C",
"A..	c #77675E",
"B..	c #6C5F53",
"C..	c #776B5C",
"D..	c #85786B",
"E..	c #8E8477",
"F..	c #71635A",
"G..	c #827467",
"H..	c #8B7B6F",
"I..	c #76695E",
"J..	c #72645B",
"K..	c #83796A",
"L..	c #8C7E71",
"M..	c #807268",
"N..	c #716357",
"O..	c #706153",
"P..	c #726658",
"Q..	c #938574",
"R..	c #8A7E71",
"S..	c #A09487",
"T..	c #6A5B50",
"U..	c #8A7B71",
"V..	c #877C6F",
"W..	c #9F9287",
"X..	c #A49B8F",
"Y..	c #9C9088",
"Z..	c #938A7C",
"`..	c #62564D",
" +.	c #706257",
".+.	c #60544B",
"++.	c #53463E",
"@+.	c #867972",
"#+.	c #746C62",
"$+.	c #83786E",
"%+.	c #93837B",
"&+.	c #978B7E",
"*+.	c #7C6F63",
"=+.	c #93897B",
"-+.	c #92867A",
";+.	c #958C7D",
">+.	c #75695E",
",+.	c #7D7169",
"'+.	c #756B5D",
")+.	c #7E776B",
"!+.	c #6B5C52",
"~+.	c #766A5C",
"{+.	c #8C7F76",
"]+.	c #85776D",
"^+.	c #6D6155",
"/+.	c #928778",
"(+.	c #83786B",
"_+.	c #61544B",
":+.	c #776C60",
"<+.	c #85786E",
"[+.	c #7D726B",
"}+.	c #8C7F78",
"|+.	c #8A7E73",
"1+.	c #867D71",
"2+.	c #786C61",
"3+.	c #6E6357",
"4+.	c #8B7D73",
"5+.	c #8C7C73",
"6+.	c #948C7F",
"7+.	c #92897B",
"8+.	c #9C9184",
"9+.	c #574A41",
"0+.	c #91887D",
"a+.	c #9A8F83",
"b+.	c #8B8174",
"c+.	c #4F4538",
"d+.	c #8F8377",
"e+.	c #4F483B",
"f+.	c #695B51",
"g+.	c #736559",
"h+.	c #857A6D",
"i+.	c #84766A",
"j+.	c #9A8E84",
"k+.	c #988F83",
"l+.	c #5F574A",
"m+.	c #4B3F35",
"n+.	c #766A60",
"o+.	c #6C5F57",
"p+.	c #988B7E",
"q+.	c #82776D",
"r+.	c #84796C",
"s+.	c #928478",
"t+.	c #807364",
"u+.	c #7C6E60",
"v+.	c #797162",
"w+.	c #8E8378",
"x+.	c #9D958A",
"y+.	c #5E5246",
"z+.	c #73655F",
"A+.	c #675C53",
"B+.	c #6F625A",
"C+.	c #675C51",
"D+.	c #6C6154",
"E+.	c #887D75",
"F+.	c #7C7368",
"G+.	c #796C62",
"H+.	c #837668",
"I+.	c #9D8F83",
"J+.	c #908679",
"K+.	c #9E9587",
"L+.	c #7D7568",
"M+.	c #7C7164",
"N+.	c #5C5447",
"O+.	c #6C6059",
"P+.	c #7B6B64",
"Q+.	c #999085",
"R+.	c #A3978C",
"S+.	c #93887C",
"T+.	c #897C73",
"U+.	c #93857B",
"V+.	c #A09588",
"W+.	c #85786F",
"X+.	c #8B7D74",
"Y+.	c #968B7C",
"Z+.	c #7C7166",
"`+.	c #7D7365",
" @.	c #847A72",
".@.	c #898173",
"+@.	c #6D6156",
"@@.	c #7D7168",
"#@.	c #7A746A",
"$@.	c #6D6258",
"%@.	c #887C74",
"&@.	c #7B6F68",
"*@.	c #83776F",
"=@.	c #77695E",
"-@.	c #7B6E63",
";@.	c #756760",
">@.	c #716557",
",@.	c #736458",
"'@.	c #796E64",
")@.	c #786B60",
"!@.	c #807569",
"~@.	c #73695D",
"{@.	c #3B352C",
"]@.	c #574D42",
"^@.	c #756961",
"/@.	c #7A7366",
"(@.	c #61584C",
"_@.	c #70625A",
":@.	c #6A5F53",
"<@.	c #504439",
"[@.	c #837B6B",
"}@.	c #7C6F61",
"|@.	c #7B6F60",
"1@.	c #817163",
"2@.	c #615247",
"3@.	c #6E665A",
"4@.	c #5C514C",
"5@.	c #554D45",
"6@.	c #5F524C",
"7@.	c #6C5F54",
"8@.	c #696157",
"9@.	c #605346",
"0@.	c #5C5249",
"a@.	c #A4978B",
"b@.	c #908376",
"c@.	c #898075",
"d@.	c #756C62",
"e@.	c #7A7164",
"f@.	c #7A6C5D",
"g@.	c #7C7066",
"h@.	c #847669",
"i@.	c #897C70",
"j@.	c #6D6053",
"k@.	c #7C6E62",
"l@.	c #695F51",
"m@.	c #6B5F52",
"n@.	c #6F6555",
"o@.	c #A09687",
"p@.	c #908379",
"q@.	c #9A9185",
"r@.	c #968F80",
"s@.	c #A8A095",
"t@.	c #9A8F87",
"u@.	c #9D9386",
"v@.	c #8F8578",
"w@.	c #A69B91",
"x@.	c #868276",
"y@.	c #605448",
"z@.	c #877E73",
"A@.	c #877F73",
"B@.	c #857C71",
"C@.	c #91897D",
"D@.	c #A4948C",
"E@.	c #8B8376",
"F@.	c #837C71",
"G@.	c #92877D",
"H@.	c #91837A",
"I@.	c #867C71",
"J@.	c #9C968B",
"K@.	c #968F86",
"L@.	c #959086",
"M@.	c #747062",
"N@.	c #7C7169",
"O@.	c #4B3F37",
"P@.	c #83786D",
"Q@.	c #89817B",
"R@.	c #655E52",
"S@.	c #4D413B",
"T@.	c #70655B",
"U@.	c #635A4E",
"V@.	c #7A6E65",
"W@.	c #7D7268",
"X@.	c #63564C",
"Y@.	c #6B5E52",
"Z@.	c #5A514B",
"`@.	c #8B8B80",
" #.	c #8A867C",
".#.	c #4F4641",
"+#.	c #3D332B",
"@#.	c #575247",
"##.	c #625C51",
"$#.	c #524D44",
"%#.	c #534D43",
"&#.	c #90897F",
"*#.	c #6F665F",
"=#.	c #635F55",
"-#.	c #695F5A",
";#.	c #868074",
">#.	c #797469",
",#.	c #72685F",
"'#.	c #665D4E",
")#.	c #8F877D",
"!#.	c #52483F",
"~#.	c #3D3129",
"{#.	c #32291E",
"]#.	c #6B6255",
"^#.	c #6B6157",
"/#.	c #6D6456",
"(#.	c #65574D",
"_#.	c #948779",
":#.	c #928379",
"<#.	c #716253",
"[#.	c #7B6E60",
"}#.	c #72675C",
"|#.	c #8C7F74",
"1#.	c #6A5E52",
"2#.	c #988A7D",
"3#.	c #918276",
"4#.	c #726858",
"5#.	c #817367",
"6#.	c #716457",
"7#.	c #A09283",
"8#.	c #655951",
"9#.	c #5D5245",
"0#.	c #66574E",
"a#.	c #6D6157",
"b#.	c #595341",
"c#.	c #8E8074",
"d#.	c #8B7D71",
"e#.	c #685B50",
"f#.	c #A2958A",
"g#.	c #7D6E65",
"h#.	c #7E7165",
"i#.	c #8F8375",
"j#.	c #74665B",
"k#.	c #A29787",
"l#.	c #8F806F",
"m#.	c #BEAEA1",
"n#.	c #877E71",
"o#.	c #756B67",
"p#.	c #645B58",
"q#.	c #514E44",
"r#.	c #736257",
"s#.	c #7E6E66",
"t#.	c #726B6A",
"u#.	c #54534A",
"v#.	c #706866",
"w#.	c #504E43",
"x#.	c #96948A",
"y#.	c #483F39",
"z#.	c #6A5C52",
"A#.	c #6B5D52",
"B#.	c #51433A",
"C#.	c #2E2820",
"D#.	c #7A726F",
"E#.	c #45403D",
"F#.	c #968F8B",
"G#.	c #453E3A",
"H#.	c #504945",
"I#.	c #605C53",
"J#.	c #7E7671",
"K#.	c #88796E",
"L#.	c #68655A",
"M#.	c #636158",
"N#.	c #636258",
"O#.	c #7B7C72",
"P#.	c #9C9793",
"Q#.	c #7E7366",
"R#.	c #50453A",
"S#.	c #5C4B44",
"T#.	c #8D887F",
"U#.	c #46423F",
"V#.	c #6F6E63",
"W#.	c #645F5E",
"X#.	c #6A6362",
"Y#.	c #60544E",
"Z#.	c #58504C",
"`#.	c #4E4945",
" $.	c #3A3327",
".$.	c #625647",
"+$.	c #8A7D71",
"@$.	c #757369",
"#$.	c #78766C",
"$$.	c #9C9791",
"%$.	c #717065",
"&$.	c #483C31",
"*$.	c #786A60",
"=$.	c #60554E",
"-$.	c #4F4A41",
";$.	c #5A5351",
">$.	c #7A7171",
",$.	c #565149",
"'$.	c #706865",
")$.	c #484540",
"!$.	c #69605D",
"~$.	c #5B5B52",
"{$.	c #4A4237",
"]$.	c #897B6C",
"^$.	c #A39687",
"/$.	c #6A695F",
"($.	c #95938E",
"_$.	c #5C5A55",
":$.	c #5E5956",
"<$.	c #868278",
"[$.	c #5E5654",
"}$.	c #51504A",
"|$.	c #504B44",
"1$.	c #69615F",
"2$.	c #696260",
"3$.	c #4F4740",
"4$.	c #8C8C88",
"5$.	c #716A68",
"6$.	c #83807F",
"7$.	c #898176",
"8$.	c #524840",
"9$.	c #777468",
"0$.	c #7C7370",
"a$.	c #695F5D",
"b$.	c #6D6866",
"c$.	c #5B534A",
"d$.	c #918271",
"e$.	c #96988E",
"f$.	c #67675F",
"g$.	c #877E7C",
"h$.	c #534A3F",
"i$.	c #7C7269",
"j$.	c #82827A",
"k$.	c #4E4844",
"l$.	c #54514A",
"m$.	c #5A5753",
"n$.	c #837969",
"o$.	c #999493",
"p$.	c #94918C",
"q$.	c #9A9490",
"r$.	c #8E8E85",
"s$.	c #625B57",
"t$.	c #66645B",
"u$.	c #73696A",
"v$.	c #767467",
"w$.	c #746E6E",
"x$.	c #4E473E",
"y$.	c #7D786E",
"z$.	c #6B6262",
"A$.	c #595550",
"B$.	c #544E4A",
"C$.	c #6C6E63",
"D$.	c #7B726D",
"E$.	c #51483E",
"F$.	c #948A78",
"G$.	c #918A86",
"H$.	c #76776D",
"I$.	c #938E8A",
"J$.	c #7B7A6F",
"K$.	c #575145",
"L$.	c #4E4843",
"M$.	c #545249",
"N$.	c #605D54",
"O$.	c #7A7A76",
"P$.	c #56504C",
"Q$.	c #5D534F",
"R$.	c #918578",
"S$.	c #70635A",
"T$.	c #8D8786",
"U$.	c #8C887F",
"V$.	c #796F6A",
"W$.	c #55504C",
"X$.	c #7C7A70",
"Y$.	c #67675E",
"Z$.	c #8B8073",
"`$.	c #4F4844",
" %.	c #84817F",
".%.	c #6B615C",
"+%.	c #7C7371",
"@%.	c #837C7C",
"#%.	c #928B7D",
"$%.	c #5C554C",
"%%.	c #59564D",
"&%.	c #6D6E65",
"*%.	c #4E4440",
"=%.	c #877D6F",
"-%.	c #74655D",
";%.	c #615F57",
">%.	c #948D8B",
",%.	c #827C6C",
"'%.	c #565146",
")%.	c #958E8A",
"!%.	c #949086",
"~%.	c #817875",
"{%.	c #524E4A",
"]%.	c #89897F",
"^%.	c #514F46",
"/%.	c #63625B",
"(%.	c #918577",
"_%.	c #8A8483",
":%.	c #7D7777",
"<%.	c #9A9692",
"[%.	c #918987",
"}%.	c #897D73",
"|%.	c #776D62",
"1%.	c #554F4C",
"2%.	c #7B776C",
"3%.	c #544F49",
"4%.	c #4C4941",
"5%.	c #655C59",
"6%.	c #54534B",
"7%.	c #968C7E",
"8%.	c #584F4D",
"9%.	c #6F6D6A",
"0%.	c #847D7C",
"a%.	c #96958E",
"b%.	c #5A534B",
"c%.	c #888381",
"d%.	c #625A58",
"e%.	c #929189",
"f%.	c #685F5C",
"g%.	c #58554D",
"h%.	c #47433B",
"i%.	c #908175",
"j%.	c #7A6F5F",
"k%.	c #554B42",
"l%.	c #938B89",
"m%.	c #5B5A53",
"n%.	c #65675E",
"o%.	c #5A5954",
"p%.	c #908885",
"q%.	c #938B7D",
"r%.	c #797567",
"s%.	c #837A77",
"t%.	c #807F7C",
"u%.	c #89877E",
"v%.	c #625E5B",
"w%.	c #766957",
"x%.	c #6D5D52",
"y%.	c #444037",
"z%.	c #453F3C",
"A%.	c #7B7575",
"B%.	c #887F7E",
"C%.	c #95908D",
"D%.	c #454239",
"E%.	c #545149",
"F%.	c #5E5754",
"G%.	c #464039",
"H%.	c #75675A",
"I%.	c #998F82",
"J%.	c #685C57",
"K%.	c #6C6B61",
"L%.	c #A8A89F",
"M%.	c #7F7877",
"N%.	c #858180",
"O%.	c #878884",
"P%.	c #5E5E56",
"Q%.	c #514E48",
"R%.	c #908475",
"S%.	c #756759",
"T%.	c #8D8478",
"U%.	c #8C837E",
"V%.	c #717064",
"W%.	c #8C8D87",
"X%.	c #736B5F",
"Y%.	c #574E4B",
"Z%.	c #62605C",
"`%.	c #4F4C43",
" &.	c #524C49",
".&.	c #48403F",
"+&.	c #4C4842",
"@&.	c #5B5346",
"#&.	c #978B7F",
"$&.	c #6C6A67",
"%&.	c #8A8A85",
"&&.	c #5D5453",
"*&.	c #847C79",
"=&.	c #91918B",
"-&.	c #56554A",
";&.	c #80766D",
">&.	c #4F493F",
",&.	c #928C8A",
"'&.	c #62625B",
")&.	c #8B8B82",
"!&.	c #403938",
"~&.	c #55534E",
"{&.	c #57544C",
"]&.	c #6F6D62",
"^&.	c #6A6864",
"/&.	c #433933",
"(&.	c #96897C",
"_&.	c #8E8375",
":&.	c #534F47",
"<&.	c #7C7C70",
"[&.	c #6A6B63",
"}&.	c #898880",
"|&.	c #4B4542",
"1&.	c #84877F",
"2&.	c #857B6F",
"3&.	c #808279",
"4&.	c #5D5755",
"5&.	c #534C4A",
"6&.	c #7E786E",
"7&.	c #565349",
"8&.	c #39312A",
"9&.	c #565047",
"0&.	c #78796F",
"a&.	c #4E493D",
"b&.	c #7A7162",
"c&.	c #656156",
"d&.	c #909089",
"e&.	c #908986",
"f&.	c #9E9C94",
"g&.	c #6A6965",
"h&.	c #615F55",
"i&.	c #73756F",
"j&.	c #8D8886",
"k&.	c #7D7372",
"l&.	c #4D4A46",
"m&.	c #97968F",
"n&.	c #6A695D",
"o&.	c #444038",
"p&.	c #4A463F",
"q&.	c #938676",
"r&.	c #676760",
"s&.	c #858278",
"t&.	c #555249",
"u&.	c #857F70",
"v&.	c #86796F",
"w&.	c #594E47",
"x&.	c #63645B",
"y&.	c #58564F",
"z&.	c #5E5C58",
"A&.	c #807877",
"B&.	c #514C46",
"C&.	c #515046",
"D&.	c #98988F",
"E&.	c #514942",
"F&.	c #98948D",
"G&.	c #54534D",
"H&.	c #58524F",
"I&.	c #64625F",
"J&.	c #57544F",
"K&.	c #59514E",
"L&.	c #897E71",
"M&.	c #706058",
"N&.	c #595851",
"O&.	c #666559",
"P&.	c #616056",
"Q&.	c #5F5E58",
"R&.	c #504E46",
"S&.	c #49423A",
"T&.	c #3C3632",
"U&.	c #7B7B77",
"V&.	c #5F5850",
"W&.	c #777573",
"X&.	c #4E4D45",
"Y&.	c #67695F",
"Z&.	c #6C6765",
"`&.	c #534D48",
" *.	c #626158",
".*.	c #524C44",
"+*.	c #504D45",
"@*.	c #69645A",
"#*.	c #5A5553",
"$*.	c #514C45",
"%*.	c #53514A",
"&*.	c #676562",
"**.	c #4D4A47",
"=*.	c #534A45",
"-*.	c #868781",
";*.	c #4C4443",
">*.	c #3A332D",
",*.	c #847A6D",
"'*.	c #7E7573",
")*.	c #756D6C",
"!*.	c #5A544F",
"~*.	c #8B817F",
"{*.	c #59564C",
"]*.	c #504C49",
"^*.	c #5C5D54",
"/*.	c #767873",
"(*.	c #8C8C83",
"_*.	c #75756B",
":*.	c #594F4F",
"<*.	c #54524D",
"[*.	c #515049",
"}*.	c #5A5756",
"|*.	c #7C766A",
"1*.	c #544E44",
"2*.	c #686662",
"3*.	c #605D52",
"4*.	c #59514D",
"5*.	c #4B4640",
"6*.	c #6A6A60",
"7*.	c #696B61",
"8*.	c #61594C",
"9*.	c #75685A",
"0*.	c #534E4A",
"a*.	c #8D8683",
"b*.	c #483F3A",
"c*.	c #7A7B75",
"d*.	c #4F4C45",
"e*.	c #656560",
"f*.	c #6C6D68",
"g*.	c #60544D",
"h*.	c #8D827A",
"i*.	c #504D46",
"j*.	c #443E38",
"k*.	c #46423A",
"l*.	c #5C524E",
"m*.	c #554E4B",
"n*.	c #4B443F",
"o*.	c #504944",
"p*.	c #63625A",
"q*.	c #807978",
"r*.	c #555148",
"s*.	c #535047",
"t*.	c #56534E",
"u*.	c #4E473C",
"v*.	c #958778",
"w*.	c #4B473E",
"x*.	c #46443D",
"y*.	c #5A534F",
"z*.	c #616058",
"A*.	c #55504E",
"B*.	c #6B6D68",
"C*.	c #47453F",
"D*.	c #757371",
"E*.	c #5A534C",
"F*.	c #3D3A35",
"G*.	c #65605E",
"H*.	c #7F7F7B",
"I*.	c #48423F",
"J*.	c #484440",
"K*.	c #76756A",
"L*.	c #64635A",
"M*.	c #514F4A",
"N*.	c #786F6A",
"O*.	c #534E4B",
"P*.	c #3B3531",
"Q*.	c #5B5853",
"R*.	c #5B534F",
"S*.	c #5F4F41",
"T*.	c #504A47",
"U*.	c #4C4843",
"V*.	c #4E4C48",
"W*.	c #5A5451",
"X*.	c #65635A",
"Y*.	c #595451",
"Z*.	c #97958E",
"`*.	c #857970",
" =.	c #6F655B",
".=.	c #47413F",
"+=.	c #423C38",
"@=.	c #45403A",
"#=.	c #5F5E53",
"$=.	c #463F3D",
"%=.	c #616057",
"&=.	c #46433B",
"*=.	c #4A4541",
"==.	c #7F7C72",
"-=.	c #5C5A53",
";=.	c #857A6B",
">=.	c #897C6D",
",=.	c #3D3934",
"'=.	c #423E35",
")=.	c #8D8682",
"!=.	c #706663",
"~=.	c #3F392F",
"{=.	c #55534B",
"]=.	c #8F887C",
"^=.	c #57554B",
"/=.	c #544D4A",
"(=.	c #65655D",
"_=.	c #4E4B44",
":=.	c #564F4D",
"<=.	c #938B86",
"[=.	c #524C47",
"}=.	c #595752",
"|=.	c #514F48",
"1=.	c #5F5C59",
"2=.	c #676460",
"3=.	c #55524A",
"4=.	c #3E362F",
"5=.	c #93857A",
"6=.	c #8C8273",
"7=.	c #47423C",
"8=.	c #4D4542",
"9=.	c #4E4C44",
"0=.	c #595750",
"a=.	c #514E49",
"b=.	c #696A64",
"c=.	c #5D5A57",
"d=.	c #66665C",
"e=.	c #757267",
"f=.	c #717166",
"g=.	c #5F5855",
"h=.	c #504A46",
"i=.	c #5E5D55",
"j=.	c #55544C",
"k=.	c #777673",
"l=.	c #585350",
"m=.	c #524E4B",
"n=.	c #5B5A55",
"o=.	c #605F57",
"p=.	c #525146",
"q=.	c #4F4D44",
"r=.	c #594F44",
"s=.	c #968E81",
"t=.	c #48413A",
"u=.	c #97918E",
"v=.	c #676260",
"w=.	c #554D4A",
"x=.	c #49443F",
"y=.	c #514A46",
"z=.	c #6A6A5E",
"A=.	c #7D7878",
"B=.	c #5F5D53",
"C=.	c #76766C",
"D=.	c #524F42",
"E=.	c #756A66",
"F=.	c #494640",
"G=.	c #524D4B",
"H=.	c #5F5A50",
"I=.	c #47453D",
"J=.	c #5A5853",
"K=.	c #48453F",
"L=.	c #4A4540",
"M=.	c #5B5654",
"N=.	c #4E473D",
"O=.	c #494540",
"P=.	c #56544A",
"Q=.	c #504844",
"R=.	c #877E77",
"S=.	c #5C5654",
"T=.	c #8C8A80",
"U=.	c #54524B",
"V=.	c #6A645A",
"W=.	c #625951",
"X=.	c #5A554B",
"Y=.	c #6D6D63",
"Z=.	c #57554E",
"`=.	c #646260",
" -.	c #494741",
".-.	c #585651",
"+-.	c #5D5449",
"@-.	c #7F7267",
"#-.	c #494440",
"$-.	c #5C534C",
"%-.	c #7E7A7A",
"&-.	c #48433D",
"*-.	c #3B3732",
"=-.	c #635B4E",
"--.	c #615752",
";-.	c #5A584F",
">-.	c #58544C",
",-.	c #56534A",
"'-.	c #56554E",
")-.	c #484641",
"!-.	c #5D5655",
"~-.	c #61544C",
"{-.	c #7E7066",
"]-.	c #6D6356",
"^-.	c #4C423C",
"/-.	c #4B4A42",
"(-.	c #575351",
"_-.	c #403B35",
":-.	c #64655C",
"<-.	c #555047",
"[-.	c #4A433F",
"}-.	c #535149",
"|-.	c #796E6B",
"1-.	c #6F6157",
"2-.	c #61554D",
"3-.	c #616158",
"4-.	c #49443E",
"5-.	c #554E4A",
"6-.	c #4C4942",
"7-.	c #6E6463",
"8-.	c #7D7E74",
"9-.	c #5E5445",
"0-.	c #796B5E",
"a-.	c #4E4A47",
"b-.	c #4D483F",
"c-.	c #54544D",
"d-.	c #5D5451",
"e-.	c #8B7F78",
"f-.	c #867871",
"g-.	c #584F49",
"h-.	c #595953",
"i-.	c #44403B",
"j-.	c #6B6C63",
"k-.	c #54514B",
"l-.	c #514E47",
"m-.	c #5C5B57",
"n-.	c #63635B",
"o-.	c #4F4945",
"p-.	c #696055",
"q-.	c #7A7165",
"r-.	c #4B4B44",
"s-.	c #424038",
"t-.	c #544D48",
"u-.	c #969490",
"v-.	c #3F3834",
"w-.	c #493E32",
"x-.	c #978C83",
"y-.	c #60524A",
"z-.	c #655F5D",
"A-.	c #534E49",
"B-.	c #5F595A",
"C-.	c #5A5A53",
"D-.	c #5B5A50",
"E-.	c #4F4D43",
"F-.	c #4B413E",
"G-.	c #58504A",
"H-.	c #686161",
"I-.	c #46433C",
"J-.	c #5E5E55",
"K-.	c #84756A",
"L-.	c #84796D",
"M-.	c #5D5C57",
"N-.	c #716D6B",
"O-.	c #636257",
"P-.	c #675E58",
"Q-.	c #57574F",
"R-.	c #6F6663",
"S-.	c #5E5D51",
"T-.	c #898A83",
"U-.	c #5A5045",
"V-.	c #796E5F",
"W-.	c #656160",
"X-.	c #55514A",
"Y-.	c #7F7F75",
"Z-.	c #746E6D",
"`-.	c #6D665E",
" ;.	c #75695A",
".;.	c #7A6C61",
"+;.	c #5C524D",
"@;.	c #5F5B58",
"#;.	c #8F9089",
"$;.	c #918E85",
"%;.	c #46413B",
"&;.	c #3E3834",
"*;.	c #48453E",
"=;.	c #4E4946",
"-;.	c #514C47",
";;.	c #4B433A",
">;.	c #82766D",
",;.	c #766B5F",
"';.	c #51433D",
");.	c #58544D",
"!;.	c #535049",
"~;.	c #645D5A",
"{;.	c #4A453F",
"];.	c #676061",
"^;.	c #8E8D86",
"/;.	c #4B413B",
"(;.	c #504F48",
"_;.	c #6C6C68",
":;.	c #4F4842",
"<;.	c #38352E",
"[;.	c #867D77",
"};.	c #6A5C4F",
"|;.	c #776B60",
"1;.	c #5A5346",
"2;.	c #595951",
"3;.	c #514D48",
"4;.	c #7F7672",
"5;.	c #635957",
"6;.	c #8E8479",
"7;.	c #5D534A",
"8;.	c #675F5D",
"9;.	c #7D7D72",
"0;.	c #716866",
"a;.	c #534B45",
"b;.	c #777367",
"c;.	c #6B615D",
"d;.	c #645C53",
"e;.	c #948C87",
"f;.	c #29211A",
"g;.	c #594E44",
"h;.	c #716E62",
"i;.	c #665B56",
"j;.	c #726E64",
"k;.	c #44413A",
"l;.	c #4D493E",
"m;.	c #49443B",
"n;.	c #605A4F",
"o;.	c #6A6964",
"p;.	c #68665B",
"q;.	c #6D6E69",
"r;.	c #605752",
"s;.	c #433A31",
"t;.	c #3B352F",
"u;.	c #4F4944",
"v;.	c #493E37",
"w;.	c #2E251A",
"x;.	c #1D180F",
"y;.	c #231810",
"z;.	c #2E251C",
"A;.	c #403831",
"B;.	c #61584F",
"C;.	c #473C34",
"D;.	c #51463E",
"E;.	c #564D49",
"F;.	c #5A504A",
"G;.	c #5B5448",
"H;.	c #574D43",
"I;.	c #4A3D37",
"J;.	c #534C41",
"K;.	c #524940",
"L;.	c #897F72",
"M;.	c #221916",
"N;.	c #1D160D",
"O;.	c #271B14",
"P;.	c #2C251C",
"Q;.	c #332924",
"R;.	c #261F15",
"S;.	c #31271F",
"T;.	c #2D231E",
"U;.	c #312C22",
"V;.	c #3A2F28",
"W;.	c #413B31",
"X;.	c #4D423A",
"Y;.	c #2E2821",
"Z;.	c #2E261F",
"`;.	c #261E18",
" >.	c #281D14",
".>.	c #2B241C",
"+>.	c #2B2119",
"@>.	c #291E16",
"#>.	c #31281E",
"$>.	c #322B22",
"%>.	c #30241D",
"&>.	c #2F2923",
"*>.	c #241A15",
"=>.	c #3F352E",
"->.	c #312721",
";>.	c #50453D",
">>.	c #3F382F",
",>.	c #544B40",
"'>.	c #463B37",
")>.	c #A3A09C",
"!>.	c #9F9891",
"~>.	c #99958D",
"{>.	c #524742",
"]>.	c #342B21",
"^>.	c #534D45",
"/>.	c #574B43",
"(>.	c #1E160D",
"_>.	c #2F2721",
":>.	c #2B231B",
"<>.	c #443D35",
"[>.	c #2E211D",
"}>.	c #221810",
"|>.	c #1D1611",
"1>.	c #261D15",
"2>.	c #231B16",
"3>.	c #352D25",
"4>.	c #2F261D",
"5>.	c #1F170F",
"6>.	c #251A15",
"7>.	c #1C170C",
"8>.	c #241A13",
"9>.	c #261F19",
"0>.	c #342E28",
"a>.	c #1E170C",
"b>.	c #211913",
"c>.	c #281E18",
"d>.	c #272419",
"e>.	c #1E150D",
"f>.	c #19160D",
"g>.	c #1E1511",
"h>.	c #19120C",
"i>.	c #231911",
"j>.	c #282118",
"k>.	c #211B12",
"l>.	c #180D07",
"m>.	c #251A12",
"n>.	c #211811",
"o>.	c #39342F",
"p>.	c #645D51",
"q>.	c #887E76",
"r>.	c #605650",
"s>.	c #958A82",
"t>.	c #55483F",
"u>.	c #271E14",
"v>.	c #211B14",
"w>.	c #241C14",
"x>.	c #1B1006",
"y>.	c #150B03",
"z>.	c #2E261E",
"A>.	c #1C130C",
"B>.	c #2E211B",
"C>.	c #3D332E",
"D>.	c #322F23",
"E>.	c #3B322B",
"F>.	c #231A16",
"G>.	c #383026",
"H>.	c #28201B",
"I>.	c #231E14",
"J>.	c #241B13",
"K>.	c #271E18",
"L>.	c #26211A",
"M>.	c #28231A",
"N>.	c #352925",
"O>.	c #221C15",
"P>.	c #211910",
"Q>.	c #38342A",
"R>.	c #31281F",
"S>.	c #292119",
"T>.	c #1C160B",
"U>.	c #1C140E",
"V>.	c #241911",
"W>.	c #19130B",
"X>.	c #1F1C15",
"Y>.	c #2C231A",
"Z>.	c #1C140C",
"`>.	c #282219",
" ,.	c #251D16",
".,.	c #1F1513",
"+,.	c #231D17",
"@,.	c #1E150E",
"#,.	c #483E35",
"$,.	c #352C24",
"%,.	c #2B231A",
"&,.	c #31291F",
"*,.	c #2A2119",
"=,.	c #2D251E",
"-,.	c #302922",
";,.	c #443D34",
">,.	c #362D2A",
",,.	c #2D221D",
"',.	c #3F3730",
"),.	c #2B211A",
"!,.	c #322821",
"~,.	c #342B26",
"{,.	c #312822",
"],.	c #2B231C",
"^,.	c #231A14",
"/,.	c #28241C",
"(,.	c #352E26",
"_,.	c #201914",
":,.	c #2A2419",
"<,.	c #332F25",
"[,.	c #160F08",
"},.	c #180E09",
"|,.	c #1A1410",
"1,.	c #221914",
"2,.	c #352D26",
"3,.	c #322923",
"4,.	c #1F140B",
"5,.	c #352A22",
"6,.	c #665A55",
"7,.	c #373027",
"8,.	c #362B25",
"9,.	c #594F4B",
"0,.	c #332C27",
"a,.	c #352B28",
"b,.	c #43382F",
"c,.	c #332B25",
"d,.	c #322A22",
"e,.	c #231D16",
"f,.	c #251F15",
"g,.	c #1F1911",
"h,.	c #211A17",
"i,.	c #281F1B",
"j,.	c #6C655A",
"k,.	c #685F50",
"l,.	c #423E37",
"m,.	c #817C6F",
"n,.	c #635A51",
"o,.	c #5B514A",
"p,.	c #766E61",
"q,.	c #62574F",
"r,.	c #90887A",
"s,.	c #797264",
"t,.	c #7F746A",
"u,.	c #7E7368",
"v,.	c #90897B",
"w,.	c #71655E",
"x,.	c #534944",
"y,.	c #493F35",
"z,.	c #716B5E",
"A,.	c #5E5549",
"B,.	c #60594D",
"C,.	c #6C6458",
"D,.	c #999089",
"E,.	c #5B574C",
"F,.	c #514642",
"G,.	c #544941",
"H,.	c #7B7267",
"I,.	c #544B42",
"J,.	c #5A4F48",
"K,.	c #757165",
"L,.	c #7B7365",
"M,.	c #6C6455",
"N,.	c #857C6E",
"O,.	c #645B4F",
"P,.	c #534941",
"Q,.	c #615B51",
"R,.	c #807B71",
"S,.	c #61594D",
"T,.	c #887F77",
"U,.	c #80766F",
"V,.	c #857E71",
"W,.	c #989184",
"X,.	c #928A81",
"Y,.	c #8B8277",
"Z,.	c #5B534C",
"`,.	c #4D4138",
" '.	c #655E53",
".'.	c #4C4639",
"+'.	c #3A312A",
"@'.	c #5B524A",
"#'.	c #7B7168",
"$'.	c #877D73",
"%'.	c #736962",
"&'.	c #7F746D",
"*'.	c #756B63",
"='.	c #736B60",
"-'.	c #81776D",
";'.	c #847D6F",
">'.	c #625754",
",'.	c #7F766F",
"''.	c #726F63",
")'.	c #524D43",
"!'.	c #696358",
"~'.	c #6F685B",
"{'.	c #7C726D",
"]'.	c #605B51",
"^'.	c #5A554A",
"/'.	c #70645E",
"('.	c #857868",
"_'.	c #7C6F62",
":'.	c #675D4E",
"<'.	c #695E56",
"['.	c #524339",
"}'.	c #787063",
"|'.	c #72685B",
"1'.	c #6A6059",
"2'.	c #635A50",
"3'.	c #483D34",
"4'.	c #5A5145",
"5'.	c #655C51",
"6'.	c #5B5044",
"7'.	c #41382D",
"8'.	c #655B4C",
"9'.	c #6E6354",
"0'.	c #73675A",
"a'.	c #7F7065",
"b'.	c #837465",
"c'.	c #6D5E55",
"d'.	c #756B60",
"e'.	c #514639",
"f'.	c #706159",
"g'.	c #675B51",
"h'.	c #837767",
"i'.	c #827568",
"j'.	c #83796F",
"k'.	c #978A7D",
"l'.	c #63554C",
"m'.	c #877B70",
"n'.	c #867F72",
"o'.	c #87796C",
"p'.	c #685A4E",
"q'.	c #827665",
"r'.	c #776960",
"s'.	c #B0A69C",
"t'.	c #655952",
"u'.	c #90877D",
"v'.	c #423C32",
"w'.	c #423C35",
"x'.	c #7E756D",
"y'.	c #62574E",
"z'.	c #83786C",
"A'.	c #81766B",
"B'.	c #8C8776",
"C'.	c #928A7D",
"D'.	c #776C63",
"E'.	c #968D81",
"F'.	c #847970",
"G'.	c #918479",
"H'.	c #8A8174",
"I'.	c #83756A",
"J'.	c #766B60",
"K'.	c #70645A",
"L'.	c #80776A",
"M'.	c #665D4C",
"N'.	c #75685B",
"O'.	c #6F6457",
"P'.	c #72655D",
"Q'.	c #928679",
"R'.	c #958881",
"S'.	c #94867C",
"T'.	c #8A8076",
"U'.	c #968B7E",
"V'.	c #908377",
"W'.	c #81766E",
"X'.	c #766F62",
"Y'.	c #7C7065",
"Z'.	c #817468",
"`'.	c #5A4C40",
" ).	c #8F8479",
".).	c #7B6C63",
"+).	c #776C62",
"@).	c #786E61",
"#).	c #80766E",
"$).	c #887D71",
"%).	c #685E53",
"&).	c #73655E",
"*).	c #81726A",
"=).	c #796F64",
"-).	c #ADA69B",
";).	c #766D5F",
">).	c #50483E",
",).	c #4C483C",
"').	c #4A4136",
")).	c #483E36",
"!).	c #463C35",
"~).	c #473C31",
"{).	c #8D8678",
"]).	c #968C84",
"^).	c #655C50",
"/).	c #786C67",
"().	c #5E594C",
"_).	c #6A6155",
":).	c #74695C",
"<).	c #776A5E",
"[).	c #8B8072",
"}).	c #968A79",
"|).	c #93877A",
"1).	c #91887C",
"2).	c #9B9081",
"3).	c #76685F",
"4).	c #8E8778",
"5).	c #918579",
"6).	c #84776C",
"7).	c #666154",
"8).	c #948D81",
"9).	c #82786D",
"0).	c #8B8075",
"a).	c #7B6D64",
"b).	c #8F8072",
"c).	c #695B52",
"d).	c #6B625A",
"e).	c #73645B",
"f).	c #675B52",
"g).	c #594D44",
"h).	c #494136",
"i).	c #625B4C",
"j).	c #756D62",
"k).	c #796E69",
"l).	c #7A6F67",
"m).	c #524B41",
"n).	c #635D4F",
"o).	c #7D7364",
"p).	c #726458",
"q).	c #6D6357",
"r).	c #5C5247",
"s).	c #4A4033",
"t).	c #756657",
"u).	c #8F8575",
"v).	c #7F7161",
"w).	c #736554",
"x).	c #594E40",
"y).	c #726557",
"z).	c #564B3B",
"A).	c #5C5143",
"B).	c #76675B",
"C).	c #6E6155",
"D).	c #615549",
"E).	c #6C6153",
"F).	c #7A6F61",
"G).	c #716859",
"H).	c #65584C",
"I).	c #897F70",
"J).	c #807366",
"K).	c #87796E",
"L).	c #8D8177",
"M).	c #786C5E",
"N).	c #6A5D4F",
"O).	c #807265",
"P).	c #817567",
"Q).	c #9C8C7F",
"R).	c #9F9382",
"S).	c #9E9183",
"T).	c #8F8171",
"U).	c #A09482",
"V).	c #AFA49A",
"W).	c #978A7C",
"X).	c #9A8E87",
"Y).	c #817667",
"Z).	c #8D8373",
"`).	c #807465",
" !.	c #84796B",
".!.	c #6C6058",
"+!.	c #4F4438",
"@!.	c #877B6B",
"#!.	c #5A4F41",
"$!.	c #908576",
"%!.	c #817665",
"&!.	c #695E4F",
"*!.	c #6E6255",
"=!.	c #736B5D",
"-!.	c #6F6859",
";!.	c #746B5D",
">!.	c #94897B",
",!.	c #81786A",
"'!.	c #948B7B",
")!.	c #988B7F",
"!!.	c #8E7E74",
"~!.	c #AA9F94",
"{!.	c #807767",
"]!.	c #9B8D82",
"^!.	c #908378",
"/!.	c #A49B8E",
"(!.	c #938579",
"_!.	c #8B7E71",
":!.	c #98907E",
"<!.	c #A19788",
"[!.	c #8F8175",
"}!.	c #6B5E53",
"|!.	c #91857C",
"1!.	c #938A7D",
"2!.	c #9E9383",
"3!.	c #827265",
"4!.	c #877F70",
"5!.	c #797061",
"6!.	c #9B9185",
"7!.	c #95837A",
"8!.	c #7B6F63",
"9!.	c #978E82",
"0!.	c #918378",
"a!.	c #85776E",
"b!.	c #6F5F54",
"c!.	c #887D69",
"d!.	c #60544C",
"e!.	c #61594B",
"f!.	c #685A4D",
"g!.	c #8F887E",
"h!.	c #A59F95",
"i!.	c #685A50",
"j!.	c #857669",
"k!.	c #8F8277",
"l!.	c #665D51",
"m!.	c #50433D",
"n!.	c #766E60",
"o!.	c #5F554B",
"p!.	c #71695A",
"q!.	c #84786E",
"r!.	c #5A4F47",
"s!.	c #877970",
"t!.	c #86776D",
"u!.	c #6C6255",
"v!.	c #72675A",
"w!.	c #796E60",
"x!.	c #9D9286",
"y!.	c #64594D",
"z!.	c #847972",
"A!.	c #60564E",
"B!.	c #62544B",
"C!.	c #5A4D42",
"D!.	c #54483D",
"E!.	c #6F635B",
"F!.	c #8E8379",
"G!.	c #605648",
"H!.	c #4A3F33",
"I!.	c #5A4E44",
"J!.	c #524B3F",
"K!.	c #463D38",
"L!.	c #736766",
"M!.	c #413D36",
"N!.	c #635955",
"O!.	c #746962",
"P!.	c #786D65",
"Q!.	c #88807A",
"R!.	c #796F65",
"S!.	c #756C5D",
"T!.	c #9D9188",
"U!.	c #7F7166",
"V!.	c #554D48",
"W!.	c #5A524F",
"X!.	c #595048",
"Y!.	c #5B5C54",
"Z!.	c #746B68",
"`!.	c #52453C",
" ~.	c #4E4B42",
".~.	c #6F645D",
"+~.	c #5E5856",
"@~.	c #413D37",
"#~.	c #554B47",
"$~.	c #5C5149",
"%~.	c #7E7062",
"&~.	c #625855",
"*~.	c #605B50",
"=~.	c #6E6B5F",
"-~.	c #726863",
";~.	c #87796B",
">~.	c #877A6D",
",~.	c #97908F",
"'~.	c #4D453C",
")~.	c #80756E",
"!~.	c #564A3D",
"~~.	c #534F46",
"{~.	c #6E6461",
"]~.	c #4F4C46",
"^~.	c #49453F",
"/~.	c #433D36",
"(~.	c #49423B",
"_~.	c #6B5F54",
":~.	c #706A5E",
"<~.	c #4A443E",
"[~.	c #4F4B44",
"}~.	c #4C4540",
"|~.	c #6F6358",
"1~.	c #7B7D76",
"2~.	c #5A584E",
"3~.	c #4C473F",
"4~.	c #48423E",
"5~.	c #4D433F",
"6~.	c #827767",
"7~.	c #818279",
"8~.	c #49433F",
"9~.	c #8D7F71",
"0~.	c #594D3F",
"a~.	c #5D5450",
"b~.	c #766B69",
"c~.	c #4E4C46",
"d~.	c #443F3C",
"e~.	c #413C37",
"f~.	c #4B4840",
"g~.	c #42403A",
"h~.	c #453F3D",
"i~.	c #4D4D44",
"j~.	c #55534F",
"k~.	c #5C5554",
"l~.	c #776A5F",
"m~.	c #605856",
"n~.	c #5A5250",
"o~.	c #535146",
"p~.	c #51463A",
"q~.	c #978675",
"r~.	c #564E4B",
"s~.	c #68675C",
"t~.	c #45413C",
"u~.	c #504B41",
"v~.	c #605851",
"w~.	c #908D8B",
"x~.	c #554F4B",
"y~.	c #938379",
"z~.	c #665752",
"A~.	c #8B867D",
"B~.	c #97948E",
"C~.	c #595452",
"D~.	c #5B5A51",
"E~.	c #49463F",
"F~.	c #443C37",
"G~.	c #46443B",
"H~.	c #4D4540",
"I~.	c #5A5450",
"J~.	c #6C6055",
"K~.	c #7E7B70",
"L~.	c #838378",
"M~.	c #3D332F",
"N~.	c #7A6E63",
"O~.	c #8B7C6F",
"P~.	c #6E6560",
"Q~.	c #413C39",
"R~.	c #3E3934",
"S~.	c #858580",
"T~.	c #948F8E",
"U~.	c #605146",
"V~.	c #928477",
"W~.	c #38312B",
"X~.	c #5B5451",
"Y~.	c #524F47",
"Z~.	c #47433E",
"`~.	c #37342D",
" {.	c #4D4B43",
".{.	c #96928B",
"+{.	c #4B4541",
"@{.	c #59574D",
"#{.	c #433F39",
"${.	c #57564D",
"%{.	c #86857C",
"&{.	c #726459",
"*{.	c #827368",
"={.	c #554B4A",
"-{.	c #534C49",
";{.	c #7E7F7A",
">{.	c #6D5E50",
",{.	c #97887B",
"'{.	c #4E453B",
"){.	c #A7A39C",
"!{.	c #4E4942",
"~{.	c #524D45",
"{{.	c #433E38",
"]{.	c #8B8A88",
"^{.	c #4F4B45",
"/{.	c #4B4941",
"({.	c #504846",
"_{.	c #5E5551",
":{.	c #70675A",
"<{.	c #625C59",
"[{.	c #4D4A45",
"}{.	c #4A4941",
"|{.	c #403A33",
"1{.	c #534F4B",
"2{.	c #8F8374",
"3{.	c #7A7062",
"4{.	c #4E4741",
"5{.	c #786E6A",
"6{.	c #5D5C52",
"7{.	c #413B35",
"8{.	c #47443F",
"9{.	c #49453D",
"0{.	c #464038",
"a{.	c #48433F",
"b{.	c #66594A",
"c{.	c #4C4238",
"d{.	c #5B5955",
"e{.	c #675B59",
"f{.	c #55504D",
"g{.	c #766C68",
"h{.	c #8C8D84",
"i{.	c #48443E",
"j{.	c #4C4641",
"k{.	c #4C4A43",
"l{.	c #504E48",
"m{.	c #746A62",
"n{.	c #3C3A34",
"o{.	c #79796F",
"p{.	c #7B726B",
"q{.	c #998C80",
"r{.	c #55534A",
"s{.	c #544D45",
"t{.	c #66584C",
"u{.	c #92897D",
"v{.	c #4F413A",
"w{.	c #4E4A42",
"x{.	c #9A9491",
"y{.	c #494840",
"z{.	c #544F4C",
"A{.	c #4B463F",
"B{.	c #46403F",
"C{.	c #504F47",
"D{.	c #453D38",
"E{.	c #4A423F",
"F{.	c #84776B",
"G{.	c #59514F",
"H{.	c #868180",
"I{.	c #67675D",
"J{.	c #4C4840",
"K{.	c #59564A",
"L{.	c #524945",
"M{.	c #93908D",
"N{.	c #494441",
"O{.	c #48443D",
"P{.	c #3E3931",
"Q{.	c #4B4943",
"R{.	c #47403C",
"S{.	c #393631",
"T{.	c #55534D",
"U{.	c #53514C",
"V{.	c #7D7574",
"W{.	c #433D37",
"X{.	c #636259",
"Y{.	c #4C4C44",
"Z{.	c #5C514E",
"`{.	c #564F48",
" ].	c #4E4542",
".].	c #413D39",
"+].	c #746B66",
"@].	c #7F7467",
"#].	c #685E50",
"$].	c #3C3732",
"%].	c #63615E",
"&].	c #575049",
"*].	c #4A443C",
"=].	c #7F7E72",
"-].	c #46433A",
";].	c #58564D",
">].	c #5E5755",
",].	c #93928B",
"'].	c #555349",
")].	c #53524C",
"!].	c #74665D",
"~].	c #595453",
"{].	c #4C4440",
"]].	c #53514D",
"^].	c #544C40",
"/].	c #716757",
"(].	c #4D4745",
"_].	c #7F786F",
":].	c #6D6463",
"<].	c #58514F",
"[].	c #4A4642",
"}].	c #737267",
"|].	c #5B524F",
"1].	c #645B57",
"2].	c #7E7669",
"3].	c #8D8275",
"4].	c #383029",
"5].	c #414139",
"6].	c #413D35",
"7].	c #7D7473",
"8].	c #5E5A50",
"9].	c #3C3A32",
"0].	c #464440",
"a].	c #3B3126",
"b].	c #796D62",
"c].	c #443E3A",
"d].	c #7D6F63",
"e].	c #423E3C",
"f].	c #565148",
"g].	c #555550",
"h].	c #3A362F",
"i].	c #47473D",
"j].	c #525148",
"k].	c #62615B",
"l].	c #57564F",
"m].	c #574F4C",
"n].	c #7D7E75",
"o].	c #453F3B",
"p].	c #756D60",
"q].	c #544B48",
"r].	c #5C5B51",
"s].	c #878981",
"t].	c #918785",
"u].	c #4D4940",
"v].	c #4C4A44",
"w].	c #403B34",
"x].	c #635F54",
"y].	c #85857C",
"z].	c #707068",
"A].	c #584D40",
"B].	c #706556",
"C].	c #7A7065",
"D].	c #46413A",
"E].	c #4B4540",
"F].	c #6D645F",
"G].	c #57504E",
"H].	c #545247",
"I].	c #6E6D61",
"J].	c #94897D",
"K].	c #484340",
"L].	c #4A483E",
"M].	c #65655B",
"N].	c #888983",
"O].	c #463F37",
"P].	c #6E6561",
"Q].	c #544740",
"R].	c #807568",
"S].	c #544B47",
"T].	c #58554B",
"U].	c #4A4D41",
"V].	c #3F3934",
"W].	c #4E4B43",
"X].	c #545246",
"Y].	c #5D5452",
"Z].	c #4A4235",
"`].	c #45413B",
" ^.	c #524B44",
".^.	c #5D5856",
"+^.	c #4E4846",
"@^.	c #504640",
"#^.	c #55544B",
"$^.	c #4A473E",
"%^.	c #424039",
"&^.	c #56574F",
"*^.	c #7C6E61",
"=^.	c #605651",
"-^.	c #4A443D",
";^.	c #3F3A33",
">^.	c #524845",
",^.	c #524E49",
"'^.	c #857A6C",
")^.	c #8D8374",
"!^.	c #493F36",
"~^.	c #948C88",
"{^.	c #7C736E",
"]^.	c #443F38",
"^^.	c #988F8B",
"/^.	c #92918A",
"(^.	c #413B34",
"_^.	c #615749",
":^.	c #4C463F",
"<^.	c #46433E",
"[^.	c #7C7161",
"}^.	c #8E827B",
"|^.	c #64645B",
"1^.	c #4C4945",
"2^.	c #5C584F",
"3^.	c #605F56",
"4^.	c #4F4539",
"5^.	c #94938D",
"6^.	c #4D4742",
"7^.	c #4F4947",
"8^.	c #514B49",
"9^.	c #585752",
"0^.	c #4A3D34",
"a^.	c #555147",
"b^.	c #564E49",
"c^.	c #4F4D45",
"d^.	c #6F6760",
"e^.	c #55524D",
"f^.	c #695D4F",
"g^.	c #4F4A3D",
"h^.	c #48443F",
"i^.	c #413830",
"j^.	c #71655A",
"k^.	c #474138",
"l^.	c #5F5E55",
"m^.	c #45423C",
"n^.	c #64594E",
"o^.	c #7C6F66",
"p^.	c #7A6D60",
"q^.	c #615951",
"r^.	c #514A47",
"s^.	c #45413D",
"t^.	c #6E6360",
"u^.	c #6C6D66",
"v^.	c #5B5754",
"w^.	c #53504A",
"x^.	c #3F3A35",
"y^.	c #8B857D",
"z^.	c #665B4D",
"A^.	c #7F7769",
"B^.	c #453C33",
"C^.	c #77776B",
"D^.	c #5B5553",
"E^.	c #453E3B",
"F^.	c #656256",
"G^.	c #6A685C",
"H^.	c #4F4845",
"I^.	c #4F4D47",
"J^.	c #7D7E76",
"K^.	c #817569",
"L^.	c #807768",
"M^.	c #7D7465",
"N^.	c #4C4542",
"O^.	c #584D48",
"P^.	c #46403A",
"Q^.	c #504C47",
"R^.	c #898179",
"S^.	c #5E5450",
"T^.	c #574E4C",
"U^.	c #756D5E",
"V^.	c #575147",
"W^.	c #564D46",
"X^.	c #45423A",
"Y^.	c #646156",
"Z^.	c #514B48",
"`^.	c #59554B",
" /.	c #757770",
"./.	c #5A5950",
"+/.	c #746B69",
"@/.	c #4D4B44",
"#/.	c #433F38",
"$/.	c #544F47",
"%/.	c #7B796E",
"&/.	c #6C6A60",
"*/.	c #534E45",
"=/.	c #888281",
"-/.	c #8B8275",
";/.	c #7F7468",
">/.	c #504641",
",/.	c #5A514D",
"'/.	c #635A52",
")/.	c #5E534D",
"!/.	c #4C4943",
"~/.	c #4B4441",
"{/.	c #464034",
"]/.	c #413935",
"^/.	c #3F3833",
"//.	c #3E3633",
"(/.	c #58574F",
"_/.	c #655D55",
":/.	c #4B4641",
"</.	c #5C5B56",
"[/.	c #6B695E",
"}/.	c #5A5951",
"|/.	c #4D4746",
"1/.	c #4E4A45",
"2/.	c #857C6F",
"3/.	c #5A504D",
"4/.	c #545147",
"5/.	c #4C483F",
"6/.	c #4F4C49",
"7/.	c #504C48",
"8/.	c #4D433D",
"9/.	c #49473F",
"0/.	c #706457",
"a/.	c #92847A",
"b/.	c #807773",
"c/.	c #525049",
"d/.	c #564F4C",
"e/.	c #47433F",
"f/.	c #6C695E",
"g/.	c #5F5552",
"h/.	c #5E5C52",
"i/.	c #4F4542",
"j/.	c #4B453B",
"k/.	c #3F3B34",
"l/.	c #56554F",
"m/.	c #504E47",
"n/.	c #433F35",
"o/.	c #443E3C",
"p/.	c #514C49",
"q/.	c #635852",
"r/.	c #7E7166",
"s/.	c #797169",
"t/.	c #524E44",
"u/.	c #5D5956",
"v/.	c #666260",
"w/.	c #73655A",
"x/.	c #888074",
"y/.	c #534845",
"z/.	c #5C5D53",
"A/.	c #918E8A",
"B/.	c #4A4840",
"C/.	c #473E39",
"D/.	c #897D74",
"E/.	c #575044",
"F/.	c #7D756D",
"G/.	c #504B47",
"H/.	c #7B7B71",
"I/.	c #463F3A",
"J/.	c #877B6D",
"K/.	c #423A36",
"L/.	c #403A34",
"M/.	c #3D3930",
"N/.	c #4D463D",
"O/.	c #58504D",
"P/.	c #555248",
"Q/.	c #423C39",
"R/.	c #49473D",
"S/.	c #4C4B43",
"T/.	c #473F3A",
"U/.	c #4D4744",
"V/.	c #4A4741",
"W/.	c #4F463D",
"X/.	c #403E35",
"Y/.	c #4A4843",
"Z/.	c #3A342F",
"`/.	c #757166",
" (.	c #756E62",
".(.	c #4B4843",
"+(.	c #716456",
"@(.	c #594F4A",
"#(.	c #4A473F",
"$(.	c #585248",
"%(.	c #675D5C",
"&(.	c #48423C",
"*(.	c #504743",
"=(.	c #887D7C",
"-(.	c #796A5C",
";(.	c #534A42",
">(.	c #57564E",
",(.	c #79766B",
"'(.	c #4E4D44",
")(.	c #5A5549",
"!(.	c #49463D",
"~(.	c #757266",
"{(.	c #696058",
"](.	c #45423B",
"^(.	c #5C5A50",
"/(.	c #55524E",
"((.	c #807468",
"_(.	c #8C8372",
":(.	c #8D7F72",
"<(.	c #515048",
"[(.	c #4A4641",
"}(.	c #474039",
"|(.	c #646356",
"1(.	c #47443B",
"2(.	c #524A43",
"3(.	c #39332E",
"4(.	c #9B9181",
"5(.	c #42392D",
"6(.	c #48423D",
"7(.	c #726D62",
"8(.	c #46423D",
"9(.	c #4D4944",
"0(.	c #4B473F",
"a(.	c #7E7570",
"b(.	c #3B3530",
"c(.	c #4B4543",
"d(.	c #6B6154",
"e(.	c #3C3832",
"f(.	c #474139",
"g(.	c #413C35",
"h(.	c #46403D",
"i(.	c #534946",
"j(.	c #4D4741",
"k(.	c #837A76",
"l(.	c #584C42",
"m(.	c #4A4640",
"n(.	c #4E463F",
"o(.	c #403D36",
"p(.	c #434039",
"q(.	c #36302E",
"r(.	c #726A69",
"s(.	c #646359",
"t(.	c #6D6256",
"u(.	c #5F5650",
"v(.	c #504E44",
"w(.	c #57564C",
"x(.	c #72736E",
"y(.	c #48413D",
"z(.	c #65645C",
"A(.	c #675E51",
"B(.	c #433D32",
"C(.	c #504847",
"D(.	c #433C37",
"E(.	c #636156",
"F(.	c #60584F",
"G(.	c #424037",
"H(.	c #53534A",
"I(.	c #605854",
"J(.	c #48423A",
"K(.	c #534E43",
"L(.	c #796F66",
"M(.	c #59594F",
"N(.	c #484741",
"O(.	c #66615F",
"P(.	c #4D4942",
"Q(.	c #75675E",
"R(.	c #73665B",
"S(.	c #453E38",
"T(.	c #545046",
"U(.	c #8B827E",
"V(.	c #5C5755",
"W(.	c #514C40",
"X(.	c #4F4C41",
"Y(.	c #4C493F",
"Z(.	c #49463E",
"`(.	c #504A42",
" _.	c #4F4946",
"._.	c #555450",
"+_.	c #4B4744",
"@_.	c #54524C",
"#_.	c #505049",
"$_.	c #5F5147",
"%_.	c #47433C",
"&_.	c #4F4B47",
"*_.	c #958F87",
"=_.	c #666255",
"-_.	c #4C4B41",
";_.	c #7B7262",
">_.	c #665B4E",
",_.	c #454039",
"'_.	c #524F4A",
")_.	c #626155",
"!_.	c #7E7D72",
"~_.	c #34302C",
"{_.	c #4B4642",
"]_.	c #4F4E46",
"^_.	c #776B5F",
"/_.	c #544C49",
"(_.	c #514F49",
"__.	c #786B61",
":_.	c #675A52",
"<_.	c #4E4642",
"[_.	c #524E45",
"}_.	c #514D43",
"|_.	c #443F37",
"1_.	c #49453E",
"2_.	c #66675D",
"3_.	c #575550",
"4_.	c #504C44",
"5_.	c #6E6257",
"6_.	c #534D49",
"7_.	c #5F5C51",
"8_.	c #5D594F",
"9_.	c #504D48",
"0_.	c #5C5352",
"a_.	c #5D5B51",
"b_.	c #615D53",
"c_.	c #69695E",
"d_.	c #76685E",
"e_.	c #4E4D47",
"f_.	c #423F38",
"g_.	c #39352D",
"h_.	c #4A433B",
"i_.	c #4C473E",
"j_.	c #605753",
"k_.	c #908D83",
"l_.	c #5C514D",
"m_.	c #4D4543",
"n_.	c #444139",
"o_.	c #5B534E",
"p_.	c #7B786D",
"q_.	c #59514A",
"r_.	c #443F39",
"s_.	c #6F6662",
"t_.	c #5C5B52",
"u_.	c #433E39",
"v_.	c #453F36",
"w_.	c #787062",
"x_.	c #534F45",
"y_.	c #5E5756",
"z_.	c #73685A",
"A_.	c #4B4741",
"B_.	c #554D43",
"C_.	c #534A47",
"D_.	c #4C4B44",
"E_.	c #433F3C",
"F_.	c #423D39",
"G_.	c #3E3C34",
"H_.	c #4E4744",
"I_.	c #655B4F",
"J_.	c #544A43",
"K_.	c #67605F",
"L_.	c #494641",
"M_.	c #403C36",
"N_.	c #403B38",
"O_.	c #403D35",
"P_.	c #70655E",
"Q_.	c #535246",
"R_.	c #55514D",
"S_.	c #5C5653",
"T_.	c #46443C",
"U_.	c #59564B",
"V_.	c #887C6C",
"W_.	c #62524A",
"X_.	c #7C756A",
"Y_.	c #47453C",
"Z_.	c #473E38",
"`_.	c #797168",
" :.	c #85857B",
".:.	c #4E453F",
"+:.	c #4E4540",
"@:.	c #67594E",
"#:.	c #5C4F47",
"$:.	c #45413A",
"%:.	c #3F3B35",
"&:.	c #675D5A",
"*:.	c #6B6558",
"=:.	c #423D37",
"-:.	c #5A5655",
";:.	c #45443C",
">:.	c #6A5B4E",
",:.	c #595145",
"':.	c #504E45",
"):.	c #4E4644",
"!:.	c #69685D",
"~:.	c #545248",
"{:.	c #413A32",
"]:.	c #49413E",
"^:.	c #625C4F",
"/:.	c #3E3933",
"(:.	c #5A5754",
"_:.	c #534D4C",
"::.	c #554C46",
"<:.	c #838278",
"[:.	c #4E4B47",
"}:.	c #606059",
"|:.	c #595850",
"1:.	c #7B7066",
"2:.	c #7B6D63",
"3:.	c #50493F",
"4:.	c #352F29",
"5:.	c #7F7673",
"6:.	c #6C6C62",
"7:.	c #48433A",
"8:.	c #46433F",
"9:.	c #4B403B",
"0:.	c #5B5045",
"a:.	c #48483C",
"b:.	c #4A4842",
"c:.	c #423B39",
"d:.	c #524F46",
"e:.	c #47443E",
"f:.	c #584E4B",
"g:.	c #5A5552",
"h:.	c #4B4A43",
"i:.	c #494339",
"j:.	c #585250",
"k:.	c #665A4E",
"l:.	c #4C4845",
"m:.	c #3F3D36",
"n:.	c #62574C",
"o:.	c #413C33",
"p:.	c #433F34",
"q:.	c #423D33",
"r:.	c #484138",
"s:.	c #47423A",
"t:.	c #524843",
"u:.	c #362F28",
"v:.	c #3E372E",
"w:.	c #4E493F",
"x:.	c #40342D",
"y:.	c #7D7467",
"z:.	c #413A33",
"A:.	c #342D22",
"B:.	c #675D5B",
"C:.	c #4D443F",
"D:.	c #4C4541",
"E:.	c #443D39",
"F:.	c #464139",
"G:.	c #38352D",
"H:.	c #655C5A",
"I:.	c #665C5A",
"J:.	c #4E4D43",
"K:.	c #7A6D61",
"L:.	c #61564A",
"M:.	c #554F44",
"N:.	c #6F655E",
"O:.	c #3B3028",
"P:.	c #342B22",
"Q:.	c #3A3128",
"R:.	c #342E26",
"S:.	c #251B13",
"T:.	c #352B23",
"U:.	c #332B22",
"V:.	c #2D261E",
"W:.	c #201812",
"X:.	c #21170E",
"Y:.	c #261F16",
"Z:.	c #21170F",
"`:.	c #221B0F",
" <.	c #3D362D",
".<.	c #332E27",
"+<.	c #383127",
"@<.	c #30291F",
"#<.	c #2B2319",
"$<.	c #2C201B",
"%<.	c #382D24",
"&<.	c #281D19",
"*<.	c #211911",
"=<.	c #20170F",
"-<.	c #2A2117",
";<.	c #2C251A",
"><.	c #20160F",
",<.	c #1C160C",
"'<.	c #201814",
")<.	c #201A12",
"!<.	c #312922",
"~<.	c #332D28",
"{<.	c #5E524C",
"]<.	c #3D3128",
"^<.	c #292218",
"/<.	c #2E251E",
"(<.	c #3E342E",
"_<.	c #4C4340",
":<.	c #281E16",
"<<.	c #3B332A",
"[<.	c #4C463B",
"}<.	c #332E24",
"|<.	c #362E25",
"1<.	c #373228",
"2<.	c #30261D",
"3<.	c #352E2A",
"4<.	c #3A332E",
"5<.	c #5E544C",
"6<.	c #574C47",
"7<.	c #382F2C",
"8<.	c #686155",
"9<.	c #6B5E57",
"0<.	c #8C8278",
"a<.	c #979185",
"b<.	c #796F68",
"c<.	c #635954",
"d<.	c #6D645A",
"e<.	c #372E28",
"f<.	c #2C221C",
"g<.	c #2E231F",
"h<.	c #3D372E",
"i<.	c #464238",
"j<.	c #3F342D",
"k<.	c #2D261C",
"l<.	c #1A130B",
"m<.	c #2A211A",
"n<.	c #39322B",
"o<.	c #2D261D",
"p<.	c #2C2720",
"q<.	c #2A231A",
"r<.	c #38312C",
"s<.	c #2C251B",
"t<.	c #352F28",
"u<.	c #474035",
"v<.	c #4C4339",
"w<.	c #594E48",
"x<.	c #362D25",
"y<.	c #3B312C",
"z<.	c #373229",
"A<.	c #666055",
"B<.	c #4D4440",
"C<.	c #3E372D",
"D<.	c #352B26",
"E<.	c #3A322B",
"F<.	c #443E36",
"G<.	c #463C33",
"H<.	c #392F26",
"I<.	c #3B342D",
"J<.	c #241E15",
"K<.	c #312924",
"L<.	c #2A241F",
"M<.	c #2C231B",
"N<.	c #332C21",
"O<.	c #393228",
"P<.	c #837C75",
"Q<.	c #868176",
"R<.	c #433C33",
"S<.	c #6E635D",
"T<.	c #3F3830",
"U<.	c #594E4B",
"V<.	c #413C36",
"W<.	c #443731",
"X<.	c #584B43",
"Y<.	c #746A5D",
"Z<.	c #736A5D",
"`<.	c #50453E",
" [.	c #3B342E",
".[.	c #837772",
"+[.	c #545045",
"@[.	c #3D352C",
"#[.	c #544D42",
"$[.	c #635A4F",
"%[.	c #595046",
"&[.	c #645650",
"*[.	c #686054",
"=[.	c #584E48",
"-[.	c #6D635C",
";[.	c #5D564A",
">[.	c #6A5D58",
",[.	c #575046",
"'[.	c #777064",
")[.	c #5A5049",
"![.	c #4E463A",
"~[.	c #675E52",
"{[.	c #61564F",
"][.	c #403530",
"^[.	c #4E443A",
"/[.	c #6B695C",
"([.	c #7D736E",
"_[.	c #686357",
":[.	c #9D948D",
"<[.	c #837770",
"[[.	c #6A5F59",
"}[.	c #4D493D",
"|[.	c #453B31",
"1[.	c #8B8475",
"2[.	c #6D5F53",
"3[.	c #A39F94",
"4[.	c #8D8475",
"5[.	c #877E70",
"6[.	c #6B6459",
"7[.	c #453C34",
"8[.	c #5B4F4C",
"9[.	c #7A7567",
"0[.	c #7A6E67",
"a[.	c #837D70",
"b[.	c #635851",
"c[.	c #7D7A6D",
"d[.	c #7B7369",
"e[.	c #7D736A",
"f[.	c #5F584E",
"g[.	c #787064",
"h[.	c #978D81",
"i[.	c #49463C",
"j[.	c #5C524B",
"k[.	c #595449",
"l[.	c #544F42",
"m[.	c #766D67",
"n[.	c #696559",
"o[.	c #585146",
"p[.	c #514842",
"q[.	c #554F45",
"r[.	c #6C675B",
"s[.	c #685D57",
"t[.	c #7B6B5E",
"u[.	c #52473A",
"v[.	c #685A4F",
"w[.	c #7F7465",
"x[.	c #564A3C",
"y[.	c #7F7066",
"z[.	c #6F6153",
"A[.	c #75655C",
"B[.	c #61554A",
"C[.	c #6C6356",
"D[.	c #605447",
"E[.	c #7D7063",
"F[.	c #867A6B",
"G[.	c #84786B",
"H[.	c #7A6C60",
"I[.	c #7A6D63",
"J[.	c #5B4F47",
"K[.	c #635B4F",
"L[.	c #65594D",
"M[.	c #4C3F36",
"N[.	c #655F53",
"O[.	c #575146",
"P[.	c #8D8378",
"Q[.	c #53463F",
"R[.	c #463E38",
"S[.	c #3A2D26",
"T[.	c #50463C",
"U[.	c #8E8178",
"V[.	c #6E6057",
"W[.	c #8D7E73",
"X[.	c #8D8076",
"Y[.	c #8B8078",
"Z[.	c #64574A",
"`[.	c #998C7F",
" }.	c #7A6D62",
".}.	c #5B4F48",
"+}.	c #6F6259",
"@}.	c #A0978D",
"#}.	c #594C3F",
"$}.	c #6A5D55",
"%}.	c #594B41",
"&}.	c #665A52",
"*}.	c #9E9385",
"=}.	c #78695C",
"-}.	c #99887E",
";}.	c #7C6B5E",
">}.	c #928574",
",}.	c #918475",
"'}.	c #8A7B6E",
")}.	c #8E8173",
"!}.	c #8D8778",
"~}.	c #998C7B",
"{}.	c #6D6458",
"]}.	c #8F8378",
"^}.	c #8B7F74",
"/}.	c #807466",
"(}.	c #7F7268",
"_}.	c #6F6656",
":}.	c #7D7566",
"<}.	c #8E8376",
"[}.	c #877F71",
"}}.	c #93877B",
"|}.	c #8E7F73",
"1}.	c #86796A",
"2}.	c #8A7D75",
"3}.	c #5A4F44",
"4}.	c #6F6559",
"5}.	c #726559",
"6}.	c #615248",
"7}.	c #6F6557",
"8}.	c #615449",
"9}.	c #43392F",
"0}.	c #564E40",
"a}.	c #73675B",
"b}.	c #665B4C",
"c}.	c #857B6C",
"d}.	c #7B7166",
"e}.	c #50463A",
"f}.	c #5D534C",
"g}.	c #827870",
"h}.	c #5C4E42",
"i}.	c #5B4F40",
"j}.	c #5C5146",
"k}.	c #817469",
"l}.	c #8B816F",
"m}.	c #8C8174",
"n}.	c #837769",
"o}.	c #897E73",
"p}.	c #9B8D83",
"q}.	c #8A8273",
"r}.	c #7F7067",
"s}.	c #83796E",
"t}.	c #7E7567",
"u}.	c #857A6E",
"v}.	c #796E67",
"w}.	c #62584D",
"x}.	c #7B7162",
"y}.	c #877C72",
"z}.	c #776C5D",
"A}.	c #85796B",
"B}.	c #655D51",
"C}.	c #7E7065",
"D}.	c #827769",
"E}.	c #71645A",
"F}.	c #615546",
"G}.	c #65574B",
"H}.	c #6D6253",
"I}.	c #655C4E",
"J}.	c #574942",
"K}.	c #72665D",
"L}.	c #60574A",
"M}.	c #6B6455",
"N}.	c #766A5D",
"O}.	c #74675F",
"P}.	c #4B3F32",
"Q}.	c #625649",
"R}.	c #64574D",
"S}.	c #7B6C5E",
"T}.	c #554A3E",
"U}.	c #5A4D43",
"V}.	c #70675B",
"W}.	c #645750",
"X}.	c #5A4D46",
"Y}.	c #40362C",
"Z}.	c #8E8274",
"`}.	c #4F4439",
" |.	c #4D4239",
".|.	c #5A4F43",
"+|.	c #5C4F49",
"@|.	c #453931",
"#|.	c #675C52",
"$|.	c #4C4739",
"%|.	c #73675F",
"&|.	c #625750",
"*|.	c #554D40",
"=|.	c #746A60",
"-|.	c #615A4D",
";|.	c #63594D",
">|.	c #5D5147",
",|.	c #4F443C",
"'|.	c #625653",
")|.	c #453E35",
"!|.	c #574E44",
"~|.	c #544840",
"{|.	c #3A352C",
"]|.	c #454035",
"^|.	c #514640",
"/|.	c #625B4E",
"(|.	c #5E564A",
"_|.	c #7F736D",
":|.	c #6D6254",
"<|.	c #867C6F",
"[|.	c #786A5F",
"}|.	c #524E41",
"||.	c #6D6358",
"1|.	c #74685F",
"2|.	c #867A70",
"3|.	c #4F433B",
"4|.	c #625854",
"5|.	c #675C55",
"6|.	c #5A5147",
"7|.	c #6C605B",
"8|.	c #5F564A",
"9|.	c #8B7E72",
"0|.	c #786F60",
"a|.	c #7A6A5F",
"b|.	c #766D5E",
"c|.	c #7F7368",
"d|.	c #766A5E",
"e|.	c #6F6255",
"f|.	c #6A5A52",
"g|.	c #473D34",
"h|.	c #675A53",
"i|.	c #5E5248",
"j|.	c #625B4F",
"k|.	c #8E8072",
"l|.	c #86786D",
"m|.	c #897D70",
"n|.	c #7F7163",
"o|.	c #736656",
"p|.	c #7C6E63",
"q|.	c #504239",
"r|.	c #786A61",
"s|.	c #5E5349",
"t|.	c #6C5E54",
"u|.	c #74665A",
"v|.	c #6A5B4F",
"w|.	c #372F2A",
"x|.	c #6D5F54",
"y|.	c #655F55",
"z|.	c #4F4841",
"A|.	c #453F39",
"B|.	c #716760",
"C|.	c #665D57",
"D|.	c #4B3D39",
"E|.	c #635953",
"F|.	c #615C51",
"G|.	c #433D34",
"H|.	c #3E3632",
"I|.	c #5B4E49",
"J|.	c #4C423F",
"K|.	c #5F5B50",
"L|.	c #3D3830",
"M|.	c #38362D",
"N|.	c #81786C",
"O|.	c #4E4643",
"P|.	c #978E85",
"Q|.	c #3B342C",
"R|.	c #5A504C",
"S|.	c #48453D",
"T|.	c #423B36",
"U|.	c #4D4845",
"V|.	c #504742",
"W|.	c #47413D",
"X|.	c #52463C",
"Y|.	c #61544A",
"Z|.	c #443C35",
"`|.	c #534A48",
" 1.	c #766D6A",
".1.	c #49423D",
"+1.	c #3D3A34",
"@1.	c #3C3933",
"#1.	c #504746",
"$1.	c #44403A",
"%1.	c #504F49",
"&1.	c #5E5142",
"*1.	c #55483C",
"=1.	c #676558",
"-1.	c #473E3B",
";1.	c #48403B",
">1.	c #3E3A33",
",1.	c #48473E",
"'1.	c #4E4E45",
")1.	c #4F4C48",
"!1.	c #494740",
"~1.	c #403D37",
"{1.	c #423D3A",
"]1.	c #3F3935",
"^1.	c #4D4C44",
"/1.	c #413D38",
"(1.	c #5A514F",
"_1.	c #504E49",
":1.	c #493F37",
"<1.	c #413831",
"[1.	c #524F4B",
"}1.	c #4E4B45",
"|1.	c #525046",
"11.	c #574E49",
"21.	c #4B433F",
"31.	c #52463E",
"41.	c #47423B",
"51.	c #564C49",
"61.	c #433D38",
"71.	c #45433C",
"81.	c #585551",
"91.	c #4C4A42",
"01.	c #494340",
"a1.	c #4A463B",
"b1.	c #3F3A34",
"c1.	c #5D5A51",
"d1.	c #45403C",
"e1.	c #5F534C",
"f1.	c #796F5D",
"g1.	c #5B4E46",
"h1.	c #554B4B",
"i1.	c #3C3532",
"j1.	c #595552",
"k1.	c #6C6B60",
"l1.	c #433F3B",
"m1.	c #39362E",
"n1.	c #5C5546",
"o1.	c #56564C",
"p1.	c #2F2A24",
"q1.	c #403D39",
"r1.	c #423E39",
"s1.	c #4D4945",
"t1.	c #3A3530",
"u1.	c #4B4135",
"v1.	c #534B3C",
"w1.	c #625550",
"x1.	c #48453C",
"y1.	c #3F3932",
"z1.	c #665D56",
"A1.	c #676559",
"B1.	c #968C87",
"C1.	c #514F44",
"D1.	c #52524B",
"E1.	c #4E4C43",
"F1.	c #403D38",
"G1.	c #3E3A34",
"H1.	c #403C37",
"I1.	c #504B48",
"J1.	c #44443C",
"K1.	c #514742",
"L1.	c #38342D",
"M1.	c #5E5747",
"N1.	c #5A5146",
"O1.	c #36342E",
"P1.	c #48463E",
"Q1.	c #98938D",
"R1.	c #B3ADA5",
"S1.	c #403E36",
"T1.	c #67685E",
"U1.	c #413A39",
"V1.	c #55544D",
"W1.	c #46443E",
"X1.	c #635A57",
"Y1.	c #706E63",
"Z1.	c #453D3B",
"`1.	c #4C4137",
" 2.	c #4D4640",
".2.	c #443F3B",
"+2.	c #4C443E",
"@2.	c #5F5D54",
"#2.	c #58504E",
"$2.	c #56504E",
"%2.	c #58574D",
"&2.	c #53524A",
"*2.	c #776E6B",
"=2.	c #51463B",
"-2.	c #5B5148",
";2.	c #434036",
">2.	c #6F6563",
",2.	c #3B362F",
"'2.	c #403F33",
")2.	c #4B4842",
"!2.	c #5B5B54",
"~2.	c #413E36",
"{2.	c #46453A",
"]2.	c #4C4437",
"^2.	c #64645E",
"/2.	c #48443B",
"(2.	c #595351",
"_2.	c #43403C",
":2.	c #47453E",
"<2.	c #4B443E",
"[2.	c #534E4D",
"}2.	c #4B4038",
"|2.	c #454138",
"12.	c #463D3A",
"22.	c #5B5A52",
"32.	c #34312A",
"42.	c #514E45",
"52.	c #584F4C",
"62.	c #443C31",
"72.	c #4A453C",
"82.	c #46443F",
"92.	c #484442",
"02.	c #453C36",
"a2.	c #4A3F3A",
"b2.	c #4D493F",
"c2.	c #4A4338",
"d2.	c #6B6054",
"e2.	c #64645A",
"f2.	c #423F35",
"g2.	c #444138",
"h2.	c #605B4D",
"i2.	c #61605B",
"j2.	c #58514E",
"k2.	c #444039",
"l2.	c #5F5451",
"m2.	c #5A504E",
"n2.	c #796C60",
"o2.	c #433D35",
"p2.	c #483F3B",
"q2.	c #635B5C",
"r2.	c #7C7168",
"s2.	c #7D7371",
"t2.	c #4F4743",
"u2.	c #55504F",
"v2.	c #6D6C60",
"w2.	c #484341",
"x2.	c #4E4B46",
"y2.	c #453D36",
"z2.	c #4F473E",
"A2.	c #3D382F",
"B2.	c #4A413D",
"C2.	c #625853",
"D2.	c #3E3932",
"E2.	c #423B37",
"F2.	c #3B3830",
"G2.	c #616159",
"H2.	c #7A7B71",
"I2.	c #423E3A",
"J2.	c #4F4B49",
"K2.	c #4A4643",
"L2.	c #4B4742",
"M2.	c #5B504D",
"N2.	c #47443C",
"O2.	c #7B6F69",
"P2.	c #6B5D53",
"Q2.	c #565449",
"R2.	c #48443C",
"S2.	c #6B605D",
"T2.	c #44403C",
"U2.	c #6D6E68",
"V2.	c #4A4543",
"W2.	c #6B675C",
"X2.	c #5A5A4F",
"Y2.	c #4E4B40",
"Z2.	c #4D483E",
"`2.	c #3B3731",
" 3.	c #5F5E54",
".3.	c #5C5347",
"+3.	c #8E867C",
"@3.	c #5C5855",
"#3.	c #403C35",
"$3.	c #544F45",
"%3.	c #605652",
"&3.	c #6E6657",
"*3.	c #574C45",
"=3.	c #483F3D",
"-3.	c #4B4944",
";3.	c #4B4841",
">3.	c #525149",
",3.	c #5B5452",
"'3.	c #5A564B",
")3.	c #615F5B",
"!3.	c #5A5653",
"~3.	c #5F5A58",
"{3.	c #625E53",
"]3.	c #504E4B",
"^3.	c #49423C",
"/3.	c #574F4D",
"(3.	c #4A403C",
"_3.	c #666157",
":3.	c #544B4A",
"<3.	c #5B5048",
"[3.	c #4B483D",
"}3.	c #433E3A",
"|3.	c #4D4A40",
"13.	c #625E5C",
"23.	c #4A4742",
"33.	c #55554D",
"43.	c #5E595A",
"53.	c #585451",
"63.	c #43403B",
"73.	c #3D3932",
"83.	c #53483D",
"93.	c #473F3B",
"03.	c #555449",
"a3.	c #645852",
"b3.	c #6F645A",
"c3.	c #66685E",
"d3.	c #564F4E",
"e3.	c #3A3430",
"f3.	c #564D48",
"g3.	c #47433A",
"h3.	c #47413E",
"i3.	c #3C3229",
"j3.	c #695D50",
"k3.	c #52473D",
"l3.	c #605E53",
"m3.	c #595853",
"n3.	c #4F4D46",
"o3.	c #484036",
"p3.	c #55544E",
"q3.	c #494542",
"r3.	c #4C4B45",
"s3.	c #53544B",
"t3.	c #584E3F",
"u3.	c #62554C",
"v3.	c #747368",
"w3.	c #5B5350",
"x3.	c #565250",
"y3.	c #88837A",
"z3.	c #4E4B3F",
"A3.	c #4A4137",
"B3.	c #6C6A69",
"C3.	c #6D6A68",
"D3.	c #4B4544",
"E3.	c #5C594E",
"F3.	c #3A362D",
"G3.	c #433B39",
"H3.	c #5D5046",
"I3.	c #53504B",
"J3.	c #463E33",
"K3.	c #46433D",
"L3.	c #6D6A5F",
"M3.	c #544E4D",
"N3.	c #5F5D52",
"O3.	c #4A463C",
"P3.	c #71645C",
"Q3.	c #71655D",
"R3.	c #605858",
"S3.	c #534B3F",
"T3.	c #443C34",
"U3.	c #4C4A45",
"V3.	c #646358",
"W3.	c #515047",
"X3.	c #49473E",
"Y3.	c #494841",
"Z3.	c #5F5E56",
"`3.	c #514D44",
" 4.	c #5F544E",
".4.	c #6E6557",
"+4.	c #595042",
"@4.	c #5D524E",
"#4.	c #4D4C41",
"$4.	c #5C5C52",
"%4.	c #5A584D",
"&4.	c #4E433E",
"*4.	c #655A53",
"=4.	c #52524A",
"-4.	c #4F4745",
";4.	c #57574E",
">4.	c #544A48",
",4.	c #535147",
"'4.	c #504740",
")4.	c #4C473D",
"!4.	c #4A4138",
"~4.	c #736965",
"{4.	c #585251",
"]4.	c #534A46",
"^4.	c #4D4B46",
"/4.	c #574F42",
"(4.	c #575248",
"_4.	c #56554D",
":4.	c #504947",
"<4.	c #585448",
"[4.	c #594F49",
"}4.	c #5D5351",
"|4.	c #554E4C",
"14.	c #535248",
"24.	c #4A403D",
"34.	c #49453B",
"44.	c #625851",
"54.	c #594E4A",
"64.	c #675954",
"74.	c #6F6561",
"84.	c #574D4A",
"94.	c #676663",
"04.	c #514B4A",
"a4.	c #372F26",
"b4.	c #39372D",
"c4.	c #443D3A",
"d4.	c #5A5854",
"e4.	c #564E4A",
"f4.	c #494743",
"g4.	c #807A6F",
"h4.	c #757468",
"i4.	c #695F5C",
"j4.	c #716762",
"k4.	c #443E33",
"l4.	c #3C3930",
"m4.	c #585552",
"n4.	c #5E5D53",
"o4.	c #4F4A48",
"p4.	c #453E39",
"q4.	c #423B30",
"r4.	c #413631",
"s4.	c #352C25",
"t4.	c #463C37",
"u4.	c #504A40",
"v4.	c #403832",
"w4.	c #473F38",
"x4.	c #4C453A",
"y4.	c #362F26",
"z4.	c #372F28",
"A4.	c #3C3429",
"B4.	c #4E443E",
"C4.	c #40362D",
"D4.	c #3F3A2D",
"E4.	c #3A302B",
"F4.	c #342B25",
"G4.	c #433D33",
"H4.	c #3B342A",
"I4.	c #49403B",
"J4.	c #574B46",
"K4.	c #5B514B",
"L4.	c #6B625B",
"M4.	c #645C52",
"N4.	c #4D443B",
"O4.	c #4C423B",
"P4.	c #423B32",
"Q4.	c #786D67",
"R4.	c #493E35",
"S4.	c #4A473D",
"T4.	c #2C2821",
"U4.	c #38342C",
"V4.	c #433A36",
"W4.	c #352F25",
"X4.	c #352E28",
"Y4.	c #443D36",
"Z4.	c #423A34",
"`4.	c #665C57",
" 5.	c #504744",
".5.	c #413833",
"+5.	c #423B38",
"   .  +  @  #  $  %  &  *  =  -  ;  >  ,  '  )  !  ~  {  ]  ^  /  (  _  :  <  [  }  |  1  2  3  4  5  6  7  8  9  0  a  b  c  d  e  f  g  h  i  j  k  l  m  n  o  p  q  r  s  t  u  v  w  x  y  z  8  A  i  B  C  D  E  F  G  H  I  J  K  L  M  N  O  P  Q  R  S  T  U  V  W  X  Y  Z  `   . .. +. (  @. #. $. %. &. *. =. -. ;. >. ,. '. ). !. ~. {. ]. ^. /. (. _. :. <. [. }. |. 1. 2. 3. 4. 5. 6. 7. 8. 9. 0. a. b. c. d. 8  e. f. g. h. i. j. k. l. m. n. o. p. q. r. s. t. u. v. w. x. y. -. z. A. B. C. D. E. F. G. H. I. J. K. L. M. N. w. O. P. Q. R. S. T. U. V. W. X. Y. Z. E. e. `.  + .+ ++ @+ #+ $+ %+ &+ *+ =+ -+ ;+ >+ ,+ '+ )+ !+ ~+ {+ ]+ ^+ /+ (+ _+ :+ <+ [+ }+ |+ 1+ 2+ 3+ 4+ 5+ 6+ 7+ 8+ 9+ 0+ a+ b+ c+ d+ e+ f+ g+ h+ i+ j+ k+ l+ m+ n+ o+ p+ q+ r+ s+ t+ .+ u+ Q. v+ w+ ",
"x+ y+ z+ A+ B+ C+ D+ E+ F+ G+ H+ I+ J+ K+ L+ M+ N+ O+ N+ P+ Q+ R+ S+ T+ U+ V+ W+ X+ g  Y+ Z+ `+  @ .@  @ +@ @@ #@ $@ %@ &@ *@ =@ -@ Q  ;@ e  >@ ,@ '@ )@ !@ ~@ {@ ]@ ^@ /@ .+ (@ _@ :@ <@ 9+ L  [@ }@ |@ >  1@ 2@ k  p  %. p+ 3@ 4@ 5@ 7  6@ 7@ 8@ 9@ 0@ a@ c  b@ c@ d@ -+ e@ f@ g@ h@ i@ T+ j@ k@ l@ >  e+ m@ n@ o@ p@ q@ ]. r@ s@ t@ D  }  u@ v@ w@ H. x@ y@ z@ A@ B@ C@ D@ E@ F@ G@ w  H@ I@ J@ K@ L@ M@ N@ O@ P@ Q@ R@ ,. S@ T@ j  U@ V@ W@ X@ Y@ Z@ `@  # .# +# @# ## $# %# &# *# E. =# -# ;# ># ,# '# )# 1@ 7. !# ,. ~# {# ]# ^# $# /# (# 7@ _# :# <# y@ [# }# +@ |# 1# 2# j  3# 4# 5# M  6# (. 7# 8# 9# c  0# a# <@ b# c# /  d# e# >@ f# g# h# i# Q@ j# s. +# k# l# m# n# o# p# D  w. q# 7  x  p+ r# s# h  3# t# u# v# w# x# '. y# e  z# A# B# C# D# _  x. E# F# G# G. H# I# J# K# L# M# ",
"N# O# P# Q# R# S# T# U# V# W# X# Y# Z# `# 2.  $ .$ +$ [@ @$ #$ $$ %$ &$ *$ =$ -$ ;$ >$ ,$ '$ a@ w@ )$ !$ ~$ {$ ]$ ^$ /$ ($ _$ :$ <$ [$ }$ -# |$ 1$ 2$ 3$ 4$ 5$ 6$ 7$ 8$ 9$ 0$ a$ b$ w. c$ O+ d$ o  e$ f$ g$ h$ %+ i$ j$ r. k$ l$ /. m$ n$ o$ p$ (@ '@ q$ r$ s$ t$ u$ v$ w$ x$ y$ z$ A$ B$ Q# +  C$ ^$ D$ E$ o  F$ G$ H$ I$ J$ K$ L$ M$ N$ O$ P$ Q$ R$ S$ T$ U$ V$ 5$ W$ X$ Y$ Z$ `$  % C$ .% +% @% #% $% %% @+ &% *% =% -% ;% >% ,% '% )% !% ~% {% ]% ^% /% (% _% :% <% [% }% |% 1% 2% $  3% 4% 5% 6% 7% 8% `  D$ 9% 0% a% b% [+ c% d+ d% e% f% g% e# h% i% j% k% l% m% n% l@ o% p% q% r% s% t% 8% {$ u% v% +# w% x% y% z% A% B% C% D% E% F% G% H% I% 8  R. 5@ 6$ J% K% '+ L% M% /  N% O%  $ P% Q% R% S% T% S. U% V% l$ _  W% X% Y% Z% `%  & .& +& @& #& $& %& && *& =& -& ;& >& ,& r. '& )& !& ",
"~& {& ]& ^& /& (& _& :& <& [& }& |& s  t% 1& 2& 3& 4& 5& 6& 7& 8& 9& 0& *& a& 7$ b& y. c& R% d& e& f& g& h& i& i& j& k& l& m& n& o& p& q& r& s& t& u& v& w& x& y& z& A& B& C& D& E& F& G& H& I& J& p  K& |& L& M& ,# N& O& P& Q& R& S& T& b  U& V& W& X& Y& Z& `&  * 5  >@ .* +* @* #* $* s% %* &* ** =* -* s% ;* k+ >* ,* '* )* !* ~* {* ]* ^* $# /* (* _* :* <* [* }* |* X+ 1* 2* x@ 3* 4* 5* o  6* 7* 8* 9* 0* a* b* .+ c* d* e* f* g* h* i* j* k* l* m* n* o* p* q* r* *+ s* {* t* u* f  v* ** w* x* y* I# z* A* B* C* D* E* F* G* H* I* J* K* L* M* u@ U& N* O* P* Q* R* S* T* U* V* W* X* Y* Z* `*  = .= += @= #= $= %= &= *= == -= ;= >= ,= '= )= != ~= {% Y* {= ]= ^= /= (= _= := <= [= X# }= |= 1= 2= 3= 4= 5= 6= 7= 8= 9= 0= a= b= c= d= :@ e= f= g= h= i= j= k= l= m= n= o= p= q= r= ",
"s= t= u= v= w= x= y= z= A= B= C= D= E= F= G= H= I= J= K= L= K& M= N= O= P= @* Q= R= S= T= U= V= W= X= ). 3@ Y= f& Z= `=  - .- +- @- O# #- $- %- &- *- =- -- ;- >- ,- '- e= z= )- !- ~- {- x= ]- ^- /- (- _- :- <- [- }- |- J* 1- 2- 3- 4- 5- 6- 7- 8- 9- 0- a- b- c- d- e- f- g- h- i- j- e- k- l- m- n- o- p- q- r- s- t- u- v- Y$ w- x- ]* y- z- A- B- C- D- E- F- G- H- I- s- J- K- L- M- N- O- c* P- Q- R- S- T- U- V- W- X- z& F& Y- Z- `-  ; .; +; @; #; $; %; &; *; =; 3$ F& -; ;; >; ,; '; ); !; ~; M& {; p% ]; ^; /; g$ (; _; :; <; [; }; |; 1; 2; 3; 4; 5; 6; 7; 8; 9; 0; A& a; b; |; c; p@ d; 5% e; X+ f; g; h; i; :; -+ j; k; q@ i$ l; B# m; n; o; p; q; r; s; t; u; v; w; x; y; z; A; B; r  a+ C; O& D; e* p& E; F; G; H; I; J; K; L; M; N; O; o; P; Q; R; S; T; U; V; W; X; Y; Z; ",
"`;  > .> +> @> #> $> %> &> *> => -> ;> >> ,> '> )> !> ~> {> ]> ^> /> x+ (> _> :> <> [> }> |> 1> 2> 3> 4> 5> 6> 7> 8> 9> 0> a> b> c> d> e> f> g> h> i> j> k> l> m> n> o> p> q> r> s> t> u> v> w> x> 2- y> z> A> B> C> D> 2- E> F> G> H> I> J> K> L> M> E> N> O> P> Q> R> S> T> U> V> W> X> Y> Z> `>  , ., +, @, #, $, @* %, &, .& *, =, -, ;, >, ,, E# ', ), !, ~, {, ], ^, /, h> (, _, :, <, [, }, |, ~& 1, 2, 3, 4, 5, 6, [, 7, 8, 9, 0, a, b, c, d, e, f, g, h, i, j, k, l, m, n, o, p, q, r, s, [; t, R# u, u+ v, w, x, y, z, A, B, C, D, E, F, G, H, I, J, K, ** L, M, N, O, P, Q, R, S, T, U, V, W, X, Y, Z, `,  ' .' U> +' @' #' $' %' &' *' =' -' ;' >' ,' '' j, )' !' ~' {' ]' ^' /' (' _' :' <' [' }' |' 1' 2' 3' 4' 5' 6' 7' 8' 9' 0' a' b' c' d' e' V> f' g' h' _' i' j' k' l' m' n' ",
"o' p' q' r' s' t' u' @* v' i- w' x' y' z' A' B' C' D' E' F' G' H' I' y- N, D, s> J' K' L' M' N' O' P' G, Q' R' O# S' T' U' V' W' X' Y' Z' `'  ) .) +) @) #) $) %) &) *) =) -) ;) >) ,) ') )) :> !) ~) {) ]) ^) /) () _) b, :) <) [) }) |) 1) 2) 3) 4) 5) 6) 7) 8) 9) 0) a) b) c) d) e) f) g) h) i) j) k) l) m) s> n) o) p) q) r) s) t) u) v) w) x) y) z) A) B) C) D) E) F) G) O@ H) I) J) K) L) M) N) O) P) Q) R) S) T) U) V) W) X) Y) Z) `)  ! .! +! @! #! $! %! &! *! =! '; -! ;! H) >! R, G; ,! '! )! !! ~! {! ]! ^! /! (! _! :! l- <! [! !- }! |! 1! 2! 3! 4! f- 5! 6! 7! 8! 9! ]) 0! a! b! c! d! e! :) f! g! h! i! j! k! l! m! n! o! p! q! r! s! t! F, u! v! w! x! y! z! A! B! C! .& D! E! (! F! G! g% H! I! J! K! L! i$ M! N! O! [$ P! Q! R! ], S! T! O* `, U! V! W! X! Y! 9) Z! `!  ~ .~ ",
"+~ @~ t$ /$ #~ }+ t# W  $~ %~ s+ $% P  4. &~ G& F$ *~ =~ -~ ;~ >~ ,~ r% w* '~ )~ w* !~ ~~ p+ {~ P@ ]~ ^~ /~ (~ '+ _~ h% ^  :~ <~ [~ }~ |~ 1~ 2~ &~ 3~ 4~ 5~ 6~ 7~ 8~ 9~ 0~ -+ w@ a~ k- b~ N= c~ d~ e~ f~ g~ h~ i~ A@ j~ $@ k~ l~ m~ n~ o~ p~ q~ r~ s~ t~ z$ u~ v~ w~ x~ y~ z~ A! A~ n~ B~ C~ D~ E~ F~ G~ H~ 0- I~ T% J~ K~ L~ M~ N~ =+ ~+ O~ (. &  P~ Q~ R~ S~ 2# T~ U~ V~ /+ W~ 3# X~ Y~ Z~ h  `~ '~  { .{ +{ @{ H~ #{ }# ${ %{ &{ *{ ={ -{ ;{ >{ ,{ '{ ){ A# !{ ~{ s+ {{ ]{ ^{ /{ ({ _{ :{ <{ [{ }{ |{ 1{ 2{ !  5  3{ 4{ 5{ 6{ 7{ 8{ 9{ 0{ a{ b{ c{ d{ q@ O  e{ f{ g+ g{ h{ u  >* i{ 8! j{ k{ e@ l{ m{ n{ o{ '~ p{ q{ r{ 9+ s{ t{ u{ v{ &  w{ X+ 7% g{ x{ y{ z{ A{ B{ T& C{ D{ E{ F{ M$ }+ =$ G{ H{ I{ J{ K{ N  H  <# L{ M{ N{ v~ O{ P{ Q{ t~ R{ S{ T{ U{ V{ W{ X{ Y{ ^# Z{ `{  ]  - .] +] @] ",
"#] !! $] %] &] 5* *] =] -] v# ;] >] ,] $% '] )] !] ~] {] ]] ^] >& /] X  -# (] ;* _] +% :] <] [] }] |] 1] I# 2] 3] )# 4] S. 5] %% 6] R{ 1{ 7] A* 8] f$ 9] <] 0] T$ a] ,+ b] t# c] 1+ l+ d] ^{ v  e] )# W  T$ f] y  g] )# h] i] j] k] l] t{ m] n] o] 1{ p] q] r] s] t] u] L& v] 3~ w] ^{ x] y] z] A] B] C] D] E] F] }+ R$ G] H] I] J] K] L] M] N] O] P] Q] R] S] T] U] V] W] X] Y] Z] `]  ^ .^ +^ q] /{ @^ #^ W] W] 7# $^ %^ M{ &^ *^ O~ s$ =^ -^ ;^ 6{ >^ ,^ '^ %^ )^ !^ ~^ {^ ]^ ^^ /^ (^ _^ :^ <^ [^ +$ }^ |^ e] 1^ 2^ 3^ 4^ 5^ 6^ u% 7^ 3~ R) +. O) 8^ 1% E& 9^ $@ |. 0^ a^ =. b^ c^ d^ e^ f^ .{ g^ h^ i^ |] j^ k^ /  l^ m^ n^ o^ E+ p^ q^ Z{ *$ r^ s^ t^ 6. u^ v^ w^ '] x^ e& y^ z^ ]# K% A^ B^ :+ E& C^ x^ %% D^ N] H! E^ F^ G^ H^ =$ I^ J^ h. K^ 5+ L^ }# M^ N^ a. O^ P^ I{ Q= s^ Q^ R^ S^ ",
"T^ q) U^ V^ W^ y$ X^ Y^ f$ Z^ w. `^  / Y~ ./ H  +/ @/ #/ $/ `{ %/ &/ */ l$ =/ I^ -/ ;/ >/ -/ ,/ '/ 5* )/ !/ `& <+ ,. ~/ {/ ]/ s% 8  ^/ // l@ (/ R@ _/ :/ </ K+ [/ }/ 8  Q. |/ 1/ 2/ 3/ 4/ 5/ 6/ 7/ ~$ 8/ 9/ 0/ a/ b/ c/ d/ e/ f/ T$ g/ $+ h/ i/ J& j/ k/ l/ m/ n/ o/ p/ q/ i^ r/ w. s/ t/ u/ w. v/ w/ 1@ x/ y/ z/ e. .$ A/ B/ r~ =  X{ X] C/ C/ U~ D/ %^ T] _{ E/ F/ G/ H/ I/ J/ K/ K/ L/ M/ N/ V~ O/ P/ Q/ R/ S/ ~^ .$ T/ U/ V/ W/ X/ 7# Y/ A% Z/ <^ `/  ( /+ /# n^ .( +( @( #( $( %( &( @+ *( =( h; -( X] ;( >( ,( '( E& )( !( ~( {( ]( ^( /( $@ (( _( :( <( [( }( 6] |( G{ x% '{ 1( 2( 3( 4( 5( .] 6( 7( V~ m/ 8( C/ 9( G. 0( a( b( w* U& c( d( :+ e( ,$ {+ f( ;{ (% e# C+ Z$ ;( g( h( <* `$ i( >  p% 8/ j( |] P{ k( l( m( }# m$ V. M/ O] {* n( o( p( q( r( s( $% C] t( :+ :@  % .] u( v( w( ",
"x( y( z( A( B( C( p. %{ D( `{ 4% p^ @^ o( E( 6( F( G( H( +@ f^ I( J( K( L( M( N( O( P( Q( R( S( [. N+ u$ _  T( N+ u. f^ U( E+ V( W( =  <# X( ]@ // V. 0/ Y( Z( O^ `( S$  _ =# ._ +_ &; @_ z^ ;/ #_ )/ $_ %_ &_ *_ ~( =_ -_ ;_ >_ /  ,_ 4+ '_ )_ !_ ~_ {_ ;/ ]_ P$ P$ %^ ^_ /_ (_ s~ __ :_ Q  <_ [_ }_ |_ 1_ %{ 2_ E/ 3_ x/ 4_ !( $] 5_ n+ 6_ 7_ 8_ 9_ K] [+ 0_ a_ b_ c_ y] d_ e_ f_ g_ h_ i_ j_ {] 9. Z^ C/ (. k_ s{ l_ m_ n_ o_ p_ q_ r_ s_ t_ u_ v_ w_ y/ ){ m^ J( x_ y_ z_ 4# :  F@ /% _$ A_ B_ C_ D_ &; E_ F_ G_ Q/ '_ j^ H_ I_ |( J_ *# K_ L_ !{ M_ N_ O_ _~ P_ Q_ -% R_ /* S_ x- T_ U_ c. V_ W_ -  }% X_ I  Y_ Z_ '~ ~( `_ 0% E/  : @+ $% .: +: T# @: #: q_ $: u# o  %: &: .{ *: M~ K# {$ u( =: -: ;: >: %% W+ ,: ': ): !: ~: .( {: 7% ]. V. s. ]: ^: /: ^  U{ (: k  _: h^ l@ Y^ a^ :: <: ",
"[: t( h  }: D( |: 1: J/ 2: p# H. 3: (] 3# @. 4: 5: 6: 7: @_ 1. M. `{ 6{ 8: y/ {] 9: I( E^ 0: e_ a: ,@ b: t{ <+ 9% &^ c: d: t{ e: /  ^# f: ^  g:  ] h: i: j: 9+ k: l: (] m: n: o: 4+ p: q: h  $~ T~ l# r: 3  s: t: V. 0# ]/ 5$ 6/ u: v: w: g{ x: y: L& z: A: 1. B: #_ s^ C: M$ D: E: F: G: &^ H: V) I: K) J: N/ K: ~: L: M: N] N: O: *# P: Q: m/ s{ U~ R: S: L] T: U: V: W: X: ,@ Y: Z: x_ u^ `:  < .< *: +< @< #< $< %< Q: &< *< =< -< s] ,. n^ 5$ ;< >< P{ ,< :^ x_ '< E: $( )< !< ~< {< )^ f] T~ O~ ]<  { <^ )< ^< z/ /< (< h^ _< !< :< << [< 9@ }< `( |< 1< n{ 7# 2< 3< 4< 5< 6< 7< 8< 8- 9< m( 0< a< b< :_ c< (% d< e< v_ {( f< ){ g< h< i< H. D: F/ $: W/ j< k< B_ l< m< n< S/ o< .^ p< s% 6/ i# _$ !+ >  q< H] r< m( s< l. t< M~ 5{ a# u< v  l<  { v< W. w< x< h( ': I{ y< z< :^ A< o] B< ",
"C< D< E< F< G< H< Y( I< J< #< ~  b~ x] d+ K< L< M< N< _( O< P< 4{ Q< R< S< T< L< j: /^ ;{ F@ m< U< X^ <@ +# V< g@ W< 0( X< Y< Z< ++ ^: [# U^ D^ p< {{ `< Z. 0/ U@  [ W. ,$ .[ +[ .% @[ #[ $[ %[ &[ *[ D( ={ =[ -[ ;[ R( R/ >[ Z] `( ,[ I( '[ 7# 9: J( m/ )[ -% F@ ;< ![ ~[ l{ D( x/ {[ ][ ={ G! ^[ z$ /[ K% ([ .( _[ :[ <[ ={ [[ }[ Z@ 9< |[ |( :  1[ 2[ 3[ f_ Y_ U~ ,{ 4[ 5[ 6[ l# }^ 7[ n+ ~+ 8[ 9[ 0[ P< a[ y] b[ U^ G: c[ (^ d[ e[ f[ S/ g[ S< h[ i[ V_ L. j[ P< /^ k[ l[ m[ M< n[ '( o[ p[ q[ r[ s[ t[ u[ 6_ v[ w[ x[ i( y[ z[ A[ '* C( B[ C[ D[ E[ ~+ F[ G[ H[ I[ J[ K[ L[ P^ M[ N[ O[ '( {< P[ Q[ R[ S[ E{ T[ ~{ D( '+ D. O~ U[ g~ V[ ~* +< W[ X[ Y[ Z[ y] `[ #~  } .} z: `( <# 8: +} 5{ N/ @} b. #} $} n$ 8% o  *~ H! J: %} &} *} }~ <+ =} p^ -} ;} >} ,} /+ '} $% U^ )} !} ~}  ( -  {} ",
"]} ^} /} (} _} }% /^ :} y: 9: @# +/ <} [} -. V. F@ @$ =% }} ;} |} 1} |_ 2}  } 3} $] 4} 5} I/ ![ 6} +@ 7} 8} M~ 9} 0} |@ a}  / g~ b} L% s] 8: c} d} T$ s+ e} a# Q  f} x@ 8/ g: J$ E^ g} h} 9< >* i} y$ j} p% z& H] %{ /+ k} l} m} n} l] *@ o} *@ =+ p} q} r} s}  # t} w[ u} %{ v} =_ w} $] u} H. x} y} a] %: ]_ v^ z} A} B} 1< C} g~ )( D} E} F} G} 6( %( u_ M: H} I} q] J} K} G} L} M} N} F@ O} i[ 0. P} Q} R} S} T} U} V} W} V} X} Y} Z} `}  | j< .| F} /^ _} >( +| @| T/ e_ C  #| $| %| @| *[ &| *| ~@ =| .^ T~ -| ;| r+ >| U: ,| S: '| Y/ )| !| ~| {| ]| ^| !| q] /| (| o[ _| :| <| [| }| /| || ![ 1| e( 2| $: 7# 3| j[ j: <+ 4| C& S$ 5| ^{ 6| [{ q{ 7| a# e# V. 8| !( .< W^ 9| 0| a| U^ n+ @{ 8% 0+ 1| z( ~/ b| y. .{ c| d| e| f| I( n# I. t{ g| h| G{  ( 2} .] C  L: i| j| m/ _@ D( k| l| ",
"m| -^ n| L< 5{ o| q% p| q| s+ ,} r| O( 8  s| t| C@ u| |_ v| m_ %] 0[ M$ w| x| M$ S( E] y| 1^ z| A| B| C| 7# D| k( U^ E| .. n% d: @. w|  ( 4_ *  F| G| H| I| J| K| L| M| N| O| @. g< P| Q| %( R| ^/ S| T| y% V_ U| V| a# 8} `$ W| X| Y| Z| q[ `|  1 .1 P< $_ r+ +1 @1 :| Y[ #1 l/ $1 m% %1 h; i[ &1 *1 D$ =1 B} -1 ;1 O~ P[ d[ }} >1 ,1 '1 8: T< )1 _[ !1 ~1 {1 M_ ]1 ^1 %] e% 9% /1 (1 #~ k_ _1 v% Z. ;1 {{ ![ :1 2_ l{ <1 Y^ @_ [1 M: s_ }1 ![ X} k_ |1 11 u} 1| 21 31 41 51 p/ %] 61 71 81 91 01 1< 9. q] W} a1 b1 c1 d1 e1 f1 g1 6[ ~( h1 j[ i1 j1 y{ k1 l1 W_ m1 T/ n1 o1 t( F< p1 I= q1 ${ ;] d[ r1 {{ Y_ S/ +% 4/ s1 t1 ~* Q/ H< S< k^ r+ @: b: u1 a( Z{ *} +% u_ 1. v1 5{ w1 x1 y1 R. z1 A1 I+ _@ B1 7} C1 v# a} D1 E1 F1 }] K+ G1 j: H1 l: ($ I1 L% J1 K1 _} S+ L1 M1 a% Y( -^ -< N1 O1 ",
"P1 4^ Q1 N: ]_ g~ 4  >} R1 J1 S1 K} 8: 8: T1 Y+ q[ ': &+ &/ U1 s_ V1 :# W1 #: n^ F@ X1 *  Y^ Y1 Z1 `1  2 l@ .2 y/ +2 $% 4  N  @2 s^ 5} r_ >/ #2 $2 %2 U$ &2 *2 C& Y= e( =2 I. -2 ;2 >2 ,2 #1 W# '2 `( i| )2 (+ !2 x. (. ~2 }:  1 {2 ]2 ^2 2: /2 z1 (2 _2 P} O} :2 <2 [2 k_ }2 |2 t< 12 |1 +} 22 32 F@ c. 42 ,/ 52 62 @< @< o@ 72 82 #% m% 92 1^  / 02 a2 /[ Y_ -( <2 g~ 7# h_ b2 c2 ,/ d2 e2 f2 g2 h2 i2 Q. j: j2 k2 l2 m2 n2 [1 o2 p2 q2 r2 s2 :2 t2 f_ $( u2 v2 w2 x2 i1 y2 Y~ z2 }% 21 T~ q( ^< p: i[ ][ A2 B2 C2 >{ D2 s] E2 F2 G2 C: ,< H2 I2 J2 K2 s# L2 E/ (% #~ n+ -] :< M2 #* N2 O2 L/ P2 Q2 N1 C2 R2 C* 2: m. _$ =/ .$ Y_ S2 T2 U2 V2 D: W2 X2 -  `{ c| Y2  : C@ Z2 E_ W{ /@ T2 8( w@ 5$ `2 [+ g< $:  3 .3 q| m< +3 A) @^ _] m# @3 #3 $3 N+ s+ Z< y/ Y~ E+ {{ c_ %3 &3 *3 _] {/ =3 [: ",
"-3 P$ ;3 >3 I[ N( v% ,3 '3 )3 !3 E: ~3 ]. {3 ]3 |2 ]/ ^~ S/ ^3 .] /3 (3 F} (} ;{ _3 K% :3 ~@ <3 [3 1% }3 c: |3 13 >^ 5} h$ $1 ^1 23 P( ]_ 33 43 53 J$ 63 73 I) 83 93 03 3{ a3 b3 M) c3 d3 7_ P~ e3 f3 z* 5{ g3 h3 %] i3 j3 j  k3 l3 m3 t% a/ n3 ={ o3 ,} 5_ p3 q3 M1 S} r3 >& (1 s3 t3 Y^ s# L& u3 {$ e_ v3 w3 x3 ,] y3 `] ![ i[ !3 z3 A3 W1 Z@ j} B3 C3 ]/ D3 E3 F3 u1 C( G3 b2 H3 I3 J: J3 j| K3 L3 Y/ x[ M3 N3 O3 P3 d[ Q3 R3 S3 T3 q| U3 .: =_ V3 W3 P[ X3 Y3 Z3 0[ 5< `3 ,( %< h;  4 .4 s2 +4 @4 #4 #1 9| 7^ $4 x[ N( /< %4 J< D(  : J( &4 W{ *4 =4 y[ -4 11 $< s: $^ ;4 u( o@ <] >4 ,4 '4 )4 6{ !4 V_ X_ c3 ~4 {4 (. ]4 _3 ]4 12 i( ^4 !< /4 Z% +| B3 3| (4 _4 y/ =1  : q. }{ .: )$ :4 <4 [4 O] Z% }4 Q@ |4 ^} 14 g< >} 24 34 Q% 44 54 64 74 84 94 Q@ *[ 04 a4 ([ U[ P] M] b4 ~@ z: c4 d4 ",
"e4 '] q[ Q[ f4 j: %^ l< o: g4 4| h4 o< d  i4 A# j4 m3 x1 k4 ~3 +% >3 1| l4 m4 (2 n4 e_ s1 o4 p4 q4 B/ r4 r{ s4 t4 u4 2: j| v4 w4 x4 y4 z4 S= H% g+ A4 B4 C4 u% D4 E4 F4 G4 H4 I4 J4 K4 r& L4 M4 N4 5+ z) 6/ e@ b] 8] J< O4 `1 P4 8: w. Q4 {* +1 R4 Y] S4 T4 U4 X| C^ V4 W4 V} m2 X4  : Y4 ^4 3@ V; (: 9. 7| A} ]] A} N( .^ b2 Z4 |[ `4  5 N_ ~< .5 @_ V. +5  5 @5 D1 J3 ]] #5 v] @< .: s_ [2 l@ $5 f2 k3 `: z: %5 o_ &5 :< *5 =5 -5 ;5 3# ;3 >5 _1 8(  / Y2 ){ X~ T2 a# G3 *< ,5 x/ (2 '5 )5 Q_ !5 .] ~5 {5 (} M: M{ ]5 ^5 /5 O^ =2 (5 T2 Y[ _5 :5 <5 N3 T~ [5 N] V< u1 2: }5 |5 15 H4 $- 25 35 45 o[ A_ }% U] 55 V{ 65 a# 75 L. e< >( D( :[ 85 -< k( |1 95 ${ 05 k[ a5 s# t/ =5 n/ Z< b5 c5 !@ X+ y% Q< ^: d5 [2 )] (. e5 f5 %. %% p( 6  ># T& :+ V. r_ !(  ] 82 g5 ([ T~ }+ O| x: Q$ q( E[ Y= ",
"h5 ^{ i5 t( 6/ |} ~} j5 I3 z3 A: :# n| D^ k5 M: l^ l5 4_ K# =_ m5 8| i( K} n5 U1 s{ P< }[ =_ W< o5 :  p5 q5 7% r5 s5 t5 9: u5 5{ 8  v5 w5 x5 y5 z5 A5 B5 ^# 9@ C5  & D5 8= E5  % F5 G5 H5 I5 A> J5 -~ K5 L5 M5 N5 O5 }% P5 g^ Q5 u} R5 z( S5 T5 !< z  U5 ,( V5 W5 X5 Y5 Z5 _{ 2: P~ @4 p2 `5 ]< S{  6 .6 s# {/ Y[ C3 J/ +6 (5 @6 #6 $6 X^ =% `( k_ %6 &6 6{ *6 =6 -6 l{ ;6 >6 ,6 a1 '6 j/ o/ m2 )6 =[ ,| !6 U3 >5 }} {3 ~6 {6 U3 ]6 }^ ^6 h_ ${ K~ i[ C| /6 c% (6 _6 [< *] :6 :1 <6 k( 8_ [6 =| }6 |6 v% 16 26 `] X: 36 46 56 k< 66 =+ 76 D3 86 96 06 a6 D/ %5 .: m% s/ g: U~ b6 c6 d6 -# e6 f6 1< U: B_ [4 %5 g6 h^ !( h6 s: i6 ~< g: N_ F@ h  j6 F@ k6 X~ l6 /# >/ m6 e# n6  / &6 ![ o6 0. p6 x^ q6 r6 1{ o[ /4 Z% s6 *~ -_ t6 t/ 4  u6 `1 v6 @+ w6 R/ .$ x6 h< y6 z6 l# y3 +/ A6 @< G< B6 C6 ",
"i' ,. I/ u4 J} D6 p< E6 F6 Q  G6 e< H6 I6 J6 u* 3< $5 K6 L6 W^ w# M6 W^ N6 O6 P6 >^ f1 ^# J] Q6 R6 S6 T6 U6 .| .+ V6 K% q_ 0[ 4^ W6 X6 Y6 Z6 `6  7 A> .7 +7 @7 #7 =2 _@ $7 D; '[ %7 &7 K. *7 =7 >+ -7 ;7 T] `{ #: N^ .| y^ ]6 |[ =+ >7 ,7 '7 9+ +( )7 !7 a- ~7 (5 {7 ]7 ^7 g: P3 (6 O$ S< Q< T2 /7 24 w# 13 k4 ,/ (7 _7 M{ #5 f_ ': K< :7 <7 S/ [7 ){ .$ W^ }7 @< |7 1. :* r| 17 27 37 (5 y| m} ={ `[  ( 47 57 s2 #< E6 y_ X: ~7 >5 67 77 87 J: 97 |^ 07 '+ M} R[ z3 $< _5 !1 a7 N_ $( {| K# +} 04 Q2 =5 y[ H< b7 L3 -] @| X_ R: y[ :/ c7 d7 e7 x_ U: C2 (1 0_ f7 s~ %: 1< g7 d[ -( h7 Y{ 3. i7 7| ]1 j7 k7 ![ 04 l7 m7 r< V{ 21 y_ P+ F} F< n7 o7 F_ W2 c2 P3 a^ p7 j5 q7 4/ r7 O. ${ k4 R6 q3 7% s7 8} T~ X| t7 u7 m. ~_ v7 85 >4 -^ ,[ I{ ^: Z< w7 3+ 4  x7 y7 t( v^ z7 #~ A7 ': }: B7 C7 D7 ",
"E7 r+ w2 C| ~: M] B3 F7 l. G7 =[ T( H7 I7 s% J7 2} K7 L7 T~ 86 +/ #6 M7 64 V^ f1 s2 t( N7 O7 P7 Q7 ': R7 S7 R( T7 U7 9: Y^ l+ Z4 =[ b5 t. F_ V7 W7  % X7 B$ Y7 X> n{ Z7 `7  8 L_ .8 C5 +8 @8 #8 $8 _2 %8 &8 *8 =8 p( [< -8 ;8 o_ .. F& >8 ,8 '8 )8 !8 ~8 M} L^ ]_ j5 p< #} z7 {8 ]8 d7 ^8 .6 A/ /8 l7 97 (8 _8 y/ :8 -^ ': 9| Q} P{ t7 <8 l4 3} t5 h_ *6 ++ u5 J[ [8 I# 5+ }8 W[ A/ {^ |8 18 /+ C/ 28 38 48 58 `] #< P< {6 n2 68 U1 (1 D3 78 K6 88 t( _[ e_ l@ i( p$ 98 s7 08 36 g[ G6 R} p. a8 J( >5 b8 J( c8 d8 48 e8 4( J: f8 g8 h8 G] =/ i8 !1 @| j8 k8 l8 _{ +1 4^ *4 k[ m8 n8 o8 <~ p8 t~ {( 2: =+ X= q8 e# r8  { n8 O$ w^ f1 s8 s{ p< J( m< d: ;< %] +1 t8 s~ ,] *5 1| V6 ,@ u8 v8 9| h^ ,$ /4 =_ }/ w8 x8 y8 7# |$ z8 ^} A8 #+ =# }/ m< P  A: B8 s5 C8 D8 ^_ E} &+ J1 t1 E8 @: F8 &@ G8 ",
"H8 I8 >3 J8 '^ K8 f_ l{ L8 6: K% x7 M8 N8 K% O8 P8 m% Q8 &^ |} R8 r2 P< a# /  9< d5 S8 T8 U8 j5 N1 V8 l. o  R6 W8 >] *} |/ X^ X8 Y8 A% Z8 `8 t&  9 .9 +9 @9 #9 $9 %9 &9 *9 =9 N) -9 ;9 >9 ,9 '9 )9 9$ !9 ~9 {9 `| |} 5^ ]9 ^9 C: x8 /9 (9 _9 R' :9 <9 [9 }9 q% F} y. 48 L/ |9 19 29 39 &] 49 i( 59 69 M< S1 D3 ,( 79 68 89 I/ T3 [# k# _} ~  99 09 y[ a9 V} b9 c9 ~< d9 a~ V3 e9 f9 &] m_ ~: q( 48 3| ]6 g9 5[ A} {7 -5 h9 }^ ;5 A/ i9 ~: @_ j9 g^ Q] k9 k_ l9 6/ g4 }^ O} =_ *] l4 e_ %# m9 n9 52 o9 =3 M3 9% =3 p9 q9 r9 %6 p( M1 B3 ~: s9 L! 4: t9 ~_ 97 :  ][ ~@ s~ D_ u9 (5 4  (1 8# v9 w9 z7 X] m/ 68 x9 y9 s8 N{ V_ l/ i/ C( z9 .$ 2[ A9 W] ,3 |( 1< s{ M~ J. B9 P] }^ R$ B% C9 ;3 |[ I8 c} D9 8} E9 F9 N_ V_ G_ ]2 ^2 G9 A6 b% (/ H9 U+ p( G< 8: I9 J9 i[ Q^ <_ M] g^ Z4 @+ C$ 4* k$ K9 ",
"L9 M9 +4 s2 s4 5{ N9 O9 A% P9 A8 e3 m$ Q9 T5 8] K% R9 }+ S9 B3 #: S2 d[ `} @_ a: /_ T9 M} A6 A3 U9 5$ S2 V9 W9 6# 2} l3 X9 */ W6 M{ s: Y9 Z9 `9  0 .0 +0 @0 H$ #0 $0 %0 H$ &0 *0 =0 -0 ;0 >0 K~ !* ,0 ]( =$ '0 U$ )0 2^ !0 P{ ~0 h+ {0 t&  9 ]0 ^0 /0 O< V[ j_ [1 y_ (0 _0 37 3} a1 :0 {6 Y_ 0[ I- <0 T2 :[ 79 w| [0 h< 4} !( Z4 }0 F6 y8 v( |0 m# 10 20 1< k( y6 u4 u5 S6 A2 S6 30 .( 40 K6 50 60 8  >. 70 ## y8 80 90 00 a0 b0 c0 m$ d0 21 ]_ r+ e0 =( [2 j5 f0 t* g0 ;/ h0 i0 j0 E} k0 J8 g: 5{ ~< t( K: |6 `( [2 /^ P{ C^ f1 l0 c_ m0 W+ M: N1 ~_ n0 *5 __ %+ v8 o0 &] p0 *4 A/ q0 r0 E+ o   * {@ S6 M{ s0 f_ t0 u0 C  w< (5 G_ {+ I} ]] v0 A6 m% w0 w4 x0 4^ x^ y0 z0 50 [] ,1 z1 n^ r1 M~ c# A0 ={ ~: B0 L^ ){ D( C0 9/ I7 %6 D0 @/ ,+ X  9: E] 0[ E0 F0 *  @} }# G0 =/ h< _} H0 f5 &~ I0 ",
"J0 L! z1 86 z3 ~} r2 N/ K0 ~6 ,[ T$ L0 a7  5 O6 M0 N0 O0 39 Z] `5 #( a[ P0 Q0  ^ V( R0 ){ S0 52 T0 U0 V0 ]/ W0 q4 ^  (} O~ ,/ 77 i7 %% X0 /{ [. :9 Y0 '9 Z0 `0 O*  a r+ .a +a @a #a Z@ $a %a &a K] *a =a -a ;a >a *a ,a Z@ v( 'a )a g& !a ~a {a ]a ^a /a (a _0 :< ,6 {| _a :a }} &] <a (1 g_ [a }a |a }+ w2 A2 X] P7 1a 5[ ]6 /4 @| 2a S2 q_ W{ .} (% 3a Z< B3 :6 5} 4a 5a 6a M/ C2 k4 N3 C1 z1 #: )7 7a 8a 9a 0a ,( aa ba #< M3 ca da ea fa Q] U~ ga h6 f_ ha {^ <4 t< [} ia x9 >6 A: a7 /^ Z< N/ Y. n2 r_ b2 !+ h7 0[ W^ +[ K% F( N0 Z. V[ ja ka la &< t( 2_ w# V_ 8( ]_ L/ ma p} na oa pa qa <2 M2 ra sa ta ua s8 m2 k| va R[ wa (: 4% ,( @+ xa &6 ;[ =$ ya r2 S/ G] h# Q[ +% L^ L[ G+ o  ## za %( [+ ~} D1 ^6 h  x3 (] @/ Y2 Aa %- d  Ba @+ Ca ,$ Da ,@ Ea e2 V1 {{ M/ 9% F@ d( Fa Ga Ha Ia ",
"Ja 14 >3 E6 a[ )3 !1 Ka La Q. g^ g] Ma +/ Na L< y_ <+ Oa .} C0 Pa %{ d: V[ h| Qa -6 z: 9[ &+ Ra U9 Q2 h| Sa Ta J3 E6 4% Ua Va c5 Wa Xa Ya q6 [5 Za `a U$ H+ )@  b .b +b @b a- #b $b %b &b *b =b -b 60 ;b >b ,b U< 'b )b G! !b N8 ~b {b ]b ^b /b }/ I} E6 c9 c8 (b [1 @< _b :5 %( :b o2 <b [b ;5 f6 j{ U1 c_ 01 i  }b |b >6 _8 /4 1b g: 2b R6 i6 N9 h< E: ,} U7 o_ n# %^ 51 3b  : R( J: A/ s[ 4b ]a C/ S6 5b C| 6b -5 P< 7b h2 8b (5 K: 9b l^ j0 0b ab bb 8b >7 ~@ cb db eb c0 >} 3^ y9 fb &( gb i_ hb ib :| jb kb Z4 8( C_ D} 1a l3 U~ I7 4# g4 lb mb r^ Y^ -/ ]# i1 nb ;5 A2 _{ ob ^^ pb qb rb sb c. q7 9% r: J3 {5 tb 8: /# 5+ ub vb R( ~@ :^ K6 S2 wb f1 T5 xb p} ~: Qa q$ yb zb 13 P[ Ab Bb ;< Cb &] D$ sb Db i7 =_ +& K} ]. w. ): */ Eb s# }: 8] Fb @/ W6 <7 t% Gb '] Hb L/ Ib Jb a{ Kb ', ",
"Lb 8: ![ 'b 4| v( +/ 8( J: >@ Mb Nb =/ @. Ob 0( i3 =5 Pb '3 k% T~ A3 @^ Qb K% t7 c0 d| *  '7 5_ a< 7# x| [1 h  @} Rb !3 ~^ /+ ):  ( ^_ Sb Tb Ub g& Vb Wb  9 o@ G) Xb Yb 2b Zb `b  c .c +c @c #c B! $c %c &c @+ [] L! N] *c =c B% -c ;c >c ,c 'c !_ >^ 12 y| .: |1 P5 O3 ,| )c ,3 !c T8 98 T~ ~c {c ~# 0. 0: 3} ]c :0 <7 x[ R3 +| nb 2_ R0 w[ F@ ^c R} /c $^ (c +1 n. q{ _c 65 :c <2 r8 48 <c M( 97 2_ Cb [c *5 }c V_ w[ |c 1c 2c 57 Y/ w< L/ |2 V_ q9 j9 ;} &: x[ w2 V( 3c ,< >5 V_ 4c J[ ^  !<  : 5c K% 4/ s^ I} E9 6c 7c 8c 9c y7 n/ ^~ *} j4 0c a2 *4 _} I/ ac q] P5 >5 =+ j^ b[ {| T] 8, q/ t~ V. b2 g~ X~ W[ U5 bc l5 6/ sb cc dc ec fc 9< w@ s{ p< C* ': 6( S$ gc F7 %] j_ 8a O6 u( 68 P{ p  hc Z. ic ~} jc h| `^ '0 kc lc mc @+ U| `2 nc oc I5 pc T0 s~ |[ V. V4 qc @< T6 rc sc z) tc uc ",
"vc wc E6 }^ xc X} I/ x9 0[ /+ yc '^ `< zc Ac G9  ( .2 s# T~ R8 q4 Bc z* E6 Cc Dc o  66 Ec ;/ 2: c8 !1 *6 b8 P( &] Fc U^ ab Gc h3 Hc J) Ic Jc Kc ~  Lc b5 Mc Nc Oc v, Pc Qc Ub Rc Sc Tc Uc @7 Vc -< '. 1_ Wc U& J@ Xc Yc b3 F_ /c #9 Zc `c  d .d }^ m$ K6 V4 .2 !3 {3 +d 07 @d o| K6 *: b8 #d $d %d &d G] B3 ;3 *d X} g[ b8 +1 =d L3 -d 52 5$ 0. h_ K( ;d q_ Dc Z] V+ '3 p: p2 /: >d ;3 j5 (^ ,d ~1 52 _[ Z% C| ]5 5b s{ y_  5 'd ,< )d W3 I/ !d W0 Cb c1 ~d {d ea 39 f_ ]d !d k_ g: 2: S0 +% P< `< ^d /d 5a (d T~ l< W0 3_ d: _d ]] k} S| :d <d d] ;} (1 1[ na o6 k_ ;/ D1 [d }d 18 h^ I2 I= |d W{ Y+ i[ f1 x. z) .] E} |[ s{ (0 1d 2d 3d tb G< 4d h| 5d &] 6d V( .< Q_ a. 7d _[ t[ .6 h< `. N{ g: Q[ |c zb {[ 8d Q( jc T6 S4 64 9d p4 h_ `( }: $% O. &} t7 t/ ~* 0d 6b O} ad bd O% cd dd ed fd ",
"e) gd a7 V_ ec k6 _] u} m_ o4 v5 A_ hd u_ l. S2 =# ^~ id 1| jd kd 0* z{ ld G0 md .} nd ~7 od Q: #% pd A3 &] V4 h< L. R( ,} qd a9 h  rd sd n  td ud vd wd V= xd yd zd Ad Bd Cd c% Dd sb Ed Fd Gd Hd !_ Id Jd Kd wb Ld %! Md Nd Od E@ Pd Qd Rd R. Sd A: }c p2 E& Y} s7 Td l/ aa Ud .2 Vd 4d n2 $( W# Wd s{ a< <[ b8 s{ k4 P< j0 Xd b2 *# ea 0a l+ 6b /@ #: R6 a. Yd +} Zd G} s{ F( S2 99 |1 i[ Q_ -( g[ -5 u} b8 a[ q[ `d ]: ,6 n2  e 5+ N_ 6c Y/ .e p[ J[ +e q0 nc @e J( #e $e %e J[ ~@ J[ K^ L} 07 &_ 6( 9% Mb R6 q{ %_ d} f8 P{ W+ ): &e Q[ *e |: =6 =e s8 E/ L2 ~: -e =| ]1 J3 p_ R( L_ ;e >e G) &; d( e9 *: z1 ,e 'e L0 &; ![ 4c !3 u( 18 (b t< U{ C1 p} ^4 )e !e ~e }^ {e z6 <3 c0 L2 |: I}  | o[ #< 6/ ]e t( A# /4 (5 )/ s< ^e /e (e _e @2 g$ @$ :e Mb +| Q_ 2: _} E3 f} 77 A_ 8% p/ <e [e ",
"}e z1 t4 ,/ E0 4% z1 5a m5 Fc ^+ |e 1e k# 2e u1 Oa 3e _] 4e G] t5 5e z  6e Y] 7e s: 8e ~} ;/ 9e l0 0e m5 g4 ,} ]_ +e T5 C* E1 ae P_ be !a #c ce V( '[ 60 u& de ee A- fe ge he Rc ie je b< 8} ke Yb le me ne oe pe qe l@ re se x# te ue ve we xe ye l7 ze [< y_ d: 7[ R3 O^ Ae Be Ce De A3 s2 Ee Fe 7@ 79 (} Ge )c =d 7| He 6b l4 o| Ie !3 d: 5_ O} .^ Je L^ Ke va Le l{ a4 Me a# O} !1 18 >6 !1 q| V[ x: `} [1 f9 Ne {1 Oe 8_ K3 ![ L2 0[ Pe 52 xa A_ Qe c[ Re +^ Se Te Ue J} B2 Ve We m_ Xe Ye P3 l6 Ze &} ^8 `{ c5 ;} `e ]/ h3 W^  f e2 y$ [b =6 M1 .f u[ /4 .2 C: ~5 q9 c0 z/ t( +f @f #f $f %f l/ }^ E{ &f S2 m7 &+ g} `( [b g^ a: a< +3 &+ )3 D} w1 m] 44 l@ @$ b. 5+ {/ c_ *f K< d2 I{ L/ }{ [[ /+ =f -f @. 3e X3 ]_ y8 ]/ O  4{ W^ u* [} 6  ;8 ;f ;/ >f ,f V. 'f 09 m( q_ O/  } y| )f -3 ",
"!f S/ .< l5 u} N( ~f t( R3 ~: a< {f g@ 8}  | k# G} &+ }[ F} r^ ./ k5 0a d} z: y7 l3 md z  =3 ]f p< ;1 b8 E| ]e t{ q4 s. Y& ^f /f (f _f :f <f J% ); [f @- }f |f P2 R| @c *0 1f -% .9 2/ 2f Y0 3f 4f ]@ 5f 6f 7f .d ); 8f ## 9f 0f %{ af bf cf m< z@ Q$ :0 df ~@ ef k4 /+ Yd a1 (b >( s4 P3 {| >{ )* ff /} |3 =d gf [1 ){ )c }} f_ G7 s8 34 |[ i( w2 L3 ]c hf j5 F6 d2 if t< s~ <] z1 1b .} R3  / ,} jf ,< *6 y[ !3 X} y[ Re va `]  : M[ ${ kf W3 !3 lf mf ;3 c6 Re nf of m1 pf (1 ^a <| qf n| rf sf !( 9$ Pa hf L3 K% Ma tf 42 uf vf @# ]1 C* M:  { R[ T~ k_ 02 ,[ c5 99 wf a< J3 _a xf X{ yf zf R$ a( @{ q( F@ =$ Af .| p< c_ m< e2 Bf Q@ L< Cf Df 2e Ef a( 0e I/ *: <7 !] Ff Gf g< {^ R} @^ )/ Hf '. If L+ ^~ (: Le Q@ s~ H< h} w| W+ 07 64 T6 Jf D( x4 8: E( A( %< f_ C/ {{ (} Kf Lf R[ A' Mf ",
"Nf U@ ^a 77 79 Of Pf J: Qf =% G0 Rf 5{ q8 .} ': Sf Q} Tf ;1 =/ Uf T1 Vf 1| u} u} j% /1 /^ X9 U{ K6 Wf Xf Yf Zf `f 25 m^  g J& .g +g G| 14 @g #g $g N- %g &g [{ ~4 Yb *g *^ =g Sc 8& -g (8 ;g >g ,g 'g .! )g !g ~g {g n9 !8 ]g z# g< ^g B3 !5 =^ R: 0% ]. q4 N] 1< M9 ~3 /g ,( g[ 5* q_ |} >3 F{ z& c. q4 O^ (g E6 99 A_ k4 !4 ,1 W3 >5 u( _g :g N( <g c9 +} l1 ;d J} e[ hc 10 [g T5 K6 q_ h_ t5 V8 e2 }g +} L3 |g 1g 1| (b 2g N] 3g :6 4g +} 5g 6g N{ s8 H3 b2 }3 L. _1 na 7g #1 y[ Re e_ <g ,< H] W6 J1 8g U| ~]  } yb Hb K% V^ yb 5a 3} 9g 0g <[ ag d2 @< j8 nb a. bg b1 ;| N^ N3 dc cg dg 59 _6 E/ |1 6. X{ eg Y] 71 {_ l] =/ 0e ~] fg B3 N9 gg K^ hg d[ Q5 ]. $< m8 T$ |} _8 13 ig >  Ec S1 jg d( kg q7 2_ ]g e< lg j+ r^ `( G] s^ 44 Z^ mg D$ ng u8 I{ R[ ]a G< og (0 8g 8c d0 :[ pg 7; qg ",
"rg sg tg n# 1[ R: hc ug U9 vg P7 wg L^ d5 =% M] c_ xg .: g3 ,+ yg $5 `: -f w| Y| q| 34 y8 I/ zg F} I( Ag Bg Cg Dg w+ Eg Fg E4 Gg Hg ,7 Ig Jg Kg Lg Mg Ng Og Pg Qg Rg (c Sg Tg je Ug y9 Vg Wg v3 Xg Yg Zg `g ^^ A%  h .h o[ +h @h %6  / }[ 2_ m8 ^/ #h ]7 c$ g@ pg <g m1 ,e sf f_ p( ;| $h R6 3e %h @: &h *h =h F@ (6 52 7# R: &| ,/ oc -h ': *} O$ x1 j6 ;h n2 +1 >h C2 ,h -] C( t5 7# 2g &] .| o/ L^ W: ,< m1 q4 9: >5 _0 g[ P5 _0 i4 'h ![ A_ ![ )h >h z3 !h ~h {h n2 g_ `3 ^c {/ ]h ,3 ca /4 D/ l^ S2 d} k( l2 &3 .{ ca ^h >{ u^ +/ p{ q4 @< /h 0: (h J3 31 L/ Q7 k4 :2 j8 _h :3 r8 :h <h Zf K< B2 o_ [h Z] }h U~ db V[ %} d  |h 1h 65 M  hf 2h P$  : f1 Y^ M~ /  3h 4h $3 a] <7 O] jc S4 w|  b ka M$ 5h If __ #^ 6h n3 7h I{ */ x4 E. 4% 8h 9h 8} l0 4  T~ +[ _c L^ T6 <7 0h ah >@ 7@ i{ bh ",
"ch dh P< ye N9 8( eh -6 h4 l3 x] P3 l2 g: `< =/ .| A: Q^ fh gh  d u6 Ne 0} i_ W< .} P7 hh u8 i# ={ ih i~ jh O_ H+ U= kh he lh mh nh oh ph qh rh k- sh th uh g{ n- qh vh *a wh xh yh zh A- Ah Bh Ch Dh Eh Fh Gh 9^ Hh <^ Ih zh +; S/ _8 Jh aa c[ .| |[ $] Q< P} C0 yb Kh Q} L3 p: Lh W1 c8 0[ O< fd )_ |} [{ R7 _7 f1 Wa >: u8 }3 .} E6 x% `5 ~@ Mh 2_ ![ Nh !0 s5 g: Oh 4a @/ s1 /3 /g ]_ H< %^ aa Ph Qh =6 jf d1 e[ L6 Rh (^ Z. Sh {{ f9 +^ U3 [6 Th qd O$ 79 Uh c0 C2 Vh Wh U: 4d Xh Z: Yh a< ,] '+ B3 ~[ 8( z7 Zh `h 1: `e  i Pf .i |[ ~@ &] +i (1 @i .6  : K^ (d |: #i .] <_ C/ z1 G: $i %i o1 [4 _8 n] q% c0 58 ;3 &i x. aa V. r6 A5 T] y8 2: ': 74 i[ #e F/ &: *i =i %] -i e: M5 J: %< ;8 l3 44 !/ M[ 6+ T: W6 ;i _6 t/ j  >i ~  (} r: xd (  h( q_ 0. ,i N9 z6 9: K^ f<  2 A: j  7| 'i )i ",
"!i c% g[ .2 ,6 6# P( Z] ~i 5_ ;h .2 {i ,@ @[ +| X| Y5 C% b% ]i d  ./ .$ 4  ^i G} N( k3 E} ]. /. /i zd (i _i /c :i Q' <i [i }i y& |i T% 1i 2i L$ sb 3i u+ Gg 4i Kd 5i 6i '9 7i p] 8i 9i 3_ x] 0i ,c ai bi t% e+ <6 ci eg di ei _[ V_ N( r: 52 fi ,< ~( ld q[ +| gi [1 L} &f =5 L3 Wa 37 %5 q[ {6 hi ii L^ %] u_ X} Fc #6 Oh &+ 52 ji y7 /+ ki _8 &3 ./ li P( F} z7 mi ni /1 oi g5 o: 1| |7 =+ o: 72 s4 `] |[ #1 zg U3 E3 {i Y[ 1b ac .] -] d1 ^5 pi P( qi ri E3 +d si ti ui vi 61 o8 wi D2 3d 99 qc ): xi vb Ye z: n5 v. g7 p< (5 o: w2 N5 O} yi m. zi 37 p( Ai =6 h< Bi Ci #1 8( u_ G+  0 Di M= Ei $< I} ci Q] ;1 ![ (b m/ e# `< O| Fi 64 y[ P$ &^ Z. Gi ]c ~6 s] :/ Hi @/ A| Q. X[ >  !7 m] p( T( @< #/ J: Z. <7 ]6 *e Ii Ji .% <] H! 4# ]. l@ 2  )e S. h  ^8 )  V+ H1 Ki P  Li %! l@ Ei Mi Ni ",
"Oi V0 h_ J: S6 34 L} 1b Q: Pi _8 i[ X| I{ T6 q4 ka Qi Ri 0f V7 L_ Si p_ U[ Ti ~* n% Ui V4 k6 L^ Vi Z{ Wi Xi Yi Zi `i  j .j V] +j @j #j .7 $j D; %j =! X= &j *j =j ph -j ;j >j a_ c. ,j F[ 'j y: )j Ah !j ]; ~j p+ {j ]j ^j ,/ v_ qf t5 i[ Ac /j a1 p: W5 (j P< 2_ _j :j 09 <j ea [j (6 5b U5 g^ }j |j W+  : 4_ t/ k3 1j m$ `1 d5 2j q[ 3j [j +/ 4j G} _0 bd =+ >5 8e (b ~@ 5j f1 h| H] o8 x2 6j A2 7j <a 1g R0 B} 8j >d 15 N^ L/ 77 9j ]7 k2 %5 0j o/ b_ h9 aj De 89 tb u2 Ab )c =| ~+ B/ Q: Dc ^5 bj &] ]c +} U^ X| Y] [g M/ J3 h< k0 :0 a# cj j8 $| /# ][ W[ t( |_ &5 !| ^5 g2 dj L^ Y@ ej fj .+ $6 m8 gj ^( #6 rb y3 Z. b/ {h ': 9. ]e D$ -6 /1 hj N( p^ ij D0 e< jj hf kj ~@ 9] a] 82 D( Le E: 4a b| A} k3 lj mj R: nj &{ Ki oj /  dj 9] _~ f$ ,[ pj %% `{ qj |@ V1 Q} -_ rj 13 v4 L& sj tj ",
"uj vj P3 D1 D} wj xj z| yj <2 I/ M( va .( {3 *| 3e c/ O9 zj Aj Bj Cj I. l] 68 H. m% q_ 8] @/ f< S0 Dj Ej Fj 1f Gj Hj Ij Jj Kj 5( Lj y& Mj y5 Nj le Oj Pj Qj Rj Sj  0 Tj Y{ &; {; he Uj L~ u& f] q. Vj Wj H$ !j Xj Yj /| (] 3g Zj wg `j +:  k Oh l5 6b .k 8( +k hc *6 g0 @k l1 >5 ~@ _e 3j R} ]2 &- #k k5 @# $k %k 5[ ): j  u< l< [5 &k |3 *k =d x9 /3 G0 aa j% =k U3 -k l2 N9 42 N7 P: ;k Uh A} Gi &f 48 Y. E0 -5 `: s{ ![ z1 z1 {7 >3 H/ X5 M[ [4 P3 >k >5 i[ << ': G: ,k '( _1 j< _| U/ 'k q9 q4  e c0 #: E/ a8 X2 P$ _c ': W5 +5 L/ N^ t< L/ )k }g Td L/ D/ T6 e_ 2/ Q[ ye K( 6% q. (+ !k ~k ;{ Q. 8b {k o2 ]k ^k Zc d2 pf Zj O| Pi T$ 5a i# /k o+ (k G< A6 >g wj l$ X] _k W6 :k <k 'f S2 -6 [k }k F7 #^ 0[ W+ !# >3 g+ |k m} b. 1k s. ./ q{ {+ R:  . C( 2k #. I( Pi 6@ 3k 4k Bg ]h <+ q1 y- ",
"5k  | 02 &| Rf ]e /1 5b 6k X5 N/ J3 V_ G< Q: h< *f q4 [2 j5 7e sb ~@ ,@ 7k q| g4 5b ,} m( v( e| 8k U@ 9k 0k ak E] de bk ck 69 T% F$ dk =4 ek fk gk H4 hk ~( G| xa 4k Wg P2 ik 7^ jk `8 kk 22 P[ lk mk B[ nk ok 2/ pk qk rk 4c E] s^ J[ 1  p/ 1j 1| u4 t5 S[ `j sk m$ tk E6 uk vk {9 wk 2: s8 ac q. xk yk S4 y7 <c x| 7| ca na z| Q< 6b w2 `e .2 /k _0 e2 r_ jb K6 zk Ak !1 9e b2 %6 Bk y_ d2 Ck V5 b2 uk Dk 77 X2 ,< 48 @< ~7 F@ L6 _c Y. *| Ek ^8 j2 ~h D{ x9 (| z3 Y. Fk i[ -5 ba 66 21 @< 4d e[ 2g ~@ C2 |1 q% 99 s~ y: z2 gf C3 u2 <2 Gk ,] e[ }8 Hk jf M} n8 T} 78 `} P{ 18 y< w| Ik Jk Kk U< B( s_ C* s{ (g t% s4 +d Lk D} Mk Nk %+ Ok I5 g5 .} Pk Z. Qk >^ U{ H] Cc T5 4| Rk ([ Z] Sk z1 .} 9< D$ P: &5 A| >^ ([ v1 u* Tk Uk _  Vk M1 9/ i: O@ Wk :# #3 <@ =6 e0 |} Xk I} Yk Q5 Zk `k  l ",
"f- O6 g4 @i .l +l 07 n2 <d j5 zg 3} 2: 64 x/ d: '6 7| /h d[ Z. ,} 9} @l e  ad Oh ~} 15 l] /1 ef #l $l %l 1& &l G| V] }8 `0 Pg *l =l -l ;l >l &_ ,l 'l )l !l 2d ~l K{ di {l ]l he ,9 ^l /l (l _l }8 5^ W7 2/ .b :l +7 <l )] y6 5a [l m9 }l S6 I/ |l S9 $5 {3 n_ j[ 1l L3 ~7 j2 2l 3l i3 h< ,h 4l ** %~ @} R7 k3 ,& [0 >5 5l B3 ]c t7 .2 'e 6l (5 ): _c V1 s^ c2 -< (| F@ 7l 1: R( 99 V4 Y] 6c c5 8l 9l ]7 ]1 0l =6 -6 >5 Lh v% b2 w[ Ab ![ s$ +f U6 )k =d 89 d1 al bl x_ /1 cl W[ u9 dl Sa o2 el E_ e_ }1 t5  ( j5 S[ q[ fl /[ Q} *| :< Hk i7 c6 _[ gl Y} %5 hl 2g ]6 il [4 jl %5 ]_ 29 ~# kl J* %4 M{ o5 {| (. s# ~: D} k3 .2 n: ll ml (  Ki l+ nl M. r1 >7 w< 0% w9 w1 ^  ol .# u# e: }~ a^ /d ^{ L% 6j O. q^ 0: ^+ '{ pl s^ T1 8  ]. !: ql z( 9# g< $% rl sl kd =% l% [5 tl |6 )] g$ ,: ul vl ",
"wl Z] +1 *[ ^5 f^ X} I[ xl [b [b m$ S0 yl ;3 Cf 2_ 3^ /^ t5 y7 zl T( 9< yc K% ;k s[ Al *  Bl Pi Cl Dl >9 !/ El Fl 9# `$ E& Yc ]( th Gl Hl n+ -g Il Jl F{ *; Kl Ll Ml *b Nl Ol Pl R$ .^ Ql ~l :+ Rl Sl Tl Ul Vl Y+ <~ Bg A: Wl Rb Xl d< 02 F6 -] ug Yl !3 3c d: &] Zl 42 al P< V[ g8 U/ {3 md `l  m p~ S/ K% l3 Gi ]3 oc z1 R3 ={ m: Y| T2 .m 0d G_ Fc 9: +< ~d m5 l< :b _0 +m j4 Fc Gk W0 la >5 qf n2 @m P< 6b [0 y8 (b g~ p/ +| #m v% &+ $m d( Qe e7 el a2 D2 b0 %m &m wj xi `] ,6 ,k B3 y4 U5 Wa A_ Y] *m }1 k4 =[ b: =m (^ `: g2 s{ rf -( )c {k Z. }^ -m :d T2 P6 )} :2 _a {1 S[ 2h ;m >e >m g[ %: 97 +4 yi j4 j5 ,m L. s# za |  @@ 'm |@ w| )m !m ^# H# 8: ~m {m ]m |_ 4% X^ ^m %/ /m A3 P: |k 5a m< (m _m .# H1 /$ i# 3% .@ }+ -_ X^ 4  o@ l+ ,[ }{ :m $# <m /d t5 .} [m }m |6 U$ |m 1m 2m ",
"3m 1| )[ g: x2 +} #: 02 .2 z7 37 m/ x4 .} |7 48 j6 q9 ,] h< 7[ 77 X[  : k_ ji 0_ u4 4m W] 5m 6/ Ka !5 ~@ U< $^ 6m 3} t< >0 7m 8m 9m 0m am bm cm +j /* dm :( ~/ X8 1$ Sb em W$ 9+ *( 1_ fm gm Jd hm im jm j& t~ Lc l: Z| km U~ lm O4 J6 *i /[ G9 [# Q1 [1 mm Y. nm 37 a[ om u] I2 a6 pm w2 (1 d1 qm w# !+ w2 P7 rm l9 W^ )6 A2 =/ S. A6 r2 sm i| j0 tm y4 5} um i3 =d vm wm Ne X| F6 C3 xm s^ tf c0 ,| /< A3 /g L} 9:  ( ym zm  : =f :2 }5 f1 J[ ;5 sb Am Bm 2a zi Tc )% >( Cm A3 o_ Dm 08 Em M3 ye q8 77 Fm d[ 72 I/ 48 g[ il u} Gm |: Hm Im Jm &] il =+ Km <g A[ ^7 (1 +i Tc ![ h0 =i Lm Mm Nm /^ Om y| Pm L3 X} c5 y3 I6 |} +/ )] y/ Qm (} y. /  O8 D& v# Rm Sm 2k L| Tm a@ x1 2k Um {{ Vm 3l ## J$ 8  |_ @_ =] D$ {. n3 Wm O( I{ ]/ Xm ): Ym >& (] W6 l. =[ ': %] P+ 4  Zm .| w+ r] k. `m  n ",
".n t~ 48 )4 }1 17 +n 5{ W5 T5 Lf J< g4 -f R[ p| U/ 4| K/ y| u4 &k Y[ 8} ll V< Vd @n _] [0 #n 42 Dc /3 j4 ub 3} U8 5{ ]( $n /| %n &n ,g *n =n -n ;n >n n1 W_ ]3 xm ,n 'n =n )n ;{ ee !n Z{ ~n {n d7 ]n )$ ^n /n `[ -^ (+ (n f1 }b z7 A2 s| _n hf bj .6 :n +} <n .: z1 O4 e8 k_ }3 I} %5 b] 6/ [n }n |n *5 )< c5 vb 87 1n #^ k# 2n ): (| F[ u6 l{ X[ 4j 3n m9 m0 Q7 8c s^ s{ r| l. Y[ sm s{ e9 N( F6 /^ 1l j< hj +} I/ X~ `] +4 W[ 1: _8 (b &[ 4n O6 96 g2 5n 49 6n 7n 9_ +4 +^ ,6 ,< 8n ![ ,] ,| 1: u4 h4 9n 2_ 2_ Y/ /< F6 Al b[ +^ 0n an 5_ bn cn 8e %5 dn qf en G6 y| 7a q} ]c >d 6  |. fn f/ Z. V{ [4 If gn 0a #e S/ W6 p+ H2 hn 4# 8g Uf |0 :/ v( ^  g4 y$ in jn r% +& `1 {{ !+ D  Y^ Q@ kn ln %< =# mn %% nn '6 on v( a} ]h pn Pi ]h u6 Pi qn T6 T< (@ x3 ^6 ]_ s^ (a +| 09 d2 q^ I! rn sn ",
"tn E% g2 2g b. un Q} J3 r_ *# Fk N( ,( D( /^ =d G< s2 }[ %6 vn c5 yi 'e {h &] wn k2 xa J[ 2k sl $5 u1 (| w# ~@ l6 xn yn zn An Bn Cn g% Dn *n En Fn Kg Gn F^ (2 Hn In Xb k7 Jn qk Kn o& .c Ln Mn 5+ N] Nn On Pn Zg Dg Qn O% 5[  ] tb 1b !4  1 Rn O< .i if Qa Pe Sn Tf _0 x9 y3 y_ Tn Un z| :6 F/ !% P] x# q( Xe z3 :b Vn [1 I[ #< vb j< S7 d| _~ k4 ++ a. ,( J8 Wn R0 /2 1| Xn 9l vf S0 s} R: O0 y[ {| k_ J3 bb Yn 4_ :2 Lh l5 S6 Zn `n  o j8 Y] 1b .o +o i[ @o rf >& Dc -5 ]5 ze g9 mf #o (5 ~^ =( J( $o %6 pi nb X} Q} h< e9 p2 ri x2 (5 G9 %o M{ F} &o 2: =[ *o  5 O} =o {| -o z| j[ g< ;o q) T2 N/  / M5 ;1 P3 ${ ]] >3 X/ q% >o ,o s( /} w7 (n {{ 7} ./ k} e@ 'o W. 6% a~ )o v( !o I} S$ )o ~o {o h( ]o V6 ^o K% L1 /o (o _o 4@ :o {m Sa X^ <o c} T0 *  $% 7# *# g[ ]c =4 <7 @_ &/ U{ [o }o ",
"|o 1o (]  : 2o 3o ,6 u* E6 68 @| !3 K% _8 G9 >5 U1 0g ,6 G} G0 [b 4o |[ Nh 5o G} E6 6o 7o 8o q% L3 3} T7 N9 ![ )c 1} k4 >. {/ 9o 0o |i ao bo @j co :: do {] ,/ eo E/ fo go Wl ho  7 io e# ,i P2 _} jo La &; 1{ ko lo _= mo 3} L[ no oo po a[ 39 md 5b .i qo ad G6 v} |} k3 9[ ,3 t5 @. w3 Ab ro so Z2 y_ x4 /2 to uo <j vo p< Y} 5_ <m Bi #% 1. =[ 8  wo u* N: xo S2 e0 6/ ^e X} ;5 0a C^ q[ yo ={ /# Q5 W[ md zo [2 Ao =+ hj W[ k_ <o p< v_ .2 Bo [[ P7 b[ Co :% F0 z[ I} Do 87 ;^ g9 >5 j4 D1 t{ 7[ |1 Eo D/ |: z[ Fc Fo i8 Go R0 ag S} 7[ C$ ag :[ Ho H3 U5 ,h 9g +1 k4 Io ij >5 J: L] I= P) ([ d. jl q4 Jo Ko Lo n% Mo ~d ^4 No Oo Po Qo Ro  ( So X[ ;d ~] B8 To |h 7} @/ u* !/ :# 15 ~} x% X6 G1 <3 Uo 9% r: ^m /. Vo .+ |_ Wo 7@ }+ (} Xo 66 z3 l_ !+ Yo Zo Ld m% a: :0 `o K.  p .p +p J' ",
"@p v) P< ;| #p Y[ d[ 1< $p %e ]c @< %p 13 ': &p ^a s_ h_ [2 .6 Fc q_ i% M3 .$ S6 u( Qb $% 9: ,@ 0[ *p _[ 8b eh t5 C( V4 ^< =p -p ;p Q= >p v  6a '7 O< ,p j[ L[ 'p )p !p H$ ~p G| P_ {p _3 j+ ]p `a ^p /p !^ .8 Io @c eg 9f ,# u4 52 6c 6b _0 3l S2 y6 @m (p r3 3g /1 xo tg F6 5j q% `( Le J( _p :p %@ ]7 ([ =k ![ ~6 d: l] 3} Sa ): h3 `d <p G} [p a: z3 Z. [1 8: md {h 07 Je |_ ]c n^ P: Z. 5+ }p ^: )c [1 |p q$ V} Fh @. )3 .| R0 j% Af |} s2 5} X| 1p r1 U3 2p (_ 3p 4p 5p p[ {d D2 #4 %e (2 6p ea 2g n8 +1 >} 7p U8 g2 %5 ]c -] 9l s8 lf ld ;3 ]6 8p 9p W3 0p ap y{ |3 !1 W< bp M( 9_ cp dp ep B% &] Z. 0: fp o( Q. gp g5 }+ hp Ti 0# @$ @n {o 0e B9 p4 $_ $@ ,# 8  <e ip jp kp A6 <@ |} lp ^. mp B7 Q. m] np g% L| R@ t6 F@ e0 ;8 op 5a 4  D^ sl %6 v% V2 a( ;< .$ z: o_ S  Z] p( t$ x( pp ",
"qp q) Cb e_ ka X} (n E6 (6 P7 r| !3 8( ## oc S2 rp n+ U8 %] {# 68 G< }[ L^ &+ sp tp Pa up 0e kb >7 z1 R: vp m: x9 =+ E| y8 k4 d@ 4n wp xp 3# 3h +/ R( yp zp -p 53 Ap Bp a- Cp he A4 Dp Ep << <5 Fp 1& Gp Hp Y0 Ip Un Jp U[ D} 61 e[ Nb Kp X[ Lp .} q_ J[ s^ =o Mp k5 4c ^c Np Op V^ Yd Gc  { Pp @; Qp Rp e< c9 7| Sp j^ Tp A} ,( A3 (] 8e .# J8 .i h3 8e e_ R3 Up S0 Vp ug Wp wm L. 4| l4 vp C( Cb z7 A2 |[ K6 q| 00 E: w< /| t5 G} Xp 7# n# b0 *| )( J[ k[ :j a6 ~< S5 39 c8 <b Yp hc M[ Zp /1 m2 ]1 21 :d l6 ![ `5 s/ /3 /^ -] un |1 [0 `p 67 4l 22 J} >d _[  q q9 +f R8 p_ b1 2a a1 9_ Nk .q +q -^ @q 1. `n |e .( '1 l< e< #q l  _o /. D$ $q #~ P$ !/ 9/ >  {+ 7. %q &q *q =q ,[ ~* 5+ hn V+ -q ;q >q V+ ,q H! ;# :# 'q  * y7 _] E} h( x4 {/ ]1 S9 U1 >3 *  S/ M1 m. L< a4 <+ s# S. 8< )q !q ",
"~q {q T: l. i3 P7 ]q Wg 3^ a0 j< %( ^q k_ /q q} J} >| (q M  2k (8 }c g: yl @< [6 -5 _q :q F6 &| I2 <q Y] m% ~7 G} [q O} @| W0 j4 o2 no h# }q $( |q V< N( @% 1q 2q 3q {l 4q 5q 6q 7q 8q 9q 0q aq ': bq cq ~c H| ^< h^ lh dq eq C0 R[ +% fq 37 G} gq 99 }1 a< 2_ ya z: }1 (5 I} 1| m% |1 37 8( 42 hq W/ s^ @| f_ U0 s# xm iq p$ 1% X1 jq '{ Ee +| 5h kq C3 3l lq :< 1< W^ l4 L< Pa <o N/ {h L} /+ %6 M1 ca 04 -} t0 ,/ m/ i3 I{ j0 mq ki U3 1< ea h| %} h^ a1 17 37 nq Io Gm oq pq ~1 Q] qq uk &] |6 1| Y8 Ci I3 5_ N/ z1 rq &] 11 sq Ph tq D_ }[ `/ Z< '( l9 S5 _1 ^q k2 =h m( uq s^ n_ 6[ vq wq e6 T[ _* O~ 8: U5 i} 42 J] %. xq A6 no z( ]. yq Qj W$ P0 y^ G+ (a }+ 4. '] G& 8| d  U1 X  l# zq Aq L! Bq t# Cq p$ %. Dq *q t. rl >o 0~ T$ x# Eq {/ X} Fq ){ s8 Gq Hq z1  { $% v^ |[ Iq Jq Kq Lq ",
"Mq Nq s$ s_ ~: e9 s7 F{ *: 4b =_ q% ng Oq am yd .2 Z} Pq V2 Qq Fp z: Q[ A_ Rq zk }9 Sq ': @. 4% 4m /1 De c_ >^ g[ C| ~< [1 Cb I8 y< _a `5 _6 =  q[ Tq v7 N] Uq Vq 9o rb M| Wq Xq Yq Zq e( `q e< De w# ]g  r .r Wl +r @r Nj g@ x4 q. ;8 B3 P6 4{ 9< +m v4 |6 X_ /< #r $r 3} ,< ^8 ^8 Q[ J} j[ %r &r *r i[ e[ z/ ${ o: C3 9j Pa =r >5 /4 #[ .} 04 a<  ( -r K8 z7 =d C( ;r y[ U9 }# P+ i_ a. 5a ab ${ Q5 :+ 42 9| >r 4| ng F0 P9 -  +( ^4 ,r #6 l0 y| _0 qf =h !j =( xb n0 29 'r Ae W_ |^ |[ U5 5} R0 o_ 7# s/ Wa g: ta N( (n Y] /4 ,} )r ^~ ta L/ <[ /| Q2 !r la 60 S6 wg Wl &^ R6 (a wb ~r {r ]r ^r J= /r Hi z{ o: '. <m <k (r _  v( B8 44 Eq _r xm :r L@ <r b] [r }r |r 1r 2r .@ 3r a] Zo 4r &  ;* 5r 6r  ( cf 7. L< 7r (] 8r 9r  } B2 Ml 0r #^ ar a^ .@ y8 s( (. x. wb !$ P~ $@ Y3 br 32 cr dr ",
"er c; fr gr )o e% x% ^m y# hr ir jr &_ A$ u# $+ kr lr >^ ~~ u[ gg Z{ {# mr nr R$ a. ^# or E+ R: /@ L1 h4 q4 rb `: %c pr qr e< D4 ]@ r~ rr sr ,r 4# M& n$ J/ }l pc tr ur vr wr xr rc mn yr zr {j Ar #1 Br Cr Dr Xb 4l ph Er Fr d8 Gr 5# =[ Hr 14 I/ p$ s} V. Ir $< Z. %_ s{ a0 >& y@ cg 6c `( Jr Kr Lr M& O~ 4| +1 Mr H] 6| !< M: x# Nr Or 1| yb G< _| :3 F# [] ]/ 6% @{ rr ^. -: M< Pr no q_ 1f r# Qr Za ki b2 Rr n+ `( L} $% Sr Tr ;k s^ Ur *5 Vr =$ c0 Wr Xr La Yr ,} 50 Zr ~1 ~5 fk L[ C( <6 <* Z] ,} L1 ]_ 0# 8| u( +% U+ *a `^ `r  s W$ X3 .s +s @s t- w{ U. A8 #s cc  - yq p1 $s %s &s *s =s m; -s ;s >s ,s 's h( L  (  )s _r kj (~ p% E= )2 af J. !s ~s {s ]s G^ ^s C% !~ O) l  j+ '] /s @0 F5 -^ w9 (s _s M  a$ H& a@ N   g U{ :s <s y/ `f V% 44 '* s3 [s 6. Uf J$ Xa }s |s 1s 2s a! N4 ",
"^[ 3s 4s Fd 5s B; 1f |i q< 6s Z@ 7s `> '{ 8s 9s 0s >4 [+ V_ as X& bs cs ds es fs gs hs is js ks ls ms ns os ps qs rs ss _6 3q _[ c_ ts 'b 3% Ub ^l 3f *e D: 5+ ge `1 A_ us K5 &4 vs ,  U@ *d r] @b >} .i ws .b K_ xs G3 ys w} .c Jl s  9+ zs w. As Bs 9* ng t* Cs Ds ~; Es Fs Gs Hs Is Js Ks Ls Ms Ns Os Ps Qs Rs Ss Ts Us Vs Ws Xs Ys Zs `s t   t $0 .t +t C$ @t #t $t %t &t Y{ ^! *t =t -t ;t >t ,t 't )t !t ~t {t ]t ^t /t (t _t :t <t [t }t |t 1t 2t 3t 4t 5t 6t 7t 8t 9t 0t at bt c; ct dt et ft gt ht it jt kt lt mt nt -2 ot pt qt rt st tt ut vt wt hq xt Wd k- l- D~ yt zt At %h J* Bt Ct Dt Et Ft Gt Ht nt G# It b@ Jt Kt X& +; m~ Lt Mt Nt Ot n~ Pt Qt T| Rt ;7 L9 St d3 q@ Tt Ut p@ Vt Wt Xt Yt Xa Zt `t  u .u Fi := +u @u f/ g% 5% L  Q' #u $u J{ %u &u V% *u =u B# -u a  ;u >u ,u ",
"'u )u !u ~u {u ]u ^u /u (u z> _u &0 :u <u 2s [u }u |u 1u 2u 3u 4u 5u 6u ;~ 7u [& 8u 9u 0u au %q `+ bu cu du eu fu ;s gu hu M% xk G5 iu ^| ju ku Zo F< lu mu n$ j+ nu :  ou X~ pu (2 qu $  Jd w6 ru >& j_ su tu `8 7r uu N{ vu L} (a e# A5 wu {0 51 xu K< ae E/ nk G= !* |d yu 05  s '9 zu N) Au Bu Cu Du L= Eu G= Fu Gu Hu N; Iu Ju Ku z_ j& Lu Mu Nu Lu Ou h& Pu Qu y^ _: H8 6; Ru g% Su t& Oj Tu Uu Vu Wu Xu >$ V^ Yu y; a@ %$ P; Zu `u  v .v %> +v @v #v 59 $v %v C- &v *v .7 =v T- 8m -v ;v >v ,v 'v )v !v ~v {v ]v ^v /v kl (v _v !! w+ J* :v <v C< [v }v |v 1v F4 2v 3v 4v 5v 6v s0 7v 8v 9v $- 0v av bv cv Lg dv ev fv T= 05 gv Nl 8- g% hv iv jv eu kv lv mv nv ov pv qv rv x' sv tv =u uv vv wv xv yv zv Av X/ R# Bv n  Cv -~ Dv 8& &0 Di Ev 7u c& 8k Fv Gv Hv Iv Jv Kv Lv Mv Nv Ov Pv ",
"Qv vv R& uu Rv Sv Tv Uv A! Vv Wv Xv 5+  ; Yv u' f6 Zv `v  w .w P) >m P= +w I= @w #w $w %w &w u> *w =w -w G= ;w g+ Ig >w ,w 'w )w !w Cp ~w i^ q: +g $u {w E# o# I{ Bc e& ]w *e G' ^w U) /w (w 05 _w (+ :w j~ B% X^ <w 3q [w T] }w |w +. V7 $b 1w 2w 3w 4w t; 5w 6w i$ C  0& !~ (8 v3 )b 7w 8w 9w 0w C> aw bw cw dw ew fw 6~ gw hw iw 8! jw kw lw mw nw @7 ow pw qw g> rw sw tw uw J% vw ww xw yw zw Aw Bw Cw Dw 1, Ew Fw Gw Hw Iw Jw Kw Ru 3m Lw Hw Mw Nw Ow Pw Qw xp Rw Sw %8 Tw Uw Vw Ww Xw Yw Zw `w  x .x +x @x #x $x %x &x *x =x -x ;x >x ,x 'x )x $) !x ~x {x ]x ^x /x (x _x :x <x [x }x |x 1x 2x 3x 4x 5x 6x 7x 8x 9x fw 0x @- ax bx cx dx ex fx gx hx ix jx kx lx mx nx () I> 0x ox px qx 0! /) rx sx tx <' ux vx wx xx -' 3' yx W, zx Ax Bx Cx Dx Ex Fx {' Gx Nw ,> Hx Ix Jx Kx Lx Mx Nx ",
"Ys $~ Ox /^ Px l3 q_ |4 1| J8 >6 O% if A% _} O. Z. [k Qx Z/ Rx $< 0@ v: ;/ Sx Tx Ux eu I= -b ~2 ck Nu Vx /; 7  Wx ;n Xx B/ n* g< t( W^ gd :  Yx &/ Zx `x |~ `> c#  y .y Cn wn Md u{ U{ 6[ g< w= a. i  +y 3@ 3# @y m~ #y Q5 w~ Fb $y %y Zs &y 8m *y 6~ V# =y $- Lc -y ;y >y N  ,y 'y )y  7 !y ~y %d {y ]y ^y `, /y (y a/ v: .8 j7 _y :y [+ /& <y am Vc $g ws [y }y |y 1y t; 2y >4 !7 3y yg 4y 5y p* N$ |{ [+ !4 6y 7y 8y Gr )s 9y U! y} 0y ay by cy dy +0 V@ ey j{ U; &b f& `g sc  * ju fy $% gy Z@ +r hy 8m x6 iy >4 6( a{ jy l% ky ly my #; ^j ny oy >j 7q L& W/ 3: py qy <m ry )g sy R$ ty J^ fk uy U] wd !% vy wy xy *+ N  $/ w. O% }~ yy zy 9s @t c+ L{ J0 gr Ay Bw t. (~ U. O% 3f By K} 68 (| _4 F^ u5 *[ Cy -b E; Dy Na Ey Fy &5 -g A< E; O] s{ t5 85 Gy (n dh }/ Hy Iy -* Jy Ky Ly u- [y ",
"My <3 8c e< E] .| R} 3l a# .} ]_ 1<  5 z6 vb i# @[ Y_ Ny k6 3e N_ J: +} c_ 0+ ]. Oy (} b] S$ Py @_ Y| jq Qy Z. (a Ry `s |< X] Z< X{ ;8 `( Sy Ty Uy Vy Wy 5@ Cs Xy 5[ b  Yy <^ Zy 1f `y Wx x@ W] /% 5+  z .z U{ F7 C( l@ 0[ Iq +z @z <+ J+ s. #z =i n+ ^2 [i 2# $z %{ !+ Kl %z _( Yb gl x/ D3 Vr W] L^ %{ &z T2 1$ *z S/ =z (. K} ,$ -z !< ^a j^ Q5 ;z a< ~^ >z w^ ,z 9+ }+ _$ %_ m( B/ /o 'z oj )z v@ /{ ). ~3 a4 I} ;& Sa c0 +k !z  4 !{ ~z {z ]z ^z Xb Zd ]1 I+ Pg -  /z (z m2 _z lb ]7 %m Z] Q_ Q$ M  :z Q. *1 <z t* [< fh (| 05 .@ m@ ^% [z }z |z 1z J/ F@ T2 9. `: ]h 2z :9 m& 3z 4z gb 5z 13 tb 51 .: 4h 6z 1% |4 M. !  9+ a] ){ /o  | jj F@ Q5 Q  E9 4. 0_ s. X1 0% .1 [m $_ :# q$ G{ Dk B: C7 .6 `} {+ 7z Vr {/ O] W{ W] =h ;} {/ L< Z+ !# @. _[ 1< 8z v3 q{ nl 9z &^ N/ 0z az `} R0 :% ",
"|  V^ k  {$ L_ E< f1 A6 j  9. bz O$ sl e2 nb s+ cz Oh m/ T1 1l }: P( [0 zg m: N0 8} `1 C0 %% ;d p. J< 77 /1 T1 .} H= dz (s Ty p^ i5 @} &< Jf )$ *| ez j  .i (  O9 fz -. T~ gz hz ,8 iz G1 jz ,8 <6 Z/ E5 V_ 61 kz qn T( lz p/ mz N9 nz &  _h N1 Dk r< /[ oz &+ 8@ yq X^ pz o[ ek qz ih G!  4 =5 A- `$ rz M/ }# sz V. [r [b X^ 9[ r0 l] M$ Je 4@ Sa y1 ^# ]_ x3 D@ tz uz vz B% ;} y: wz ar G| xz yz B% zz Rr =| X_ 1| .] 3a s7 Az l^ Bz ![ Cz Dz )) f& E| Ez Z{ s0 Fz Gz L3 Hz *| Iz Jz .^ /+ +k ': Kz ${ '[ u# <_ l{ Lz l9 ={ Mz Nz w3 '} Xx Oz p} :@ 68 a% =m ]_ ]{ O$ 04 Pz t/ |7 a# (2 -% Qz =5 $^ Rz 2:  ( a. }# )/ dh >3 _@ 8: Sz Z. )$ Tz kd l# *. I^ Yi *} 42 Ce Uz r| G0 *| j4 Vz d1 j_ J( U3 (6 <^ }p p$  } *r Wz Xz ,/ E] 6( u} 8] W( &+ U9 9: D/ N5 N7 s: q[ O5 T} Yz t< |k d] N/ Zz ",
"K5 g< d[ (g [1 Y[ T~ |} n2 }[ @< q] l4 O] +d Vd (^ 1b `z O6 O$ C8 /e .( {+  A [2 s{ 5[ z7 .A O] k% _p @| 6b +A 4/ jr @A #A T& $A m%  @ j0 =f F@ [  #/ x1 T0 9: M% O  x# %A >0 T2 Sb K_ &A *A =A -A Jd Y0 ;A >A vn g4 *# 0e *6 E9 Y[ ,A Ne #: '1 X} 'A 6: Jh #( L5 Mo >3 uu )A !A ~A sl {A K} e7 T~ up v4 bd p( [1 5[ w# $< 1j Z4 8( D} ]h P9 l0 ]A Cf Y+ _e ^A 7| %] d| r} /A Za b  S$ /- Te z1 >  }2 (1 O} P6 p9 @4 nc 96 {i +< el nb i0 (A ow _A :A e_ e_ A_ %5 <A ~_ V_ vm [A #m `/ ## -% m# 1< }% O$ P$ g2 }A |A p/ z/ q4 g2 (_ )< o4 L] :@ A  .} E| d: N^ W[ nb o: }g 97 !3 P$ 5[ 6h c1 qi 1A ^# (3 L% Q5 M~ 5[ ,( T5 4; y. x1 2A y0 8  4%  ( Z( 3A _c Q5 (} T7 h4 Y_ W6 *# ~] n2 +e Y} L^ V0 g~ 5_ p7 &} 6h 2: y/ 4A 2} x# Jd 5A >^ X. $% 18 h< u} W] N3 ,( &+ 6A ## *| '5 7A 6{ X{ %] D} ",
"S] 8A ,< cj d} +} `{ z7 -6 nb #m M1 %( q4 O7 9A 0A vk aA Ui ln z6 &/ c5 Z. $@ O~ c_ U1 l< md Q[ T5 34 Re O$  : ^2 n/ bA X] cA z: (% g_ X5 X1 3^ l< <q Q: Ne S9 s2 M1 yq :g dA eA a| [m fA mz gA Pg ^A hA iA =/ 9( jA Qb kA /2 s| n% S0 23 i3 =/ 3} 6e %] Lh I} l1 |} i3 Pf e# lA N/ b9 mA y% !1 ya 09 R1 z7 -< nA a8 `( S0 oA <8 &+ ^: 9< T~ %< Xl A3 k( i[ 42 1b pA O$ qA s{ 3e l. rA I/ 27 {7 c5 c6 sA b0 (g ^^ +^ F} ;^ /j 96 17 tA ': y1 uA vA e6 7n q] wA g^ =( c1 il xA ]5 ,| E} Qc yA ;{ [^ zA AA N] i3 BA +   * fq +1 CA 0. S6 A} Y~ <2 !3 DA C3 l4 EA k_ ~} FA a1 A2 !4 r1 GA X} ]8 s{ i3 y8 >^ b: q4 =_ k6 7@ 4# ']  b _7 ${ [] HA IA 0e (o h_ 1. 10 07 $< 99 Re 5_ I{ d( {^ T~ @} o6 5{ yb JA i: ![ y[ 5* V_ }p 2. T6 Q$ L% [r  1 c} aa a# 7} }3 |[ KA F6  < P6 n@ Y[ [p *e 6b y/ S4 ",
"W8 _[ O7 E6 @e  5 K: ,@ `n LA D$ MA fg A6 yb NA ln -6 0[ J: 5a {/ 3g L7 A6 >} M1 OA M/ PA M. q4 $1 10 il en L2 (^ 2q QA $% mj D3 vb `] !1 v] U[ z1 RA &] l] k3 P7 SA 9| H: TA UA &+ E. Ub l< VA Rc WA XA x. YA ZA Lp @| 4  C^ g: y[ U9 I6 !0 qf g4 E6 q| =+ J( t5 `A  B dc ~+ bl .B z) g[ +B z7 48 &i L} &] y4 `| @B #B ]c $] T6 $B g[ M~ 9: no Ec ./ %B Y[ e# E] ,} :2 ~5 +1 (1 &] 2_ y_ D/ |8 L& &B +n 31 d1 *B +k =3 u9 j5 {| x/ x2 4% T/ =B -B }j ;B bp  i M3 M2 q[ 1a a< !3 u0 21 T: }+ >B J. s2 J8 A( ,B gf p< L3 Vd 'B sb ': [0 b9 z| }{ %] _[ xl |1 )B U8 ^8 .$ ]6 I/ ~e $< ;5 77 X} q( *< J6 !B 8h [  I/ n^ l# /+ >3  { ++ N8 x# ^h Uf no r< >. ~B N7 -^ ]g A6 f9 Q/ T0 >} 8] {B s+  / ]B >3 %] F0 q$ S2 77 ca >5 sk nj ^s `{ 7k F< &6 -: ^B <q r2 N9 s~ *< N/ t( Gc /B d( a6 =} l{ n2 ",
"a. r8 }3 +l Dc O6 s_ k3 >3 ^9 T< ){ (B ^c p: h[ Q{ .] y8 ^a 4# rz 65 l0 K% @. Pi q{ /} _B  f 4  :B xc Q9 X: l3 ^  `q 5( p% <B /: Yd L. @< ){ k[ :B 4j q| S[ qf [B |6 3% B: ad `y A< }B |B V+ p6 1l 1B 8^ 9f 1< .| g0 9. 2B Lp ka *i 3B 4B 8b Pa 4B oc 4j y3 v( <q K( 5B 6B h  (} nb d2 Rg 7B 8B ~3 s: P< !/ 9B A3 Y^ *6 h^ .4 0B aB j# 31 om e| Lh 4_ Gc A) B3 e9 ng a[ C3 $: *< un Y. a8 V4 X~ e( z: Wa na 6n /| ~+ W: `5 3} u] )B R0 -| bB cB dB 3- eB /z ~| ^8 `] e7 Ec uk ~h {6 s8 fB gB H< _2 _7 Ld t< vp $^ %5 !( 4% ka 66 U3 g^ P: E9 1j hB zo .: :5 sq ;< <g md m% F} iB jB  2 R6 &] y] y_ d  Q( &] d7 C: T~ X( O0 %+ S4 %{ f  Z/ A: c} K} W^ :: G< <_ kB !/ jd c_ K} *[ B1 4{ {* S/ :g D| $% ;d g^ Yo $% [  ^$ Pa [j Yx =/ s: ~; lB P$ ^  /^ p< 0[ $f O] ,< p( =m s~ m/ l. Ne 8c /1 3} ",
"^9 Y. -} mB W4 Pa #6 nB !1 {{ 2A up oB hf pB 4n M/ j} N9 +| u6 qB _e :/ G6 Mb 6  Yo [# q$ a[ jj 1| ,3 p( a[ 5} 48 rB Ls w= $+ c+ O4 .2 B3 I/ 5} sB A6 S9 _0 tB d0 Zj g7 ~0 ![ l@ y. uB vB >n ]1 p% Wj wB Ih xB W1 vp Q: F6 m5 s8 sk ;3 v_ yB zB Ae d< 4% x9 AB hc |0 yB 36 c0 5b .f o_ BB /| n1 )/ cn 6| T3 (} 1g l# o  CB tz DB EB /@ )c FB zb GB k3 5p }5 77 )c E6 wg ta 6p A: 7# C2 eh ^c HB IB o2 T2 36 JB ^5 +| s[ bb 2: A3 S0 )_ !4 >: #v vt KB ri c[ ea el LB v}  : k4 a9 MB NB A} OB B  y< 5+ ~7 48 q[ o| @d PB d2 {| ,( t5 a< l{ q[ [0 0[ E: I} >3 __ +n c5 s7 Dc >5 [b M3 nb }% .] Z. K~ [[ E6 i3 c_ =3 z( O] K^ W< zB K} |@ W. w@ 4% `y U8 O4 I# .} M~ :m kb a< ~B `| R$ QB S6 m$ &k 5b e$ {(  5 jp k} Z. U1 U1 r+ q[ u( %  ry k( $^ m} L3 G] L] A3 :b ;@ ^c ]7 RB Z] t_ '^ SB k3 -^ ",
"S< Re sm _a jb TB UB .( VB T6 %% ]3 .( WB .6 M/ S6 O8 XB 07 YB :[ ;} !b 1  &| ZB J8 Y. A| 23 s5 U1 X| X1 [0 Xl ^k B^ `B  C .C +C O. u4 @C U| [< ^3 n+ %k *[ >7 s^ -6 s$ mp #C `h Pi c_ $C %C b/ &C *C =C -C '5 bg ;C L6 U9 V4  5 ca Pa K% G< >C {h v5 b_ _8 g4 ,C Ae ${ {d 'C Vf bp ;5 b[ t* f  *5 a1 Ne nb p3 T6 8( +o R6 s^ Wi h# @e R$ ]6 X1 g^ ,( r1 cg u( J# vp 1< 'm _n P6 10 M. s{ M/ X} ~: s# 07 )C !C ~C {i {C ]C ap M_ ^C %| X] /C (C _C :C r8 Q_ @e Co X} :[ {1 <C I[ 0a _j G< cf x8 [C Vm >5 F@ (5 }% j5 }C c5 Yr 11 $[ ld z[ ^a l6 K# 13 i3 |C &o =3 1C 9b  e  : p0 &( !} Z: U3 s_ O~ W6 2C 3C G} /. Q( l4 e# xm r_ V[ N8 oA or  | ;: ~] !~ U7 !/ |_ 4C Z5 4m i# .i +| .+ Y. 5C X[ &^ 0+ ){ <+ ZA p7 1{ -f u1 g< k# ). .i L% ): -< Af m$ ). /: )e d% %4 ,@ 6C D} 3} r{ O: G} Sa }3 ",
"y/ 6# Q7 M/ Q: lf 9b 7C ~3 v3 G/ !1 Cc T3 k_ C: sp :0 M] '^ O] |/ B3 Fc q4 qc z6 H. S7 8C *i M8 c_ d< 9C sf 21 W3 [! 0C @v aC s^ @[ l3 vb z7 Y[ 2  }^ *6 6l +m bC (] I^ ([ v_ $q cC F6 n% wj Qa dC eC v  T: |3 [p fC gC l^ kd s} b7 ^a hC _b 95 md Q} y4 :q nb }5 ;3 @| A} >( eh ]7 Sq z: .g p/ !r t| .( o2 P< M/ J( 09 &6 A% 04 >& I2 Dc iC J< J3 .| ,e jC &3 -6 ld K6 qc -e @} Wz f9 _3 Cc kC C3 n^ D/ lC vb mC f_ C/ Sh bb nC ^^ of 8a R/ oC pC qC rC 48 j4 L2 sC t9 )c ^a i1 `< 1  /3 V4 tC uC !< vC yo i% |6 Z. _6 ug |8 Wa 6/ b] 77 wC R: xC R} =( M: g2 @d 2l .5 61 A} 0[ Mp B3 wm Qf Z. 78 zg p_ S< X2 1| .1 ^a u4 L7 yC J8 zC [r Vm 42 T1 /. kd f8 p4 T( c/ AC {9 BC ng ~{ `d e0 Zj CC DC a^ (# y< :[ O. a- EC !] M. ]f L^ I7 =f '3 }[ .( 5[ I_ hn FC O| ^o GC 'e +} r2 A6 ij |6  2 9B ",
"|6 HC -5 yB 37 #^ r8 x| a4 4| .f Lh V4 O} X} IC p$  | q( L^ Y~ l+ O4 09 T~ Y5 23 Tz ^m Fc `5 )+ }g Wa %B Vk 9a JC KC LC MC NC OC |6 0} |_ M( G< ^$ `d K# z[ @d j: b+ Y( PC %B QC j: RC SC ng :j ~B TC ]1 X2 y8 7p od T3 UC X| &i ;8 t7 ~f o4 VC WC k4 Fc `{ 62 yi xl k4 -/ 08 ${ S6 yi j0 5[ n^ XC YC m% V4 ZC va K% s7 @e t7 `C 2: S0 T5 ,/ @/ }: l5  D .$ X1 en 1a eh +} 7| .D h3 +D @D -_ O^  ( ~} |6 n[ |} }5 ^c ta :3 :q #D $D Iz >6 _[ Ns %D tn &D *D oc ]c g4 M/ =D ~[ g[ w4 #: 9: r_ Y. -D M2 ld  2 2: T/ +% A/ ;3 [1 j% ![ T2 >} ;D >D e8 $k (b H( V_ H3 ng C2 E< S6 /[ :m (5  5  : G{ ,D =} Q. Q: p/ 7| Wf 'D `e q4 52 h; 2A L% y_ W0 ,. r$ %< Na Xc <7 Pa &+ )D A8 G< B1 O7 W( !{ %y u( !D T1 $% L& %% X. $# D1 M{ q$ O] kA j0 !( 4~ l3 ln ~D E| y6 2] {D Sd 3# ]D x4 ~3 9| Wa S/ a< ",
"X[ 89 ap J} &| ^D O} >7 q_ /D i[ .f j5 2g l{ |} Dc (D 4  4h *  O. H] M1 |} %% kq Oh <7 _D 0e /k :D G6 @m #6 |2 :6 <D [D }D |D 1D X| J: ;} `h O0 s3 Z@ y2 #m 9| cC d} 2D V5 5b 3D p5 :B 4C c_ {o :} 52 F6 2k 4D y6 Ai  2 5D C3 66 6D Ef i3 7D &i t4 8D K0 9D U8 ^9 =d O~ Rp -< K: b2 0D U^ p[ nc )k aD O6 T3 bD Wp |7 U3 Vn 36 52 G< X| 6m =d T3 cD H(  2 u* &/ &f /D q% eq g2 W} R3 )_ H] .6 W[ dD E6 s8 |} ea (6 (z C* C* O$ Sh s^ a. ~0 X: eD Ru fD gD hD n: iD =6 07 42 6h ,| Z4 7} v8 G9 L3 ~( H1 jD 4% `} X. R6 G/ #m P  el i( (} =k D_ ;| .6 e9 `e u4 /# `: s# w1 8b kD ^q hc 2: 2g lD 6/ o_ k5 mD C3 .: 17 P6 I9 6# nD T. s# 0e f< !/ oD R[ j@ pD Ty 5{ qD rD u* r| *^ /+ ,1 ,3 f^ Q/ 11 j0 I# c/ >3 -6 qc s2 Y/ T~ W[ a% <] 6: e| /2 l@ L< sD h| tD Q5 uD +3 P. vD )2 v% T1 O< wD l{ D8 ",
"D^ Cf >3 .{ xD Ph m5 A8 Z5 /h ~^ >5 yD Y. 6c N( ~6 5@ v( 5{ zk zD #% $5 }] T< ^a @# L% |_ p< 7} W. AD e[ BD sb &| CD  ; d6 %D h+ 3b 5} Oq ./ x^ W1 .: l1  ( z: z7 0: n5 DD ^m VC ED T3 FD GD R@ HD .2 5{ Mh ID q$ {o m0 Ce /1 Up /< 0D g_ 8: Rh v_ ^{ h| wC nz 5b O} q4 ~3 L6 JD p< KD q$ +} 52 U^ `C M( 2a m% K6 8: /h Jo /j T3 LD 09  D 2_ MD oc 31 t< y| A: >3 z1 m4 a< E6 S0 -m x4 S} M7 ND 79 18  : e9 OD da 2h (n -5 PD a1 %6 ok Eh ye QD RD SD &] TD r_ 6# g^ }g ;k Q: __ UD  ( 7| *c VD k4 1_ 0e 0( =d l] s/ &B #< =d Y] f_ tk WD =k XD 04 ;k e2 p< %6 =[ 52 Q[ T~ .( s8 [k Va *| O^ }/ F] )] YD +/ A0 j_ '~ 4{ $  F9 B3 m9 L] $% [] I. `^ Q_ W+ |_ ZD L% %B (} 6/ U1 -^ 86 (| `D u^ :% s8 +# H< :[ /[ y_ v4 e[ 5l a< K3 %6 l^ J< 1: ;3 D$  . *e xc  E Q] F( (] !   . A) L| .E a7 Qb e| ",
"_[ >. z( J8 c_ ya +E  2 @E aa A2 8b @< .: (b l. ${ 65 1< S/ C  d( zk >5 /k -% I[ Rf uD X^ J8 #E ~^ e[ $E `/ `j [1 _' %E &E *E =E HA G@ x9 68 <q -E Sr Tp &| %5 VD j[ ;E jq ]. on S| >E 4n v5 g: ,E 'E 37 c_ P( 8g 0} '5 )E 7# y6 ^~ !E V4 ~E Jh T3 {E ]E X1 @o iB XB /^ mb g[ =h 9| I6 D$ t5 P3 +% S1 X1 5b v4 %5 l0 XD >3 +} |[ A} ^E Ta [0 f9 =6 N/ &] .} &3 l{ se I< 5o /E (E Ke Q1 d2 _E nA 67 T< [6 s4 j_ ,h j9 :E <E r| b0 A_ }8 [E }E |E 1E 7. Ab /4  : a1 :/ 99 |[ _] D3 g2 N( j5 R/ -5 a< X[ ]_ h  2E h< md :6 P( l{ a< [B M: |_ h$ 8% W3 3E ./ &  q_ 3# He 4/ dc 5[ C: Ai 4E t( A< U. d] m( -] :0 w2 }g g4 vb N( <# 5E ># u6 s} 6E %6 <# g$ 7E I{ P. o4 _[ z3 X[ 0# t< &^ ]. 7| D$ 4j Ce T< Z4 `{ Z4 xc v% F6 |3 t( 6( K% E^ >7 G0 nd md z3 ^a L^ 8E X. Q@ [@ cd ~] 3+ |} !0 W6 /h 9E ",
"4j V+ %] 4  0E G! 8% aE sk |[ Y} o: B} bE Yo Je W+ cE H. C1 dE C( eE a< )3 Z. O] P( j| 8: X[ .( Nb b8 LD R3 fE gE hE iE jE (~ &d kE z1 B3 x| PC C0 =[ y_ x# .( &} 97 +m 0a }l /h Lh @# ^g ]: ]e xA ;. G] ec 6# lE [1 *] P6 O7 a9 `C 3l Ac qc P( .2 64 Vd 22  5 =d 0[ mE nb bi bp  : E6 ]7 9_ q[ r5 *| /h >C nE =d @< Y/ D1 O7 N7 oE &] S9 o< @1 pE ;/ sp +% M[ 8a 4| t{ _0 `/ ^9 u} xa M3 m$ 2k h_ qE `] rE l5 J< 48 g: s] h0 XD sE |$ ;] ~l tE uE 0- g^ S0 K^ k: 3l A1 z7 v( .+ 34 `5 *~ 4^ p< vE 0: XD (k ^4 l0 ~i B/ g: W^ 37 *  =d &5 $: c} u4 gp T< n2 !9 'b L% -. x4 ^8 42 l3 ,< da .} .8 s3 l/ |} >3 ,] 5h ~7 &+ _e 0@ %. no z: @+ l@ `5 K( 8% Q$ @^ UD fg _e pE wE >7 ,3 IC xE =[ 5@ s] k( 3/ d7 e[ q$ yE X: {[ 6b p( %( a7 zE 0@ *[ B: 07 M{ Y. AE v  +| ^. 6/ g} BE  | E] ^: mn T$ .< ",
"*# 6: Pf %B zk 66 |k CE DE n^ &B L. s{ /4 O} ;8 DE ): I. a4 {{ Pi EE _3 w2 :B l0 N/ @. n5 X| F9 10 n3 )r pi @d Wa FE GE HE '- e& IE _e JE Dk KE G< U1 A/ ~} LE kA 1a Af 75 S0 n2 w4 %B G} 5b s5 ME w| l} -6 |} sk Wp NE D^ 4n s: Lk rD 9a }: ;E (b OE b+ u2 nf +C #m PE W4 QE &^ rk 3g &| P: tg @< Q7 9: #4 }} RE g8 n2 C3 SE TE nb g^ #6 S0 UE J: s{ l5 j0 VE Pe :0 E0 }} Un s3 WE M} m9 sk K} y4 N^ +^ -m =1 2_ x[ 4  9p ]1 T( Pa O^ U~ j| XE YE ZE d: `E M~ S} Vn R6 Y] X] g^ Y. |} z: u0 *# C$ |{ 4| O4 D} q_ .: K^ %] 'f {^ u*  F h< J[ X[ G< R( qf .F +F a: y7 @F 04 >3 K^ C0 )} C| ap mj j_ lr A} $< (g P( (3 :| O/ +3 ^4 jc #F hn ]. U< Cf &e V^ %< k6 ;f ;/ $< &6 C1 |_ *  [r &/ ;k L< T0 $F Pf 5_ 2/ p_ j[ 5[ %F S< 8c D} .+ s  g} W] o_ %] 1  &F 14 T3 *F P+ I^ C/ F_ k# y[ f1 [8 ;E ",
"s^ L3 =F 8q G6 h[ -F K( ;F >F o% ~: _0 Pa T. q| @@ |b ^{ >@ f} 4m 8e Ck p( Mb ,F T< _} Zy N9 79 'F -6 }^ M{ )F MD !F e' ~F {F =9 N. Q' T$ ^B ;/ AD /h M} @/ l0 ]F @# uk uf u4 o4 d< M} |4 ~@ x4 9[ D1 Y. u} q4 [6 x0 8e 02 (5 42 :B ^F E9 oE {h ./ -6 `5 ^9 p< {/ /F Re (F Cb '1 km x2 yE ,< C: sk +4 %6 07 K0 y6 #m U3 }} >5 ,e `: ,] <a ~} U1 :3 qo <c ;3 eh ~] Y. .} A2 `d W5 @| ea p< y/ C0 (0 k5 _F 04 9| bp Qf !3 j[ v^ N9 s[ $^ +1 Gm :F F= <F (6 yb [F y] (o D/ }F `< `< 8% ~( 0# 0[ p^ @/ u| N/ ]2 U1 |F uu E| 1: {{ A6 A3 _p V{ 5{ j% ]. _$ *{ 65 s^ 4# __ y@ 99 Mh ={ e2 wm l0 Y. &i %] {/ [1 O7 t5 `{ {/ ~@ 1F Pi 2F Z< yd Z< >. W( 3% 3F T$ 4F ;/ W{ )] Vr sm W0 s_ *~ O9 {| g@ P: >& A} Vz d[ .i g~ 34 Ee }5 dl S2 @| h< j: v# |7 {9 k6 S8 yb D^ {/ 5F y/ ^/ s% ]r 6F ]3 N< >@ +/ ",
"y8 P% %] 'e C3 @+ 8] F9 Ck #: @C A_ 7F 8F W8 9# vb }p _B 9F 0% d( A2 ^  M] T( kp af [  N7 TB P: Pi 18 I2 5o J[ ([ 0F aF bF cF ca dF _} gj {+ {h D/ Sr `d !0 0e G/ k3 8F X1 +@ ec 4c D$ ~} eF [0 ca ka j4 fF e[ t< :0 Lh ./ z7 1< [b tm l3 q[ >5 RE ,( [F <g s/ R3 U8 m$ |6 ~@ _[ ~+ jq b: n2 ea gF Xp hF iF Lh S6 (g /[ jF Yd R6 TE S6 5a }1 T3 5b ~: j6 i( kF lF mF ,@ Dc _1 m2 k[ 9: J1 (7 Z{ ea 39 e2 A/ {3 %1 57 M2 #D D1 U/ )c +1 l@ L} nF oF pF C0 ~: hg qF 1| ~@ j| 3l K} {/ !5 rF P7 Pi sF !0 ,d N6 ~@ *e ;8 &4 tf ;1 s[ T: J# bd ;d K1 j^ tF s* ^: y3 ){ {| *] p/ uF z: P( 4| :^ C* vF K: t5 C3 v] Ne %~ V+ r{ kj a% L7 v_ `( T$ aE i[ 6# wF %] ;% G] Z. H( O| /  36 p. *# F7 k# }g ij $^ 3} Re d] xF Ab yF ![ 52 &+ k3 C/ @% <3 zF D. j6 aa $5 K% AF }: -k BF CF G+ d: Bc Z< #< DF k_ ",
"0[ {9 .: P< [b D1 E| G6 EF (5 bb aa Ne z1 ;/ jc Pa =} f  2k p. .[ ec y6 h[ _o W] kq /+  / T6 Y. |6 $p h3 N7 (5 d8 FF cv GF KC HF IF JF >& KF l3 jb LF uo _D 2} 44 up ;E a4 l] Sb G< MF Mo Lp NF aa OF 1| yE zD V4 T3 PF ]c QF Aa 9[ 37 8} >6 Q5 ,/ 1  ./ sA 1| Hk Td y| Y] 9[ va Ye sk d} tk RF ea SF @| _8 Vd Td >5 /^ jq X} K6 1A TF s2 /[ 04 W[ )r L2 4F (6 k4 Q} `] c0 d} 8} UF T~ VF u6 Ne M( 8: WF GA h4 %| 08 jf Sq 6E XF +3 ][ Q[ YF Fu ZF J~ g^ 5h c_ Af V} 8E 7d z7 G+ 0. 23 __ W. j0 |6 ][ t< n4 15 N_ 6A V4 oE +# `F ,@ Oh M/ 5{ y3 M} 7#  G )$ O/ x8 M} N/ ~_ P< >3 Ke =k ;} R0  ] '. %{ e0 rr H< l@ ){ Ji E& D( .G +G N< w1 *e @G r5 d  |] {$ 1. N9 #G O. s^ (] Q5 Db Q  ;8 6: g: 1l P: G< ~6 %5 E6 Q8 R3 h3 A:  | /^ l+ Ox l< $G =f m4 ~: g< y/ 5B Ra m9 1} 0[ %G 9| G3 ZA -6 j0 ",
"&G bd zg ea g/ V8 %% mj U/ s^ +/ .i *G I^ &C E{ (b 4@ L< 2A W$ L^ n# q( i[ q{ |l {3 =G e_ u} oi .] Hb ^a D1 e2 u2 -G ;G >G Q$ G! @^ M6 <o T0 ,6 mb g: [{ .{ {{ Ku r0 ,G 'G )G Vf .2 0E S8 (b Vd 74 @1 P6 Vp T~ fg Td !G <3 &] VC P( Xd F6 b2 Lh (} L! ~G +f  5 42 {7 pm 8% i_ s2 :D D/ :3 8( {G 1b la ]A 0a |[ [1 r| i[ !( I/ v% a^ ]G 23 Lk W: <2 c} s^ d: }# 8: md ;/ F} q| ^G Ac Lp I2 e2 :e ld g^ |r Q: gl S} W[ }+ '^ /G (G (b )e !r _G B, :G <G zo ,( +  .( 6< K5 52 D: `< S/ M( OE I[ e_ %% ;] qn [G _[ 'e rj B3 d2 }G |G 1G yb 3| nb eq kd _] F( 2G <^ z3 (/ n2 P6 Q} 6c &] q4 w# n+ 8: /[ y{ T~ K% 0d G{ 9: l2 3G bd _} @. #% 4G {D 5G 0@ |8 v# ]< 8: J: <] y7 |3 T5 >} _c /. (b =p [b 6G =F q| ;E 23 Hk :D w< X| wm =_ z( 7G %6 ~^ R. 8: )[ Gi y3 *f >: 8G I. 8E ){ +3 |[ Ka w| 9G ): ",
"YB 0+ `{ +% F} .2 *6 Y( oc M{ X[ r: M( nb vn d0 _c s  p$ b^ 0G 5B D1 _c p# V9 >. zl P{ 2. Ne [# `d U1 r2 zb Rf zi aG bG cG dG #2 eG 0] x2 fG /j {G *i e2 k6 ;$ $/ a| D3 }l ca &} 9[ `n AF :# hf rF gG Q} L< t{ ~G md TB k7 P6 50 .} hG x4 [F +} r| %1 +f h4 n5 _[ =d S2 Yo Q[ j< ;| iG P< P( G/ a1 O} 77 z3 E6 [1 Q} Q} b8 {: =5 y7 ~@ y: O6 pq E9 {3 jG /  g/ X} kd #D $5 Yo >. ca |/ ts e0 ;E T5 d[ A/ Ca sq kG ,@ `} <5 u_ 99 E9 x4 |6 lG mG uv P= KA i4 nG O: Z4 s[ 5[ @} {{ c4 c} _e zk A( ;8 A6 d/ _} qc oG pG l< y3 W] 09 D} 6C =_ =_  G D1 qG rG W6 <] o< Kp 52 a1 wE ,e O} s} !3 A2 =4 N< @} R3 sG ;/ [m to w| <7 l] Z_ s# tG }: @n b# ll l@ uG ^2 d  Tf vG B9 sk 9[ Q1 Q( 2A U8 Fc Ai @} *# ,} }l cD h< j8 Hb d} ~6 L^ ;] wG xG X^ [} U8 3} yG .G C. g5 Yy y% Xz L! zG Q1 /[ +# .1 y@ ",
"AG ~3 kG BG G< i: A# h4 cz P( O] !0 (g `n ]. Df L^ Ac R@ CG s$ 6# }# p4 p| :^ Ai f1 ^F 8E 44 `5 ya DG h4 P< Dc c2 EG ., FG C! GG s% /k s: oG {o m5 *f =+ HG w4 B8 IG <8 ~3 y_ hn Ph 3] N7 U2 JG _8 ;h ^a a1 ]e 1l 29 Wp <g KG LG 11 S2 %5 S2 %1 |7 lm t{ jf I7 Bb MG Y( 2} @^ x: A} P< (E uF L3 Qb -^ eh Lk =h NG `< Lh Ny Pa Sa x4 W; b/ Dk i( .] L. K5 T3 E3 y8 ': =+ /4 OG PG d2 3^ s# ]6 -^ G0 M2 8e F0 z/ u} Vd ac y4 d} 07 w# ;} |} /4 QG RG SG 36 [7 P( M[ h0 TG ^8 Pa M1 n^ N( @. [B X+ }l A6 u4 z[ y8 UG }g Af tf 6  Z. vb q0 s2 {i w4 Y3 Wz 'f }. 5+ >. ]a %^ ': !( ![ o_ VG a[ :0 Y3 WG E{ %% 2} A6 I. uf XG _@ p( U9 [r -/ w| YG q^ &e [p f8 l< <8 P: 07 e[ J[ Y< u( 11 Pi {h I} 3r 11 8c Y. (] mB wo 02 h2 |_ ]5 6A ++ i# %B N7 (3 *i 1  ++ &} G_ :  z: ZG Um `{ p^ :[ <# =%  2 m} ",
"P  v~ X| ~3 i} m$  : d[ zl 7# 5} Sr 0a S1 -  O4 y7 2r y. *  .2 kC up &3 `G  H Cq Q. Aa D$ q[ Xy U8 |l Q9 d[ Q1 J} $x .H +H @H #H !: 4[ Dk aa 57 $H 4m }1 %H Lh 44 &H )G *H V4 l^ 8c c/ 4{ @[ |l }] =H 6b Vf n5 Hb Sn h< -H ;H >H s+ K^ P: ,H xc S2 (2 .: i: Np g4 'H f8 %5 B( .2 y_ v  1b .6 <^ ~6 #+ md 1a pi j[ M2 Fc N5 X} f1 *# }5 tG 6s  ( z1 @C !3 =# p2 .i F6 P6 c5 K8 [5 q| r2 PG |q e0 L: Ai 6b 13 =+ M} r1 u[ y| &] )H C| c0 f1 G6 !H ~H A~ q9 Bi Hm =1 )$ M{ [g 2g @# @/ V{ `@ g@ Z. D  H0 )_ K% A} [[ Q. )/ h; 4m Pa $5 ]e ~^ {H Q. Vz |_ )$ y% p# a. c9 #: z3 !3 ]H %5 {/ >} N] ^H k# /H y_ Z< N8 (H bd V. /3 _H Wn U[ T$ y7 :H <4 N( !: G] w4 Eq }@ i# +| vb j< WF w2 Eo Ma /# ^9 5[ Jh A} n2 I8 ={ Q: i( a# A6 (6  / oc +m Y< W+ v4 ^B <H O] ~6 s$ m< !+ ~3 BE [H y[ 2% W% O/ A| ",
"H<  5 *f Lh Q@ o: O. E$ q4 c} k5 ng nd 9: P+ v% oA 99 ++ l@ md ,+ ,o 1n BE }H I^  H G0 p: `n 8| |H ME #: S0 @e O~ 1H 2H 4= 3H 4H En Y^ 'e 5H pg m. 6H Z. 7H $% k1 8H 9H lf &| jq =/ 0H W{ aH Y. ^c t4 k3 n^ r_ bH g4 ^9 D} Y. :3 ^9 )C WG 7# 8c U1 *# d: m0 cH .( n8 Lk @| Z4 D6 wp dH 02 ^9  / K^ 4{ ~6 T3 Y} w2 Vy >7 Te ~@ i( f9 }/ c_ 0[ :^ a[ C( t4 HA 0[ l6 8[ 4# s} Wk M3 N9 6k i3 eH Y} j1 y3 >7 Z4 [[ Ne T< Q7 l1 fH W6 6G z7 J( >5 (y gH hH #1 Re &] P: t5 Y| .( =% ^  e[ $} ;E v~ $_ R@ P: ]3 d| 5a iH 0# 8} A: 5+ /3 .$ jH L< 4} 4B q3 _c y8 ~] 3$ F6 7} 8% |_ z6 37 .$ L3 36 4k W< (g )B )} -  p] kH z: lH ig ^+ G+ Y| 2F mH 0@ g5 g5 nH <# o6 s5 W( c} r2 (  10 ld <q Sr $% g0 1: J( {+ 2} g5 6# y7 M1 j: .< oH 'm j0 v] M/ ea |k lm u( x. Ne l< pH 10 1  FC E] o: i4 o{ qH k@ C. ",
"k# mn W< C  f_ |6 1. rH f8 $% _0 J6 qq p. ;C C( N_ sH a: YB a4 L1 ;3 }: tH wj 0# U[ uD @l uH j0 N( b+ f< X1 k} -/ B= vH wH u~ h} :g ig g] 'm _1 ]8 J( $| 77 d< xH 5: tf (] yH Df R[ W4 J# I/ h7 =k `<  : Mo Z4 ^4 ~7 '^ qy k. d1 Vz #: N3 _] .: zH AH !( c5 {h jb .] T0 _c M: BH 77 ^c u8 i3 =5 !0 Lh j0 A/ L3 L3 if CH |q ;i DH p( 1[ ~3 S} EH %] m. xm ){ }} *  :^ :[ Ne Pi Z% sq FH m( l. +k o7 ^< x2 =h ,j (b >} /# `] H$ M( P{ ,6 g[ d( GH HH IH _] (^ 05 Eb O$ .}  k Wn q[ ^] a^ A( l: K% JH a% |_ V+ >B xm !/ xH `2 N( KH Vn 8_ 28 A} 2l a[ E_ n+ E{ LH $} ;k 6C 07 M/ F/ .2 Vr {3 Tc B: E_ n0 .| O^ L^ q_ 2k R3 X] `1 .1 X[ aH )  ME B3 d. W| V9 %_ {2 W1 b2 0# P6 UD V1 p. j4 4% x| Li !3 ]: ja C  ': |0 {6 e0 MH G< K: z1 7} *  b+  - *. C( ~3 Vd B: s: j: ]e 8} ~] =: v( *q W< o@ +F ",
"]. l3 V0 W] y3 9: yE u} Qa ,/ 5[ ': NH d< ~  1j wj [0 u_ Pi p. T3 n5 =/ ]f OH %B 2: uo h| m/ 7a z7 z1 4% o: 8} T5 PH fx QH E$ -  *8 ^9 l2 ~6 6b 17  E Eq Ka 9D I6 RH ./ mi l4 _0 .i SH Wp U7 6# _b TH yi S6 S2 e: l. UH )| /: =/ 5a W6 +l Y. $5 VH u4 m% B3 ,( J} i[ v% s8 ug *# >3 S6 G< ,{ D} <7 l0 ea .f ki 'r 5_ ': WH Cf XH lm +E g5 YH |/ T9 p} ZH l3 UD 0e g4 u} `H w[ V4 y] k4 U8 h< Ox @# :/ 4  v~ ~@ s# 36 ]6 8b  I ]g AA x4 9< .I +I @I #I $I Y] U9 %I j[ 90 RE p9 $( d( 4% )/ ~* n^ ;{ aa f1 V+ @/ W8 (o (} _c 2k *# &I I/ }: p( Y] h$ Z} ~6 *I %5 e& Y[ q9 g5 95 p[ [# :@ zo *o J: i3 &C j^ :_ _[ B: p$ _c r: c+ m} l$ k6 >< 5a j0 5c X  4@ Q$ z. a# ka 9. @2 .. `@ V[ l3 5} :b  1 R[ l] a< ;f =I Y. E9 z6 l0 Pi ]1 =r  1 :/ Q< }/ $f /  G} Eo !< &| C^ y. (] -I ^~ lB <3 7} z( y< ",
";I Wp u* ni 4{ =k e$ V[ +4 0: -6 Y[ >I q| ,o tf Fq ,I 'I O] .$ &/ .} |} d$ h8 Xo +@ K} )( m6 )I j0 T6 !I O9 J( 34 ~I {I Z; dj U[ N/ e[ ]I l5 B2 ]f ]I Cq v4 v5 Xy 2e $_ Ae ^I w| z7 l0 un Q: /I B3 )r w| .2 %B &| Vp ~4 n0 u^ Yz 77 nb BE c0 5a Lk Li l6 }3 @1 l/ L] S6 Le a6 |} -f (I a7 Y  rH P9 U/ s8 E: x9 o4 X| _I t< 68 l0 J] Zj }/ &( '{ p4 !: Zh sq i_ :I g: 1| UD b+ m% 74 P8 I} Ox %] 2h gD =p ad fg ,3 A2 R6 <I a0 [I l1 V1 Df H  }I |I 5k Do ': o| t< j0 I} g^ K% 1I bt H( 3| 1~ ;9 f@ ]e [[ g~ Zj  ( 5* %% :< |l cC N9 @C h3 e9 E$ to [} J. |  O^ s{ y3  E A/ 5$ g^ |[ u( D1 i6 e2 %( z: O$ ,@ X] )G ^e o. *~ %( U8 Sf C8 V2 IC t4 2I CH *e !/ *  s] !0 7a qG $@ j6 eq Y[ ]/ F} r| O0 }+ I{ Q: ]. >1 +| -6 [0 (] 1l =] g5 M/ y/ t7 rD g4 Xr (n |_ <m s# M%  } (~ P7 x. 5j 8} 6/ E/ ",
" 2 X[ (D +| D} 17 i3 ;/ 09 E6 /+ |k t( :B %% Z< 6o 3I 4I r: e$ Y( M0 G0 @C 8D x. `[ 3j 5I Qo 6I U3 g4 :0 ;} 8g J8 7I 8I 9I P. }~ w* 0I FB $F aI l: U1 bI DD cI F6 dI eI t7 8c Y~ `d fI gI hI Sk iI jI z7 ;/ .] w< =1 K< ]1 Z{ kI lI 5D T5 G0 5l R6 ca Q: GB 37 )3 ^9 O^ Li _p O( +} gE jj p| qc mI P+ Ph 3# Y5 R6 nI b* r_ L% G< 54 s.  5 oI 1n eH Q_ @} m% :< O4 09 j[ X| ^9 2_ V4 }1 1: =_ x| t4 pI P+ i7 zl 4l sf l^ q[ J( 1j }1 P: k4 #6 bA $0 qI .B rI V_ UD `h |[ D( z6 l4 Q  M9 F1 |} s# #% =% `| z6 n4 ku  / <7 Cq 4% 5j T1 @C :3 B3 I. !( l# I{ $+ |[ o6 &+ A3 <# 6C I} -6 G_  / ba (5 O0 !+ L} a0 +1 Q}  H Li `1 sI up 66 sI )2 Ac _. tI zl /: n7 U  I1 Uf m$ k4 ;E C3 uI Rf vI wI }: U7 T1 3  fc L3 G< |k O9 c2 v_ `e /d XD A6 =% <o <3 -@ g@ A6 p( }+ .| xI yI 5b 05 zI +[ 3b p| 1l ",
"m% 07 l3 l^ {: X^ [# =k 4_ wp b# s^ zk 75 ]. _4 AI [@ y7 &/ jp 5B ^4 d: aa J: y8 s| L} BI qB W^ s| %F yi *  q_ s# CI DI *s 5# EI P: +D K( 5b  ( FI ./ GI HI ]c k3 _8 f. 8E l} h_ V6 x2 h< DD <3 5H 4B ca K% c_ =/ 62 05 |{ II ^a tq l^ ]H D1 ]f ^c +o %5 Qa 9l NA L6 X} _@ A_ ]g Iz (~ N} X[ Ce p< >{ g^ Jz n9 ,/ Q. [y 7} ]3 K^ k6 4n 'm JI uD 0[ +1 KI |_ -/ |} Ck .1 k4 U/ Ci NG b} U7 F0 LI q[ ~: q9 31 12 o[ `< Q7 v2 }3 =_ r| z: .: MI NI OI PI /< e< p3 ac ^h 13 il h< s# Y< O  ,r R{ u: AG {{ QI L^ s% RI p( ]/ A< L1 >/ h( m} 0[ :6 9< l@ p# SI zs A: c6 o  P  K5 60 }  na i2 x[ p( dc '+ 4j r| l6 G] ;k _c KI ]3 T< =/ 0# =i d$ t/ )  4m 8} rD J8 TI k} C0 UI 3} L. _e X| 5a VI g^ 2k hc w9 kq z1 3# Q^ _o TB */ }: @^ 52 A| ]2 WI :[ pl :o Jh XI (] 6: YI B7 =2 Xc k3 J$ Nh ZI M~ Y. ",
"x7 r| $F t7 P< rE F# n% 96 @1 to e9 ng _} (o .[ ;f $3 L! r1 Q] @} ,6 d[ [b n[ Z4 (} ka 97 `I I/ 5[ P7 R3 P: 0+ :^  J +g ^j y. Y. e_ s^ e[ .J k1 x1 .I Hb %F +J [F 46 Yo 5{ eH @} 6b wF .[ +m 0( 23 54 &| @J 0} #J b2 }{ /: *F &i N( na p( >^ 15 I< 57 A6 ^9 _1 |3 'm Fc =4 *| <7 [  2c %e SE b: :6  / |7 +| kd  H L0 ^a ,F M3 64 1  1% x% Sa E: 9H s+ Z] to @# Df FB *~ `h S8 (G X] <p /: 2# >} ~0 %+ J[ $J x9 `{ @< }} ap j5 Ub =+ ^2 q| ,C %J &J SD -e Ai #< M9 '^ s8 q4 *J &< 4a D} _] +% R[ K0 {B ^{ O. =J 5j E9 dj '3 c} `{ 1| A6 A( zk Xy ]2 c. -J N( C( W1 Z. rf ;J V~ X: f| L6 t2 %5 64 <q N^ >J ,J 'J  / a] 9: k6 m@ 04 R} P8 l] )J Y5 9d !J t< 1: a~ v_ :b bd oE a1 3l 10 I7 !/ y_ ~J :/ y< ,6 h   2 48 h[ S} {J 4| ]o ,F c_ .@ }[ 4  _o 1k q( 86 U~ s^ O| @. K( *  ~@ 5* G3 1< [0 W# ",
"g4 V1 w2 5m &< A6 S0 q0 g[ 4n ~@ ]J 6C =+ p. .: E| O( @$ R( e_ D/ G] Pa 4_ {6 D$ _c O6 P0 }} l6 k5 |7 oc y3 (  v_ !, ^J /J (J y4 Z. L% T< q_ Y( m$ _J 4m YI O9 :J U7 <J [J Hb 09 aa }J &3 uo |J D3 1J 9. m/ l# o4 v% <3 2J y8 T< 6@ iH :m 0d Pm .2 g5 jb ;3 ~[ 3J 4J ~7 7c 8c 5[ 5J 6J R( #6 7J s2 36 *6 /# +1 1a O4 !< 8J Tk J[ 9J YG F7 :~ .1 .@ ~2 f} Ox Y  zg Nz 9| a2 /^ 0J ;9 I[ =f n| _7 O7 t< O7 zi _[ aJ ]. c0 z6 -% 5[ Z] y8 E^ bJ i* cJ dJ 18 G: N^ ni wg r_ [4 /  +% Yo J/ ,/ $~ q_ r: <o Ty ]e `. H< G< ]. I{ 3b F_ eJ N7 m/ '5 '1 <] 3C T6 M[ '6 fJ e3 gJ W] N( t< 5o 27 W( ~} E+ #< m3 ){ f] 6p >. 11 $3 hJ @o *f t_ /o kq O/ n% K< #% W^ 64 ./ n8 A_ w2 G] s^ .6 S/ ;i ]] iJ =+ #+ /g f  [q oi /o xm <a J6 5* ^4 m4 q3 G_ N8 R@ xo !3 ]] =[ _[ y| )( .} 2: L^ N^ u( G] 9| ;/ g~ ",
"^h f} ~< sf g4 jJ C3 y8 U3  : Lp M} Y| ca L. 85 .} ]/ _[ <# va .} 42 C3 k# ~@ 0a ol ln 09 m% Z5 (1 ~] ZA  2 S2 36 kJ lJ mJ nJ XD D_ 7# ^9 l< AF l. ^h S0 4a t9 HA nD }] g$ /h oJ #6 Q} 5[ -6 ag ZG v} P/ F} P8 pJ h< W6 '# l0 -< 4a qJ X1 j0 &| J3 .6 p: if u* *} @# oG 7_ f1 9h `h q[ rJ 8c S0 Qf z: *6 Xd ~7 _D h| @# 4% w< @+ m% sJ p4 U1 B3 $% tJ Ab 8: JH J8 'm z( uJ sp R[ ## vJ <m ^I T6 q4 4/ i( @1 52 9j J} 8b wJ 13 =[ 15 #| XH o. xJ yJ J* /[ zJ l9 S+ a] vf  5 AJ S0 l# @} M] 5$ 4F BJ V^ CJ E| s~ {] c} &} DJ C3 u( 2g s4 ;/ X1 EJ M1 S| F@ 1n o: Up FJ T$ b8 Q_ z7 =+ @_ hc t9 L^ .{ o6 c/ {< 86 Yx ^c U7 H] 4r ng GJ [0 g< P: q. m. 'm HJ ;k eH O8 m% IJ JJ F6 om m$ Y[ W. aC D8 a: 0e S/ TH W[ 10 Y. l< 6A KJ &+ +C g3 9[ g5 t| 2k ]] J( ]H g~ L< |[ x4 D( /o F1 !/ =/ TB ub w| ",
"hl a7 LJ d| DD H6 }7 37 S< .+ q[ /4 W1 km L7 >& c}  { _8 t9 b2 MJ r1 <[ q$ r[ N/ 2A tk Y. [H %] i3 :6 _0 q8 X{ <# S' NJ a% (] Vp Y] OJ x1 PJ }: m0 Pi {9 5a Q} ;8 .[ QJ <q  E S0 1l G6 :/ ]a =+ 09 RJ O$ z@ U< x4 ^9 MC b| .2 eH }+ 10 SJ i3 TJ V4 0a :6 ): A3 j4 (b c0 `n ug ,@ #< Wa Li ': Yo .: i3 ^9 1| r5 I. ,3 rc =q |6 cd R[ UJ o: 8g f^ VJ Q: r8 ^^ 75 ^e |k u4 m$ 64 0} P: V. i2 !( *6 V} /I si e2 Ab _J y[ ^2 p( B8 WJ Jd w< ,@ 4/ XJ YJ ZJ *| `J >5 O~ 0[ _[ 71 '^ 23 J( C( o: fi J[ W+ <# :+ (g 0e C^ t5 uJ R6 .:  K q| F} P< #4 .K Y+ x| F9 8} S7 (  j  Q  Up tb +  ]+ p2 c_ _[ k4 =/ !  q[ Y. J$ i# +K /k S1 G_ h  G+ 6: (a |} h( <] <] 1n {+ Qa a] &e +C :g 5a j5 $: >5 !r u} km =+ .$ M~ ~  Sa 04 o| R( {/ O] 8g cD Yy pl '3 Q5 2+ b| %k ++ 0E ca ZA @K M] hf @/ :~ ;: |h >( h( ",
"Q5 yc p9 vb L< o6 Y5 ,6 #4 #K s[  5 P3 4_ F@ :0 Q: Y^ x0 yb {J S9 D^ R9 Y] n2 O6 9. Bb g@ q$ 8e *] H! m$ ./ c5 ^9 ej $K q# %K W[ x| /^ k3 ~6 Nh e[ &K p< U9 uf {7 *K 42 =K 3l .i -K N9 g[ Y( *D yB mm d< +@ e2 )a =5 Yi =1 a[ @. ;K jF md 3b l0 4% 5_ F} /[ 5b [F 4c Z] >K ,K 9: (n U/ #m lE t9 q| M} g_ g_ D3 `{ *i N: S2 q% up !7 09 05 'K a< &d k4  : .[ z: V4 a( )K p( `: 1j vb !K _[ cj w2 :5 ]1 Q1 }g bt o6 Y. =4 f_ '( `} $b 6: a# .I ~K {K <G L0 4/ ]K a0 J9 !r `e y| D1 `C s/ x1 C1 m% g[ nb T6 X| ug G} .] $^ F} 2a km j5 {8 ^K X| Y^ ^c Q. y6 I} (a p4 O8 o< 6  O7 78 ): 9e ^c ={ >} 8( 0d B7 R( /} ]D O$ C/ 5F M~ /K S2 i6 `$ (o ll 4  F@ (K 1J o  @.  H 8% 1  M1 q| Y. B9 S[ :/ C/ e_ _K X[ a] P0 U1 {G ## ./ <2 %% U  jd 5[ X  br S0 &| :K <K 2k J# k# y/ =/ Zj h( P. q_ |} (n 2} ",
"p: Q7 ^9 8e [8 ec &+ I[ W< Y[ C| x4 VG Q^ Lf 09 ([ [K `$ b+ h< }K |K '^ J[ q4 5B oi 1K Df ^2 @{ Z4 ac Y  (  ,3 9| PH 2K 3K 9~ Pa %5 1. %B 4K F9 L< (a n5 $5 dc S2 !I L% 64 5K m/ ^3 (^ ,A `{ m% 1: s_ M[ =: r| l+ {/ Bc 6K 7K t7 (  V< !/ 5r M: Vk P+ E9 ~] yi y8 J< [6 `2 q_ 3/ Y/ Lf v~ l^ 5[ `: I/ yB Q[ m5 l. o4 ]E hG ': b] 15 p4 M  (% t# #} @{ 6[ 8K S2 9K aa {+ v] 5{ /3 <q %B Y] g^ 4n t4 0K g: @/ 7; aK W[ 8F bK k7 M$ cK z^ n^ tg dK eK KI q5 (b fK I( (0 .^ i% gK 4d ]7 +f hK .f ;K Vd sm iK Te dc W5 jK ^c 4b .^ s5 Wa 52 #_ M} L3 kK kG o_ J/ 64 7| eJ r: rp _] lK E| bp mK =d A: nK oK q: ~: Ab 17 n% ': (5 pK Q: 9< p: 6: j# =/ qK `| $3 v] '} T( 68 0[  / rK 27 6E >3 h$ hn sk sK 12 %_ *f tK T5 `h %5 P( %^ ^K h1 4{ +@ 2% F. C( p( uK &3 .} R( 8c ]7 U~ x| w9 n3 '6 T9 n4 ,$ ",
"i6 -/ 2k E  A6 7| P{ hf Af 1| vK Ab e[ sl ;3 OE a# T0 F6 f_ .| J} _D Li y6  F N/ {B W( s5 t| K{ 68 k5 Y  N+ E+ r2 wK xK yK -: kF I/ |3 Vd 2j ug zK X. f$ 02 9( S2 |_ c/ AK bI uI `< 8g y7 1} =d ka wj 8e q| zK Sz BK |^ ;K 5h $% U. CK -; DK ep _} P[ EK '( 68 u4 T( C| /^ n3 FK +m GK HK @( z3 sk (  5c V} hn r# =/ A8 7} n^ e2 5a 5G k6 i3 V. M: X[ |@ D3 *5 ^9 >} xm IK Hr K# e# y8 Ne 99 JK m2 f2 hc Y| +k /1 $4 6C W6 5a 4F r: g~ D$ A} h, KK LK +k MK NK 95 W{ (g O/ h4 #m 3n ][ If ki  ( (5 g[ W^ Ph G/ (a Y^ IB !4 b7 (6 m6 3g A3 q0 en m: c0 1j OK PK @< Eb y8 Z] 5[ ol  ] QK vp Hk t< RK v3 j< o  'f 9z 3b {| M1 4% B8 h  |  4# `1 i[ ^  4n J6 gg #% U| 8: O: ~@ *| }/ M< Lh T( 5b P6 1. u4 l3 @^ ni 9h SK I} TK l2 Ck y$ (  s+ e| 07 BK =} Q5 +/ eH }: R[ ~d >. jb a9 I/ UK g< g[ h( ",
"@_ yE e# 9/ +2 w2 i2 ${ @/ D^ mB b[ C^ h  H6 g[ X. p: i: 1$ VK U8 m1 :j 4% Y] 77 z| ~} !_ @| Ec }: 5b ng YA 1l la WK XK v+ U. o[ n3 6e Vd  ( M1 rK 4J 0e [1 u4 [3 T( 7| YK l# W1 D0 /@ I} o: g^ c0 8: 8: uJ [b ug *[ R7 8: _] V^ `% ZK $! Ed `K _% $8 k(  L 09 .L B3 jb w[ P< 52 g[ b8 79 N( 3} 0} m/ R@ ${ @/ .( ]m 2k /[ Q( +L 7: @L ^~ 8} z: #L +K ]# @/ G} l^ m. a^ v] N0 c9 C8 *| w2 a8 :2 /h r1 $L 9{ ^o Q_ +/ ]< 85 q[ %L P$ d  ha [b Pw Fx &L L: [^ '5 &6 T~ /^ k( {6 ,] |8 *L -5 *| r8 77 U3 Fc =L 3} se 87 U1 09 `C W[ %5 4[ la S6 Re (5 X| g0 Ai @e 8a D/ F0 X_ +} ,< -L X_ ^8 z7 E9 K[ b] ;L ^/ Rf Dc -^ |/ >L ;8 yb u1 T9 `{ i# K( Vf (K ,L @$ Q. ^+ ~3 @. `5 LF u^ Sp [5 O4 t< |/ Y} Sf ]H _8 'L }: 67 t< OA 1. Ai S0 no X2 =} *K T1 .# 5_ )L !L =1 zD m} *| q_ 9# Nh G] NF v% D3 ",
"J: :< l6 ,i N] 6e }B hc 2_ &+ i3 z: vp Q: p| h< .| rm ;C Ck O~ _o sk V4 O$ y[ =I 8% @@ f^ r_ ,/ i% l9 Z3 ^~ 5a P: w- ~L {L ]L V| ]/ mB Xz T< 4n e0 )K ^L O6 /L Lh _a (L up _L :L <L Hb Sz bd [L C8 9d -6 :# K: >: SE Bj }L tD 54 Fh C5  0 |L 1L H{ !v 2L 95 i( H6 C^ #% 3L L3 q_ x9 X| J[ a1 :m ~@ ]e Z@ ,$ %1 d= 4L 5L #& 6L 7L ry 8< 8L 07 X~ =( kd ^o v^ y[ l< 8% P+ md [j 3j 64 _p P( Y: ${ O^ 9L =+ A( 9$ <# i3 N^ t9 6# '/ ~( 4% E& 54 0L aL Rs 24 q0 |] $: &+ ye _a 4b Rq bL h4 S[ &: 23 s_ 2_ -z C: (1 k# Q] h| .f cL E3 O7 M} i3 2g j4 Lk z7 (5 ![ D1 N7 U9 P{ ./ C2 R9 =m dL g^ eL c9 p9 C} Q[ }] z7 fL N( `< `e 09 X| s{ NA O7 r: tf m% ![ %B xl |} _0 UD >7 `{ 0( .( L^ :[ R[ 9: %5 ,[ u( 7C r2 `1 @#  2 =+ O: R: g5 p| Q9 [I a] r: y[ 4% >f n# v% 2} VD Y[ @< bj D6 j: ea p< c5 Z4 ",
"3b 8| ~7 +/ B3 E$ {3 SK s7 ': Ai s7 h  of *~ R: Ne ZB !b 8} jd %k M} s~ g/ K{ (  *3 Ei p/ L: *r Y] ]6 )/ q% K$ gL NI hL iL jL kL /^ 5[ x3 ,F Q5 ~] o. 9g RC Lh lL @% mL Y% (  *~ e$ g} %^ J( Q. nL e& oL C+ y[ pL A% 1  }~ M^ G( qL $| rL sL tL Kd Fj Z- D% D: 'e F7 j0 _n y8  : ~  d  2} wG M9 8| uL o1 r% yu vL wL 3* 3w xL sy Xu vF yL  } D@ 3: !^ L1 s~ .# L. *5 >} zL 6/ __ d2 ND AL WF @| 1j %^ 91 u< q0 H< C0 vf +F l+ Zk BL m2 5$ CL DL B> EL s* 77 #~ ){ <% qH e# v^ 9| Y. :< i4 n2 W[ FL 17 a[ ts ': M1 1| rz ,] L} t4 s: B} 5c 'b J[ 6/ B| T6 wf F@ x7 z1 5[ !1 /4 sf zb j9 f_ /h ~^ y[ *5 oc l6 xC Z. ba Iz i[ GL 8} r% V1 _o ## E| }< {* Z_ g5 q7 ^~ `e 8% r: Ox HL T2 &I IL ^/ 9. or M( ^4 X< UG A: v( `{ =[ (% /+ .| .] X] R[ P6 9A )} ^8 b] JL P6 j5 Y[ -  5. (E @6 $% p^ 5m 1A ",
"z1 r{ W6 P9 /_ x^ Q_ E/ t_ y  ;: T}  i i( R8 '_ g/ 2E ># I+ KL u1 m2 i[ lD R1 '1 ;] LL B_ =1 5+ y7 ML -H =/ Hi NL xw %2 OL PL QL )~ RL Et T1 SL 8: 9/ TL UL VL WL X# XL YL X& 33 ZL z) y@ ): j@ T^ YF H. J( &< `L )A 22 x@ 25 *s  M j| C. T{ _o .M }K y  F^ +M G  H$ j1 35 D& z: zn /: mz @M }# (r #M $M %M &M *M vs Z#  0 =M -M ;M 7w >M &i  7 g< ii @$ E: N7 ts Dc ,M D2 'M <] +& u8 <% D1 :| $: 8a S5 (z )M !M ~M o5 ^5 L2 y] T2 le {M ]M |i 0^ $i ^M /M b  P# (M E* _M j/ 9^ ;J [5 T# 5A E: (: p} ^o :M <M ef [1 Ag .| _1 8} {| ,[ X[ 9| 7# Vy `} w4 (] [M qn 3e AA xD I} x  }M |M !1 qG mq ~@ l1 HA H1 t| 2} 5e P^ {{ o. br v^ &< w9 m$ ;q Pk >@ #/ :< }[ J# ]_ a( N1 f  U| _$ RI e0 |4 :b u4 4@ B( )# O8 Ki ++ W^ J. t{ {| Oz (} 96 N/ 3} Y| k6 g[ 04 ^g Pa Sa sm c/  . @} H1 b  1M b/ 2M ",
"J; hp J0 3M 4M [& J~  $ j{ v+ P^ 5M I: ^. {* 2y Cz _* 6M KC 7M qv 8M 9M L4 7- s* 0M aM bM lr Mi cM dM f6 v{ zt eM fM gM ev hM iM EK jM kM lM mM nM e~ oM =u pM hp 3s =E I= qM rM f% sM _% tM Y& P* AG )0 K  Z8 uM qE k+ f5 S$ vM wM !w xM yM r/ >' L, %a zM &, AM 3M BM <s x- at CM DM [( t# EM `% +{ FM g* %! j< GM u# 9+ hu HM I* IM JM G4 @x e; Iy 7@ '~ Y@ KM ls e$ -: 9s LM MM zs 9: C( rr ;/ D  V{ 0@ 9( w{ t$ 1o xG _( E_ e3 #< QA u~  j NM OM m- PM u# Z= 3~ QM 8+ ;L RM 6! SM TM UM d3 s; f3 VM y1 (k WM XM YM 3I 0] ZM P@ 5E 3I `M  N .N +N @N #N $N %N &N 7r *N =N -N 2@ ;N >N ,N 'N )N !N ~N {N ]N ^N /N (N i, _N :N <N [N Aq |; -3 }N kp -u |N i@ J~ oL 1N 2N B) 05 8@ 3N  / 0# ~A G+ 4N 5N 6N 7N 8N 6J T  q@ 9N L{ 0N aN bN R% kp cN dN X& Qu '# tG S; It eN H' fN <z &s %+ gN gL ",
"hN I: iN jN Ls bF kN lN 2& mN nN oN pN qN $! rN sN w] tN uN ~z g% vN ;G wN xN /J yN zN AN BN CN eD DN u/ R) EN %D -w FN GN HN IN JN KN LN 8, MN NN ON PN QN RN SN [$ TN UN yx VN WN %~ XN }F ;( YN !w l  L| E- ZN -j +g |; `N j7 yK m}  $  O W, TM .O +O @O w  #O $O rc %O 7q &O S) *O y( &- =O =; P) >! -O ;O vA >O Y= to ,O 'O R2 |] )O !O h{ ~O {O Y& ]O ^O /O :( (O _* 6z %( @0 _O ;{ 13 3a h^ m3 e( N~ :O @{ y] Vo <O j[ o] ak C9 pb 9s [O eD M4 }O rh iv MN |O 1O 2O =u 3O 4O Sx 5O Lj 6O 7O a  zf 9  #w 8O 9O wN 4y J) 0O u/ R~ w^ c: ;s aO bO H) cO B/ <6 dO A> F= pe eO fO gO ge fo hO iO jO I: Y{ t; Tu a* #@ kO lO mO 3& hx b@ nO oO j$ pO FM qO JI >M E$ e& 9~ }F >} Sx &h nk rO d% e@ `> _} +* HM sO tL F& tO 3* O[ Aq H# uO I  vO wO 9{ xO [| yO zO Fd sv AO BO ]r Tu CO Kk DO p- ",
"EO Pw FO GO HO IO N# JO KO qx Fw LO MO NO OO PO QO Ia RO SO TO UO 0F ;> VO WO XO [) x, YO ZO !q `O  P .P +P ]) $x SO @P #P S> $P 1, %P &P |v f' *P =P -P ;P dM RO >P ,P 'P M> )P !P jO }x ~P {P ]P ^P Nu /P -w (P CN _P :P <P [P }P |P nN 1P 2P i- 3P 4P 5P 6P 7P 8P 9P 0P aP z; bP :C Rs cP dP eP fP gP hP =P iP jP kP `' lP g) mP nP oP pP qP rP sP m, tP R! uP /> vP wP xP yP zP AP BP Mf nv CP DP EP FP GP HP IP JP KP ^P LP MP &z C! NP OP PP QP RP SP l, TP UP VP WP XP YP ZP `P  Q .Q +Q zx @Q #Q ix $Q %Q ^x &Q *Q =Q -Q ;Q >Q ,Q 'Q X! )Q !Q v& ~Q {Q ]Q Iw GH ^Q /Q (Q _Q +Q :Q <Q [Q }Q >> rP |Q 1Q 2Q 3Q `m 4Q 5Q 6Q 7Q 8Q 9Q 0Q aQ bQ cQ dQ K! eQ fQ CP gQ hQ iQ jQ kQ jQ lQ mQ nQ oQ pQ k' qQ rQ T! sQ <  tQ =v K; uQ 2> CN vQ :x wQ xQ CP yQ zQ iN AQ BQ CQ DQ EQ FQ GQ HQ IQ h, ",
"ZJ JQ KQ kJ LQ MQ NQ o$ o{ Bv x* OQ ep PQ ~; 2m  m QQ x} hv F$ YH w+ |a <s ^O }/ #z M. O# -g X, :C T) 5u RQ SQ -~ G4 TQ M) UQ VQ yf WQ |y XQ Q& YQ |v i* H% ZQ `Q  R .R +R `P #' @R #R $R 6~ %R &R *R S= =R -R ;R oF >R JP ,R 'R )R ~) !R ~R {R p8 i' ]R ^R Zw Y7 /R (R Y= _R Ev :R b@ <R [R }R |R 1R 2R 3R 0Q 4R v) 5R 6R =s 7R 8R *% 9R c$ 0R aR V, a{ bR cR dR eR p6 mM x  fR gR e) hR Iu MC iR  , Q& pp jR {$ oO d6 H= ff D4 q~ g{ kR lR mR nR oR pR g& q_ Vx gh qR 5C rR sR tR o{ uR 5y J) vR wR 6r eM y& x- xR yR Z~ %i w; zR =' r! AR BR }Q CR DR 4O Fx ER DP FR GR ^z 2& HR 5O IR JR $' KR LR -w MR 1v NR OR Q! PR E= =P Mt 5; t> y( QR RR 4R SR TR O) %D UR VR E= y< |y WR XR YR ZR -3 ot `R  S .S ~2 qa +S C- @S #S y- $S %S <s H% &S gr N% *S Xa =S -S ;S %i >S ,S &{ kn lr s- ss 'S ",
")S |O q% L< H  m< 8} .} 9J ~_ 1{ q] _@ 6: ^2 x% ]h |h !S  @ f^ Uk ~S */ {S YK ]S *J 8/ E@ w9 /. ^S ]h Q. g< v4 C$ L^ Q_ z{ H4 p$ +/ F7 Zz 4( .B L& }m ;] /. [{ /S (S }+ x^ _S Tc .|  { 5h `@ ng }g d] Sa :S .6 l{ e< q_ }^ sC m: }9 Lh -5 <S 9: X~ [S ,] !< }S t[ fi (b rz n+ %| ]7 In jr *h |y Nu }D |S j< x[ I^ 1S 2S n> 3S RA d2 &] z0 s~ Ol /  ji r_ ,r N1 q6 j8 km }g V} 4S lj d2 u% =k D< q4 8M I{ _o g5 D/ `: <7 z7 6/ |6 I^ %~ g( )4 X] sB .A #1 5S b0 Q[ o[ x_ !9 5+ *a .^ %~ 6S >/ |0 r1 e( R$ %^ X+ 7S v7 C* c{ T~ 8b g: 1$ 8S (_ 9S 0S B@ __ Sb N/ ,( o8 ga aS )k P} 6[ G% C) bS cS g. ML  v dS `d x4 'm -^ P3 4/ q[ L| >& j3 ^h m} >@ {/ ~} l@ y| h^ :o =% }+ -] &B ^: W( eS I} D{ i( C/ ]] a0 1h i  fS ry J/ ,* R6 K( ^{ +| E9 5* k0 5a @$ 4# fg bz S/ L] .# L: >} O$ s3 LL #w gS ",
"wc q{ ,& E$ O~ {B e[ l^ |@ `2 T~ e[ 0+ AA L1 Z4 v~ s: 8e T~ T< v# <] v7 r{ l0 d  q{ )3 %+ U$ }8 *[ E} &+ M/ h; l6 /< &^ &h hS rl iS eR jS =% t+ oJ kS [] 9r 3# 6[ U} _c s# e2 E/ :0 D} <2 U| 8c .+ Y. +% Q{ {3 e# gq *# 86  ( ~* A8 Ty s^ L! !( 0# nb i3 6< [c sB +e SJ u* ^{ I^ j_ ta [< 6_ lS mS CP ip aJ q4 Lf Pc 5N !$ sy x6 D} tk t{ m& .| a] Pi Rq 'r bL n. X] Mp e  9e n_ c[ M} nS 3e ^s 4c r+ e< ;% P6 lb .( oS MJ P3 __ /^ c_ `E 4| 5* L/ '( E3 id -[ (_ 4# x9 t% m9 _# l. .f w[ {6 M$ +} T~ E{ ac ;k [2 {[ u< y6 .^ s2 E3 C* R: ]6 w[ `{ L: U1 M| >{ .< F[ a< p: =| ]_ WE 4# |. pS qS H, !} q( 78 J[ W. /L 09 S/ *6 O7 :% {3 x% 6/ h  q_ ~: (| E] =k 9| +# q| `@ 5b R: i[ 2_ 8( 8} l< g/ q$ Q5 :% Eq P  No (  C2 *f S9 h% L3 }] ,@ l] i3 y3 d[ _] 1| s^ P/ l0 w4 K( %] s4 i( p2 rS sS ",
"tS N0 j8 R0 Y8 bB `. k6 E& L. xm x| w2 4| I{ y/ Z. Q. Y[ <8 Q  uS E9 6/ u} n2 >{ s] rK _c vS ~^ <2 3_ &} `h }E g4 j: :0 U8 44 !~ 0@ `$ Q< lz =[ (~ 3% eA wS p$ xS 4; 0[ t( .^ J6 L^ 9. f@ ye .: 0} Do S2 q| ~f ## j4 q_ z1  : ~: ;/ T< (a 8% nG .2 ]( )o y| vp &] 97 Cm 2g Q< rf 5p ]c ;| ~1 yS zS AS C( C* ^K Y} cd :7 /_ 3_ t3 Gj =m bk :] BS {: Do |( ,j _y K_ 5} CS v% S0 d< @| #< Dk s^ tq Wa ;{ J6 z1 4  >( (b >5 oc G: >( f| 46 k( 8( L/ N9 P6 ~^ X] /j y3 ={ +< )r k# {^ $] ][ 13 D: |7 |} 2: 18 kK a9 _b X| P< 6: {: o/ sB 7| h7 ]. *f |^ .i k( o2 (5 ,/ E6 K6 .( {7 #e Q0 (1 DS ]% ES a@ s:  / R0 (g 71 o_ @< Z. '3 <8 g3 D3 0: d  |[ :/ k4 w2 <8 <3 8g A: n|  : g~ O7 <o >7 U1 i# J/ y8 ,& (. 04 p< M} j} |6 5h #^ va 9: /[ E. }+ 5@ @[ Z% kd 8] 9: $1 q4 o2 k4 KF s/ ~_ ^8 _[ mr FS ",
"GS v8 A3 (2 4l Ma M1 G9 a^ Q  W] e9 g~ _3 A: %] Z5 HS @2 -6 :B <] E^ S6 |[ Ox L< i_ #5 d: /1 _8 k( z| 79 `q M{ d( }+ j# )_ P0 8% |} |_ L& Eq R7 '9 @: 3C s_ )$ zi g: c9 Q  >3 B/ }7 S| r| G3 :/ sE  / w2 l^ s+ _p /5 IS <_ .B D/ tg q0 }d hf C( D1 ;1 JS fg p_ {6 2} 0[ ]7 j1 b1 KS y8 {k }8 LS MS hO D3 Y8 {/ NS >g :7 jB Tr &5 [+ G{ OS Z% 4{ 5{ q4 i9 78 N]  i B2 3^ __ WF %6 X~ :a PS =6 j7 |: q| s4 W} an <6 ye O~ u4 n2 o2 AH A2 5a }c c0 .] -5 ]6 Kf O7 18 +  S2 .] j_ e# p^ ,( ar jj {{ yb zm nb :g N{ P7 [< ]< 79 ]/ S} yl 68 e_ d[ Y_ u[ ~_ o| 0a D1 U0 ;< 08 ,] A/ fh ll rA QS RS SS TS 97 d2 `{ :6 (g A: l5 t< K( s| Z5 $5 S7 @4 <c gq |6 .] J[ s| hf p$ 0: A: b+ e2 to  } p$ D$ L& 8e =d 42 /: e[ W^ Cf L1 :q >5 Cf 1| Q: <d US D$ 4/ <[ &+ J: ^L b8 Z. 8h VS F@ -6 WS ;< 13 XS h, ",
"YS ^~ V_ 5K %6 Ld ZS IS r  *@ [0 Z^ r3 M$ 04 k_ .# e: rb ,. @$ z{ Z4 zs }z {+ i3 l6 `S l6 .$ 3< :+ 5{ U  R/  T E]  H .T 3  =+ /[ }8 m( eg +T >{ Bi L% g[ Nh &^ gg }+ ^4 7[ ]2 no &^ 52 P{ YD '5 <2 S6 q% O$ V[ N^ 4B !4 %{ zD ^a u1 @+ cn 'm s_ SJ J6 (| h7 #D 2a e_ D0 4: ~7 fK /5 @T ;5 C| !2 dK 5u $f #T <+ Fh M% }{ $T `/ &( N] %T ag 3^ u] 2_ k_ 7c xa D1 _[ &T bj uk J: *T ^a v% 9l x/ (5 _0 /G +( X] (1 e7 *# ={ d0 4/ Z@  ( 5{ x| 10 w4 C( W+ R8 =T L. /^ ,G E| -T ^< s] -< ;T Sa =3 6h To D- @_ Bg ye ib 68 P5 3E 5{ *| Fm @d c0 98 j_ Z4 j5 >T Q2 $^ 13 ;k h|  4 @| Bb +1 ,T 'T )T !T E[ ~T s7 =4 z3 S2 !3 G{ {T :/ i[ c5 %] X[ b+ m$ #m +# 5m x^ e2 Tf _6 j: 8| a< `1 #6 {+ y3 2: z( h4 n+ )c 5{ rk a< (| 1| T~ Ai E3 (1 a# Z{ b2 Ld v# ]J =( r8 F( _} W0 $< ;8 W0 s: ca s~ s_ ]T 8k ",
"v* S} +< G} {{ ^T 5_ D$ %B k5 /T 4  JH _[  p 1| (T 4# Nz *  _e Y. 4  =% Z% .( &_ Wz ,} 'F .i J} aj ,[ l: _T 2@ (b Zo :T e[ k_ :[ <d f7 @e +k <T [T 31 _[ o6 sk ^7 9< }T 37 Oh .+ 5o tb l5 y8 A_ ln _0 R: M/ 3l K% 3+ e9 <[ 5+ e[ D} 78 6c 09 5{ @1 ~] |T ]_ 3C D$ ~@ /K dc ]< 1T `] n[ R4 M{ .u 2T i; x9 c5 M_ b< e9 [{ Z{ ![ ,] ;| fi 2b ={ rq G: 3T %{ a[ ri mB P} C2 P5 K/ na sE q[ C/ |: e8 c6 1a x/ H} ]8 g[ b8 &] ,d +^ -f 8h =5 s{ /[ *3 '} @1 ~^ )} p: ]_ ~^ J[ *6 i( kf Y~ #< b7 N3 7C _0 ;/ Q( 4c T7 ![ X] :3 A_ KH u( l^ $( x7 /1 A} *5 ^~ Xd 9. {6 z: 39 K0 Re l^ O} z3 Pb 4T 5T 6T $} zi Ge 4j ug !( Mb M~ O} 1j V{ OJ i_ Zh X| F0 |6 +4 t2 8: )[ )} c5 %k x# nb D3 G6 0: }[ qB #F k5 (3 B( 74 68 *[ 1K u0 Ab 02 Z. Xd 5} 9| u1 =p s^ :/ 7T vb Ab j0 A2 8T l< n2 9T @| %6 u_ a* 0T ",
"mn ]{ :g aT g] 8T >/ @} :/ <~ E$ o  #C ;8 `< /2 r< I^ Y. 8%  * )o S/ W1 XD 42 07 07 p< A3 l9 tb f9 O8 >i 5* ;{ bT 9. 2g m/ Y8 |[ _h cT y[ h< +1 0l ]c .^ ,r )< q_ j5 71 z1 }p jS @< l3 Ec T~ f1 $1 G}  1 A6 `] 4/ O} g[ gb l4 F0 T< =[ Y~ :6 J< dT *} Bm 5} Y] 8b ~6 t5 l2 #_ j8 eT (1 26 r1 fT ]) xd h[ aJ R/ gT hT +/ nG L. T} iT J3 jT kT M} c5 >( )} Z} 1b P} lT V} g: =A :6 R[ }^ ka ye e9 EH mT B2 i9 ~[ z: 6/ w2 *| X] D} ={ {^ ^5 B2 E| z7 l. g4 i[ s} W2 W< &] nT P( %^ 6z /[ R[ D/ va 4| @# ]6  : K6 &/ s8 !M 4| v% c0 U0 /[ q| Q: oT o2 !3 C| z3 Q[ d0 pT 97 A} R4 hc mD _1 qT rT 2K sT r1 6h L6 V4 29 M} p2 ![ `e J[ UD k6 R$ 6I aa O6 Fr u] |4 M< 2C J< W] 4  ]] z1 (B gI +% V_  E >& *} tT Z. a6 <[ uT U~ g_ z: (b 6/ .| m8 q$ f_ y[ (o g4 P< ${ S} vT :5 <d Q: J[ Z. ~@ V4 3( wT ",
"x; $f 97 q[ ]J _8 A3 l^ xT `q /^ l+ V} W. rr 2% ,$ <8 Y3 P{ cd 2k k6 Z. t5  ( 3_ s5 ^9 60 L} jb &h y3 r_ ,@ ,} T: m/ |7 (a T5 _2 Sf :6 Bl LL @C yT F} _[ J3 U5 (3 w[ Qb k# A( X[ w| |3 89 =d ,3 0[ 8a ze pJ ]J =d Pa z{ s^ E6 _n j0 Y^ 11 4B Le W. T( zT n# l^ V[ AT _a >d BT Y^ CT }K V{ PE %; DT ET x_ +n G0 3o Xh U5 sB Q/ -e T/ jb *} =k /[ !r !5 W6 w< W8 +f ^q En L@ 1. 96 p| ,} u} V[ :| 3z K6 I2 =6 y_ _8 ,@ /[ U0 N} g[ N( f| (1 y_ :/ 0[ >} p( z6 A3 dn 8} #e FT l3 A6 x: P0 qc ug r^ -{ AA ~_ %k +} GT  ( o_ J< 2a (a @< Im M} HT #i W1 IT 2g z3 %| .( X1 JT mj w# u[ qi K] KT $K LT )D ,] U3 a. >h %k MT u8 E6 y8 q4 E{ L^ `{ #( R[ J: *i [1 .i ,[ Q@ 2E Vp l0 0( M6 .: 4{ *  ]/ @} 8: J6 =[ ;I >3 B2 q9 d< _0 }[ c9 'e ;| z/ +} 13 _| 85 q] W1 $< Y} h4 ad Rq ][ 2g l3 y7 c9 ^- NT ",
"M) k_ ~f w[ x4 6{ G< %{ 8} H] j: g| OT M~ LL Q@ Sq l{ !@ 4| Y} PT M~ Z. Lh QT g[ &[ h[ {d RT 4| M< y0  / cj ,} a< T~ j8 Q5 G{ [b u_ 90 s2 L] &^ @d ][ la 2_ `: ib t( (g U5 G{ V4 p/ =5 68 Rp ]. R[ /[ B3 R8 S( l3 F7 s5 ~f .6 t5 +3 ~0 T~ d0 @< 5o ST {G _6 SA V4 ]6 86 ,( TT (a pq UT tq MI sv VT WT r+ M_ Y. :2 Do Bg D2 XT V_ bb +} Kp tq >} l5 b2 D}  / 60 c5 2_ |0 U8 '1 `e S0 i# Q] U/ ]_ __ A2 _[ /j %p e_ 8h *| j2 6h +3 }g U[ }# I^ @| ![ vb P  N9 2k _[ Y] .B M~ d[ YT l] Kf 'e ZT 6{ F% M@ K# ^8 +/ :q W5 9| +f 8| ,w x2 r4 |8 eL C^ o4 u5 I} =+ `T u]  U }8 hc A# u} '^ 'b .U +U WQ sg Z{ Tr C* `] /a 2: |3 F} #% *i wj  2 k( U0 .} @U 9: W( @. 4  *4 u_ 9} S. 0. {7 P0 F# j| 6/ a# E9 J6 Yo {{ e# Fc 1| <g y[ .^ 21 n8 *} g~ x/ #U aa R( a[ 5_ c0 $U Km X] 50 x_ /3 7e %U 8H SM D> ",
"&U d1 t9 zb &+ 'f O] r_ y/ F7 0d L] f5 6( :  6( K< ${ l3 N/ 5B Q# *} u< W+ 85  ( A/ R[ bj 4_ u[ *| '( `5 y8 ]f #: =+ SJ K< X2 q0 *U |q ~^ 4h na J( [2 ,6 J1 <[ :j Y[ =U -U N7 s^ gI ;U +% l] *6 ni lf .2 GA aa J3 n8 9: b7 /1 e_ Ty S/ s~ ;E ][ C3 !d ~^ Z. /< ,/ _4 q[ >U ze u} Q[ (n s8 Cb Q@ ,U =D WG +f bK }[ <g v8 c0 X~ 48 ;] Y< &6 rc @+ Y[ !3 o( #3 L3 M} 99 ~* P$ 9| /[ 3e i% Z. /4 #r A3 s: xa R0 %5 }3 Kf 44 d: X1 qq Gy `/ 9: c_ |[ U1 O  p/ K( n^ p< O} U. 'U 4  z1 )U /g e[ y{ &6 E: t: n_ xa W] 61 E] C3 D( x| !U q0 aa ye a[ &4 _g *| ~U Qo =h +} bp 6b h_ &} g^ P{ A6 {U ]U ^U A- a1 /# 98 :a .: 79 M1 p: ;5 9| Sz d[ !/ +| >& sm b2 2: '+ P$ 1| ~* <# -+ ij /U ): r: S1 D$ S/ R[ P: ^: c_ Y< (U $f t( [8 1% ## _U p2 :| (6 O3 37 .| ![ :U nb }S 1{ L3 p] _2 W^ M1 (k {( <U [U ",
"lw (7 M9 }U I/ 'U K< 2_ S/ t| ,r n] r: D& M~ R: 34 r{ u_ S/ {* m0 e_ G6 _8 ${ V{ Hm 2g 27 0n `3 !1 Ai 8% 9( ,@ 5{ :/ q4 E] |U v8 W_ (G =6 ,} M[ ]_ O6 8A |] >T @< {7 _8 .2 U/ P< B3 .( y] $5  @ >5 D/ D} ${ kI %< O} (b R: A3 c5 2g :3 52 y: d8 n] h| W< >^ 9L u1 }g 1U C3 ln 6C (b 2U U5 :6 ;M ew 3U /9 W. :6 *< l3 =4 z( !z {: ka m( Y8 4U Gz X~ l6 5U X[ *e V4 [b }b u] a< E: *c o4 L. p( =1 '( Om 17 T} K6 P} =h Gc D1 5a O~ |% |7 >] va ,# ,d P( -( ]_ D3 =6 d( U/ g0 =d /4 U3 `/ {{ n+ __ J/ _j O@ 5a l{ 6/ G! j0 Q[ ~< 6U Wo |3 {6 9H b} ;5 Z5 7U `{ ^c q8 :U ln !1 C0 /4 )U O7 Q; @> 8U X8 P3 ]1 la sm >5 ![ e2 0[ ll h  9U W6 n+ 0U y3 ~: aa V0 t{ BE hf 9d Nh z: )] Ai 1G qc 0. Y< 4# 4n -^ R( P( 04 aU ]. ik %( ,} r~ .( ~] I} Za !1 36 $# r_ ~f x2 iH  : `{ 4^ ]h $% 9| Q^ (_ bU cU ",
"dU i( :6 >5 om O. ^: H  n0 F( k3 -. 4  $: t< xm UG  @ q5 j% uD h  p< ': C( tK Wp }5 ;3 mB `] |[ p( J# vn |0 !/ W] ]_ r^ `: ui x[ .2 s: c0 2h }3 <g wb +k Z4 /< >C @F ~6 <7 >( ]g __ #| -% 8h ': y3 1b I{ (0 p( w4 :+ gl wp (} a.  / K< q| A3 eU <] y] TS fU pi W_ ![ +f _h ;< 31 gU x: n_ ~< hU iU 3U o] }3 t9 ye p< Y/ O] 36 4j PB Re [n +f f1 $# Z5 p: a0 .2 ~@ A| q7 L3 ,/ @3 T3 jU 8% I1 5C 0} |[ `/ ea m% |: W6 J: 5o q4 l] J9 (n )| LD -/ 6C tb $< Cf tg j0 S6 kU ^5 -T #i Hk $( ]A Q} Tc q0 R8 Y[ X[ I/ ~5 '^ K} ~3 M/ p< Z% nb r_ )c <g 0[ _e /[ jK *5 .: /1 a[ v% O~ I} 78 j< &C X! lU mU .: 97 tk Qb S2 48 4d Z4 Q. 5H nU i3 -/ %} X. `{ k3 g: P+ Fc 5a u* q| Ka oU A3 n2 j6 9H kq ;d {3 _c .} P6 yb n[ D1 y{ V0 rq +} b1 k_ pU :^ -( 5o 4/ R} [2 Q[ ;5 C( @$ IL |7 `A *[ >3 F@ qU rU ",
"sU i[ .| nb P6 J( @| IA c9 )/ K< ti 9[ Xn tU *# V1 I+ D| r_ `d He J[ g: j% T& k% n2 2: x/ C  5_ D$ 8O t~ Y_ uU i: .i d  e3 4c (5 J[ -e ;1 BD )4 9l m3 1< e_ jl of M~ |} #< vU =/ +# J1 WG l] F^ 58 b2 4_ Qa {o +3 r| }^ FH Q5 wj !3 +/ iH O$ vb .: 5h <8 &4 q4 m/ s# I/ P< .: -T A_ &] Q: q( =  [O  s e_ ,M ,/ >I 6h E6 O$ 4c /^ K% gI R$ /e q$ wU V} J( +% U1 y[ Ge q[ +1 De i_ .f la W6 {{ Q^ K6 y{ R8 =% @d Z4 m/ o[ >& +# E/ xU Al ;/ (r Kp Uz w4 95 .f B3 M: `: L3 s8 J( I/ z3 q] a1 b7 o/ IS =5 I} z1 |_ P5 G] F@ ^a M/ T~ H. T: z3 BH |1 4_ {3 {8 =( *< 5$ .f 4_ */ GB m/ ]c i[ =@ yU zU <] C2 L. ~3 {| N_ s# G/ |} c@ 9/ X[ 4n AU D} }1 N1 X] g[ @+ 3r oJ L< km .i Vk 09 I{ i# 9| @. :I $~ u# }[ 2k Td W{ }{ (n j[ F7 `$ K% Y( |g BU 1| 1K s7 ;5 D/ T~ y/ s+ i^ z6 d: 0a P3 Co R0 CU DU ",
"wM EU  : 4c .6 y8 }} s[ e< u_ O@ /o '3 k# SA w4 xc _  N( I[ u* 1j 9: q4 M2 2j ;$ O/ 8F }: FU @^ K( lD /^ 99 Sq g^ G9 m$ g2 J: A_ ta v] ni *m 7g 5n P3 p< k3 =+ 6/ %q ]D  } GU S/ g^ M/ l3 N^ U1 Wk P7 Af Nh D3 t/ Un D1 e_ !] f1 HU 0a (0 l0 04 bp -e X: 9e `] !} }A `[ Ox Do [I +/ >d 2: >5 IU FM [u @| aS Do G/ Bz KA Q5 m. n5 Y( `e g: Fo ab t( m% NA Rq (5 4l (b h$ ,G >3 Wa 0[ S1 JU y_ B9 =3 N^ Fm G9 4% P9 #< 9] ^} k[ _8 T6 36 3} 1{ `e Y} NB ,6 W^ Qh s{ J} z1 h_ }^ #1 GB ac +^ 2l #i KU !4 O7 3| 18 j| Pa =% a^ J3 6K LU `q Hb y3 8O t0 %{ MU NU K+ >& M{ 6h 4p n2 IA k( OU PU OI _R uD QU C3 i6 @/ eJ r5 WG X2 D( 0  9J ;/ %4 U9 &F >3 }3 5c ll P{ {{ L. A( _@ t] <] _] '5 @$ w9 m3 x# Mj *4 R] %{ O] 5} 0+ ][ ={ s7 #~ f| R$ !@ e< %] 7| 3< ~@ NA e_ ij 2} 1< V4 l^ ~@ ,} W| RU SU ",
"8; $< }3 C: K% e7 :_ {3 k/ d% xG TU 7@ g^ S< f1 .i A# wb 8[ U  @# G< A} !( }p 2k UU Bg `% Em D1 y% -. h| 0] 4% &5 K^ <g x2 U0 Af g[ ][ 77 67 )_ %5 F/ v] ,3 .6 j[ u} 8  kd m2 !+ ]. }q ;3 hc -< &i 2  O3 V_ P< h[ 8h 1| O/ /: E} xc nG Q[ R}  : sf n_ (| e0 ]C l@ #5 5p VU 4# $1 WU |[ N^ b8 !o 4O XU @C Y[ a9 Mb u4 YU O6 13 5a G9 rk l{ K# n% `e j[ R[ i( l@ >} X: w9 S0 }# Q/ g~ 07 ^^ Z. -( {3 +< E} Y3 5s 9L >3 L] ,. K# V< ZU ,[ `q 46 3< #< Z4 g: H] jb `< ^D ~6 ni ]1 9_ 1a u( m2 Qh .6 ^B 7g `U  V I{ U9 l% U1 >3 ]h m% 9: Pb 8e A_ s] @# @C =3 .V Re #: t9 [6 |[ Ab Y. .2 &] {- +V Qp f# >3 jU e9 P3 sb rz %% 79 Xl ,[ W] (} t< 9. m4 Y(  3 @V a^ #V $V =_ T6 l+ {3 s^ g~ N^ /. [g L< k4 J8 k_ :/ O8 q[ s[ IC d2 ## Ab ua %V [k ~5 z7 $5 GA 07 b2 ,/ ^9 um Cc R[ <q M/ R/ E0 T( &V *V ",
"Qp u} GB =V @C 6C p9 v7 _e t( <8  ] s: i| @/ G< +# q0 d1 u# s^ .( R[ gg E] ^{ %| Ip c. -V G^ B2 Q$ !3 _8 ]3 z( ,$ q| -5 r| T8 tq ;V A} `: c0 cn -e o/ cn '^ d7 :B >V X^ y  %] L( g3 up -  ,G t7 l/ >3 Ld 12 0. ,V /g K} `f f& u5 SB F} :3 Z: 04 51 |} A: =6 77 6C 5l 21 (b W3 =6 C* +6 13 /g p$ 8k 7; !] 'V ]c N} iI f9 b1 V9 S2 3$ 9$ J[ {6 r^ ~G Y. O~ >& U2 h4 `} r9 @$ )V <m k|  F F9 %] 6/ SK s: !V d[ 77 o< .{ 1j Ae S[ -{ T] .1 K# q4 >5 4| ,( b2 Q< V< 18 !3 va 08 8a U3 .6 ~} |6 aa :] A3 p] Ck E& XD G0 Z^ *| &] p} Tz E9  ( jc <4 0# aA `} m_ m( }} a8 _1 ri .2 N} M{ D2 c1 ~V {V [R '. p2 Vz Ce _D Z4 =6 eq E} Y~ Wx c+ hG ]V Y| t< +% f| Ca ~@ Q% up s{ [2 6] N/ 5a w^ X^ `1 @3 X< |6 9: Z3 o6 J/ .[ (] s: FK T~ a- /^ dc Q_ 4  ${ O~ |0 Cf el 6C N9 L] C3 e< x^ 52 1J q$ W+ ^V /V ",
"e& nb |} ,( t9 o+ L} ]2 g^ @/ v( (/ 52 U3 6h /@ p$ }l H] q4 X^ M/ :b K^ (V I/ I< D9 _V !n Z@ k6 pg :V u4 v_ E& :  M{ P} .( =_ I/ <V 1a U~ k# Y/ }1 U[ F0 .| 09 h3 y| oq =/ J8 E& 9d l$ 8: Sq u} .# Y( J# a: _$ [V ,( .} x. ~{ '( A} Dr zo S< =d 5} L6 =6 ME L} Qq {^ kf tk il S: 19 Ur ys 8[ 4+ }V fM WM |V c5  < 5b ;/ 4% x_ @# w# 9< a7 F@ D$ P6 l1 n+ e| s: q8 :6 }H ,9 _$ 6: 07 N5 e9 Fc >{ V5 PE m$ 68 4[ L] Y[ Df P( 7g @+ BK V1 22 /4  : 6_ ga a[ vb Ec o4 ;j Ge A3 i( j< 7| .( pm ,6 ka i[ e8 c} 1V yb B2 w# 5[ 5h =f j: c7 D1 -  #[ 1n 3} @| Z^ j5 Xd [6 5} }c ]_ }9 c1 `} _[ 2V 3V 2v 4V ]| Q7 oE b2 u_ _3 $^ j6 BA '+ P0 W1 (  W0 (] z( 5F f5 R$ P0 5V s: 5[ O< 6V S< ll 7V $} Z. N0 ;C Uf C@ |6 a( g( 0@ aa _p 3e )3 l3 T~ ]f E/ &_ (1 M^ Z. $: 8V A} T6 &+ KH ,$ p. _B B( p: 9V 0V ",
"N  O6 >{ .K 8e -( ]c Z< {/ P$ V9 $f Mb o6 u* ': E( >5 Q5 ya Q: ;k ;/ $V 99 n2 7C `o ,S 0o HD 1< qf r< O$ s{ y8 Va *| Vd j5 04 l9 P9 j5 {k +} XD sH U. @D ;E db g[ cd g^ =% J( Li }# o< O] y7 V5 P0 s] 14 t_ ]2 E9 Pa P{ l^ 7& p/ +} $< U5 JS `{ ^S f_ `} ap ^5 KA W[ nA J( Q{ |q ![ <m E6 n0 aV bV 7u u( >i [+ bb a[ ^a x3 n% G0 l. 0+ T~ j6 Qu F} w[ =+ p6 5_ `] o_ t< ]. q{  ( Bm 5C vu 91 Z] =| z| #m A1 I/ ;3 q% 67 Xl P: cV 4_ !1 k[ [< 21 O$ J[ :6 z3 y4 O} sf 4/ P} d2 si sq )c n+ ~5 dV yE 52 eV %] n3 r: V} 23 b/ cd |6 3E K% Ty ^1 %] ya O$ ~s Q/ fV z3 D_ WF J: /g @< X: gV hV iV P; jV I+ Ez |3 if K[ a[ 5o V+ r3 W^ q4 *K x3 d< kV 28 F@ ^/ W6 Mb O] Ox L: c: 8] k3 7  aN J. >  Q_ O6 U$ R[ N1 a# l} YG =_ `5 A2 :[ q7 tT P3 /# ). <g md -/ <^ 'b q| E6 %] _e 1l #< _] Y| jb lV mV ",
"nV Pi a1 8e Re h3 oV =+ h( p. pV |  |z d7 z3 y@ [1 T~ y_ 9( 62 6| +^ qV rV V_ V4 Zy Sr (  O6 r_ N9 h< >f I{ xc s: sV ca tG 2g #G od 4{ q$ (D 19 5} +1 Oh `3 5[ w< ~5 Cf O6 E] Z+ l% ~0 77 -5 95 b6  H Zo bT w[ i( 4( t< z. g[ L& )_ 4c C2 lG ti [[ Ty w[ R( 2g I/ p: v] ]6 PB Bm v2 u] tV  5 uV vV wV }@ d3 I* 5[ 48 G] mB ~^ J^ 7# tp D1 ~: E6 `C A} Sz 1% (  b8 V< 77 `. R$ h$ }# 6/ xV 9( V} %| /[ |8 l1 (5 =k 8F !( r[ 7| lK q4 :6 u4 i3 9n <I l{ a< (^ d0 ya gf ~7 P3 WG p[ [q [E I{ 9| s2 s# J} p/ s7 62 p$ Mb <# yV $[ zV h[ s] ]. q( L0 Cc B1 +% 52 _0 @e A/ [7 g^ {h j5  e ^5 AV >c BV D9 6/ 0a D^ s^ a7 9| l@ 3% Hc ~} ': 1{ W  vz #/ l2 /* x/ 3# w| 5B g3 U^ $_ yb {+ 1n -/ D$ :/ k( bT p~ CV .2 OJ ## h_ ca H] {+ 3} J[  5 ){ `5 ~} .] sk +2 W] X^ [2 q4 w| mF b| &+  | U| k% DV EV ",
"R+ FV l1 <7 sV d: oi ;] .# =% 07 ^4 .$ 1b :g g5 3_ 1G x^ 65 h( X_ b8 z. <] M1 GV L/ ml c_ 4n qi $5 P: m% Pb /D s: AH vb U3 n3 ca J3 64 l{ Mo e9 ]g R} A# s[ 2: 4a z7 $_ SA v# A: 4B #z *. X: {@ [8 `} <] ^a 64 Pi dn ## t( [1 Do <d ea HV F/ s} }8 IV E9 K6 2a c8 f_ =| {6 =L f_ Y/ <g Bz JV T; KV WK V. [/ d[ y| N^ aD I1 j| LV MV 6K GB L} K8 k3 6k 7% 15 j5 <7 }b e[ 52 G! 2[ sH NV <. OV t( PV <6 O~ ~c ya QV L/ D0 Z5 V. il J1 m% [6 x# r8 RV <[ Y. g^ }^ qi L3 ~e s# 9p Vh 9H j| km o_ Hp Z% W0 `{ /o N( B8 j0 %^ g^ J( 8c j0 |1 :[ *# SV +/ 05 =E Z/ ^8 Mp 2} Z4 &D p_ WE i[ R0 X# TV UV W] YI b2 r_ h| fg *6 z: na q_ Af ~} N0 4| 4^ 1J l0 ./ 4n &| xk l2 qF %+ @< kC 64 R] _} <3 VV 4j (  WV 9. y7 >3 |[ <d P{ ,( c_ ]] -+ L] 1{ +< ~$ W6 T( u} ,# <@ }+ Eq K( 0e G_ 8V 9. 8c XV c; YV ",
"J*  : s^ 4b %1 `e m( `q P$ J$ &^ Vz 4% !+ 8% 'U 5} ./ f^ 4: s# K+ L! L/ .2 w2 2k ZV `V C( p< ,1 xa /4 3b F<  W @{ v% ac I{ .W ;} n+ hc s{ Sr wb D1 .] s2 b: O6 <I e2 +W s{ E0 z1 -r m. p# c} @W r3 W< s: _] M1 @s !3 .( /[ )B .: k4 P3 #W q( K: E3 3/ ]c X| @| Rn w< Y( .: I} o9 G: j1 bC $W J; %W aG ~s }8 P: s[ =+ 79 39 oc X] <o 4m O7 ~@  5 rD /[ p3 <7 j[ *] l^ s~ i6 E6 AI Q# ]O &W d: ,r *W P% 6_ `( B/ l] +/ Y] E& d3 h< p2 !} $: X5 L/ |1 qd +o ~_ {H {k (5 {| .| cn 2} W6 M3 ~@ 1< S] k< M[ .} l@ ca G} *| z6 1k i3 <2 k( v( ): P$ Ck hC =% ,}  | }# l{ ![ qo k4 :2 ~^ Sq x_ =W `0 -W (_ )4 q| m/ *6 H& X| S$ W< Df ;] [b @| +/ OJ D1 ;1 R( X| 34 0A !5 /3 @i >. .B c{ O% &m y] g: op 6% P+ 3l h( M: a[ |} m. <8 5K f^ T$ 5* W1 k5 ;W /^ ^a 8o :/ kq v_ #F t7 T6 %B 2: Z. V8 U@ >W ,W ",
"xL 6n }b 87 23 'W .| qf p( g] PT @/ (] T3 gg D9 {| )W l6 E^ k: =k !W 4} (5 2: XD ~W {W v% _B {6 |} `h _I v( B9 q( K} @6 I/ y8 0a /< E| r1 aj ]W  ( M2 =p rE ^W X4 ={ q] T$ .} BA P[ C| ,r 8$ /W 0% m^ *F w9  : E. X} =_ /1 I/ ;/ A_ %5 ]5 /C z{ xo Cb J( ^K  : '1 4c @< Ai c1 la o8 Qf uF ~_ g% (W _W 8o ${ L] P: 34  : M} .f {G }1 %( =+ h| +: 5o >3 ~} Y/ 9. `{ &4 y: Sa Im 5* l^ (] :W }p -/ $( e[ ac +f WH pm z: j_ D: 8] ~D i6  / l4 9: z| w2 ,] =m ea #m V_ W0 =z @D L/ <W J: ,} i[ [W s+ R[ vb [0 >{ *} Yx l# 0: MJ d< #p q% 2: 0E =r c5 )/ V. <o (a a1 K^ P3 L3 *m L3 _] }5 qr qM }W H= 5{ p( M{ 78 42 z1  5 l< ~[ l# ad l3  ( /k cz 1a Z] 34 u< s] l2 %6 or z9 8: |W +k !( X[ Y& A6 8: {+ -< N] c} 4[ W+ _] .[ ,# |$ ^# AA ${ L[ ]o E/ .i T3 A8 @: 5a 1W M< #T >3  H C8 La D} W. E  2W ",
"'v >5 (5 b2 AU j} n% J8 S~ 9r _e T] M( k6 NA Wk W  j[ bd ad ^+ Y] (] Ld W5 0: B3 1. oc  @ =# kp W^ `e .( W1 Af *i N7 zm ': wU =6 7| vb 3W Ki 4W 0d Wl q( 5h 5W sa >{ Ho 6W N9 [^ ][ 2a M5 M@ 1| +< RA o@ U{ 37 >} Va }g (1 +} A2 4p en >. `e [0 B3 M1 L3 I/ M} :_ ![ K% C: bb T~ Y] r3 ye Tc a@ bu 0^ ~3 `5 h4 (b a8 cn 2h X1 Q[ |k E& 7W [[ |} C3 V_ (d {3 yB n2 if P< a1 bg x[ W0 !( p  cz s/ g2 Cb g  3e 3} w2 99 Re r{ Q: s} D3 `C .2 l{ Rr b2 X: 8W 36 L6 $4 G} /h -6 #5 2_ Hk !3 Q[ sm .2 ^_ 9W 2} 3} r| 2  I/ 7} }~ yi _7 md k[ Pi =+ h4 D( J( 37 $[ =k *: T3  : W1 5a .] Fm 4/ 0W aW 2v bW x2 N} b} 12 Q. g3 v< q[ ~[ M6 l% rk X[ D( ~] )B h4 v] .f 6K s# }# 8: y_ cW Sa g[ M~ u* >& 8c ^4 @^ h( d: ]8 d< <m h( *~ 2< 5U ,@ p/ u} =f (] 5b P6 tq Mb b+ w| 5[ S( dW Pi i: @[ no s{ Us +, ",
"7r eW #1 qi [< 7[ _] z: Y+ I[ ;k ~+ a1 c5 .] '4 h3 N9 ;/ Y< fW U1 D^ :j N9 t< e2 Q5 :/ L] v  [# 6l ]f cd iG 79 6/ f_ 8F 4( :/ d2 57 eg 4| gW KU ^2 e_ -5 ~< }] g  (^ /+ x9 2g l< 8% 1| /o Y( q4 yB '+ i3 l. i[ c5 Yd O7 ^9 77 T3 -5 hW J: i3 5_ |_ L3 P+ ij <7 ${ 61 ~: )B ': b0 n8 1b J} @M e3 iW jW 1r z6 5[ =o {7 =+ @1 *| g: u8 <3 8} g[ 8: y8 s{ fg _. kW W8 q_ P[ )] 3b ^9 x3 1{ R6 |_ q9 z7 lW zb Al mW nW b_ oW C/ c1 j[ ,( U9 pW ~f R[ /# [r ;/ .| f_ =| 29 Qf s3 j2 fU }+ 7# 1[ P] t5  : =4 {k *} 7# I} x1 /4 l. Z4 b2 VD 8  $5 Y| z[ S6 I/ O] i3 S[ {: 1< nc G9 0g _1 v% J< dN qW u& 9# 17 ]6 ;i h| W^ rW 4   * W^ 10 }T >I :0 s2 sW il  / V4 &k p3 w2 u4 /[ U3 tW T~ ]~ +} Wa v# l. zl i6 {{ {| U/ G} R3 hc +/ [3 *  M< xo c_ :# @} /< <q d  8h 05 (m K( B( 5h qj j% P/ q| A: uW vW ",
"wW ${ 4a ]D 34 D3 D^ r9  ^ R1 D1 Le l{ o/ l# h  z3 ;8 Ai A7 U1 27 8:  : =f (g p} *  ][ ^~ D1 W. R$ l{ `d U3 @@ 1. F6 8a n| E9 a< +| zA $< HU p{ _} `3 I[ N^ xW v- yW g: M] M1 .} ~6 r3 zW TE I< U+ z) D3 l< (D =% $5 *} lf B3 |6 6c AW s2 P6 TB Sz yb j} _e q% d( pi #% m1 Q2 O7 J3  5 O6 ye J~ D! BW J. zs a7 N^ U1 *# =% G6 ]c >B v_ '^ p: (] D^ B3 OA CW !b l^ s[ :/ DW x/ el H3 |} Ab y_ /F +n K6 E3 5} }b 3g Ab Ox 5[ [V R/ D} SE 7d x1 ,| Y} EW @C Wa d0 Y| U0 @^ Df A6 =k >^ Y/ 34 ~1 l@ j1 FW Q  `} _o W% d0 /^ .} 0} V[ q8 ${ g8 h4 *# A_ U^ ~@ h7 Y| X| U0 }d ~3 ap /j s7 &4 Yu GW y; {[ ]< 0a r[ Q} z7 I+ :# o: a| ad Do /  R} n1 )/ s: x^ hG Z: ~} L[ !L <I e0 ZV -] '1 0( F9 (4 !/ e; wj ]1 P{ m( K6 N( xm HW -V y9 10 l3 u} n% j: bj 42 u* c5  1 h+ $# [p -. IW t< +} :B m$ ]N JW ",
"KW -_ k3 J: Lh s2 .] A2 f< LW MW NW G9 d7 @C %^ M< c_ N/ e2 `d _] aJ Pi Xl OW g: V[ 'K h( w# y0 w2 gf g^ *i G] 3# *< 82 }c k( t| vr rj n] PW QW )e ]c 4b !1 S6 E9 T< ): M} {/ +l Mp L@ L! u_ h0 C] X^ S6 S. 5[ |^ L6 J( *  {o ea X[ qc h2 RW X[ .( l/ kI *[ k2 &+ ]7 iF 37 Qq qf w4 Mp =% 7} HW vx Xv Z@ h   5 Rh :  {3 z[ ub )< ]H I. i# G3 :0 9| t_ C* X8 cW SW Q: o_ R[ E9 Cf R3 TW h< Q[ .6 n+ J3 ': %B ~_ 4| l6 u[ Na F[ *} :^ W[ d[ h_ P6 X: J3 L3 }^ UW ]D (n 9. 0[ Yd PV $# 8/ t  TB @< /< v0 y< E6 FC D9 m[ ;i !3 @| B( :| W_ Ck }] =3 k4 zo Z4 5a A3 9: jb }0 u8 r8 o0 a6 .6 }] ;w VW 3H +/ (E  B #G k6 e9 WW %B /  q$ R6 V4 u_ u_ `< J6 68 7b c0  / P7 @. d( 6C (o q| +% Z2 `[ p3 Oh T~ bB kO XW 4. 7. .i xU x^ 6# jr Z< 2: ]o *# P{ N7 t. t+ (o 2  -6 1: l@ ~f 4% G] A8 jc )/ YW ZW ",
"u- 2# D| xa z} bE 6| Df {] {3 e3 *~ t< Ox $} I} 6: O: Z< x6 `5 E} Q: S| V{ T6 :g  5 }5 rz 4{ <p j2 8e /2 }^ *# 6V |6 __ l5 <7 ;E |( O$ u6 j0 i9 1{ o6 km -] ./ b1 ~3 d[ Cc h^ P3 2k Ne ;] p< `W ${ #: ): O~ zk 4_ <o F6 vb rG u6 +G W1 t9 L< k# `h /1 +| e[ p<  X +2 R6 .} v| v4 Yo 4/ ]6 B[ 9  .X =P k^ 3g S2 +X N^ f8 q9 Sa @X #X $X +3 !4 L0 J# %X r+ ]. 6+ 4n Q5 6{ S0 y8 09 |: tq h^ &< $% -T 2} z6 q4 }1 !  ZG 9. _8 kb !4 pK q_ 89 F/  @ >7 ~: &X :/ S6 P3 z: ]. E6 0g h_ b: U/ 5b Q: }^ 9r p6 s/ {h M[ 5h V} j_ *X tf %B h[ <p h< Lh .6 G0 u[ Te s] *| {| L] |_ T: -^ `J 1b =X h. -x O[ D^ n2 op JU g^ ,1 >f .A 0e .| q4 Ca P: [I U| [B n_ q6 e3 V6 R3 x| <q [4 l4 T6 ~: Q$ m2 T5 r8 -X @^ Ua j: v_ O~ .} E& Xm @3 H6 HU }: Bs >} E] L% A: v8 (a 5* W^ ;/ x. o: o  &+ C/ ~3 YB N8 XM ;X ",
"eu ,@ >X .] el W3 ~< _[  ( yb /d D  {B Y< O$ L^ N( r| t{ jB u} #6 ': &C O6 SJ b[ `1 g5 %f ++ 2C Az Dk (1 ^i XB ,X X: YI dc &I u. t. 'X gI h< }[ C| p9 f1 y| |3 )X ~d c} '^ Wa 2_ k6 .] U3 7% s+ _~ 9~ &[ ,^ =/ p# y] 4c v# q[ E} 5_  . J8 jd Mb o< %] Yo )c U1 ]_ f_ w2 Ay p} h[ j0 q_ z[ U~ g+ !X +I `[ tq }9 =k r_ .i (} s+ !3 z{ =_ h2 07 B3 O$ y3 >o jc ,+ Vh Q/ k_ |g md 8} LV .< w| S2 ]_ (6 US ye >3 L/ dc R( u4 e9 |6 #D 6c ;8 ^9 A_ @i |[ Y/ /[ ,< $^ Ee U1 'J B8 u6 /h L/ h6 77 &] q| *3 6c c5 aa Q5 6/ Q[ b_ /[ ~X 99 =6 {X 07 10 y[  / C| m( Cf i[  @ )k =6 t( 6b 7F SE M( :C ]X ,O *q |[ .] 9] Z. {( gD %~ E. M1 C/ S9 p< T< u6 `< A8 $: l< 6} i7 P: p( 3^ ;< Bf (] gd wF ^X eq {3 E^ &* s} /X CK ~0 ,& CV /k }+ -6 Z] M< &+ yB }/ U9 .] `C Z5 j: aa 9. ): 90 .} ': U+ l^ Af L9 (X ",
"P= _X +< 9[ M_ WF 9e =/ |3 (n :/ w< -E :X G{ Af <X <7 ]J .( ]_ P} 9: )c ln 27 04 p/ Y( 5[ p( 99 V< aJ $[ 1| eF P< N( l] 77  / f^ J: #@ 9[ :5 3_ &] x/ 3g I} U~ bJ D6 &4 >& m$ [< /  ec 8z C^ y[ Aa 4B T( d/ *  Q: l0 [X dj S  u5 y/ *5 '# ^c .i _0 _8 %% =6 Ox u( u* /[ l^  . %U Vh j6 ac g_ }X |X 1X Ne ;3 ca U3 n^ F} y[ ]] v( &[ S/ >/ W$ &_ 5_ z7 f} o6 }:  H #% 2X 5B N7 E: h; 37 l] }% s2 48 4# K% 3% %{ [b '+ F@ hc S7 /5 Y: 8a Y~ 6g <a q4 A6 S5 *4 Z4 A2 99 _a b2 b1 d7 y. a. .: k5 0} S[ s~ g2 xl 3X UD jf 5a h^ q[ Ae  5 4n -% A/ $# p3 4X 82 WG 6C fi Kf a6 t5 5X P( Re _b 6X T= 7X Fa Z. *[ 9. p( om B3 |W X[ 9. 8X 8: bB *# %6 5{ jq W  S/ .: K( `5 /+ _{  H Sm Z4 J( A6 0# Na V[ -% ^< ,^ ([ p. >@ 3+ B/ m( h; 5a G6 pg x^ a] [  g< m[ a# hI <p BA F( L^ 0( 3$ M. &^ Ab l  9X 0X ",
"[- x@ X. }} <2 la F0 @| M{ 5b j% g: >. 9( ^2 }+ A% hJ aX v( u} h; W6 jH 6h Z% 77 7} K# ^8 IA @m =[ M5 >r %_ [b u4 Jz ~[ !+ um q[ t5 l# !  m2 B3 c0 =+ W4 PV ub )7 l5 MJ 31 a[ aa V_ Qa :# M  _0 5a 04 bX Z4 :} F9 cX H. J# q$ dX eX .O <^ 0} fX N7 M( R] N( 1: gX O/ hX 1| U5 E} dc 00  : sk #O iX +U v% T3 __ =% i[ ln H  >{ <+ 4# 2k q| R/ ): ): Q< Y_ /} _~ P{  | jX o1 aH V_ p< J/ 64 ,3 ^5 p/ Z] Te q[ e2 e2 <o k( xa #| l5 kX <b bB zb 6/ ,6 E6 (5 yF 4_ W0  : P6 ,3 1< .. i# 6[ F: p} |} W1 u] if (0 {B <# b+ ,< sb z6 a< ^{ s: ]c uf ~@ <] D/ G{ P} y_ S4 |6 +1 m2 `/ zb )c J] lX mX bG O< G3 E} Jl 74 tf z6 H! *  nX n% _c y$ D} !] ~[ ,( a# ^9 M< >@ j0 MK t4 s# >7 -/ l{ r: E|  } P} oX lL g^  H B8 Bj 1k ar hb jd r: A: >/ M_ ka w| )6 e  Ti R$ %V u} Pf Sp m$ x4  A t{ @| J} pX qX ",
"rX nI M1 ]c 2c  / W6 A_ qn 8} #^ G] t< J8 O. 4% y< n% V9 sX :< j0 1< E} (5 z1 *: ;/ h_ wb ^< tX K% L. A2 P: i3 ^H 4_ %B a8 BA 48 pf Q: 2: F} x9 k( |[ /1 J: (b 6< uX N/ s/ 9. x^ 0: ;< vX FI S6 mn xm L/ s8 Y} Do qc |k z6 CH 5{ _{ Y_ u( u4 -< `q lm _0 *] S[ wX G/ W[ Re P{ s4 n[ %_ XW d( +* -Q xX L] ]D y/ s2 =6 |] Y^ nb 60 p^ ,@ L@ 6/ J# U1 vo yX X] O7 E: *: :6 8F R/ @+ e_ Va q4 :z ZV rz 4^ 7} O$ a1 m6 (e l6 X3 w[ +/ +^ n0 19 I/ _h _< 6C D3 i1 P5 X: D3 il ]8 6/ .6 Y{ e|  2 L0 b8 j  m< +k >5 9r 4_ (% ;@ 1< O] Z+ T<  1 y_ y| .: t{ zX f| L^ F[ /^ v3 5} 5z J: S} Ib <@ AX ,v BX B% 68 Q[ I^ |[ V^ O3 (: W^ X1 >5 /d 1. !( L1 Y+ j: s# sW }9 s+ r+ p2 Y. 1| !] k5 /[ w# ]m f1 0. n] hJ or o4 V_ ]/ v  zA (} 34 Z< #: G0 q| %- l. :2 g: [q eq @. 65 {/ Z< kd 8/ '6 EU ;1 %^ CX ox ",
"DX ^# a^ h7 *m n8 w4 .6 @@ @} vI A6 Lk t< Y  */ R1 S% :+ '^ <q P: n+ i3 ]] EX `{ -6 .$ _J yb 3] b0 s_ <a Td `: /I .2 la m/ q( m< V_ P( hg um Re gI =k 2a oc  B $e Gf B( o_ y8 FX l4 $] 2@ 9: _# -^ k( GX G] aa *] xm >d sh f_ Y< Eb m$ s{ J} 4# s8 pi E$  | j} P~ 4c A} }3 l] 4b Hb 08 @< #| zy HX IX s* 3C y] a7 d: :B g4 =D P6 L3 3/ 3} w[ [@ /z I^ W. t5 l@ bX 07 g: cn ;k W. `D J[ 9r UD <o A# ln k_ -: |3 D1 Q7 JX 0e <g KX )K ta iG -5 V[ A} O3 =6 )U Cm om DW L3 ~[ _0 Q[ (] ~[ P] zI 1a T~ |: 13 n# >d LX L! 4  -  L% MX j@ l( a< p< Z< jf ]2 54 !I 7T Q2 R/ ${ EU ]6 a0 j5 Sa J~ NX OX 6} I{ g< =k j^ P9 U8 T6 %% ~d a] q| <p l{ v8 Pp Y[ >} *  PX y0 :^ 6/ ca +/ GA X} 0@ N( Z% m% ;} Z{ q_ Y3 48 R/ a] I^ QX V_ p< XW v^ L/ {: 0: )$ vS K( w# y3 xm q| _[ 4# g~ *[ 8a i( H( HT /Q RX ",
"qU Mk w[ h< l4 /j SX ]f L< |3 {+ s~ __ m$ ,[ R[ v_ [. %. (/ TX '] @# ng 4{ M^ HD W< 8: 3e G} b2 }< S: na kf N5 IS tf <2 A% [B v_ Ab U0 Q[ I/ 4| &] al UX s2 VX Ph Yn X| 6k 7[ O7 }3 Sf E} q. s: Qa `5 6@ ~W WX L} M/ o2  ( q{ 6] f  XX }+ 4_ k4 1l q| YX l/ @# [0 k_ (d Gk k4 J< *f 97 Kf [< ZX ^U `X s* [1 Dc ^8 `d )( ng w# ^8 SJ +/ r{ j% ~@ R$ G_ }% {7 >f Q] t] D1 =} Q7 .$ @[ m2 ,( 79 ]< 95 'm .B  Y <m |3 6/ ## ,( J( (5 }[ Z4 e_ <7 ag zo =3 ta }3 29 d1 X~ )$ ;1 |[ j9 52 [1 @_ !4 ka 2} '6 V0 2A ]. gg -/ |%  / J$ t( 7# K5 /d :~ a( 9r /< P0 gf :g D$  * .Y g9 +Y (b @Y U~ 4, #Y =v g6 M/ {9 a# $Y Vd 86  / s] w2 K% %Y =[ =5 /[ (b z  Kb >  AJ _r R[ h8 Y| v_ 66  ( 0e @# _~ 5{ d: G+ v~ T6 x1 n9 q_ O^ +% 7| ($ W0 '{ D( 85 :+ ,< e_ W} +1 l6 <6 :[ %< &Y 5$ &} !3 3} d$ |} *Y =Y ",
"-Y Y8 W_ l6 r< }] P: zl |} eJ !1 C^ :  /^ R[ U[ D3 ;f `2 =/ Wl T} :/ 1: D$ L: F_ t  O) UU 9% Fc _5 r| g2 ]6 /< S6 z3 10 l6 C{ q4 @C P{ ;Y 5b 4# ri :5 Un .6 ![ @Y g_ s# _3 $5 c_ >Y -+ %6 52 +/ A3 ,Y ^c q9 X| (g [j ^9 C_ Lh `} |k )| 64 O] c} Jh S2 +3 &i F} Ai l. ,] K8 ': }g HC 1< a1 kK 'Y )Y T[ $+ ~: YB 8F 89 |  zA ![ *@ k9 !Y 'b 6E Sz e@ W] ;/ }p j: -5 G6 M{  / 1[ B2 k0 kd ![ '3 >} ~Y f1 U| 9} :[ {Y ~+ }1 tb <g q4 `T G6 P6 2: fg M/ n% eL ![ _F E6 L3 S[ |1 L} .( ~i m7 2: =1 u4 l9 S[ ;< z1 Vo ]6 &4 g^ g2 ]7 kC M/ @+ `5 gb J[ D< 4^ v% >5 x2 BH Bg 9% L< `/ S} 0[ ]Y I- bG ^Y y7 /Y M1 .2 (Y Oa 99 LX 2} c2 K% V+ 2} u* @n FJ U7 J6 ;8 q+ ]/ || Z@ G0 x4 Pk 4F A: -^ Ob t< Ox &] +% X[ t_ d$ O~ $: 1< ]f E/ Sa 9( 8b <c N5 4# Z4 r^ Y/ 4# E9 8} ~: Kh ,/ _Y :Y T~ um h  e- <Y ",
"[Y Qr n0 P3 ~@ v% }} 99 e[ a. 68 p{ p< 0# /1 7% [} ]h <~ iq t. !( nH (~ UD R6 }Y |Y d$ :g ti }B g[ f< 1Y A} _8 De Ec @< 8: P( J: w4 ~} Pf G6 .( Qq Fc ;Y >} 5{ I{ 2Y <[ R[ q8 Mo |8 w@ &< c0 P/ s: #_ l@ m/ ~+ xl 9| :[ )_ 9| U4 :/ i: U6 ]{ *  l2 J[ o: u* R8 W} -4 5$ cd j9 V{ /^ |3 ib 4( 3Y 4Y 5Y )+ T} J} b8 L< 8F ]2 D} yb W[ x/ 6/ ^+ .} s^ h] e$ G6 w2 L$ r5 a1 ][ #[ ,/ W^ ]h v( i% sH }5 [H C* m% 4{ 4{ 8} j: zm k4 6Y $1 l6 99 7Y {3 Wl +^ Lf V< ![ @Y G] MD [b m: 4c 7c a: |[ M} .} nc >d j< 4  :  p< ;k L^ ez .# f1 A6 /. ~0 Ne ~@ NA 6# Rr |7 :6 c9 :g ng 8Y *< q] N_ 8  9Y ;> xQ E+ 5h +1 a6 Yd E} =_ Z. c_ dh 2A u5 p$ 09  ( 0@ k  99 .[ 0Y F@ 5B R[ m: 2_ D# Vd Y^ #V '3 m# b+ ca 8% 1b Sa aY |[ ad S6 z7 km 0[ y] bY -< L3 J6 Yo [0 U8 `{ 1| Y~ V3 cY E9 D$ [0 n+ 4[ c5 Qt dY ",
"gy ;6 68 g5 j8 ][ L/ bX ,6 K: 0g eY F@ s# U3 QE q{ _( 5* @. 59 _] 9< &[ Ab V_ oH |k C@ p) #^ p+ fY |$ s# l. %_ )( Yd a7 u1 N( Y  W^ 01 S9 @| 00 _[ 1: y8 :g M} y_ l3 &] w2 M/ r< :o /+ r| 9r +: 09 Q. d[ <7 {( sl J} +4 pg gY D} jI hY ,G V1 WF w[ 9: l/ zn i# p{ iY t4 I/ s/ A: V^ #< M1 5_ jY kY lY >B (} h< zT jU e# /^ @. J6 3$ }# <] N_ ={ lI .# w[ h6 -/ 2} 6  `e L^ E. SW DW 8b M] }: Q. FK P6 }b ;/ mY Q} {{ xl N3 [< nY %| K: aj p0 @< 9: r1 ,( q( l^ vK !r ~^ iB oY pY :| }8 W6 @| i3 (g i( Q: W3 YI Ld to p2 E/ gh qY N7 %B l# >( 31 V4 >{ 2_ R[ 6# .B U8 _h P3 /< PV 9. +K rY sY tY 6[ O/ {4 C3 5} u} 9: j5 c} 'K 4{ V^ V1 Y3 z3 4[ )W @/ 1{ p^ ]] sH W  6[ 67 U| V{ 13 !+ q( k# v^ N+ e# o% 11 W$ P7 M/ e< ;k A3 v4 uY na Un X| d: Z{ >5 N^ G< [2 ,( P3 G[ 6s h_ |[ r_ )/ jc vY wY ",
"5! G' xY WE %e La ': q_ p: md d: p^ F6 T0 %5 ,@ 6{ yY <3 va |} N9 o[ '{ 7T A8 o6 dq |^ N& zY >] k^ |[ iH 9% K6 p: if z6 W8 -< ;k kf A3 9. /^ ]6 99 g[ Qb <# AY H4 V. 7% =k U| -6 =_ O< b2 X[ 7^ |6 05 `{ `[ Wg BY %^ 5b T< 7U q4 13 |0 c0 K% >5 {{ I/ 52 Y[ `{ >5 _h R: OE }S mf b2 Ye Y} @< CY ~, DY b# k6 E6 x/ E]  / %6 7# &^ g: D0 F7 @< EY FY Q# 99 /^ <] <7 /[ z1 s[ z7 om F^ 77 Ab f| Un L[ km Y^ o7 h  %] z7 _c E] Xl =( @# GY v% A/ @< 28 +m O~ A: ~< }5 u] [< dl  : ld r| 8: ni yB .} a[ +| E0 ^< X| 0[ Mo J6 b8 q% Hb ~  ca M} s^ N( 9~ q| s^ 4a &] i( {: N7 Ab Y} OE 1j <I HY IY JY %a h3 *5 P( l# (g 1Y E} 44 l% P< `$ O] r. b2 T< E. Lf %  (] !5 1. q_ .2 2: `C k6 W{ A6 ^~ L< B7 3  -: f^ *3 3r t9 v# 6/ k_ Rh an p/ 0A 3k &/ y[ kA b[ >7 e# n_ d: 9J 4/ (a :# =G f^ K< -< bW KY ",
"LY jY Qi MY 2g Nh 6V Af {1 %A .: ${ @J bJ 9. M1 3^ NY @_ y8 :R .< Z] L& 5{ P+ 2% -_ 6  O< Q@ 5+ L1 u] y3 n^ O] -< E9 3/ h  <r ){ ,3 P< l^ R( t< .} )c T~ ^< 3} h| y7 M[ Y} W< m$ t( 1n -+ 76 A8 M_ OY pg |[ 5j p( >& m2 D6 P5 h3 SB l< ~4 t[ +f .2 z1 h7 95 `( !_ $4 b: q9 @< p( c0 B2 `e u( PY QY KY <$ i% GB %B ,] j5 4^ n3 +| O] &5 r: .+ .B A} b: #@ p_ ^9 $< z3 Ph `C RY o_ U8 A3 z1 cD I/ sl U. <+  1 +} na E} K^ hY 5[ y4 ~: ea Ue Fo A} b8 Y] P( zg 3d s4 _a Pf 9| @| =6 4c 'B y8 J3 `l k( #6 `: (a |^ E9 P: ,[ Q_ R( h  *r ={ Q. t{ Ie _I ]7 02 X9 y4 >T 6: c0 gq wu SY /[ TY UY VY WY <] qB ;E 6( O~ r_ C^ e3 Ik ~W 7| r3 z( a] ;} 8o XY kq YY OA >. P  <2 a< h^ |0 `d /  %6 e  a: Q( 5{ *5 @{ /] m7 &; U8 S0 U| K{ 87 &4 k3 =+ j^  5 u_ C| }S +f x9 I( t5 fH N7 T6 Az m: ,i W  ZY `Y ",
"n!  Z VV <# ,@ Sa M8 W[ >V _$ W6 t_ .# 4; Y^ >  ~o /  5/ W6 $f X~ h( zc J6 .Z _m ig ~J Y5 `. Q5 ){ y8 5+ @+ R< }] o< ;2 4j 8: 4j l# ,< #% :% Z_ y| l^ k( /^ w# |} uD Uy h_ m] e# p  B% +Z ec v3 K} @Z L2 !B 8_ G/ #} W. |1 -< J8 K# J3 m% 3z ]7 #Z w[ (% O~ 5A $Z lD a.  ( 0l ]_ ;Y R6 g^ U~ Q! %Z &Z ,s i/ *4 |[ D1 z:  : *Z Eb q| =Z F@ D( `{ _[ ek @C r1 !~ h( .e 6/ (2 52 87 M{ J: (] x[ o  MJ N( 8V E/ nd _g h| __ =_ >( *# ,} 00 d} !1 C* g7 ,] .( $^ 04 ;k 9: D1 iB m7 s^ >K s] y9 *] [b _6 xa [A #e `q e0 s8 5p Xc *K L< u* j5 Db #V D} ^8 71 -Z ]g IS ;| {7 99 R/ y_ Wg (^ M#  R ;Z q, Fh b. <g (5 [2 =$ >Z y  py {/ ): s^ 5G ,Z H  `2 ^~ O$ 'Z XN J6 (_ C% !/ 6:  } qf m. >} p5 @$ .o i: 9$ 1d 7# Y^ O$ C  L. ca M^ L1 d[ lz m% .^ C: -5 Z+ :| s{ W: j[ =/ tU E| -6 F( P9 T6 W{ Ni )Z ",
"!Z $/ oL ~Z 85 Ur >@ Yi ;/ {Z @& ]Z ^Z /Z (Z Fl _Z %V :Z =  Q( #^ J/ _$ S$ T& <Z ($ HL g( sX I{ Cs [Z A% [k -/ }Z $  Cz 3  L% V2 |Z Q. .} 5@ sE B  op $^ 6j ~^ j^ y[ (% 1Z 2Z 6g 3$ U6 ]2 q5 EX j[ vN 3Z `> M< a] 4Z 5Z 22 _| yy `s 9r u^ >{ w4 v7 6Z _{ I< I{ o5 7Z r1 =( xa p( >3 t5 5A Bz 8Z 9Z #, TQ 0Z aZ I  3C  4 ;] Y_ |h !] Q_ @/ vM }a (< Z/ bZ =4 cZ dZ eZ f~ d@ 1< V< /# {g E6 R( y[ Lp @T q[ BG ]h *e g: N5 i[ p^ K0 W[ Y. Lk Q[ fZ |7 b2 Ez a( p_ 77 I7 Ce O^ 8( kG 8: $% >3 gZ `( {] [] 6] 8/ hZ ${ <6 <^ (1 J( 9. Cf 5b =< }^ ~{ fh (| O6 X[ p( iZ jZ Ty >i t. f5 G1 kZ v* lZ CN hE 9t ^. 5+ I< -E mZ `l _g hn j  w9 y3 5B nZ oZ =: f+ Yz xd Z& pZ y^ ]. $# K} ^s rj P: p} V^ 65 2: e< .B qZ ca h$ P~ F9 <6 M~ q7  { |h K^ 9: f< Z< Z] kC Rr L3 rZ c5 ~@ ka }3 UD aa ii sZ EQ tZ ",
"fj O* uZ vZ 0W NM wZ hR at )! aR xZ yZ #  zZ AZ BZ CZ DZ kv EZ FZ GZ HZ Od IZ a$ Y6 JZ KZ LZ MZ ;= CZ <= NZ OZ PZ QZ RZ SZ TZ UZ VZ WZ XZ YZ ZZ `Z  ` .` +` @` #` $` %` &` *` 7L =` -` ;` >` ,` '` )` `s Yw at !` ~` {` ]` ^` /` (` _` :` <` &` [` }` |` 1` O' 2` 3` 4` =N 9M 5` HW 6` 7` 8` 9` 0` a` CN  ; It wH b` c` d` e` Ot Fa *- f` /r [Y !` XQ g` h` i` j` k` k; ]* l` $C LS m` bN *S s* n` &@ o` =~ ef p` )s MC q` r` s` C7 t` $w 7Z u` v` w` b^ x` y` qT ,- z` A` B` C` D` E` F` G` H` I` J` K` L` M` N` VL O` P` Q` R` S` ]Z T` U` V` W` X` Y` Js <e b@  6 %+ a* Z` Kk `` OI   .ev . .+ .Z# @ .# .$ .% .& .V; |= * .= .!= - .; .> ., .' .) .C` ! .~ .Ts { .h= ] .^ ./ .( ._ .: .< .[ .} .| .1 .2 .A` 3 .4 .5 .6 .7 .|s 8 .9 .0 .a .b .B` c .d .e .f .g .h .i .j .k .l .m .n .o .p .q .",
"r .s .t .u .v .@8 w .x .y .d& d& G! cx 8m  R  l P& z .0T A .B .73 sv C .6^ 4^ D .E .F .G .H .t& c! I ./- C- u@ `s xI jV J .g6 B^ ~; @u PQ _$ 2^ oZ _Y Hg I4 F .G) IU iv Eu K .L .tO M .}v =u >' z> N .$O E; O .P .E .Q .R .lQ rO 9- S .T .LH aC U .Y= V .W .)! Ru X .|f V^ Y .Z .ON ` . .....+..@..#..(l %w $..Vl 2& 73 %..&..*..&{ qR =..-..;..H= 8; >..,..j$ hO '..)..!..2s 9s c! P= P% ~..{..]..O= Jr .u p* ^..@N d  c! Xs /..(.._..:..~N <..[..}..{~ N| |..=  *s %; 1..2..3..&y lv 4..5..y. #u 6..7..=, B< u$ Y@ n. [= J5 H~ q@ &- xM qv `s 8. Vi q@ 8..D< 9..u@ 0N 0..a..Di 8# Qd Ey b..c..2* d..+O ny F< e..8@ 1$ -~ {_ N* 1^ ;9 ak F& P& [y f..g..H .3I h..Qj i..u/ j..]h k..SR l..m..n..o..L; C+ |< -^ A@ H6 ,T ~o M; !] i~ KH Qj wO $  >* CO B] p..q..<$ L4 r..v* s..t..%- u..v..sO w..",
"x..y..z..8U A..B..C..D..E..F..G..bw H..I..J..K..L..M..N..O..P..Q..R..GQ S..T..U..V..W..X..1Q '> Y..Z..9` 2- -R `..0T  +..+.++.V, @+.F4 z! #+.q! A4 Y@ $+.GR %+.&+.*+.=+.D! -+.;+.>+.U> ex )P ,+.'+.)+.!+.~+.{+.]+.^+.:v /+.(+._+.:+.<+.[+.}+.dv x! |+.T .1+.i* 2+.6& 3+.I: |+.4+.5+.<v u> 6+.7+.xX 8+.9+.FE HE PM R .0+.a+.b+.2( @~ c+.d+.e+.f+.g+.Ja h+.i+.xx j+.k+.l+.m+.n+.(+.2T o+.#v p+.nx q+.%; +I eQ ,, q, . .r+.s+.,..=~ t+.u+.v+.%> w+.Y{ 6u v[ x+.5y `w y+.[O z+.6, A+.Q' QA B+.C+.D+.E+. ; ev 0W _* F+.kJ |O G+.H+.I+.J+.K+.L+.M+.~I EQ ;, ;P N+.E5 }a o+.rv O+.VQ P+.Q+.TQ `X J+.R+.S+.T+.*w I..U+.V+.W+.yU I; ;X ]R <0 ,..X+.Y+.-Q G+.<R !k x> pR Z+.c' `+. @.x  cx .@.*n .- +@.>m @9 Hv @@.#@.)9 $@.%@.4w &@.P@ *@./O `7 H- =@.-@.|X ;@.4y >@.'> ,@.'@.)@.$S b> l, }P !@.~@.{@.]@.",
"^@./@.(@.FM F  }, rX y! z! <P _@.[Q :@.<@.4y [@.}@.|@.1@.2@.3@.4@.5@.y~ 6@.8- 7@.8@.f6 9@.0@.N> B..a@.:@.b@.c@.d@.q .Z+.f..e@.f@.g@.h@.i@.j@.k@.l@.m@.n@.c> @9 o@.p@.q@.%D <R *h [: 9M $i F' r@.s@.t@.u@.L; h> oR 1+.v@.w@.x@.y@.$..UV z@.6, A@.B@.C@.f> (> :, D@.|+.0^ 9v cJ E@.F@.G@.!Z H@.I@.|I I@.V@ CR EP |+.J+.&O Q| Na Ap '( J@.K@.2[ F& L@.M@.HU N@.O@.tN Vl H: ;  gO P@.Q@.R@.PM S@.l..T@.yt Mi Y8 tO o^ {Z U@.D .(w Z) V@.W@.X@.Y@.#w /J  & az 6O 2y `> `.  m #! Z@.`@.rL a. M  3k  #..z .#.+#.9r }  @#.##.$#.bM %#.!3 Jl fM &#.3+ *#.=#.2$ nu -#.-w 65 h+ ;#._# >#.E@ LI ^% p* 6R ,#.pt :p '#.TM %8 )#.3v dM !#.O! g. (y w$ M, ~#.{#.c* {c N4 ]#.^#./#.(#._#.:#.<#.[#.}#.|#.1#.2#.3#.4#.)R  R {) AX 5#.M+.6#.7#.Aw 8#.iw 9#.0#.a#.b#.>R c#.d#.~F e#.2- f#.g#.h#.i#.j#.k#.l#.m#.IQ n#.",
"w[ i% 52 zD <7 '+ ~: 6o B7 ^9 o#.fi p#.q#._T 8  =/ `f OJ Hi EC !b +/ '@ Wd A0 ]. a( {/ PX O& &/ (K 3@ L^ Q# <3 iO 1#.r#.AO s#.M+.Uk t#.x. s{ 64 D1 R6 E9 $[ e2  ( u#.c_ [/ .F G  A: 2^ !~ 9* :/ v#.#( l: w#.^G P0 ]J ^{ g4 `: D} /} &+ v^ If D: %{ h3 #^ @@ 0( R6 p^ O$ 4  L: ~] L_ U3 x#.~[ 0# )| [2 gD G3 $^ Ln .< k6 k6 Ld M{ AA s0 p/ 7| +% VG m2 1. v^ W6 A( W_ rf W^ cj #1 {B {+ N/ I( 3^ !] $+ h: X} 3} X} >3 H. vX y#.Ug j: V^ z#.A#.)% B#.C#.y@ m] z( V( 21 n7 L! R[ _$ ){ bB $_ X^ s{ %| Do _e id Z+ O/ NY y{ N_ j< IB A( e] N/ L_ =/ x| *~ EF u_ =$ q_ D( S  Aa {3 a. &; K[ '@ T< }: E] 9| [. D#.$% 9r 6]  / _p 1< M~ e# 0J ZV D$ 1. q. o+ U| q: <7 E#.n^ _T .#.Ga .m b# r{ dg 1N T( ,. v~ *  H6 f  zb *# 6j Af F#.rb f~ Wd /_ }K !+ $^ l< G#.$w 0e 6  L] s# 5_ D0 )$ ,[ *  %5 %{ b} ",
"zg 09 .+ HD 5+ @} _e W< +& M~ c} 8F 3  #. |h S/ o  H#.pl I#./$ )/ S7 X^ 9] O: X  `1  E |6 J1 +G W  J#.|_ '3 F@ a@ y@.K#.8U v> L#.;d x4 V1 m% M#.$< S/ T$ _] rG OV p/ O/ |0 ;% Fb ub r< q$ '~ o. 0# |_ i( Rk m_ h  T( g@ E9 _0 =_ t( B| <+ &] ]1 3^ }9 #e <7 M  W^ &f )| (5 D1 9< T/ +< ,w b+ ~} 2k }C X^ JU /1 p_ ^4 @y Sb N#..< ^# C+ >..GB =+ @| 4p _[ $1 sE ]h E6 2g .2 D/ &+ ~: O#.D$ g3 `h .+ 3r y7 <o eh no 8c 8( L< 4h .: c0 P#.~q Q#.R#.S#.I6 T#.M{ [S N3 >} p| h% +} T: ]h c+ P0 |^ &4 `2 60 C] e3 =+ Qi L[ }+ +% 64 c5 xo QI [0 EU +| iL j0 0@ gb *~ @: <8 y/ Ox m4 J1 .} h  $: B: s  @_ 5[ z) b+ e# d2 N7 Ae C3 6# d| #$ B3 s^ &+ S[ ++ m/ Qm -/  < Sy  ( >& |m U#.kq Oy fz Q. D< V#._o V1 &% 3] G{ P9 *  y3 W#.i3 (} y3 M% @E X#.;E T8 Sq ~@ Wp J[ i7 E  )+ S< (3 _6 FK ,r 90 @o q_ ",
"B% =} =[ :5 ]1 f< X^ l# ^~ W# <~ ^4 N@ Y#./  && Z#.%y &/ nU `#.nZ 7# ;/ %5 .@ A| j^ Q5 p# ^4 _: ^2 Bi T$ q4 s^ L}  $..$.+$./S #+ l] +E .} >@ b} 71 s{ *] ;@ M] S/ 'f e< U@ V^ Wr H  /o 5a 9D a5 l+ ;. K^ P0 ([ Ne @$.#$..l =6 ;k E| G: Fo )c UD L3 R0 Y. E6 _1 a# E} +$ AU U9 #} 4% %1 y| $( OY >5 )a 4/ ': 2_ 1a F6 P$ Fc $$.m} L3 A% (] m$ jX .2 4M p/ 3} >J X< k4 %$.)6 U5 Z4 U~ }]  * .} a7 ': ~3 T0 e# X[ @$ e[ @| L3 &] s: Do O$ &$.JR *$.=$.-$.4[ T~ F: Va M/ /# U[ T~ u1 J3 }[ J#.E^ P: Y5 N7 X^ ^{ L3 '( q[ V_ X] ;$.6# &+ A6 w2 A7 O( V+ /4 ~f %] >$.7# Fm ,$./o y. O| W. '$.~Y SK W< ~[ Do >T q| Xd [c 64 {4 Tn {. 8} %. _H B( ,( h; J8 C{ ^I A( N0 E] )$.o7 -K e; h% u. L! E( R$ 9* Y~ P: 8O nB 8: H# 4a 5* l3 |_ oi =_ Sa *q X+ )| t< ^9 oG 0@ _[ a[ D} ,@ kd F} &< La O< U8 !$.j_ ",
">< ^~ y] I/ [F 64 *# )/ M@ l# OH j: Xk j: }  )/ S& W% ~$.w| o7 [p {o P: p( uD LV V[ )/ VB W+ :/ M. e: (% ^6 k( P< {$.]$.^$.jV zE n3 H+ DE q| 50 1| `e s8 g$ h( Yo a2 A( 9: 8% #( p^ O6 U1 )] [M c+ 9[ <8 M] t/ id Q5 P{ $% Q[ d< /$.S7 V4 `D =_ c5 J3 y{ ): ~5 =6 {1 ($.s8 Ab 5+ W] [0 Ek >} l^ u6 l^ T] a. 6/ o#.i6 :q @T o. Y] 31 1< &5 '. !U P+ ;k i} :/ 9. 9| 4l 8h Dr =m i[ A} N{ R] *f O] l# K^ =+ t. 6F 57 /< >( A2 e[ Fz y| 7F vM ;Z 2v &L ;k s_ 13 S[ R( y$ ye 07 &+ _$.@U c_ -.  { ). }+ q( #< G9 27 r| zl Q% }# 1+ B3 g4  / V  s  I_ W^ v% q. (% l{ m} ~* ec /  =2 E1 2% |( u_ W< O9 .| fq a9 z1 cd ,} e[ x# *~ wj M{ |} }[  1 :$.0/ tK *  g5 Q/ <$.>o 5a ~] ^~ h[ y/ zs [$.}$.Bq |$.1$.on w9 2$.o7 O{ K+ eh A7 `} V^ &B U: #_ @[ y8 m/ 5+ D#.s{ ,F v} h< E/ ,k s[ '1 b2 <[ Z. 'b >} ",
"7| xm ,( V0 6( Uo 3$.8g x. 2# Oa d( 0@ @/ np ^~ E| *  s^ Sf )# !m }/ f@ Y[ LL ,d 1  Q5 L< a: 8} b/ l# E( O~ i  1b 3Z ~) f> rY U3 }^ k5 V} o6 ,} D} G6 6/ A| G} sH v( e  &^ O4 m4 Y5 M8 y{ Y( s$ ;m M1 V1 V{ {B 05 }p q_ l@ Dk )c S} H< /[ a# 6< |[ t{ $} 2g CT +1 g: z3 $^ [0 4$.S} F/ 5$.g^ U~ y[ #1 W3  | i3 I2 _o a. .i Hr Z. t< !1 Oh P] )_ wj :[ ]J W[ d0 }+ h$ T6 F[ M2 nY }g 6$.': L$ (] t< L3 |( h; *# C_ K8 ^k ]5 C2 R: bp )3 [; 7$.!F 8$.}g (] j7 k( m5 k4 h^ ~7 |_ +/ &+ 9l #^ #^ d( l^ q( '1 2: 07 <2 p~ (4 vI 4a *} |6 4r 9$.UW Y8 #| i# Z4 G+ ~  wD g5 Z. <^ q7 Y+ `1 j@ x. &} y$ s| *( D} /g 0[ Q_ 04 no /} z: .i a4 ([ e3 (g 8  RA >7 t{ <q E+ j4 g: ;$ {9 +# b] 1k ;. L! [i  ] id p< 8: t] D$ +2 l{  D 5a )} Le j: 0$.y7 Cj 5[ ga X[ .] }8 !5 s^ ZA @+ e] '5 ^: J] +< s~ oA R: ",
" | k# .} M~ C  4| nU p4 -/ dE 4j 05 {{ =  (o ^{ k} !( F9 @y !( a$.=  Y+ b$.5* q$ %B 9g m} #% /d m% ./ 1e Mz &_ 9l c$.d$.b+.Bv Ho Y3 ![ hc (5 e$.P< (K q_ E9  2 h3 f$.l+ 64 J[ !3 *r &< 6] <+ |7 <g R6 17 e9 W+ $_ X} +| m% |C s{ ^  ~* tI ca j0 i% pm tq *} )5 Y_ aa O7 g$.}1 m} 99 &_ yB >5 6G s+ q4 1[ X[ ]] 8e W+ 6< [0 _[ *a CV q9 X} u8 =% |7 j5 S/ |6 rD %{ j8 E( .I t< s8 m2 Y. [0 *| 89 6/ J[ Re hg 6$.6/ s: y{ Y^ Oq w4 Wp Cc h$.z~ i$.:r 4% >7 {1 P5 vb 4c &k p< X| `5 N0 G6 !@ g& u1 W} *{ h3 Qa j_ x% Sy x. kW  . U. a. (o 4# t_ @_ 0e >  -K S/ np z{ T0 `$ .} :/ )D .1 D< QI r< H! l/ S| #r ${ S| Jo $[ A| wE Mb b+ 'e <# ]_ ij o6 c: %B ~3 XB #J ;d h[ %{ T0 w3 2% n% |% v6 S0 '3 :# v~ BE M/ 2[ _k .T X| Ro K6 i6 Z4 H] $^ C| B9 Az /+ j$.#< XD M: F} x^ K} [# ,| ]3 -< __ r| t5 ",
"5$ s: {1 <8 A: _8 u6 k$.Ne `< e: t< iH .+ @. 5a o( `f iI l$.g] ^9 %/ ${ 5+ )] n8 *[ _] X[ m$.d: .} O@ `h G< Ek T5 W& n$.+, QS +. l9 ml o$.[F n^ (a <m z@ d( ni p5 $~ 6  *  o< '$.G& hn %% =[ PX ]. E6 Q_ P: <q Y[ o_ k3 Q8 g0 e[ u} p$.A3 ^c w[ tg J( t5 wU t[ x^ |1 u] X. 95 !< q$.]c jf ~@ Y2 j[ r$.q} 13 op ^S ]6 WD ;3 s$.#6 W[ Wr Vp t$.O^ /} 8: e9 y3 u$.z7 5+ g7 G} 17 p< g0 j5 h$ M< v$.r+ h[ d[ +/ p/ .5 M1 WH l^ U8 5} w$..: %i RN ~O x$.1b )] 4| =5 8: J] y3 ~^ i[ E6 M{ lK G{ to }5 Y^ F@ g@ ]_ p: +< R[ 9] u( u.  . H/ rK 9# R6 K% 9[ M8 y8 zi %4 D$ %{ y/ t] WV [0 X[ T1 gK S+ ;/ W^ 57 A/ .] a% ]2 `1 N} sl Mk v# /. Q5 KU 'K V9 .( Vd P+ =/ Ox t( !{  / h^ 8/ U^ #@ X< 3# M~ Z@ y$.J. Xr :  5h z$.O9 9d y$ l. ,@ ~} M{ 1a }8 +} 4/ `5 L3 P5 ^a C0 4/ Y[ fg ~3 !+ |( s{ O$ p. m/ ",
"D} b: a( l# 1  U< T6 Q1 A$.44 <4 w| d| O| I^ Z. {2 B$.cX W^ B8 Mz +| id 'm w| v# ^4 V[ <~ M#.C$.U8 |] F@ DF D$.4  E$.F$.[* 5` kq ^8 yd /< j/ =% #~ =d N{ <# -E >. 4m i  s: C@ .# $% <2 n0 7# 2E _[ F< 4%  : d1 e_ Ne :6 k6 c5 .^ 8a {3 [6 5o p[ P5 G} O$ Q: @e lj o4 {h Gz J3 !+ S} P3 t{ R} ib *4 ^1 G$.C^ 5{ (| #r Sa UW ld v2 Cb Q8 I/ U1 H$.p| I$.lb y| R( 75 ld f2 l^ a[ }3 ,[ Z4 ![ j0 J$.]_ D$ Z4 h< s~ }} ^~ s5 Y] (g ug l. @4 7- $..n#.K$.L3  / >Y [7 m& 5* )W m9 B8 o4 x: s8 4[ o_ c. @| $% c5 &; a# %4 >{ I< L$.!] jj 34 :<  H M$.$: Vy _e :[ {4 R1 xm x# [1 qG r^ 0e D1 Dc 90 Q/ E} ye _[ JS .| X[ g: If WV N$.E1 kA `( f1 _} j# PX A| N/ ,1 8e Hb 86 ;/ N/ #< ,{ u5 *f cI 4. d( ah :o /  O: R] }[ U[ >} K} (g Y^ i6 J< #i =_ Y[ `5 LD >} .| Q_ u4 ![ :[ z7 M1 k# &} Q. *3 O8 34 !] ",
"OE O$.e< 4c i[ q_ t] b^ '} X[ }+ V+ #( S< ^  Ca X  h% 5# o: jp v% vU V4 Q% CA 9[ *~ ){ Jc P$. } A: 8} Y. m. a# Q5 Q$.R$.S$.ZL Z% >( i( <_ km ~3 z1 ,G /^ N7 o. ^: .|  H O| z( }+ s: oz T$.M_ <6 nd m/ aU e0 o| Re K( /[ ;8 _0 !( zi y3 5$ %o e9  : 1| ap r8 [b W3 @# a[ 3^ 9: Z% U$.bJ ,} a6 __ ]_ nY `h >5 hf 46 9_ ~: Y3 -% /j +} `} 2: (H s7 V_ bp C: l. S0 aa IS 1^ |k 4[ [0 :D c5 y8 .: o[ s+ _} v] .< L} Ua c5 7% H< c0 oc 9: %( ;G ]R d+.d= C_ l6 =d &4 UD P6 Y] [b y/ *# g[ Fp W6 j5 H! )c GT $: E3 V$.G] $< w@ W$.Wk v~ _[ |_ k_ hJ J@ dF &/ |k @$ ,@ X$.O< 14 O] x/ Q] {{ @/ 31 *3 {: f1 m/ v( 5b ah X_ Y^ Z@ +2 h[ E^ Y$.LV >@ (a I+ t< Y. c} X2 /+ l@  # %] l. /e U[ r: 8% {{ *  R6 P% G6 *  G] J: E] _e m.  5 i: ## W4 q( Ua m9 TG E/ d0 R$ x# {* O< e[ b] _h O$ k( G6 J3 b8 sm 13 ",
"$} H] W^ u0 G{ #5 V. P   2 f+ 9] xj OA v4 @@ ./ !~ w[ 1+ o6 M#._] /d U7 9< y| [0 ZG 9L 0+ U8 .i aa b/ q% V+ c_ %B H# GO Z$.[H o[ Eh Q7 R/ m/ y] T~ {9 l3 .+ 2: PY /: _m ,[ 5a Q.  < ^e .: O6 =d S/ `] [b <2 Q_ `$.m( m/ L] ^8 }F >5 21 Hm  %.oG D/ N1 ;| 0l }} EU T3 p2 h_ X2 i5 E+ m( 5D L/ 1< L. m. pd 07 S/ j[ b2 .] .%.__ ]3 .( Q} O^ W6 ib Fm I[ J_ p} z7 4# 5[ 6/ +%.4a T5 =d @%.E6 /4 .: }7 H] >& n# |0 1| vb U2 a. I2 ;3 Z4 00 [i #%.xy $%.DA R( @s ~: =+ |3 U| 02 0[ [6 V4 X| 4j ]f h3 .2 _[ '+ v1 ${ Z. `d Df (} C@ O~ ]6 =I >7 2e `{ v3 <# q{ )  p: *5 p< e[ _4 .| q( P: 8] ]g l6 XD d  `I /1 F@ xc k4 r| f. U{ 1: g~ N/ a< O8 _} Y[ E: cd }] =% Z. %] #| CV G7 [# ': Ma /. !( %%.y% L! _o m: *~ .1 2k }l u4 O7 m& 15 8c &j ./ (1 j5 ^7 h  la ;/ F@ F0 ;r 8c U1 g~ Oj y] j9 T# r: /@ ",
"X~ h^ }] &%.z1 $f P: }+ m& 'K 3F  ( ;| op n% r: // z7 .1 X+ m5 %B {X +| Y. r+ OH Df !0 /o 8% c5 ~@ :0 79 9. X~ _a *%.=%.-%.9, U{ Tc Z] ^_ X] x9 ;%.A} 4^  . T/ cI J8 {2 Y5 U& ]6 3a /^ =} db Y^ gb _1 g: 0[ ~} ]_ yb L~ KU B3 M} EU Q7 ,3 7| d[ O6 5* tq JL F} G{ ye 3/ L3 >%.e0 #5 M} |( fg :/ 3} {] q4 4m |} |Y P0 D+ h4 h0 A2 W[ <g }< 5b 0+ >/ `V r< J6 .# YB 1: >7 {: /3  1 M7 D^ Sq JU vn #: r< b| t< b7 Yo q_ 1} W1 Z. *[ :q I/ }v + .,%.'%.D} w4 Y~ g0 c_ /< .2 1| L. ^9 ]6 G] h_ C} i_ 31 N( W3 #< +/ A) yc p. )%.k_ '+ H] U1 !0 *q 9| X} E@ 3@ =: mn @< B3 j0 P6 !%.f| /[ {B >& 7a F} y4 .{ 8a ~@ v^ mz d( =1 Y] A  h[ 3l wE _y 4  YC t( ;8 P$ $% 4j 3} D} 4| N] v( M} !# .( .( 8  ;: (~ wj s| Mb -4 g5 ,i %{ i: ^< 04 /4 j4 ,} Z] ,r q[ !( l. ;} Sz <# X^ ={ ~%.P7 w# */ n+ 42 p4 r_ ",
"e| s8 37 {%.._ ]%.jc ^%.9/ |k /  +& /%.0[ Uf qn ;. &+ Z< u} i: @o 4B Mb *r s} ^~ Db b/ Pk J8 1  >^ }3 jf @| s^ UD .q aw (%.a; 5@ N& Rg 4/ j@ @$.L3 m/ :^ 86 Vv ){ .@ ]  =/ N$.AU ~_ ka rr sD -f .( r^ l. s2 V~ t5 M} _%.l_ 09 M9 +} U3 W6 {| g: ;k d| K% =_ Ud 16 ~0 'f N( }{ ~1 C3 :%.V_ :$.7C g^ T2 |7 (0 %  <( |Z 78 =k fC MD n^ 3g !3 <%.s{ }p ta  e 4[ g2 v8 $: b[ [%.<# 2_ m% k} .K E{ |} >^ u( J# sm k6 a< GB j4 M~ 4j R3 -6 Q^ B0 }%.|%.V  ZG BA 09 'E _p ]~ U0 zf Jo e0 m$ +m V{ 1: $:  ( M{ e2 A3 a< G_ FU 0+ T& Z. 6{ +| v~ V[ s~ h< V} Qm ': ml }A zi g: 4/ C  sb )+ N6 z: y% @e u( na ~3 !3 y_ o  o: .: ^  *# AE rz I^ /[ P$ q. Rf %6 Sz '5 !* ]e g/ 8a +1 `: d[ K% 99 O| ]2 4^ +# 1%.*  09 C: W^ @V a7 2%.## hf Ai aU /C *p y/ $F .i r^ *6 >o ^5 c6 8( J: V[ .: _I &3 g^ *_ |h 6( ",
"g^ ~3  i _c 8} M8 3%.%%.YK 4%.P( ,[ l{ _c l< /k tB |m 7% D+ @# &^ S2 Y< 2  ca g5 Py yc 5%.k6 54 Yp 2: 6%.r_ +} ;/ /. 7%.Pw qv 8%.K( /o &6 y2 eR Kb m} 9%.I^ 42 U1 .{ O$ |6 *~ .| q6 -5 Fz ;< g^ 3d ;< 8% f2 ${ y[ ./ G] rD I$.il .( y7 2a @. }g 4/ A2 M2 'r 0%.d8 =5 a%.t< eq 3< /^ j5 ]5 V9 L< g] h~ OT &+ F# =5 -E B8 cK '^ ][ !3 I/ (g /1 21 G: =1 GB E/ FB 99 W6 _h  / Q2 E9 b0 !g Q. ^+ t( <g B( O0 E] ng 8F qo p2 0a G} z7 Ee wU vO T .7m b%.Z/ Ox y3 9: #i K6 21 L] .: ^4 $% R: E: GU u] &| zm |} c%.`{ L< ]H ${ ^a ~{ }3 J: y8 o  a. u* *4 )( .: )/ j: X^ 7| =} g$ +< s2 *  X[ @{ #+ _0 wU >{ $_ x3 4c x% N9 ^+ d%.C^ ;} wo }] E9 .@ ^~ /h Z4 s] :g S< T~ f1 &+ yX <7 #m Ci 9+ 15 #. rD ;$ j  ]. V. )( Z< Bi e%.9e >B r_ z| Z< `: ,X 4B ]6 9| W0 X& c_ I} |} yb y] (% Wn Kb >: `( V6 ~  ",
"a8 36 KJ BG h3 3l f%.w2 {( ;8 ]3 y0 j0 K< 3+ 64  { $% Co A8 h3 E] %< 6/ g%.w| @} 4_ k% {2 9: W+ Wp A6 N0 h%.I{ $^ .m i%.j%.k%.)(  2 nB l%.5c ;} Q: y: V{ m%.`d 4# /^ T1 [8 >} ib Fm g_ s# o_ 5_ D/ -D /< P7 v4 Q: .+ |% d[ M[ c} :0 C3 2} 07 l5 ,3 :/ <c ,} =( X: -| 97 Q: _] /| ]1 ~+ ;1 3j g4 f1 I} (4 t{ n%.e[ o%.<7 h^ tf `A 2_ (a K[ Vd -6 l8 6# P: ^k ^/ W4 ~6 }3 K# h< 0U l^ g~ ,3 6: |e 7U .: x# u4 9] 7Y d1 +} F7 p_ =6 p%..i n. q%.r%.2; ~: Ai qG P3 h7 >6 2a L% 23 k} w2 Te i[ M/ *5 R0 lj o4 hb -f V[ a^ l< U| 4j @C @$.~@ ,1 T6 <+ .$ y_ N/ N^ s%.4# ^< S/ i| d  jc 95 n2 l. z7 V^ eq L[ )c Sp 1+ F@ *r #^ 2: 6: _n {{ x| BG [0 j0 W{ A: P6 Q5 s: Co jI 3o 52 !( M: A: e_ J$ g] F( @2 (_ fS ]~ wj ]1 [0 !3 $: 4/ t%.X1 _h 7T 1: }^ C3 y8 P3 /I T3 zT u%.w4 R3 .6 K[ =[ dF u( I. $3 ",
"k3 'm B| h| {3 8] U9 'e L1 B9 ^4 Cq ,d 'U $1 V. r| :/ ^4 g4 J: v%.Z5 aa ec {( 4{ j  Aa ;: A: p} c9 +4 $F GA 3j uk #O w%.x%.y%.@@ s[ 4  s/ |j n2 Oh u1 )c ~5  E :H h  o< ($ g[ 6e M{ (} O~ 4[ 11 V( r^ Re >( ;I tg Y~ ;i u{ w4 >g m% 1l q0 ]7 w2 {5 /+ zi M{ u] p$.;3 u[ a< 9W T7 i% D1 ng 9e `5 D1 )  )| 7: M6 T< qn YB g/ w9 z%./< A%.0e jU sk [{ bi q[ _h 02 qq l2 u_ tk Z. nd [7 Z5 -# #6 z1 #6 }g ^I ': v( ,<  ( L/ A} <d 9l 46 o/ L9 mX Xu j( 5} ^  &^ E6 39 {^ Y] !{ P0 _} B%.V5 pg N7 -6 ./ _Y b8 (g 4_ ^a 4/ j0 O$ 4_ ;] %k :g &] ff a< u( /c =+ J8 @+ 9: 19 T1 VH N3 ]/ V6 v# Y[ S6 T: i6 O3 s{ W{ z6 m} @} 8F }p yb A$ (} L} A_ 1l g4 ZI 5{ z7 :Y Cc Na 4| @/ |[ Vd a6 N1 =5 R{ (/ M/ r% 64 L: 0# /[ ${ lK y/ `/ 11 &] R( `: 95 Q5 (5 D3 k4 #6 ![ C%.W{ O] 3^ yb +6 Z% H! 87 <o ;. s^ ",
"lz D%._m ~B +# .< |G .: h$ ./ A/ :q 1b 64 HK E%.5$ F%.=/ /: ^2 8c l3 G^ 7# YX jd XW _m aY O6 U^ s: Y] ad =+ n2 T< G%.H%.I%.J%.50 E: v% a[ EH K%.!0 L%.%/ v1 ': :  Tp 3r O3 e< _0 M~ w4 %6 r1 M%.,} 3^ H3 P{ N%.a1 5C s{ C1 #u :5 Z. Wa 72 Ck R8 7C l9 ]_ y| O%.F6 E6 K/ i( m2 (] C| :g q| I} Qh *} 6( =% J$. | 3} 18 $^ 98 Sh sC 5b gi >3 Qo 3E 85 9: 23 #< ^D M3 o| (b M%.=6 5l s4 79 99 x0 @^ jb /4 ]f n^ E6 l< y/ R[ i[ D} [2 {7 q( ~; =v Qj e5 y_ 99 f^ 4B o4 /^ ca .| s} Q@ a< bd g~ 37 M1 W^ {k 0a 8T @} fh b: @} `: ): r2 21 N^ ^6 1} Te O. F%./j &h *e ^4 U1 Q: U7 V .FC %^ 51 'm =% f1 n2 A: >3 19 P  A} y3 J. m< ;k J# J< B3 <# =1 p4 3r ){ _0 fZ T/ :3 k( |7 A/ O7 T} l< ~( ^} U  C1 |k z^ .# /[  : I/ D9 (5 J[ nX s3 p| [g X: h7 6[ -h g^ 4| ^< y0 il k6 xm 95 pg E9 ,$.|h .+ PY A0 ",
"v5 09 8% j| P%.tK <] #+ q. `1 r< /[ ]f #i J[ sm !0 R$ !# ]D k6 5* H( )] R[ .# L! Q%.p5 nb 0[ 9: G} ^G q_ `n 5[ !3 h# R%.S%.T%.!/ ]1 /1 $@ ~: 5[ ^4 |6 y_ mq ]8 :[ Y( {* O6 f< 9. M2 01 L0 (b %( J: |3 y| ': C3 v] K~ U%.=[ 21 U{ V%.a7 07 W%.~^ ${ {3 >| r8 `U 8a [2 :3 =5 S6 mB 6S sl l4 d2 z7 jj 1I K^ K} $: /+ D3 ll xl 'b E: %5 [g Q: 1. gm Y  Z% +< o4 4| w# k6 p/ _m ~} R[ l0 (} yk jq Rh :  if 6b p2 s8 rp @5 Va ![ __ =_ mb EH H# 3& X%.sR (2 M2 c%.Z4 Le 0} PF r{ 5h !+ 4a =% X1 z7 y8 }b e< t9 (. .: a< A7 G6 g: ,| .} Mp *# s: ,@ %} 2k Un s~ t< 89 YB .$ v_ aa @. z( zg X| (a f5 Q: {3 J: f_ d0 ': ^| Y( 1| A| 4c 5+ .i %{ 1. p< 6% s_ (| L/ Lh {7 i3 EF p2 m9 K( )c 1: 8: Y%.I{ 9/ [] ,. C1 O4 3_ ^9 s: ~< A} &; hc 2_ L. (% g^ 8V j: -} H! Z%. 5 @C `%.fJ K< 'K [+ P% P  T6  &.y^ ",
"_8 Xz Rf Sm .&.+&.5[ 4@ f< 6  }] xg 'F [0 @[ g: F9 4n 05 m% ~: h; y$ 5a _8 ;8 PA L^ oj U7 J[ [j #5 +/ 3^ M{ r8 {7 @&.#&.~) `t (1 Z] $Z g4  %.G9 $&.vp D} 6/ N( +/ m< Z_ #( -} R/ 89 27 O8 4m xm Ue :3 ka 34 6# (L 5+ .] S} .( i} %&.89 e2 8} >o [V &&.@/ g_ `] j5 g5 3g 1j %| *&.x3 +m X2 Fm s{ P< K^ w| Ci q0 tz k# no =p _. ZB _[ Q% [b =&.Y.  ( h1 z  D} aa TK W{ -&.tT NA ,@ ': Mo 4m M1 5c <6 P5 Vd .: +Y q[ _c y/ z1 i( R6 b: sm J5 ;&.^' >&./z Z. @d D( .: ,} ^a z7 04 ![ [0 r9 u4 48 $: l1 Le .( ]6 ~0 f7 {] $% ^4 f_ n2 A7 cj J$.Eq .: .2 v] 9| >^ J3 Do f^ o6 Vf %^ a# Y] ,&.R6 )C A_ 37 6F f/ '&.X} Z< 8e f^ (  y_ K< i( /  T5 S/ eh g} /g e2 [q z3 H< +[ +} T3 &| l< ;% N( H# 2} m< R/ !+ if )&..| SW 52 m9 M. V8 (E t] Y. R: 8_ jg !&.~&.+: Sd q0 Ph il 8d +2 G< y[ ;f ;q -# h$ #+ ",
"l0 :2 {&.nm VB jp |G 1+ Me ./ sp O: 0e J# }9 S0 L: ]&.D| YB 4n ^G XV x4 D#.>} a< ^&./} J. N( P< |3 od n2 B3 #1 l2 /&.(&._&.qg (1 h< yb /g n3 7| e] 8e x. ': @. h( */ /$ wj l@ 5@ d< z| 0d :&.v( <&.#< |6 L+ <L T. D#.t9 yb PG Y3 Sz /[ kd F@ c_ {( }] W  S7 y/ ^c `] [&.o_ q} a0 }&.E} :0 o_ M{ P6 e[ G} /^ +2 &; O~ w2 9| &/ {| @$ W0 Xo v3 e< :0 ;/ &^ I+ C/ HA j] |&.}p XH z7 j0 39 l2 5} !4 uI ym }5 q[ z7 Y/ l4 &k }[ l1 C: 1&.i[ yy +8 2&.mr Q. 3&.>5 )D a< O/ +1 ka 09 )] <+ 4c .| 5_ if 4/ l^ {T C0 @/ 4&.+f C* :g A( (b *] R( /^ X[ lg Z< `+ *| O~ 2I s+ ;8 _~ U1 Z{ [# A: va ~] Af j[ [g ^~ 5&.|. s^ h  CF o: h^ V+ n4 W< H( X^ C] x. r0 9: @e &( /^ ye A3 D_ y_ i| y0 W6 }/ 6&.1{ B^ -/ u6 %+ (}  &.ZL z| Sp 7&.xm U8 .| D^ 09 (a n^ VI cW |3 /  G6 r: ,@ YS .# )G h( 9| |/ 9E @& 8&.",
"N( y4 =V (L Sm I/ #z a: ;8 eh JG vk 07 6W ![ )] ${ 9&.3l P< 1| C| 4| j0 ,3 0&.1g <8 V1 O4 g4 b0 d0 !  jK #< l^ /4 a&.b&.D! c&.=% d&.#< ea j  8% v5 'e =d 9[ %^ .@ d< r[ d[ $: ~6 P7 9. e&.U7 5< +% S0 =+ ^e P: E9 ;d G. `e ,} Y( 4^ J< +} !5 u%.g[ f&.:] ^  g&.4% ]3 g~ s{ O4 42 |6 .6 M{ w| ,{ '6 ~[ _c h&.S+ +% S1 ]a (2 8/ e| _K }Y *# L] i&.j&.Bq `1 L] }m cj Sz ah k&.l&.q_ oA h| m&..< l{ @| z1 !3 1a ^8 P7 ^~ uq e_ 1| M} X} s_ -+ ]Q )+./; Q/ 1a KH !+ Ez t7 z: p< h3 R( -  A( {/ N5 ,G OE +f E0 tk C/ ea n&.*e u4 8g 77 9< )3 }p =% (/ }g [b r9 $: =# P6 G< {{ ca a< Do .$ FB D^ 'K .} 41 }] z% A  t+ >@ Vy 2E Z5 %% Y[ 4B K} S| X| s{ {{ `] 7| |7 r2 kd Z4 E+ E6 u( Q. ;/ v( y( 6$ +& }: .i '+ 6l e0 Z^ Z{ N+ o&.}+ ]/ O^ V4 l# `< _3 g@ <+ Ki @o Pa j: e[ 8: r] |6 W( (8 Hy p&.}m v# ",
"8[ a7 VH f( 34 j_ R[ 0J O4 w1 ad 4| =q id &< X1 N0 +C z  U3 ]7 i3 $1 zs 1e #^ O( L^ D. [3 L< Sz >5 uk 27 N9 g5 +| S& q&.cP  & Ab 4l CT 07 0+ Y_ yE P: Z] Uo t{ $: X. e# X^ x2 nU Do F6 .6 A8 k( r&.[# j: VH P$ Eq T0 $^ M( 8( )c zl X: ~0 1b z: P7 K% [[ >3 /o .2 ~6 9d $} {7 ;3 m7 `/ 13 g: s/ 2% K+ E9 L< @/ b+ s&.t{ y% 9: X^ t&.z1 Bg &+ M5 5[ X1 ^+ 07 (] <@ {2 ^< .% UG )# a| Ib &4 4# |2 -5 `A |6 '6 P5 N} s} O~ #m P~ (| S} J< |/ u&.v&.w&.g^ w4 d< U[ [] y3 x&.^2 uo >{ Ua 3} 2: 9: 8a @# (2 R3 >{ v#.P6 R6 M[ r| L^ 5_ Lh X1 Dk  ( K. Yo oi 8} `{ }# i+ h  }: w4 N^ =/ .: S/ T~ A6 -. x4 SI o: y&.T1 _g (L T5 &3 _a z7 D} W+ `e o: '3 W6 8F z&.$< y| A&.&+ @| ^a {/ N+ j( g} hV B&.t6 h  !: C&.>  D&.E&.5d =  M< %4 m} A: s# 5_ ~@ Q8 F&.;} !I X{ {3 !3 ca H] hn ~J r_ <H H( !# 7N <3 ",
"%5 4B K0 G&.H&.}E M8 '] G] 2k 4% ca u4 hf qG G< }] L% &} 1} I&.6c 6c L3 <a P< m0 p. J&.ol D^ L. 7# ~: ;3 Q[ K&.Ac @y L&.M&.5` D} u4 P5 _I l6 Om /1 *4 1g S0 1| n+ $E 3r gb ~_ q4 7} @o 7} =5 |1 v^ <7 !1 N&.w. c5 V9 4j s{ j5 WC O&.)B 9p J< P&.D} *[ ;C =# Z. 1| /} F} RF Tn >d ~D .: vb  2 'm ]o 17 R7 w< j| $: -f $% 9r Je Q&.Wf b2 0+ `d Vr 57 M{ R&.O] #3 h  p< U+ */ s^ vX S&.T&.9_ h4 ,} 0a j5 2g G/ *[ ~6 U&.K# 18 )~ 2h j: o_ G1 w..Z= V&.Fc R( eh Q: W&.q( R[ aa y$ q( ,1 a9 s4 #m R( ]/ !V 1[ M1 Xd ;1 q[ N^ y] .2 >3 T0 t5 E9 d| m. ig  / 41 /. %{ {h 77 c8 |h [p J( s^ Lp @} G/ 6[ ^# HD +1 X&.5K gD y7 Jb P$.65 |( *~ i% x|  @ Y&.R6 Z&.2A pq G{ _] |4 F} <@ (# `&.^# 5d  *.Fq .*.05 S0 +*.). c_ U+ n% }{ W( 05 a^ 9%.6A /1 ^k ,9 ^< W0 h( !3 g5 ,r s+ $^ L2 @*.A| mg R@ 8e #*.P: ",
"F@ i7 I] $*.PA 8: %*.W( _} ^2 F&.4( L( P0 t_ Q  &} 7| 1# @} f8 va md 5a uD Q. ]_ }l A: ~7 bz ,3 &*.sl (5 n^ 1: 90 F. IN ]z M^ q( ~: (S E: R( 85 h# PA r2 (  u( x# $: +6 |} T( {^ 0( ]3 (b @C -% ;3 xm W^ p5 Xn `5 #C HA y3 @| d0 4j I^ @< _b ,f >{ k4 @/ **.8( 4c i3 X^ 2k '# X| l@ b[ s{ Q@ P0 r5 R( E9 B3 UG |8 fg R@ E& 9g U  =*.Y%.jj 2: >3 -*.}9 _< x9 ;*.T. .i l: `e >*.b/ rH 3] XY M( 3} O} i3 X2 T7 ,/ S1 S} B3 :6 J[ l{ 78 H] G% S+.,*.vF @4 f_ zi X1 mg g[ 8E W+ zF (3 $_ &] I^ 4% i( 3} k( L3 x2 =5 X] 4/ {< Wa Sr Q7 J< r} 65 y8 '*.q3 q4 g^ [  Q/ H] y$ 1{ 5K )# M: sk ^^ (L 0J C( nU DC m% *[ (5 I{ )*.L< ;d l^ fq VH !*.M_ O9 p< V9 ~J 5j 8% o< A6 0J ,o JF ]4 ]/ k..r( ;# b. m~ d+ `1 sl a] 9( Er OH P+ 0e ]. h3 ^e s^ Er  5 P6 N/ u} +d Cf d8 ~*.M  y[ J1 ^2 x9 -  =i Sf 8F @} ",
"Bb /  {*.UG Q5 #( ]*.1~ ;$.P$.M/ OE Wk G< ^*.J1 |_ @. |/ Ma /*.Y| O6 F6 *o P: ^L )4 +m W1 (*.U1 [^ #: E9 U~ ]7 |h A> i- VR RU ,m y| vn i( B/ r: U[ D^ k% 1a 9| E] k5 ^{ qF X^ d$ ;] Yo }A HA l3 md _*.6m Nz &/ Pa t+ Df 52 d( >C C2 Xl cD `{ 0( A6 s$ Mb Mb 4n j6 e[ O~ ~_ w2 :*.m4 t. &4 M: N/ )< ac &e /d x7 =J [] <*.w| 5j [*.+D F( XW &e j0 Sz s^ )/ <q c%.|[ %k X^ r$ }*.!+ Y( g] `#.@} (o ye [3 q_ W] #1 e[ U5 nb V4 e9 F} S} .^ '. 5& |*.1*.}A T3 =3 98 ]a -/ 4% L3 =/ F7 &  t7 Ac 6[ hJ 4d Z@ k( ;/ R6 I} g2 W3 A} P: 5m 2: %6 )r i[ Kg x] 95 -6 <_ L^ 0: /k O@ kj ^# w9 $% p4 0  X[ )/ d/ Le ^8 bd 2*.3% 3*.#6 Vd E( Ox j0 Cq +r Ay l# C{ ~< l0 %%.rl <7 }/ 4e ]B HD F| r@ 4*. O BA A) .} @$ tU #T a: 3F x1 Y< U9 X} ;/ w[ 7| w2 q0 .B F# vb tm T} =/ .] >} 6{ i: S0 ^< 2e h3 =# :# o: ",
"N/ |6 .1 4n a: F| )# !$ 8o 5*.*[ u* 6*.^+ WG g$ +2 Q  jn k6 cz Z. f1 x0 #: 5[ Yx &} M8 dj <[ *[ &5 (5 +1 7*.{3 ,@ 8*.Lx 9*.W$ w< }l s. g< _  /L  ( gI 0*.[. Ua T6 h( ,_ T] C0 E( u}  C |$ p. {| s/ ,@ <p  | Pa k6 s. UG Z&.|6 G} a*.K0 o: ca {/ .} e] W  ^K ]A M_ 96 $Z .2 ta O8 ]1 {@ b*.Pp N$.c*.P< eh g2 6j d*._] ^+ Sf C8 Me Q%./e AJ W+ o. ~] Q3 V+ GA 9( 6F O. A: y_ e*.x[ +( M( M. N( A7 5a Wy W+ f*.2: 2: [l L1 KA S  [A !}  : g*.h*.Kx V@ ~^ q4 9p  5 V4 1: 1. 2E k5 A: ob V_ X} [q z/ 9z t9 5} v^ 4m y^ vb 11 0(  %.Pa o4 X. E& y3 S( bL +  0] j: Z/ _6 i*.q+ j*.q: SV y@ [F k*.Ji G} Eq z. l*. h ^/ 89 4n Ac 8/ =/ Vy v_ KU }: s+ jb Q% v~ @. d  L+ fb oj 7w m*.'I n*.:H F% A( $] q# :# yc o*.Ii I7 M8 >o kn +N 75 ;] >3 p*.-^ N/ q*.$% n_ Rf Vh _@ 23 /} (o X4 Q@ vg z  x| y8 R3 IA ",
"E< c@ x] !] 4F &H ;C r*.o7 s*.+*.B3 He C1 +} U1 `2 ^2 W#.Q7 @# %. ,i ~} #r _[ 2n t*.O} t. a. y| {6 _8 ^2 ~3 C  C: u*.v*.1, *_ J1 ): g: 8: 5[ E^ 6E 9[ /3 L| I^ K( jn w*.$q y/ 9A U7 *# U+ x*.y*.W( I[ nj z*.VD aD K( L! A*.'^ </ %% tf D} <2 E{ h< M+ k} ye G/ B*.C2 .6 6/ C*.i*.>5 k3 %% [b z1 IS D*.79 0( 4# 1} ~* E*.f< jn ;f {/ |@ F*.9d J1 :B +/ m} ^~ DF 6_ H6 L] k1 Zj EJ G6 C8 <q ]. AJ /e D| K} Q[ v} HC 4g ;8 G*.C| o/ H*.|7 q< + .zU lL ]f i# C2 bl g[ 64 r_ +} F} vb [W ]H l5 z1 8  ~: @< X. Ma N( T6 #6 r^ 1l w2 I/ j: +# rK m$ @V nb U  K6 `5 no |~ S] i[ a~ /} I*.Um #+ `2 !~ e$ K( x[ uD ca 1} f9 =1 8% Y. *# 5_ ca J*.=# tf hg Y] X] )] 05 T< A  K*.N6 Q  L*.0# {B ~: y% 07 N8 y. V9 W#./  x. <e d< k{ H# M*.1{ Vp M8 g[ =q h< B} e2 x| 3b __ $< $] e0 ^2 2: Oh :H .( )o )_ R$ ",
"N*.w. p} >: @2 O*.0: 8o P*.S| Q*.|k @# K( t5 b+ FI %. O9 Q. p$ t< %B N/ yD ~@ z7 BF ng 3/ XW >[ u4 G9 q_ ap t( R*.n~ '' S*.14 <[ e2 T*.FC X. `| AY x# 7c /} q. -J U*.ng V*.X< @} ;/ 1[ n% .< t9 &+ ^a R7 ($ W*.a: 5a y  Vd Pf H. X*.V9  _ ;1 &o Je op ./ k} 4| 4n Wa S5 l3 @e /[ 9L mf }[ K1 x_ @. _p 77 ~+ `e 1.  H r< Y*.0: +@ >A p4 y6 `e {&.09 m@ 5{ g5 Y  Z. Y  bd 8} :0 g~ rl W8 g5 1+ v1 Q$ p} X1 q[ T6 F9 Z*.s{ Cm j< Hk l3 c8 )2 `*. =.hp 1| U6 Y~ 04 b( h4 h< <m T< ^} _[ Ci @V ;5 Sf S  (g |l 2% :I E: ZA =/ L. >3 2} U9 h  '@ v# ## N6 W^ `{ |@ >@ %] g$ u7 /+ g[ hf c+ T( 5a <+ W< fN W. _c 4{ M~ =[ %B .: (% 8} F@ 2k ^h S0 .# A6 q4 H1 5[ Yx m< Sy 9] .i aE .=.R{ +=.r< @} 6V @=.H] ]3 #=.@^ u$ v( $=.!J %=./. ;{ |k L0 <4 HK K( O$ y6 .: w< 9] v# Y  N9 S/ -. !0 g^ e_ B( 2k J/ ",
"&=.*=.o< Z#.9[ a^ Me p. Ck &^ A8 ==.;m `2 2D S2 Zj n3 r< /: K^ Li -=.N( R[ s* bI <8 8F `] 2% I< O4 fU 5} l. E^ 0  vO ;=.>=.p% op SV >F ]a |m oj J8 LF  [ 64 Oo ,=.'=.Bs z. e$ 4% wj R[ 8F y  Ty @U }. #/ &[ a< zz Wy x< 3l ^e :  V4 I< `} ub :W kz Xy .} 9. [q R[ m. K0 O] 2% n2 m. )=.s+ X| L^ h3 &| M+ q4 K( Ma hn !=.I#.B&..@ o. lz HL B8 '3 ~=.{=.w7 4a Ne l# >@ *~ V/ I7 X#.^a n% <8 M1 B&.y8 {] ^a IA ^{ [% M5 )] 8[ gf a8 cn ~0 X+ ]=.n+.w&.t[ =+ X1 Z4 IC ^=.5K 'q 4B W+ (] ): *# *[ Ne h3 ng Q. A6 s} 2< ni &e $< &^ -6 8% Ub ^# A8 G} s~ 5m /=.C{ E9 1{ +*.q; y. .| S6 s$ %] a: L% >@ O: T$ V_ .| 2e X} -< q| %% |Y Z] ^  E$ >. ;% (=.G] 64 34 v~ wF s1 Sm K} 4. ^e A8 2; 4  Uo (. ;%.*/ h  -/ _=.:=.*# `#.}l (o )  8D G_ 6% x| 5j 2% Ob FI :B R6 /I Y] -=.I# d$ L1 7| L< A6 kC P0 Y. ",
".{ <=.[=.L% |$.G@ ># 2E }=._B n% `( ]~ Oh [F 1} =/ V+ VH |=.&[ XW UF 1=.d$ Xc &/ |} 2=.L| u5 3=.${ 5X R$ ^| U1 ;C 4=.5=.6=.p# Lp ,K 8] C1 G{ :W 6o k# 'm S. 7=.8=.9=.0=.>I f8 aJ 3} 'b ^2 q_ hn h  L1 @} A8 <8 yD %% >r l0 fJ R@ P0 '  &+ s_ a=.68 ^] W0 D} to fC Q6 b=.r3 z7 W5 K} O$ n+ J6 =# h4 e| 4B R7 Q*.g< cC SA v  6[ P9 1%.a~ </ s# P/ S/ Y< J( CF +& 3} 71 (~ $q c=./1 M/ O$ J: FV ]] =/ W< Tz H. Sr R( r{ SK L1 G/ p9 :| y7 m@ UR g@.V; e  A( a# Y[ XD '+ cj w2 @% T( d=.': :j 2} r8 W< Ne ~( V. g3 >} (~ l# t{ 6  ]] +/ j5 e=.V[ E6 D} g4 A) .{ 3# T( ^a 44 0$ }# f=.h[ .Z f^ C] _] 64 }: (D %% p5 I  Uf Ty )# Y( r: f$ v# A) c_ HD O9 hn Y[ u| v( g=.0] */ 2@ X  3% H&.h=.T$ )o H  |Y 1: w6 i=.0d 4; N+ ]3 MH ~] x1 `( XW j=.6  kd k=.a: =  B7 5} v% #/ A   X Ne Ac /I U9 J} Yo .Z ",
"!0 q4 >f sl l=.nU k{ s$ H6 =[ =3 g4 9< ~@ hn 06 S< ;d m=.`5 G7 b+ g@ ]a n=.o=.p=.q=.;d V  {B t4 K} !  U5 +|  / J#.r=.'Q s=.t=.D#.]O u=.5j ;f JU DC v=.Sz )~ W8 l: #C +&.G7 8h >r t1 p3 ea w=.x=.d: ^~ n% Vp UK ;/ xm P0 y_ g0 fN >^ `5 ;E y=.O8 :B UJ z=.]f oG 8: i[ J3 Af L3 A6 U  A=.%] oj x9 *# W6 (L iJ 6e B=./@ B8 $< l# !] 6%.y. Nz Pa lm G] 7| ~# >: p# pg qK `e dj ]6 [  W( 15 M~ C=.D=._] __ <m O/ X[ `n 2_ u8 RA ~6 @# %< !r E=.8*.x> lX z( oc B9  D F=.Vn QC G=.`< _m dE aa Mz [1 #/ ]. Y( YX $: b: 64 G7 *~ +3 Y( -< FB ~  a< D3 `1 ]e Q@ t# 9< 5K hn c/ =+ z6 dj 3r GK &[ _. ^m -I HD H=.A| )] *# `{ D| C] =p u: [q BI O0 44 q4 m} o: 8e v( Xo 9g !W zD }r 8} t| 3b Qo $F 3: )+ P8 `%.I=.2k V*.HA (H L^ A^ Py y6 kC >@ [B A6 _/ 8r V^ Xl >f U7 9( J=.oH %B W( ++ BI G< Y. |h i} 2_ ",
"`L 2  d: @3 9( V9 `@ K=.el L=.Y  T1 TJ @3 hn `h s| Ji M=.Xy (o 4e 1d N9 6h up D% {6 }3 @=.#@ b|  (  ( ){ 3} +| 3} N=.hx RN 'i v~ a4 L^ to l: L} ln Ox Yo ll p$ ~S q4 YK O=.u4 h7 P=.t| np ;p !b $*.## `d ~] ng O. 2e ;8 5m r| l: g4 1: /o 14 Q=.R=.Wn Up S=.': T5 ;k 1. b+ G9 `e &4  | h^ q_ Tf z7 v4 J[ 7% m/ E< &[ T=.}+ 4# G} p4 g=.^. zD E+ 5a '  (  SV |[  H 1n -# t5 L^ |h U=.Cq E/ Xn d$ .# S7 W. i6 x| B3 il :/ T5 kK C| 'm [E V=.}n %; W=.3/ p# *# [3 (} u( l0 ;8 )] 8F cE M8 ++ NV XW V0 46 FU y% A2 -_ `5 /. O7 ^h .# )  >5 6: z7 Y| cz h% X=.B% tI _6 4_ Y=.a+ @[ )  xH zF /1 Z=.f^ `1 O: mc m< v_ 5*.vD 9$ LV p+ ec lq 0% t| ,Z m% h# 1: 9[ =I C{ {c d: 8e '+ kz rD $@ `=.v~ l< hn P  =J  -.L% E^ n4 *X s% |@ @^ (b 11 .-.d( .# l$ _8 hn U7 BE $V o. vz X| `d d: o/ `n b$.d$ F@ 07 ",
"(5 Ui G] X1 r% _o 9G b+ =J (g }7 /4 Q. .-.O9 V_ 1l &[ '  u6 G& ^h nD .5 [g *F ^: Up _m BA 5{ eq Cb Pf sE jU j5 X| +-.Z..@-.Kt y7 5} >& y4 1| >F O4 p4 vj }m #-.0( q$ K+ u4 Z5 p. V6 $-.U< t< 3l .[ 4F :% t# l{ !E %{ *3 f$ Wr ;m +D <~ h# %-.Z@ _n &-.qG :0 `1 ~] P:  1 f_ =} 5r He PY [b /%.+&.+( a< Wp vG f/ ^+ k[ K# /k X1 1@ *[ 2j 2k '^ j% s5 Z< j[ ,r ;f /$.wE 8F ff Yo &] Yo sH T@ *-.]E  | V{ !m 4} I/ 09 S2 3% 90 E6 s[ 2g }A 8= =-.RM u/ --.x6 Xy (~ !0 s| ): K+ l@ ]E ^< 2  z  T( h( Z5 _s ^4 |_ 0+ 8  P$ +C L. V1 I. rk :^ R1 }[ i# ^6 W. O4 {/ R$ /d M+ 5# n[ ^  1. 9/ g3 =i Y  0. eH w9 'm f1 C1 >3 ^: ;%.$# ;-.f~ dF V1 6/ &^ ~3 O| _] Q5 [p zl oj  H >-.0d j# *i ;/ l. >B I6 Y< u  ,-.jc C% /d m% 52 2E 5: %] SX p5 Q^ 6V W$ e| o: 8} Y( D$ ^e u( Q$ F9 Z< U*.g] |l Q1 .2 @. '-.",
"7: 5} *D d$ r| O| S< np k_ PA J[ HT _m s  .i LF r| x/ ^m >r `&.Pk .i ++ )-.dj _. 8] ,b 6F !-.52 6h 7% z3 {|  @ 3< ~-.{-.]-.^-.T< pE 8} qf /-.^  Ie a^ (-.I7 kW 4+ @@ g[ _-.!5 Y+ vJ @@ :-.fg N( (] !~ LV DG GD ~6 eq <-.6: XW H. O6 W+ u8 sp Ce `5 =/ &_ O( tB [-.7| g$ 9. I. _. ^i  [ s2 L} Sa <[ 6C wf }-.Hm t< @< ~] h$ bB [i Tz UG 1: [. VB h; =] 5B kq xU Er r< s@ {{ &m ~B e< >I @% s$ Uo JF t] &3 VG y_ }% W0 Sz |-.{9 j0 %% $< g` yf 1-.2-.n/ )# Y+ ./ ': 0d j^ F@ OH ql z{ */ b. FI no ZA W*.8D t< &+ 6l E^ 7&.N1 J1 a} &+ R[ 8} }g {y +3 ]6 8% C] @& W  l# ^4 z( c/ {{ w9 t< *r I^ }+ 3-.uG dj D9 Mb rl ng #( &/ }-.2e =] V1  ] -6 k# l3 fb $F .i O9 Ck k3 #/ =J 4-.T6 2j ~J Sf [[ (. C0 R{ 5-.ig E  Pk 1: 0( lm Y  ^/ <J h< z: 14 .# /  e< O*.[] Z%.#4 M~ eH 5K Y( 2g W< }7 W^ 6-.^9 ",
"xm ^c Yo D$ v( [l oJ =V U+ o_ ^i =5 8g (a q$ ~D X#.2A mL H4 k6 I. `^ pg ~] `1 %6 ){ 7-.W^ 4j p2 <[ 7a !3 6/ >h 8-.iE 9-.0-.LK <r a-.i6  k (J b-.O. 6F 8} r8 ~S p. no 3} k} L1 T. ^+ #F 2j O6 Y5 L1 dh /e y% X[ |l c2 I6 8E T&.c-.K} @3 g4 E+ v_ $F p*.4. j5 >[ 3^ Uo ^/ (g A1 v} &3 9l E9 5[ c} >5 B3 =/ ;-.$: b2 OJ $_ d-.u7 p4 [} L3 Hb wj 8  )# S4 '5 |k ;C j  `< *  p{ 1. ll _[ XB Qm j| Q. SW HK m} 2: l0 NE .+ ': p5 sB 'e 5_ I/ !#.e-.f-..y q_ g-.'{ jp h-.k1 %=.54 _] O4 ln h% [3 _$.]] i# i-.#+ a] 8| Ck k( _] 5$ A6 T< 2k j-.8[ yc 1. /: O| _I a4 4% k6 `1 D. P+ _T F. <~ k-.l-.*[ d: 10 .( A8 qG N( t< g@ ]3 ^4 A6 `< gI g3  K 1. 0*.G] Y[ ln 6# hf 4  sp `h G0 %B M7 up M6 LV Af 2=.x1 Uf a: Ck Df ]~ w8 4F VC V[ 9% Pa p< d: @z hn I. #3 cC OJ o  d$ zl +% OJ <@ 04 m-.a7 W^ d: R3 ",
"p( qn r< p4 P: rl [7 R[ X[ F@ <m 1: ': T$ a] 4/ |_ ;q P: M{ n-.z. T< ;r Eb o-.29 71 2% R6 :/ E/ &^ r3 5} J( 17 X9 p-.&1 q-.Xa y^ K# Hb ;E /^ <3 E| k-.Pa a^ $3 0% qG I# ^+ fg r-.Ki ]/ yX ,K S/ 86 1: m_ 4# no -/ <J MH g@ 5K }# m< o: I. W$.M] s-.t-.fN #F t( J9 Ty /1 s# #3 s] r| 6K Z4 0[ V4 'b @/ }p Z. Xh u-.]/ <~ 6c ^~ 9. A8 p. A} 8F D1 4_ 54 ^< 0# /e C1 #+ U  UD Qo _o (a 0: |0 )_ ]] v-.B8 T1 G0 Q^ 4# f~ Q[ #6 )K |1 &B eh w-.x-.$$ y-.7% t/ nH 2=.zY VH 8/ O7 c_ O^ 4% 5: k} Hb N+ #z >: Pi &[ O( |% p^  / v%.z-.Q5 ln ,$ S6 ,$ 1n }S |: !+ i# )] =5 D$ fb }] 8o -@ l@ g5 C3 _} l] 5{ w2 4% ]. wj  E Y3 4{ KU R@ 5@ h( E| >@ V4 Lh -f FB -6 7| wF 9r $p 8F l@ P8 yb N7 rD Sr M} 2A s^ Wy `1 oJ Vm 9/ I{ I7 A-.no 5} 0J B-.k} -# /d J7 a4 P8 ^/ zl R$ a^ K^ `@ b/ )G if <n `5 b+ uf ",
"P( _{ _e bd C-.(1 j0 (] P( b2 N{ p0 5_ dc Aa v% */ 5# N9 W. x7 ca @/ G9 #( B( ## =$  / lW C/ `J [b J} ~} 2: v% ^K }%.^+.rN g* S. _a va x| h^ v_ I[ &^ ,@ 0e v_ 9/ D$ 7} X^ bB yE Up ZG L! M8 .@ p5 M/ n^ J7 D$ O. }: Db D-.E-.gb 2; 2} 2E 5{ w< F-.o-.G-.N7 XD h( s+ )] P  &H um ^L :< l^ (] U8 Y< ~^ O6 i3 }7 O$ ub v_ H-.v2 I-.{o E: _p J< h_ l] .| y/ .: L7 {3 Eq *} n| E^ x8 dh N( m% /$ f< 7} zI 2E h| k# L| c} J-.a< tk r^ bL R0 q= K-.L-._* g[ P< S7 3} @2 _c M-.@. X. #( 5K W< 5m AJ |h v( =} I7 Qm t< {o C@ |} M{ Y[ d$ t| e_ ZV 4G xm 46 Q5 N5 -/ 8c BC :Y R[ AJ _G `| d9 ^4 Qo Me K( [# LD $3 ++ cj E6 +} (} N-.O-.<q =< m0  / *} Y/ :0 u6 x| uo U8 e_ 52 4a Af Tz r9 x1 &i D6 >7 &+ d/ O: ,+ L*.:T y  Hy Jh Wp oA Xc ): :B J[ yk Sf !0 C8 :B h/ QI c_ g^ g4 N6 vn ,3 U9 C{ C3 ,@ V4 ",
"_~ (b vz $V 8$  [ P-.rl 1} `q R/ _] &/ :d Af 9% nH :2 x1 Te !# T< {2 Z@ S[ v4 .< -^ CW I2 _] e2 n0 D3 e( 8q ]| *] rg =Q ZW j@ ^< %4 *d m$ u4 1| Cf O9 64 `( V9 t6 [  (% KU ]3  5 NA 2$.m% FI N$.Y5 ]c D#.4% 6F 1. .i D] <4 B1 8c p$ Q-.O] <3 Df Cq Z5 M~ ($ H1 P: _] y3 j[ L3 M0 E] mW E} O( Ty ~G hc 8X j< 9[ A6 a: 4% I# d( 8/ h+ cE V{ ;K 1a G9 |} h} $% W] R-.y8 #_ *&.Bj p. 6/ 8  :  P{ xV .W S-.V1 9< z( >r t{ y| s^ pf ]7 T-.r8 U-.@~ V-.J~ :I /I p^ 0( :  2k P/ W-.k( )( 9: A$.yT  ]  2 T6 >-.m% b9 j# {( W. vI */ C1 qF  ( -_ `^ @$ a< @} Db ]~ w1 tf N/ K% <8 !/ X-.f~ 5N >. &I @. SA %+ F0 )  y6 I$.p( K6 T6 Y] K( 4{ h[ u( X1 xc TH n^ id q$ l] y[ N7 M} h< O9 fg [0 [1 :5 nj A8 _~ h  2A C8 t7 V+ r. @: `&.uD 4  #/ :0 @_ w| R3 8F Y-.8: 9: F1 `@ 37 LV [[ '6 M} M} c} g4 X[ S0 ^5 ",
"vn W1 2c 0. 3{ @+ j8 z7 R( ${ %( ;/ ]1 ,@ i[ +1 J: QV ^+ 58 N1 <4 M/ ,( Z-.p. A} k# 4{ `-.nd ~: W^ o8 mj ]..p4 5a Y6  ;..;.H. y8 -] w1 C1 rb F6 .: k# |[ 7% i# g/ 5[ z6 *# D1 W+ J/ A1 l. i3 u* Df }: 5_ B3 O7 9: lI @} rD +;.@;.p< P( 2E 5K Na ;C US !( ]g =+ IS J: O4 y6 T6 jF #;._1 $;.K( 9r .: ^m b# N_ %;.=# z( 44 lm m@ K} >( i3 y7 &;.S/ M( ;/ q[ 1$ kq F1 Bg pI qi *;.;: =;.6  Y( m} -;./o ]H ~D }l +/ N: K: 6< Pf /2 Wa i% H2 ;;.>;.,;.';.q% P7 C3 u5 t{ A3 W1 m5 ,d |_ h| 27 Qa K( >r ,. Q% KH :| 4% Pb 5a /1 :< ![ N9 zl X. xm e$ J# p( _  9[ C1 2a @[ <@ +&.g< Zy [r );.U1 q^ !;.[q g: Ma v4 NE Qa ~;.P7 57 {;.o: a< D1 5H X[ ];.xm P( /  [q A: 10 m% Vd Ox l] X1 xm @< >} |k 8E X1 E^ B9 b| jp m# +N 6} ,4 O/ .$ D$ %] ~3 Y] U/ @/ <_ fB F@ +| ]. up d: +/ X| vb p( 4| 05 9: sm 34 ",
",$ 1| l9 ^;.r< /;.P3 ]3 ;d (;.%] ]{ v_ _;.ZA  . +< 5_ 5*.~j :;.I# s^ z1 B( >} 8} }] Ac p$ :  ,{ )_ V< <;._o [;.R2 :; };.|;.1;.Q  jc 3^ Co -K K: oc &] _7 2;.3;.b} q{ 8d O0 *# #^ p< +% 71 A8 y/ V_ 07 D$ j8 sp jj 3e cd x8 :&.-^ s1 %% ^2 p< y7 Y] V+ n% [q b_ =6 5} eh ]2 c5 ga W+ v% @@ S2 @n `e l@ 5{ |4 E*.,4 I{ ~^ q. ][ t^ [[ 4;.r0 FJ A( rl 3< 51 j< =D (r ,r +( 5;.~s ]V  / /L 3@ A$.'X hz K% kz E/ ^e rr N( V. ]5 PE U[ q} s_ PI 6;.n  7;.I< n^ P{ Do R[ ]J V| o4 a[ 10 8;.j[ O7 h7 %U B3 N7 =# l4 r< S. g%.9;.;E Ei c_ }] ~@ ng Kp a| m< !/ L+ 0. ;f `< o. 6V p5 Y  |k 0. `{ !^ s5 =% V+ L< g/ G] 4% +4 E6 l6 h7 !] w2 q/ 0;.$% d[ yc 9r qn WG Qa H] #@ R[  5 S/ .: 2A |: G< [j e2 4% _B |  B&.%I K: a;.t-.PX q=.L5 #@ ^2 +| .# _8 b1 Wq I< 0@ g: !/ _  6e 1. Sz H] mm b;.;/ 6S WA .+ ",
"Y8 d$ }=.=< @% g$ l$ oj y#.4% P$.p% R@ 8( !} TG Af R/ vD Wk c;.pn {/ OA -< :  2*.T( 0*.d;.U+ z6 ## 0# !@ e;.f;.d& @$ f' S= g;.E% h;.8= >B i;.!] e& !m T6 X^ to  4 j+ JU j;.|b l~ p( _o ++ 1  7_ X4 }p D#.O} (b x9 G< @7 q( L< >^ n% V. 09 !4 ]J F} S0 ~} N^ D} sm E] '6 *# N{ A_ Wn (~ R[ <_ /d p: hc 0. k;.Uk e  q^ f< z% 9g J6 r$ }p M| 52 y[ Wr )+ >@ ,K p. :;.$+ 68 [/ l;.|| 8| Pi D} /e t# :W R' m;.L! gh O+ I[ )} N( Pa ;5 (|  $ n;.)9 PM *@.x6 af X  ~D ;} s5 S/ o;.M] y$ I^ I2 tf <] [p &] @E Bg sm U1 *f d$ j  TS -6 9: I1 Qa yb Y+ @% Y+ @^ g$ ,Y zc '4 :B p;.3^ !~ g  g} y7 .$ /^ q;.'d V~ M/ dS  H (% r_ &] 1: #T );.t{ r;. 2 :/ @} -< f   / S[  } %% k6 _8 .} i9 m9 >o M~ /o ^a |k _3 D$ m/ s~ k+ s;.t;.N= 2# /2 ZG h# U{ E*.O9 E9 Q. )] +< &_ mn 9( u;.9+ Wn v: p. 2k :~ _@ f$ !# ",
"QS v;./0 w;.x;.y;.z;.)0 >&.A;.`* {M sj B;.nl <z 'y G* C;.D;.E;.RG F;.G;.h` z; lp +! H;.Jt Lt I;.b*.yM J;.K;.xu L;.B@.eD sY 6& u$ >w M;.N;.O;.z;.P;.Q;.R;.S;.T;.U;.V;.W;.X;.Y;.Z;.`;. >..>.+>.@>.#>.$>.%>.&>.*>.=>.zM Rm ->.32 j- r= ;>.>>.,>.=N '>.3: // )>.!>.~>.5a J] s  o[ !0 Y& {>.Wv ]>.^>./>.(>.W; _>.:>.<>.[>.}>.`* |>.1>.2>.3>.4>.js 4 .5>.6>.C` 7>.8>.9>.0>.a>.T;.Q;.b>.c>.d>.e>.f>.g>.h>.i>.j>.k>.l>.5 .ht m>.DZ n>.+>.o>.p>.q>.r>.Ls s>.U-.t>.u>.v>.w>.x>.y>.z>.A>.&= LZ B>.C>.{s D>./ .E>.F>.w>.ft G>.H>.I>.J>.K>.L>.M>.N>.O>.P>.Q>.R>.S>.6= T>.U>.V>.W>.X>.Y>.Z>.`>. ,..,.+,.4 .@,.#,.XM $,.%,.&,.*,.=,.-,.;,.>,.,,.r` ',.),.!,.tG ~,.!& {,.],.^,.Z; *= /,.(,.9 ._,.:,.RL <,.[,.},.|,.1,.2,.3,.4,.5,.6,.'` /- qT 7,.8,.B` 9,.'& 0,.mu Uq .y BZ a,.*t b,.c,.d,.`Z e,.f,.g,.h,.Is i,.",
"~@.j,.$~ k,.SQ l,.zM h} sh Rl H/ R~ }* x  N! >e ^ .N= m,. u k^ %$ VV V) n,.o,.}a KT ~' o{ iU p,.At q,.r,.s,.Nc t,.&U 7M +' }%.P-.u,.Jr *y 93 v,.. .~O d^ h` w,.x,.y,.ls vY z,.j; 'w A,.jY B,.C,.v* J~ n  >e 6M d- 5& O2 rP vh ,O M4 D,.'[ @ .#' E,.uO hN $& ;m (k 3u uW {>.F,.G,.H,.|+ j+ kh I,.J,.Ju &R K,.p1 <0 u% Y@ =D =$ L,.#R W# M,.:9 3/ 7~ [_ ]-.N,.o` B]  l lr }#.XK |y O,.X> JP Xa %s P,.oL [: D' Q,.R,.S,.9s BP T,.Dy U,.V,.$8 W,.8m X,.Y,.Rl 0& RG V; Z,.`,. '.'~ /8 I& .O .'.gy }; )s D= +'.y- 0{ @'.|% xL X8 wb N  t_ 9{ C5 @ .#'.$'..w Dy Kk %'.&'.*'.='.H@ 7M ~2 p>.jZ 3S bu -'.zU ;'.ZE I:  ~ >'.S& }~ ,'.y( rc _# 5+ D^ ''.ZU )s =O 1o +. (w PU X/ )'.ZR !'.N= ;f Vs Ev !o bW P% h. ip ~'.6; Rm G# ;; ^[ 9- |O y$.z& G~ V,.F .H^ 2& 9~ K .8= /7 {'.{w f6 .u ]'.^'./'.O& &8 =y ",
"('._'.Hw C= :F :'.<'.AV vc ['.YS wv BX n> }'.|'.1'.2'.A,.jN 3'.4'.o~ 5'.1v T@.]@.=..]@.6'.!` 7'.=~ 0x 8'.9'.0'.a'.+V y, b'.c'.d'.Hv e'.f'.Y> S' a#.g'.h'.GE dB i'.Nw j'.k'.)9 FF l'.C) m'.n'.%E )@.>G ^P o'.p'. +.}o q'.pp r'.s'.'@.qt t'.T) lw $'.u'.|# v'.w'.1s x'.Lb Ju y'.:y %Q z'.o~ LK )Y A'.ox B'.C'.}| D'.)Z E'.F'.G@.G'.H'.I'.J'.K'.L'.V@.M'.dK iU uR Di bF N'.O'.2O w' 9Z Q .B, 9{ 5N T@.P'.yU ~@.Q'.4..8~ R'.Du _#.S'.Bx q@.T'.h#.Y+.U'.ly }o V'.W'.nF X'.y> m; xX Y'.Z'.`'. ).Q& ^#..).<D :v 4P xX eD x> y> ;x +).@).K> 2-.#).ww $).%).&).bQ 8k 2&.*).qS =). R -).D .tx QP ,*.0, ;).0y G..>).,).9* ').)).!).~).!F {).RN ]).`c +! 2T ^).H,.0L 3s uR A'./).$$ w- I; ~I M' C,.@'.().69 _).:).<).rx [).L&.}).|)._' /R |v 1).H+.vx )T 2).3).*@.uc Z6 4).5).v&.6).vA 7).pS 8).B^ 9).DK 0).",
"a).)x b).c).L, 1s d).>M -x (- rP e).f).5'.g).h).j{ 1* A' i).*q j).k).mM !$ O= rM 9, b+.%i l).)* i- qT m).n).8'.kN o).p).q).r).q).Z> s).t).D+.u).Z) v).w).N> kP N..6~ [: Di Lx bP x).y).z).A).B).C).-u D).@' as !y x> E).H- <).F).bF @).G).hP .n 8R H).I).J).K).L).M).N).O).P).Q).O> 0F R..R).S).[x T).G..U).V).W).X).Y).|).Z).`). !.rv .!.+!.0x AX `w @!.#!.lw $!.j%.%!.ix &!.K).q, SD *!.=!.-!.(X ;!.>!.,!.'!.)!.!!.q, ~!.~P {!.]!.^!./!.Ia +S Dx (!._!.:!.<!.[!.}!.}#.K> |!.KV /R bR S+.1!.2!.5! r! }, 0F 3!.4!.Z'.W..H% e@.z..5!.Ia 6!.7!.8!.,, +> j@.C= 9!.{) d#.h+.V- 0!.r, )u a!.b!.c!.d!.e!.f!.sN g!.F+ h!.9) i!.j!.6, F! k!.l!.3..m!.n!.2O Y$ o!.-W ;L %u ^ .p!._).x .q!.I& ,) >' r!.r= /8 0, m'._'.s!.i#.t!.u!.I; RQ v!.k@.w!.&+.x!.y!.S& z!.3..^#.A!.B!.C!.4'.D!.E!. , F!. =.JP G!.H!.",
"I!. & J!.xU C  ~W =  `{ 4F QK S. jc }# Oy ,^ g~ F9 @/ bB  * ,$.f@ ._ `& L! {/ d$ a: op [5 L@ D: A| .^ C* [[ <6 k} !5 5* Z@ ;/ #( C/ q4 S7 Uo zI k6 Xf k7 #^ $} 3+ M. y< %k K!.L!.kq O( +F zJ b. V. O_ M!.hJ |_ ]I N& <~ z@ .@ .2 W$ l@ N!.p+ l< u$ ~: ]] 5-.+&./=.`-.a} O!.P!.Xr `L 3} Q!.R!.S!.T!.U!.D> @{ 0M n( ;u ~o ;/ A* V!.En ]2 W!.U( $. X!.E9 gW b# ,$.Q5 $*.#F =i 5{ kS ++ }z 9< N| l-. . g3 ': 0[ ~* P: [0 i3 0[ uD Oh ql L$ J1  ( 4{ '  '  L% %+ +  X1 H< O@ K6 1  a6 Y!.Z} V< to =/ g^ J+ /k R{ F} &q ~: :# |} Li ]h >-.Q3 A_ Sd hn 8} E%.-q pl M^ Z!.z. -j g$ W] 's 6, aG `!. 6 90 c5 f1 )_ .< O/ g5 3r 6  (  h7 +| %/ e] 7| zs c+ Tk i6 E. +% 'L -6 t{ ;% `} 9] xm l]  ~.B* oE /< K(  v .~.+~.y@ `$ g~ 7r K} L_ >r [=.B  ^~ -J ;d !: j% B9 $3 n% YK .| `$ [  :~ B& @~.(H #~.Fe $~.",
"%~.L[ y  k1 &~.Qm 0@ hS `f >@ cK )+ e# *~.:r Ib <2 hn @# s1 #+  ] *f _] ;^ ': ]f A| 6{ R: %6 |6 =~.6# t9 K0 <3 =# E9 ^: SB N5 <m m. fg !( wj Rk {: /# 8( ([ @$ !  G] `< t5 {{ PT *} b+ -~.(n qF F@ W^ ~0 S0 Zk z3 N3 e< M6 G] X1 ;# Py >3 4; 1{ G< e  `2 A  6+ >5 lm  4 Sq =f p/ q$ b0 >B kp ;~.>~.2- 5% 2} A( or z1 >@ Vo g3 Ty c} !] 6@ >5 .: z  8g oc IJ A: {{ >@ j  P  Uo *  `$ `f =f 3: |J X_ 3@ '6 l< ek c_ !# +| yB P+ ta e3 ^3 ^^ 2. DE L. `( g[ %< I{ T< -< |k uo %6 t0 iI ~@ qB %6 {1 `: RI E& W< ,~.r# )M ~* U+ $} F@ Af ${  ( T( 3%.@} Df Z% a} ~..2F -E 9} $T B9 v~ '~.)~.!~.~~.`( q| &+ rk Fp ,/ [. $% >( jr LH w2 R[ _8 =D Ty Z{ z( N( }} n0 f< lq U^ T6 {~.8L s. A8 @o x. FJ m% ~9 K} )~ ]~.44 ^~.s$ &q Wy _. H6 m. 0J 8g @. B3 6# (} s^ Xm ln 14 &[ >o L$.J1 5H Ca /~.(~.fd 2O ",
"/V t1 A| hn FI T( EF U$ ^o d@ t# T< 9# H. +3 L! -K $: E} ;% s$.(~ u( *i >{ .$ a. _e {j /| T6 j5 a. =$ W[ K# 68 >g G] *@ 2A  H $: !r V+ k3 q0 `: e_ >. h0 H2 |0 t  04 p5 (  y[ J( $] ]. q: 54 e2 E: t( X] Z% ~1 c9 ;: n# ]2 <J C% K} %~ eg O{ ap r3 (] I] _=.Sz ts 6C @e 7E =  ]J Y} 1_ ;/ QH _~.:~.w .kp =% |} T6 Af Do 7@ U3 l@ P9 @/  p jj {/ /d zl w| s2 b: Db 2A s$.4% 5C Ox .} (~ F( =# @} *  ~( {h @1 L2 N] e2 V_ v^ Lf .{ 64 G{ |[ v( z1 2: e9 l< $: }] 1M oj a7 cW -=.6/ +% ~6 G{ l] B3 C@ 8: 6# D$ J6 ,+ @% o. |h F. p( B( <~.[~.R-.@/ cD 'I O] }~.<@ L: 9$ )] 4F Hr _m n#.9).|~.RA V+ :+ 1~.~[ /1 md 5{ }% Z% s# =% qK l6 >& g} g5 2~.Y[ $f S0 [c h] ^  n3 ^+ 0+ <;.3~.`-.<p 9: 3=.T0 .# 4~.q. 9$ 6o A-.A. ;f [8 1n g$ Nz T1 ~D 9[ h  B9 OT Pi ;8 '} Mb En >} v4 1  a: XY 5~.C+ )..u..",
"6~.Q% 8} b% R$ Z& i| pl @n UG |~ n# -# F( Y( {/ k6 h( 4% O| ;} Wx L! i| ]3 v7 )$ Q. A6 %6 j4 R: Q# )a F_ tq 21 i7 E9 >& h3 M1 5e [F 'U P^ Wr P$ |k %% *F =% |h 4G ^>.l$.a} r: U< iJ 6@ ~] 4F B[ mc +[ 8r ,# m$.i[ :+ s{ O~ J1 7~.N/ 8~.I8 R6 2E Db kd qn 61 v# W. M1 ,/ 00 s8 la X2 75 pz !S .v 9~.0~.C^ $5 O6 gb i[ -  +4 f_ #| Y. A} 9/ E%. @ 44 `e |[ *[ -} a~.h( }l ~D X  G] D$.I1 u[ ;9 78 '+ jj }8 bd ki b~.n#  / Dc T6 n| 4% B| o5 QI oI c~.`< <~ Ob NA ;: 1} {;.d~.e~.f~.-} ;C g~.f$ K# Bq h~.i~.Y. q8 `/ *=.4V ll <8 }/ 0$ n*.R$ aE ^m E& f$ m$ O( j~.D+ k~.ub a5 b* L^ =@ l~.x} 8$ 6/ j^ Ge l1 k_ 9| 48 O] m$ {3 N( k4 %] `[ }. Y] ${ 4j M~ 5c J&.t5 xb M1 P/ m~.C( G] Nz 52 I{ tf m} n~.Iy #y o~.@  %*.o: UG b} k{ Ox Li |J m0 Ca  2 Df uD NA .: hc ++ eh b} y7 ': rV 5* 1@ Ty [Y p~.",
"q~.8/ 9( Q( J+ '{ Q  U. #[ wj &m -  t. &< Ck `1 5{ up }T 5h g} H# 09 6: P: r~.|} s~.,r r: H] <7 `1 /^ ~( Ol zl !{ >  .: /  |Y 1. q% m@ <# F@ s* G_ !2 )/ zu  ] eC ~~.t~..z h% u~.^+ Uo BE R/ );.ca @. z1 G< ~} !~ l3 #< g2 l/ PA a# Sa v~.9] u6 b+ (S U  G_ q$ ca Wa ,6 w~.Cb Gf ^8 |6 8  x~.d! y~.z~.Tc A~.B~.#5 x9 ]_ +< 0. ~< N( se a^ C~.%% j| L! {* 0# I[ V. O] D~.@T s} |Y Y  E~.G& Gr 8| d. M$ (  n: no R@ (g u( ]5 e2 b[ j0 E6 {| tb a] fW }B P7 S6 ;C P=.z   . Qa Of 5K Uf oj 1+ }q F~.|k 2G l@ -< O| <k G~.T1 H~.~] =1 U+ I~.z. q4 ^# L< V+ h} i  0% _e )m |0 *;.0+ 3: U' J~.J! K~.4h  { E6 P< L~. < C3 O4 O( }{ K( K# P0 R5 8$ kj |[ D1 /e %]  / N5 U| @^ C0 u4 1. k# Y[ ]c wj a^ 0% $3 >. <4 _m mc pc 2% %r rK .$ I# L7 ^9 f< @< l0 8: N^ 4n ^9 e[ S2 R3 z1 Ck `: `q U~ .< M~.|%.N~.",
"O~.L[ p$ W^ =} O9 (/ _r z^ !# FU `$ N/ Vp yW kq &/ ,1 f8 O$ xk d@ ~# :C o*.}p c} P~.W6 t{ O$ ^< g~ !+ qG A1 y3 q% V8 E} @/ w| #3 W  &q w2 ng `{ /h [] .1 4a Q~.HD R~. H `f Dq Xc .Z 5J ef k#  G ]e 8F W  }F }] O] e# >/ S~.5o C: 75 X*.k1 'X X. [3 *: tl u0 {^ M/ _8 mB T~.~G ta D/ L6 O7 Q  U~.V~.s..&4 #6 2g n^ ,^ p0 95 I2 X| t9 5{ c+ Sm  [ Uf Oh f$ '^ !} ;U 7c X] 21 p< Y+ sX k6 2; I. &C |h @% _m W  L^ #t 8e Y_ md b0 oc s+ l{ >( Y[ (~ 7% |/ v# W~.+=.9V X~.JF tB Y~.+D E~.Z~.U  R{ `~.w=.C{ ,_ }. S$ C8 (} .1 $H L| ~[ 3  FI X  ]E @/ [] H! |. ZG z1  {.%% Mz 3=.W  f8 V; >' SQ L: Yd U~ .{.s^ ': X[ 9[ Cc (} L} g5 dj Z~.Ho 5j i=.Eo B: m/ (~ r_ eW gI }7 -^ V. T. i3 +{.$V -< @{./e N6 kW }/ ;/ #{.d/ 6: ># >  ,1 >3 +m X8 J[ W8 ${.k3 Y1 Vp ]e jp 0a i[ 64 ,H nB ^K %{.s~ (J FF &{.",
"*{..G 6@ @. 0: 0$ k^ V2 gc 8O u$ X*.:/ $} 3$ 0. e& tJ B! A8 Cs |k v6 D| r: k3 KU %| 4G W1 S2 !{ 9[ i8 ![ E6 S6 (n D$ P] ={.`  Q. K) ,+  H %+ :q N( .@ Nz d/ F< <+ p5 *=.-{.GG En 6. BE O_ :# 5d _B Y< C: :/ lI O~ [i n+ n% +/ U| <+ }p 4# >-.a] Z] _e zJ x1 sb 02 il 36 z7 |1 ;{.a# 0c c1 ^8 >{.,{.'{.<o ,e m2 W[ s4 t9 n0 -e l: k( %% =J q< w| +1 Om ]{ e. ^~ 8  .$ FJ x4 ){.;d !{.bf E-.~{. H to P  9/ {{.,. $*.98 99 X} ^8 (6 E: 1j s[ ]{.7c 8: a| >3 V1 I. &^ 0% ,| ^{.J&.kz /{.Uf ({._k H# Db |h UG U| {;._k kV t7 HA X< =# @} _e wp `e 5$ f} $# :/ D} K% ;* KU !/ |/ 9/ _{.HY :{.N@.t~ :+ Q7 4_ U/ 2g e_ 8: <{.#F ;} g3 3% ^/ [{.+K !_ p$.*i !/ s} ~6 q^ +D 1  ++ =p j_ (K 3# 4. u6 =% /o .=.}{.!{.|{.7N cI 1{.vz }~.0% n4 u#.-_ !@ x. (a ;/ }[ tg L% 64 R6 ll g^ p: hj )4 ,} aN k] }'.2{.",
"3{.2*.s$.A| X^ cd W. T1 m^ _$ ;q y/ */ (% oK z: I7 ^: <@ ll <{.2% A( 4{.Uy 5{.6{.}8 3r t( BE =} 77 i[ &3 :^ BG J9 m% !# *h %% !{.$#.f$ v_ G*.e] ]y o>.@{ 7{.J: R: Ds 8{.9{.d3 PX !o 0{.a{.Q  Uy E( UD O8 f^ ng +% =O ;%.C^  e l3 N( VI Fq &4 j@ Ty !m o_ ;/ Pa NW 68 ,< >3 Pe M2 ~c bp 34 +$ b{.D..c{.D1 M{ d{.*] l^ Y/ o| ![ /C A1 Q  e{.8g J{ q_ ]/ Ky m2 /^ F@ 6/ ^=.]g -K %^ p+ P$ f{.g{.P@ v- m% A. M/ 2. P  e| c0  { e< Q( -e Hm .2 Pa 3< h{.$4 v+ (| 3;.^# z[ =f iJ 0( p&.i{.j{.k{.y*.`S A7 1: ~B $3 mZ l{.*F $V 4r V9 Ne 9( 9: m$ m%  { kV V6 t( `[ ^h M/ .6 g  8  k} q( rs l* m{.%( 34 _{ c0 !3 ,/ l3 _a M] a7 '/ up 4B hm *4 l# c6 n{.8c '3 &3 {2 I1 O| -=.E( O{ OH (} %*.@. C/ rH 0/ [J ll pc OH F1 l{.>. k@ nU [b CV Y. S0 2=.37 |7 z1 :B w2 Q8 )} C3 o{.RE Gi e[ k5 P{ |_ T| }#.p{.",
"q{.Pc Y^ <8 E. N@ tf Pi x8 r{.2d );.A8 1| ~  _} +*.i6 ]~ E^ jc _# Um i| 'K Bf P9 r{ ,$.(1 13 l. q6 /+ m2 L^ /^ Q5 _2 N& dh s^ 5j Dp |1 a% d  B=.s{.Er J. Pg x4 Ne (4 4V sI gy /( F' +=.gc s. +@ -@ .* Dq a{ :/ zc l: D$ t| Mb t% Bj <4 ^+ va j@ G_ =   H 5a {{ L} na %{.Cc _b Q: ca C%.90 99 t{.u{.v{.eh 77 F} P: ]J c9 W[ mh ^9 w{.Y  k-.h( n/ E6 ^< +| M: OJ q] PA y% G& E+ oj :&.=  A-.{~ kp A) [~.k} I6 vj rl x{.(G Td 'd Fc RA wg EJ J( #( ;^ k_ e] jj V  y{.U*.Cq OH sI pK YK O( 5e 23 L=.z{.A{.X-.Q% iJ B{.Q&.[~.N@ }# l. ]H tf z&.v_ f$ WV p} `{ ~: (| +| 9z 09 #( hn C{.M# Rv 25 u^ 2=.r} *3 @d zj 9: R( O| R6 I  I~.p< D{.8$ 6/ /c {( >B Sz 7% O$ (} O9 ^9 +1 z{ ll ]o 4# R$ G} FU GJ y&..# Y+ KU C8 U1 eF A7 A$.tf Ty }{ zl Q5 ln x^ @. .A =6 -  5g na @X ]1 &i y8 Ai 6  M8 E{.jY (> ",
"F{.gp }{ D$ )[ Y5 XG up !0 6/ ]E oj {( Ma y[ _+ M#.sW ~9 ,o h$ G@ (o ^  8o PX zl c/ G{.W] P3 (} @4 p{.A  ^;.P6 1: VH t% @N <3 J9 A6 n^ Z. s} (} H{.dj ># I{.q$.=5 a@ 8} R&.gc =i kj a: `q K@ 5. ^  =  C8 HD o7 VC -8 <X 8[ I/ J{.K{.L{.:B s$ v~ Cq H. @;.(o _k =/ M{.N9 :6 T5 D3 BH N{.8z m2 mP a+.l!.>  s_ W3 X: n2 x3 5# Cb S< VV xY 2[ O{.P{./o Eb Q{.A6 Q[ ,. N_ ef C$ S@ %I $3 qJ =  /. {/ :/ v. p# O< V{ I7 zI a4 yj @# hD u[ 09 R( nc 4# (] J[ 4F ~+ YK ^X R{.y% ^I T] [d S{.*F <p b/ ~j OH  [ }/ B  *F s$ T{.$q vj 3l h=.!m =d sW U{.ZA h( II *&.up 44 M/ Y| I6 Rp v^ D- gc >2 5Q .1 @+ 4_ Q_ L3 _d 10 ^G c2 wF +1 V{.m$.W{.v# =/ x| h| 8  o  Iy HD G< q$ }: 2I (  no S< Q5 GK <K C8 }-.U+ B$.L| PW `| <q =] X{.Y{.V6 T0 %% 9] X. F0 </ h4 i*.Aa x1 L! $F u} H] 7| |: ng ~B l^ vX iR :v ",
"Ja z( ,{ Z< 5m I* {+ 7. N8 `  p4 A0 Z{.hn p4 K1 N_ X-.@/ v_ ,3 `{.oj  _ 8% P$._=.8% e# h  jc J# K# vb o[ 7# `{ b[ /d l@ qF `&.T1 w^ LL E& |@ <+ ib =% {&.h( 44 d: [} MX W$ X  As B&.r: 0+ U.  ].kp 8/ `$ Ty 8% =  T5 R/ r: /: O( Cs [] V+ /] t+ `| K} sb `( mc K  X1 ,@ nc U9 X: NE {h 5{ +e _R Fx r!.f( 4^ Z] A) Oa D( u  ~>..].2i 1N Q: r| ME #N C  K} 4# H&.t# CF M. m} f$ U{ U< l+ B  k*.f~ #+ UG :o ^  F%.l  *e (+ z3 M/ C] {{ ,3 UD :0 kC +].R6 P} nb N& Py vD [/ :B E_ >& #. &=.I1 77 ;# nB kj N. KJ =J &/ @% #z b/ 7N j% }: J8 X[ Tz z[ ;: l{ .} P( 6/ a< +/ /. c} .} =i S; hx @].S) hI y7 J6 +1 D1 Qr i3 5a T6 )c ad 07 M. l+ _[ lz up  . 4. .Z ,} VH k# D$ 2=.@^ s} g5 g~ u_ k} m} 4. |6 J1 $# %%..1 G< D1 :: G+ 1  Ee 5K ^/ O] [{.hn (~ Wk {3 Q@ zI y_ xl 8c  /  | M~ 'f 3N R6 R& A#.",
"#].l^ K^ p^ y% X6 B/ F. i# Tm ;C >. t_ 7  %_ $].4{ }  |/ 0# g/ `q Z< gc J$ (/ _. dj j0 x# `^ ]] %].@_ ]. :/ s^ {+ 9/ nl 5] V&.&]./k N@ h[ g5 *].;d 9+ ;# =].uD [p m] 8d 3;.%C c&.-].[[ xm l@ SL Z#. H (L &q 9# KJ =% w2 <2 z. !+ &/ S@ 1{ D| f. &+ r~.w= ;].>].r: h< P( (1 >^ il ek EH ,].pW J> oN af v. h% S5 __ '@ pl OH v1 C. e# Gm &^ Q5 '].Wr p# L% Fq >@ `y 3  c5 3$.7. X  P  l{.j% %/ B8 &$ =/ !] |k n=.9&.M. g[ OH 62 >7 'q 9< .] +< @/ #^ N7 :/ (5 ;8 )].J9 J1 C$ g^ ^  nU I7 W_ o4 [~.BE 8g e[ _o S< +J M1 ~} a: Y. x| s{ +l AJ BE P0 [# 5{ c8 5_ <g r< 9: >( @. Eq Z% U; !].Ww K] d} L| 3} +G t1 |8 |W }] 54 UF z. `  N9 N/ yk ~].dh 1+ {].:~ _m =/ @| :  :/ t7 D} ^  PG tB |@ ]].l-./} :] Y  b+ 7N y6 V_ >7 g4 S/ 07 M/ u( p| .@ ;/ 38 |} FU -I f1 9. 5_ 1j j0 S0 5b ^4 2+ aN ^]./].",
",, M^ )+ Py (]._  n*.+*._].8  g  /d u7 %z -# Q# Hr e% HA 2; @@ q; Y< R2 y% u: 6< K1 g~ |h S% t5 .m -q ,q Q@ A( Q@ /k ^m ba o-.h% UG r{ _k 9| #/ p4 Y/ 2d d+ :].}{ l0 =J K&.;m q: b9 ;% $f F( R] V^ _T *5 <].[].r: F9 }].B+ z( 3%.Nz :/ |].1].T& p4 rD 0J :L uD p( (^ 8} =6 @4 c9 DW N1 +/ ~7 2].3].,u bd c{ Z{ 4].(4 t+ 5].w'.*/ 6].j[ j0 sm t( k$.L! U*.`{ >@ =  M. 7].f8 8].M^ 0e _/ PY e@ 9].Ii JF &  L1 F$ VH m< _. _. b/ `@ %] || >( vb Bi L_ g^ [4 .6 @< Li )J np q[ C1 @# );.0].2j W. a. )+ (} _8 Ce [3 v_ ;# b9 q^ l. :K i2 R1 %/ 1| F( +< E] E. c5 M/ T6 ){ s^ pe :< 2/ a].K> b].y[ &^ Je <g -< <7 9| VI ].  V 1l }] SC (r %6 A| a^ =4 V. j1 9G A8 l+ >. n7 Z< p< s# -f 6: 1+ J8 Q% U7 [@ C{ 8$ u: 6-.=1 CV 0+ i: z6 m. up nB 0: ~@ u* Q7 c].lB s%  H c/ qG ,} Hk !I rK +< /1 &3 S' d].",
"*!.d2 /d !B 3: V  e].g  v~ :o f].9=.g].I{ h].i]..% j].J. k]../ ,_ u: $+ _[ Me l].[+ /o e  .2 +< oA ^a I. }] p# y% zl v^ Uf m].dF ;].!*.&} 4d Eh O/ #^ p( n].z1 s$ I) /{.7  !o }/ o].t< |% m} !0 B8 1| }# N+ *  Uf C  }l (} 75 FU Y~ V9 ,+ W$.aN vI rl  C Hy /3 }l D$ T~ |q Q7 to q% g0 C  Zy p].R$.tS ^W 'f P  JH <3 g] 'I Cs _T p/ $5 ~2 q].p. AE |J KJ O] |a $< a4 C& J1 r].0# 5d ;m N6 6J +3 5B M*.8o 6-.@{ ,[ KU kq `e `& ,@ uK w< s{ O$ e_ GB s].5} 1a {3 -6 N7 a7 t].aa :K u].Q  6K Y[ v].A. @} |@ w].u( (# M. z7 #% `< ). 4n P: e0 </ _~ x].g%.x4 8/ =1 `{ !+ ]8 g5 [l ;].&& 8!.0).Q_ L] [[ 8e +} 51 [q 2A R$ V. T< Da ng -: d[ K} 4B `< Y. y].uf `f iH #: Dk >7 l^ J( Y. c/ Z] :B q7 'q h] HA 9E w| y7 (r M. =/ 9. z].{h }7 |} +l 4a ~] `{ ,o :/ h% rl 8e 2_ 3} l3 ^a 2: xm L^ 5@ A].B].",
"C].9| 99 V+ *%.k$.Pk D].Y< C% 5E ^>.{;.vU E].): TY A^ u| #. *F @@ (  u. 0( u. /d 1< F].9* F^ '} BF l: T6 /  U1 *F ^I rl {o 2~.D].gN f} 8} m/ =$ [  2k ~;.Up ;{ G].OH r1 8] _] zC G1 ^~ d/ |4 O7 %] (g #. f( /$ *  V% La r;.@% V% :[ H].0# 'I kW  G #[ r< <~ I]. 1 *e 99 U5 57 C2 %B =+ h6 S/ dy J].o!.i3 ^9 K].f  :/ FY 6: C  5| RI up f$ n^ Y~.L! H# +Z L1  ( p4 Z. L].,. q: Q( ~5 `{.9E ec Z!.c4 ~9 Fq 0% Wn 'I `@ yW a[ M].8_ 05 W} 95 *  17 |k ea 4l N].5b }: >g PC >B 1  8( :=.K( 8a ri z*.y*.X| +4 A_ #F J&.b| `^ 64 ll _o no g[ N/ t( m< N< $f /3 /1 `{ w# zY <6 yc M8 Uk O].j'.Y'.dc ~5 q[ =d S2 .1 w= m~.V1 CV [} 5+  * E$ ~B G] K( 1} U| P].L< O+ o( E^ R/ B3 :I e7 q. 3;.P6 w| l2 _. 8/ x% a] O6 &q -=.M6 L^ g~ -< &+ rl qn Y_ ~6 oJ bd Af s1 8  &; <@ _[ _n j| z7 |} DD ;# mr Q].R].",
"FF _~ 7} ++ ** uD =% v  c} >  S].`&.gW v- L! q: +D jc fS $#.A{.*q I+ CC 9| *# |3 5B gI ^~ a< _2 :H #% }: k3 Hb 2% 64 Z< j7 @% V9 T].4@ )/ :+ U].W  *[ t5 yb U*.V].oH 15 I7 #$ ql C] 0@ (% j: @^ z1 A( ;k ,# ,} Z,. 1 d( qn Y  :/ 6l %% W].I* X].4  Y].H# `1 ,+ q| _$ q| tU nb J: Uh bD G/ Wz P1 rT Z].Q: Ri D1 0=.8% g3 |Y 8  2~.hn `2 =#.9: Q[ Y5 6  Hy >-.xm 9M 3F M~ CV `].Zl Wn r  {%.XW W.  ^.[  j( }m .@ I+ 3l d$ .^.~J ac p( 9( qi %Y ={ z3 E} X^ (5 `{ ,/ hf md 7% `e j$.@< oc g: Hz *f 38 jb h( lm {k +^.|6 l] eF S/ l@ ^a S2 13 ^/ A: ,[ q. 9z 5c >7 b: y/ x| _c '3 z1 @^..n DK Q] wU 45 6  B| +| G{ A: Y^ o: I1 )'.]/ z( ig Nz #^.Z  C{ }+ P  4. Z/ }: p^ 7} d$ 1G /1 :b k6 Q@ |@ x~. k no {] pg Mb t_ A  S. fW F@ ,M O( !I V. D@ Wk 1+ +&.$^.Io 4L %^.,@ 7| '6 &^.Kh +n Ne x8 `Y *^.",
"1$ >: ^e G. `{.u: w9 '. 8/ }m Iy w*.Er G-.on %/ o*.'7 Nz '3 2% <].m} 4n V9 e# _K =. v  :/ I{ F@ (o z. S6 uD g4 C( (% $@ =^.}m ]B m7 5{ -^.cd }m 6} ,r x# n3 K} _[ I#.L{.K% f  R. ;^.s. z< K@ 0% H1 T6 no +% S0 _e X8 J( =5 }% A6 >} E;.^2 )  %/ z^ I7 f~.>^.,^.$@ (o {;.1[ 7C Ty Ab Q7 (a WB '^.)^.!^.~^.r`  @ T$ <3 V&.oI -/ `h I1 _  UB AA s{.!$ U< E=.N& *: {^.a6 ]^.^^.|r )# nU [/ P0 6%.(] +F t=.,_ A6 nD Er h3 L] ^c i: 5[ Lh _j s_ i( o1 q| }3 Ai ./ 6: 4_ U3 /^.R. %F bp e[ (0 q] &| !0 |[ -5 !4 Ye J# }[ m% <_ c} 1{ Qu E: ^# DF F# (n -K r_ D{ SC s5 $U V^ 5c Nh Z. y] EK 8'.A,.W6 j$.O0 ~< W$ 11 on L< -} ^e  H n3 ,3 Pk W  K% g3 U+ M( z6 ;f ZG Lf ;p A( ++ ~} %% `5 *} Q5 yk u6 `} V!.zl P/ 8E T& w# =# D  K( v1 ig G< W6 pE I^ $3 m} z  0z (^.O=.'o M~ 99 <4 P( v%.Oh 2D L~ 5Q ;, ",
"_^.-4 <# ^+ e| Q@ .. S~ I1 Ti &Y J8 J/ b] `^ 4+ i^ ]'.BE R~ P=.b  +# tB (] r: @=.4{ zE ;/ ,@ :^.VK z  s*.no s# XG Q$ +*.75 ;# ^# b+ W  t&.yM *] _w 0  a^ :/ f  (r a;.Bj 9f w| m% a] V6 3% M#.$% <^.|% x# w1 M( 4# `h P  <5 ec B( F} 2% s: z6 7=.y@ ># |@ a7 -;. V <@ h( p5 2d B7 5l =| R9 Y/ [^.}^.fR YH gb |^.}. 1^.m$ ~Y 6# %q O4 U[ e2 8% '{ ^2 4r /  B&.^>.~0 H( gD Xr ~k 4* 7=.Up {o %/ J@ ]e uD 2^.Bq Z  y6 eH 3^.N/ F6 H. Q2 Z4 B/ ~^ n2 `J s8 Nh p_ b} Uh qG :&.)m [1  5 Fm e_ uf  : vp Le 1< O~ j[ [j B3 I[ Z( >: E^ F@ P$ M^ f$ I^ q=.H1 'e 5c {2 .] d7 z6 W2 s^ 05 9| +z 4^.D).5^.BA .2 E( E( ;/ |6 <3 {o Q5 8} J8 f< h% 6^._*.i( t_ Q@ _6 }q J( ): f~ $_ *# *p X2 G^ n# Q: I. Pi jj T$ t< iJ 8a 7^.&e 8% H. u| g3 8^.{o tK tl u| 9^.y  e5 >f AK +N !W p< j0 c5 h7 h$ +} lm <4 `w R# ",
"0^.4~ p^ s$ [] _o a^.mg @} Yk  ] @n !+ b^.(o b9 O+ 5] 8$ _: =  K% L1 ': t] ,/ nS M$ =[ m} ^4 m# !  /+ g5 L| {=.zc U< DF ,I C1 14 c^.:o .y N& <$.Z  &_ z) a| J@ vX x# k| I# d^.AJ #C Ty y. F@ =1 [< Z@ N@ O{ *+ Bj V} {+ l0 h  w< '  l+ x8 >p H& e^.I^ SW X< O4 O| =J ,$.lz U7 ^# }m Cc >3 x: f^.8I g^.qF '] JG C8 $  [r JH HW a^ I#.'o _~ r8 a1 |/ 2e =] j: -_ }~.|h q. %/ u;.k1 a: h^.~] ,. w{  T 5h X~.;@ v: Ub M: y@ 64 ~^ s8 :5 s~ >& q[ kG rk Z} D/ o  s7 [j qn 4C Q  e< q% e# t. N9  5 Vh d[ =$ /[ qc =5 )/ A7 N& LV 7| s1 Zy 9/ .| e3 o*.O$ '1  ( i[ ac 0} a< 1g q| fg 5* i^.j^.BN D  Y/ s: b_ *} v7 k^.O4 9&.=^.0+ uD u{ Py P6 yc #/ b+ l^.=} i{.;: w. s# xm a# u4 _[ ,@ p4 (a 5c [b )3 %% Wk B3 s: g3 Bq ^I #F |&.Ai 1< (a w| ^h T. n^ XB );.eX m^.G@ 9.  | :[ va }[ X| =} p^ `{.n^.o^.",
"p^.T1 -_ @^ PY a} +;.D| w| q^.'7 J. V+ r^._  A8 s^.En g@ +Z AJ t^.`1 <2 5B -  Q# Z. ;@ K} 2j I{ T1 fp J8 p$ Q. m@ o. {{.`1 _m 6^.;m =2 ,$.'+ N@ ^  O] <q _# ig h% P. (0 g@ Ho 3@ dj !] :# OY ^  W+ YG (n %I w1 `2 u^.XI ^< 3e =d P6 P5 v^.Ox v~ }@ w^.m$ gW 9# K$ &I x^.A-.{2 *J %[ o  y^.a[ z^.A^.B^.h; nI 1# ef GD  / DF <..'q Pb ;_ C^.Y] _  D^.9/ %| N_ @% y% %. B8 R6 =V mc $+ m< :&.E^.f5 Pi >@ F^.a@ U. g$ #/ (o T6 64 3g I} d[ M( Q5 >5 >5 6p en -E QI -} `S J3 q8 MD ;8 Ye g5 tm 1a Pf 4_ .: h4 E9 x4 D1 ]] Eb =[ .i G^.0/ @. C1 y6 `< S: {/ 0[ I} K% UC ~h _[ 0# ng ca KC $S 9) Yk q| Ub +| Q1 @} j_ a] 4C f< tf  V p5 CF -/ Q% 6  Uk g] P  :[ 64 J8 ,@ {2 }] H^.%% ~o nU ~{.Jh 8( I^.y% L| M7 *@ PC 1%.}l ]  l} u( kz X&.4B p/ q. i*.+G x% `2 N$.O{ 7N 05 G9 ;| J^.D} n: {2 d0 K^.L^.",
"M^.H] %! V9 N^.kp ]~ D: d-.O^.I. u  B&.C@ Z] !~ P^.n< Z- 0* -# k6 r7 4r $# d  wj !@ b] U< H< Q^.E^ [3 }: @. -r c} y  c@ Wn N8 h% oK +W Um |] K} Q_ Y^ r] *F Ky g< 3F 3%.R^.[. |h Gr S^.hn Bc 9: L} l< tb AA C@ G. e[ x4 Y[ xm '6 Y| z( ]g T^.Cq N+ vU CV !b g$ gh :0 ~{.[p ^m Wq ([ AK *# ^  U^.., /Q E] V^.b# Cs W^.a| PY K} '} 3% nu 4  z: ml X^. &.M. B  tz &q Ki F  >A [/ Y^.c+ ;: +# ([ V6 Z^.0@ 7r [H J. 8F H' `^.R6 k_ )< ta g2 Sa d1 w2 Kf W6 y{  /.~3 oc a7 V4 U/ E6 99 5{ /+ U8 s[ Y^ V_ 01 z7 !E t< j0 y] h0 d$ v. |7 [=../.:/ s} Bg OJ p_ m% L< =  ,@ 9< d< C| {3 u4 Xs *+.(+.'+ +/.*  ^{.#F k( )o 4. Q%.*. Bc /W @/.=/ #/.$/.m% :H 44 j@ bd nk 75 v# 8% m& %+ %/.]] t/ j^ a< 31 D$ TG f< Ck h7 Vo 1D kd t# OH &/.Eq Mb m_ t. l: 2j OJ Y4 :~ 4L */.m5 Z. k# L+ =/.A} E9 m$ 4G -/.A'.",
";/.1@ z: <3 jn </ <G >B 0[ b. w* cd >/.1] *1 L5 2A }  Pk =/ lB ~$ G# Z_ ng M< I[ mZ A| L^ !( #z 7k gW -q ,^.:W 4# sX {&.j( 2k f. ,/.'/.I[ >: E: qF _3 A( ;f yq ZL )/.SW h% 8C !/.7  4* c+ .} Ne 6/ e$ E] L$.Vm A| 8: s[ i6 /# F$ V1 M9 l+ c4 H  ~/.){ h  p4 M8 h[ t: !/ .Z UJ .@ )# i4 @< Db ~z NI {/.cC A  9| A0 >-.|+ ]/.JF  . nU y% H^ !: H] !3 Py L. ^/.Xr <@ m@ l: EX tl &e zc :~ //. 2 v0 no '5 '@ <q U+ &q U* aE m. h  ;8 Y. 0[ ]_ g0 R( ;1 E6 Sz M/ +2 5{ A$.N% NA U3 Q} i3 Rg n2 |4 *] g~ *F $^ |} ## !+ @} G+ D^ ': (/.q7 )# f1 r8 _[ #F N/ N3 ig l@ +1  Y &^ 4B Le C( B8 GE S= _/.a] q$ 4* @} l# H9 P  (o ig :k 5# o7 3A v6 u: IK ~S [r :/.%% </.1. b  4J i=.r| k].[/.-q 8c v_ Sf %X }/.`1 ]] 0d 5{ /  L+ Q$ |/.68 J7 z6 @} s# G< L% :[ ig ;q -;.1/.va -6 5K P: 11 %% Q1 &i .( (, 2/.",
"rv mg 3/.x1 +C Tp q{ I  |# p4 ,A F| !# x@ *. 4/.m@ c< f5 X{ y] 44 5/.j  -< (5 ng nj 8;.<3 /$ }r s. x8 3l ;/ G  ~$ <] 1].6/.b  7/.6r v: || |/ )] (r A| P  0  Y& !  q: 8/.9/.K  [  N& `y Bf N| ##.,$ 4[ 3a Y+ 5a s2 [{ (_ *# l{ F@ E} D( A*.]e *c Q# p4 a4 f^ Er i] :o _  ~%.|] .+ *  w< g} y@ 0/.a/.'- q4 |k t+ 7. a^ m# M!.Uf f% ~] ZL (] D$ ;@ X~.h% Hr v~ &/ R$ F. aH &/ C. X< !] ,+ 'f (. -# A. |a KM @n u| f~.X  ]O b/.29 M1 j5 K# q9 2a .B bp u( $^ ;% z7 $# &5 {/ #/ #: ,[ &+ q4 U{.c/.o< e# H# Ne 6U vb t5 4B jp 6: t4 ): Y  8O q: 3_ lz d: 6B ^e %^ $% g@ 9< y/ 8} *# |3 '. D~ Lw ]/ U| ^~ g~ J@ ^4 pV C% Dq d/.!# M. <e Cs F( %% 4. J8 e/.j] M1 }C Bf }q *~ Uf ]1 ^m _] 1| f/.=} w1 *~ 0} l/ .f :/ x| PX Py [.  / </ t( ^h 95 J8 i( 2j #/.,A 4-.;1 ~f Ne m_ W#.3g .: .< f$ g/.h/.xy #, ",
":v 6/ Eb <( Bc X[ t& :o i/.C. R< )/ 5@ 2r C. w6 6^.Fq (o I1 r$ fg O_ nU 2% p. N0 D: h/.Mz 5*.^h %k %% l^.H  Pi Xy f].cf y*.cC N& (` r$ :+ x1 U7 aN c+ .z e@ }r eE 3W j/.~B B$.c@ 4  j( 5E Y+ #+ E& 5{ xH $< A: :6 N1 O$ |h w# a: Y[ 7_ k/./o F&.5: (# 8F r< :/.r: )o P0 O]  _ =#.4% B[ ll -/ M+.$).h).I] 0. ^e 3: l/.}/ @$ NV ZA ^{.5h m/.=% ,@ 0e Bc H  E: 2n n/.0# /d @} h( 1n X-.p( X+ GT o/.zp Q^ Bq ): l] jj {B O] y7 E9 A8 9+ g[ N3 gD Ld |} R( kp cj =( I} 05 kC >3 5p J: %+ 4l Pb !$ 8T p/.C^ Y( >} 8% l# 0*.M] K< G+ Zy a( 'm D} e: U7 &I B3 8D  | E9 )] 64 'V (].-| $^ q/.V..r/.s/.zI g3 +% /] <4 t/.9/.vU x1 k0 T].o7 X-.yk 8% N& &q g@ <2 q$ (o Z< g^ &I V6 e2 ]e x. q[ ,@ ,@ qF `D H] W^ Eq >5 ~7 Y5 rH 0( Ie `5 u/../ n5 p^ C( !: S/ C. +D W^ I{ +/ v/.W^ 'I .| R[ `5 W< %] w/.lQ ",
"x/.+& V&.F( z  jc &~ <r g~ y/.`%.>o Hr HL >< F$ 0@ (k q: O_ h+ 14 _e A8 J8 K0 /. Q@ +& '] ]h g} {/ ^  t@ !: 2  1].O( }: |m g] ;q z/.]] *+ 6r 8} ,w J8 g3  V YK iO @% *@ v{ ;m )# a] nH 2{ ;$ br A$.A/./  .1 O~ e# ~| D} 0[ j0 p: l{ z3 FU B/.p+ C/.En 4* 5K B( |Y 0] O. e2 g/ 44 '^ z  61 w{ `w D/.E/.]_ kp B3 |/ V+ 2e ;p F/.<3 7  >< br 5B -$.YK #z u;.G/.(V i*.E@ #. w| ~9 3@ ,q 5$ p/ /W j: R. ,$ B$.k% Hy 5#  V :+ `] R: jd 68 c5 a: L} y4 h< a7 T6 H/.X] %6 V+ bH e< A:  / _[ b2 Z  O9 ): 5e qf &+ y/ ^+ ]] E1 e@ +k Bf o. 0. W< .} >{  2 i_ Wa u} s^ M< Sr #F /o *p Fc k% >: ='.L^.<_ O$ n+ vn a7 Nz np f; C# on 0d o. 8  L! Ds C. <7 j[ 'X #^  A _c :%  @ zI SW yC I/.1+ |: k# i# 9. I7 i# |_ .] hf md u( 7p S| [# *  p< kA P< 48 Ma Fq P+ m< 2I A2 :K 1. K( q_ YK <8 pi ~} a@ _L k) J/.",
"0F  . _% !{.K/.}: 1@  ] x8 V@ @/ n^ Fq L/.M/.`N && b%.-@ D0 -< N/.eE W< 5  E+ b. )+ .m s*._k Cs O/.b-.x~.P/.#& Q/.HW X< e~.n( *F R/.R@ S/.!;./  _k r{ y^ a^ T/.z. r% 8$ UG `y J8 |. o*.r. Uf z. I. <# A3 0% w2 21 )K t&.H! U/.,/.mq 5j V/.y  :~ kp 0( e3 E. ~e |[ x. ]/ )4 #G  / @# ,Y %/ 6( $' <) W/.UG 54 K   : 6+ Q% #: a] kp Eb 0*.]~.X/.Y/.5# nL l+ l# HA !J 9| rl ng 4; 0d kS (~.gW Z/.X^ z  L5 1@ 3% ,$ 2j R6 V1 =5 y6 @X F6 s{ 8c g=.Ky 3g `: @^ #% ll 4^ ]~.kE (} ,. M0 g@ vb S* -9 =[ _e V+ O] u( _] 5[ N+ X{.Q&.`^ (# @n `/.n^ *f =/ a< B8 R[  ( U~ =p +} w2 )k X^ M} v-  (.2T && ZA E| kq g[ .F R@ [  Y  _H X  <. V+ l: */.=] L+ }l 6/ V6 s~ (  G3 #^ 3$.>< &} M*.Kh 04 s5 {B 4{ H( <3 J9 N( 6# Ck rr .i KA >& DF iI hf (D 5a /[ gl }: |&..i +f h| PT .(.L+ g] B$.)o V1 /[ 5# +(.K^.",
"w' pG A0 [i z  Ho YG }# s  gh L: kW j{.A  ep Vs *1 n$ j( 0@ r7 UM UF C] 8= W# sI @(.2^.)$.y@ $@ w*.AJ q=.H0 Zl F. 6-.5*. ~.Zf 'X fp h3 <4 9# Me QH >{ d$ GX A  '] 6J M^ ,+ #(.Zl `G D- 2% $(.Uf /d $/.-< |h [+ %(.5S (| *  }} ~5 v( (. 3} &(.f^ L2 I_ Jf z{ K^ `} |  v_ #6 *(.&^ %C wj G^ =(.-(.o).;(.M|  } pl Er ~] -q kS 1/.a/ 2^.3  >(.^+ c/.u/.v# -. kj ^4 o. L$./e 0S H6 Z^ ys Ei _  ,(.0J '(.44 S@ ;%..W {s m% W/ tf k% $~ e& G< Qr {/ N/ >& 9< 7# i: $r J< M$ F^ L+ `  g} gb 3F [b A6 k( )(.~N vU $% ;/ h$ a< !(.5B 7# ~(.^# '3 M#.h< *: (] &3 r| !+ D( K} (} _} 4J P< W< }~.t .d].{(.v1 =  v@ <@ 6A 1  i-.)~ q: 0]  H ># k] ](.g3 `^ Tk ~J 7. f. g  q( c< ^(.A} xm #F _@ DC V} 13 up !: 9| 0% D$ m0 /(.^~ Me P6 h3 um =p X1 ~;.0e -f wG  1 M  L} s^ 4d g^ I~.V+ =  ~B t{ fN d| l3 ((._(.",
":(.<~._r f~ m;.>-.7. F. 2k `% N& &. ;*.>. H  Xk ^m -. Xa (/ R[ CW G^ 8r <3 nj L$.<+ nK 6@ ,. >[ -^.7w $3 x8 $r Cq xH <(.[(.F% ]e }l vU %*.~/.$3 J{.My }(.|(.yM @% 1(.O{.b^.:&.o. x@ .Z 8$ Si I_ ,+ a} 2(.t&.`( UF a^ 2X -6 f( !/ Sy 8% 3(.`< pc Y[ r{ K5 y@ D#.f1 j| G_ ': V/ >o ]$ a: y^ a| y= 4(.5(.$I [] 6(.l:  1 7(.F].8(.I#.g. b+ 9(.8o p5 ,. m$ y. CW =J N6 YK Wy ;f t&.C% kn ,+ %_ 0(.w9 N& Cs :[ V+ L^  H D- 8% +4 m5 #/ e< n# i6 m< `{ w< Q@ j4 x4 a(.Uf %B ]] H1  ] g0 ,q Tz O] /. v( #^ #+ L% >. [. N_ AJ J@ b(.|% S@ |/ Ne f1 r2 M1 n^ 2k /o }: oA A8 !3 w9 3% h( N( C7 rN $K H  ^h zl 0} uH ib X  (# a7 7&.UG %. !+ 9} */ W^.^+ H. 14 c(.AK N+ D$ T& W^ z1 J( s[ *i z1 86 W< L2 rD d/ +# B. }. `( )m ^s 8: Yo I~.{o 6  FB 5[ p< E9 y&.H&.M1 q$ >5 %. 3E q4 u( D| Fc u| u( `y v> d(.",
"[o e(.Xk y1 vg Bf M@ 9# s] T$ !  X=.}F a/ Bf @y *e c+ 0# -/ }m <8 3C =#.H! Ne C% jn f(.|$.Um F  t&.-[ X+ 4# ;q N| lO B&.g(.h(.N& hn 5*.B&.9=.0~ p$ i(.(k H. Uo ls kS _w D{.j(.Y1 A  gc -^.@} |r ^+  H (+ 3% %. d$ Ox ^~.sJ jc j0 Wk @$ 5+ JG 44 HA t( @^ k(.y{ ^4 u5 vS vU Wr {+ b} )] 5h u. wt `w l(.Bj N= 2% o< OV g  _o I^ !;./$ ^m I{ #& ): Nk /. 0% 7. g=.<~ =] YK tQ m/.5m (r #z G1 m(.x8 ^4 q_ F( [~.~~.F^ c+ W< _o V^ w|  | 5a .| Eq wS  5 *F o6 >: M  <7 C  Wr _a }] && 11 -^ n(.Yb 2k Ay P  H# @_ _k Uf o(.}m /@ p(.q(.F=.Xk c+ /[ .} m$ r(.L^ s(.k3 L1 u8 O6 C3 {'.Q@ Ts t(.]) u(.=#.qF tK </ X6 $X w=.%. ]  dj uH ;# =* .Z F@ Z@.0# v(.1} LM s$.y_ T1 R7 <q $~ 6^.|&.Sq Y} Up L% =% B: w(.v^.jj wj ${ tz LH K( z{.F1 =% x(.@X ]/ (a y(.8] k# `< Af C^ pI d: rH 54 z(.%. D#.e| A(.gx ",
"-3 n] >-.<e >] C( v~ {* *e z^ r2 F# w. E* /d B(.$/.e7 h( %C ry #/.n< I. &+ 44 CW Q%.HL %#.T  0d ~{.(r @{.z{ /o O9 j{.r7 u| C(.FU m@ f. W*.Ji D(.:&.c+ C. `| 6  f~ 6r <r _k C] 4V O_ 3W O_ aB JF _B  @ (/.`| :&.!+ ,X o&.1{.cX $^ jr v~ )$ J# +& `q 5a U< '+ 5* K+ E: T6 %  O] E(.c_ F/ m: @} yN P, F(.|} G%.@n 'o a4 _k d+ 4* G(.X< N= 8% ;8 (r .Z vU $.  3 <e -[ >^ W( ^4 u: [r H(.|@ </ wS :o R{ g(.I(.'] '] {+ &q Q  x1 -^ */ ${ ;E c_ s# d: 5_ *F X^ N0 |/ /  w7 =6 A( *} ': f^ 8S X< =# /  |=.>^ kq [=.h} |$.8o ^{.kC ,^.);.Ck !/ Vr 8  A8  ] h0 +/ U*.8O J(.A: '$.Z] {S {[ K(.^U L(.-$ `@ |4 7. SW }: `1 Xr UJ t/.Bj _T '+ 1] ^2 q; D| ^4 R{ 3% 8o M(.N(.9/ m/.h( *F UG )# 5d O(.uH g5 Ka W< ># N5 g%.y6 fp V[ 2} Q. 6# K^ (o :/.Z5 V9 z. P(.R6 <8 l0 ^h Ai o=.X[ 5@ V+ <g &3 .Z E. Q(.aw ",
"R(.S7 F. M. 0*.Fq `&.Q. B: `% m~ 0S am %#.zA *@ ~j |4 &q *| G6 g-.e3 hn 0$.J*.^m S(.0* sR  H H  Cz gh =i &q B8 S~ SW KJ [-.R@ 2  }/ w{.4G g%.X& g( 3%.]/ ^o :o }m &/ (~.x{ En ~# Xa ;. g%.T  0  ^  d  `% 7N <7 )f ]h O( y=.4a .# ,[ 5h T(.y. g~ ': nL ++ g~ nH 5{ =% sl ze U(.]1 S/ R8 (  9J ZM MN GX E/ V(.W{.a/ M^ ^(. ] ># W(.X(.fN ,+ #t jj G/.s*.Y(.L1 Li B  L+ R1 +2 Z(.Cs F( `&.I#.En VH 2% `(.3;.Cs M_ @% ]/ 9&.$3 _$ (| *[ m. L< E/ d( r< +| /^ *;.G=..| k3 U  (V 1: s/ y8 FY w{.eE 2X nj 8o [M ;: j# O_ /| 8/ k-.hn @& $+ H6 A6 z: V~ a# B8 }# e5 2e (J &+ /@ s  s% XW -$ 9Y Bt 9r ^4 KU f^ L^  _.9d ^o {&.a} (V L$.E1 X-.^h 3] 'm /e <@ L% T6 b  D+ Sz oJ #% Cq |4 Ox +*.Da Eq  | ._.U< 0+ t*._c )# 5h #J P$.hn CV =} !# p4 +_.@_.ll c| %+ <3 P: =K >. Hb Q[ #_.qn P< }/ /%.=] 3s @).",
"$_.e; %_.l-.&_.cX 1$ vM KU :] n(.HZ u. @y aN Er @z .Z }+ =g i[ 4r 5E *_.N6 z^ t` =_.-_.X-.$+ |k a7 %% eX Ty z( j@ [p 8o Uf &-.,+ 5*.K=.&/ /o gh No r@ l] c^.Wy 4n 'q x@ ^m m  O( !# /o q: N& _# P. 3%.gh 8o 4# Yx a7 Do ;%.'K F# V6 2^.s1 B( 7=.t*.J/ J< /  #% m@ ^] )| /} >} 'J -/ O| 55 $q ;_.>_.[e U0 u( E& 9] ,_.oj Y~.Fq r( #3 XW HA @2 v6 Hi k{ >z #(.f< 8% Y1 v~ k} }z {{.0J A. eC zI ]. '_.L+ T&.)_.[3 6/ .< I[ p< !+ B* h[ G] u6 T1 5{ 1  i[ ^h R[ ~9 qB )/ 6l !_.-< C{ @/ 75 h=.m< ~_.}p <2 H0 {_.U{ [  M. l{ D$ Y3 %=.W^  b (% vb 54 l3 =[ l3  [ 0( kz @@ j^ >3 va i;.]_.^_.#w k/.!*./_.A. zl p5 ,$ @. lc t&.U  w1 k} l$ (r I. ++ tJ [~.+L S/ g] ^+ nU 8} Nz J1 I% ~6 l# )  C] 2} F1 !;.UI v6 I7 U  l< r< b+ |% 8g rH (_.]] g] ;-.A-.Ty {* V9 Pi lz |/ x. j: fL h4 R3 @~.op J~ F> __.",
":_./* 4{.Q# HA Y~.2  XW <_.cK s{.Rm 5L :~ L{.M| Dq -: |+ [..hp L< a~ R. AA U{ J1 H^ L] N& 8: K% W< c@ E1  3 =*.g} p$ 4r Ti Wy }/ aN J#.g( M8 YH 9# )# o. ~2 v7 '7 <-./o 0% QH Nk }- b%.[_.Sr tz 7. c@ @@ 6w o+ w[ :] g@ }_.v_ /  3@ !+ Ty 4m f< Bq k# l@ Fm 5{ e_ :o J9 S) h[ PY R: u6 G[ d| NN e@.E$.eS o2 D^ aa gc u| -@ n( |_.3] 2G Q@ 0u >-.x. 1D p^ L% EB b# 6]  . =# J$ 'K a} {%.<7 ># &/ F( P+ }  q; ~N N0 G-.1_.BE cK s} O. >} ;8 2_.0. 2=.w9 S2 }l 7# 4% Sz 5B g5 Xy P+ C] or 3_.X[ ^{ G&.4_.Iy ,. /_ T8 `| (  #. H! 5B h< f< _k j  ji (  P0 Z5 &q  [ #. #T Y  V^ r: !: )/ -Q 5_.6_.}+ R$ >. N& dj u( Z  ga R{ w| 4V -# 7_.|h }m B8 M~ Py Wy y1 8_.|$.UB v_ 'K >. 6o  p V9 v  L! =# w|  ] A) 1{.~$ 0+ X< ]o 9/ -/ !*.iI 1. l. tl z. 9_.Pi JH v  8r {&.Er 0J Z~.7N qK VB YK R. O% 'R X%.",
"J!.[] 0_.(r Ii c@ W  a_.h] b_.V$ z@ Wf HD ,$ =% !*.K) X7 ig i=.L+ m  P  D+ H^. ] q_ KM 3+  . N& ,[ UJ J8  [ +&.+{.e$ ^~.I1 ^o Bq .Z e; S~ 8G o-.+M 8$ w+ m] >..>w 2^.Zx g$ <] 5L Qm D^ {*.g$ G& =  `@  [ _  Q@ #F $3 MR U1 }5 Hb {&.|h E1 S/.OT <] R{ K} f].3/ 1< a6 _} ac 9< c_.}[ g@ 6# t-.d_.[o Qp Ce G. t0 tB ;f p. X< f< S0 D@ Bq x8 7N 6@ C] w{ q^.)+ &e Uo ]  m} Q@ QI 'q J( o  S7 rH 'o e_..*.Df ZA ig kj l] V6 54 W  )/ '. S0 *[ =d H] y4 Q: 9[ (r Hb M: w4 R@ 1k ,. &q f_.04 XB 0U ,-.I^.iZ $H F*.8=.+{.8~.#q 4% /d Df JX K%.s^ Pb @_ 6: Y< 8} k( a4 !/ O4 hp ^} A: K( ,V %#.v@ E%.Q$ +D A6  V kp cT M8 2% ]. 5-.C8 g_.s$ Xy XH JF h_./T A$.DF =i qF J8 8o |[ }] Q5 5j #F 'K Cq kq U+ ZV y% Sm v_ @. s$.kq [0 ;: LV R{ XW D].Wy =# }(.J&.w^.^I Me  * /  2] G@ nU @^ +# }S Py Wk g- LT ",
"^).bf B0 <3 )~ 'I E+ `$.cZ %;.G_ %/ (  i_.j_.J8 ,@ h  p^ d( k_.^o ,. `h E: h; V: yh >. !@ x8 3@ W$.l_.X< Q  &m ># 7K m_.7w XI ~N n_.zC x. a/ W< o_.`| p_._# ]e #. v# l$ p. @% w* 9/ ;9 D$ Sm 64 +J J1 ^/ r% 3% 8e PC I7 :~ cI q_.Eq <} (~ }[ z{ 4_.;q 8} R{ xH A3 P{ ^: .| E3 T{ ;8 }^ x9 R@ [' &{.0t 6E Tr c| 5[ 6F 9/ fW =i |k  V }] _B 5j 6^.r{.0/ sc @% o. Eb ;m P  Nz R{ I~.N& p/. ~.N6 h=.^m ,o |$ on K+ T$ O. hJ 7} 1. )m BF 9/ |h u( m0 R3 B( -^.uD X1 YG m  2@ AK r_.dh 7&.W. s_.1I HD 9. $} A-.t_.P(.u_.IK v_._8 f$ .} 8F _H r< 8g (} 3d 5K 1  a^ h  e| >z Zj 3# T{.q_ T~ w_.`t $q 4% I% 0+ +2 j@ <(.R@ ]e z{ 5# 7  rl Um xm +# Up {S Q%.y*.b+ p^ HD W].Y  K( -# tK z  >o u6 t/ F} ^4 z  +/ 6V x_.*/ Sz p5 ln Ka `1 fp K+ LV ll j(.#3 k1 ,^ F( d/ O( u| ~S #. H# |: K( y_..: z: v; z_.",
":_.-$ G-.lH a5 64 ^s r$ _o <~ `$ <~ >~ %. ]~ T  Y3 ++ u_ Z< M1 w. D( A_.j: &  =i U9 ^. B_.Um *r {( B8 |% 0z s$ %*._/ @_.Ii .Z ^>.#@ (` C_.S0 }q w8 &/ %.  C o6 =+ =& 0~ 0% 3W :;.j: i+ 0~ ~# ;q 99 yX KI D_.Y  4-.-^.|  2{ J8 LV }/.9+ t/ +# E_.F_.X&  -.G_.)  H_.*~ !{.C  Wr 4% g7 b2 5e 4W I_.`w J_.4# Wk .$ 5# zl }# K_.E] W# */ g4 [@ z  1+ CB 9E L_.(_.<q {S dj =J E%.,^ $q <_ =] 9_.F( tJ <4 np @=.p. oj =p H&.Mz V  t+ q% 5* f^ .i 3^.m_ i[ ]e Z5 }l {2 k1 c_ Ay 9. f< .*.nn ># 5c l< i( {&.d$ /] M_.N_..=./o l] X-.3  IK J9 Eq ,Y P{ 7} l2 l5 sk 1{ 0% -$ s. cc O_.4# =% X[ P_.;X K@ Q_.Eq :H O. b/ o: #z %*.f( <3 o6 )+ ${ 0/ Eb ;. GL Zy V1  . nH _] R_.+2 G. <{.Ty 7| Bq up Pb l$.X. P$.</ Cq X*.S_.yX Uf f~.$r <3 Q^.2G 1d *=.r< T_.t-.>  vk <3 Ky vj Eb A. 3F 1d ,o U_.T$ `2 V_.]} ",
"W_.t@ `| X_._  qF pa n(.Y_.Z_.q: [] l: X  g. &  ll |6 SW '] !/ `_. V %{ (V a~ `{  :.t/ 4# ^o Tt !# m*.JF A| G] N6 MH 6^.9S +z kj c+ .:.#@ q. v# I7 }+ q% H! o. (o ;f Cs o+ (r ;% ]/ ~j 9/ =# 3r ^s R*.eG ]~  {.>^ 6V T~ b/ hb *~ _T W1 }3 G/.tJ 4C x4 oA g(.D(.(M &q eX W. ~: 6/ 9% :k xk +:.@:.HE #:.I{ Mb F( 50 f$ A: ^+ /0 VH V^ OH 2A  ] nH 2@ $:.}m ql y*.p# j(.JF =# %:.Zy q#.&H Q@ X$ q: EB vU L{.@n SB c$.,^.v{ (+ v_ t{ 4# 1{ BA Q3 T1 (} n% =% =# Z4 p^ ^m cD i# 0( d( C0 I. @$ !/.a# I% [. 5J Q  &:.qn ~;.q: ^s d  2k [p 5-.I} g@ k6 #3 L< !*.3% A^ =[ 4# uG %*./. 3+ 1V *:.SD @'.5..&} -< 0E jj ,$.Q@ [k l] v   [ n3 m] Pk v4 EX {/ .@ *~ xm 1. {{ */ {o %/ 9( =:.O( V9 $% Q5 b/ G. +C _} 1+ I{ X[ *q m% L^ v_ &/  H @=.fS Up CV IJ R{ 8% f  -_ |@ Z5 l0 e| e^.-:.{/ ;:.x# w9 >:.%Q ",
",:.QK ZL v{ 8~.{/ ,+ 0% H#.A% =] ':.):.y% s@ !:.XY '] y/ }: E*.T~ j# T~ P+ !/ 1+ !+ '} zl ZV {$ d< v7 ~] ^o ig ;m }] ~:.{;.&-.G. /o [=.%C ^L .y p5 y1 {:.z^ N8 CF v. zf Ty O/.)~ a^ <{.r7 m} X{.'K 3W A# 0* P  h  x. F  oj +% ig 15 to E9 S_.v  0+ ZG Ti /  {%.Er l} @% t{ C% 0(.k*.m@ o6 ]:.^:.,;.Ey ${ Xo L0 9[ m] r|  } 86 L_.*r F@ %;.N0 ;f _=.Wn UG Q$ b/ z^ Xz lz {/ /:.6r t< f} H# Uk a| jc ig q^ 9+ on N| y0  % T& hn Q$ p. u: 1< J1 n+ Q5 d{.(:.:[ hf ,[ Sf t# d$ XW ca p( #( h; ql F1 >* `].M+ Hi _:._X am +C Nz =# Py i*.}] a] R1 [M #F *D -. %/ SB xE tJ L| 1# o< 0] [V bP oM ::.w^.O{ 8g P: L*.<4 h% y. 9/  W n: =# ${.lm v~ p4 X-.m$ S_.<:.(+ x% Eq +/ >. t5 0=.[:.a] I. Le OJ }:.G@ s$ a: Y< 6: g5 |:.m} _] l$.TI *# V&.c=.f~ =# ;* 2} 0. 6_.Up jp X< Y< v4 A7 l: Y< (. p4 o* 1:.",
"2:.3:.Z/._>.4:.H& ,^ W(.d/ 0  ;p gK 7N ;y B+ $# Bw c+ :o g~ P. 7: [M Q@ a| M< Q. e# 5:.g< *D #( gI ^m kj dj To t< y*.9S J@ }l y  2@ <. or /@ #$ K< X# Q@ s] +% 9d 9+ _T rl 4r l{ #$ (# o7 ]] l: Gr Z@.f~ 6:.=f M] 'm u( dj uD B9 0% Sd Af e2 I-.@} KJ dN 7:.[_.Bj ]] _  8:.@& Hr SV 7  <@ 9:.0:./#.2y s% s{ X+ f< NA J9 p#.n% -/ a] z^ DW v7 3% kO i*.&q %  L% 7  +D $q r~..(.SV a:.b:.P^.~{.w* c:.G% f/ b9 %+ `y d:.y% {/ e:.Nz p&.w@ 8/ X[ %[ Q^ sa ^2 T$ @. t$.0] Uy g5 >  {] (r IL `&.]H z7 f:.g:.h:.k} i:.l% 99 kn np T1 gp k# K% 1{ f~ S% j:.9( =% #/ /~.C% Bq 0% @W 0% M  e& BM k:.|a w. on g@ @X Cq `d W^..1 EX u{ A$.|W Yo Wf Z=.xc (o s$ ig l] g[ }: F( l{ Ld W1 (# %{ O] _o 9G !: q$ /e l:.e] r< EX x~.y6 s$ /^ (J ^/ m:.q: r_ ~2 X+ bI Mb f8 t| QW O( yc Um ^2 'o :# ,. N6 !*.FF n:.",
"rv o:.p:.q:.r:.ZL h+ '%.S~ *N |r $# 9# xk |+ Wy x# 5# ,Y u5 V. L1 l$ Z. /. ]  `{.L1 Yg &n k6 A6 cf w3 D$ `& X  Wn J9 =# N@ 0+ o~.xU LI 3W ZE s:.$+ t:.N{ q^.u:.v:.YS I+ J6 |# B+ 6_.j{.C% A8 T6 B=.s  r< =E ;@ @+ P: p^ X# r% Y5 ^4 .i Zy Y( 9+ `q l-.o( _B  H P{ <~.]. X^ 7/.[  w:.M8 Qp x:.KB y:.k; }* X# k  E& 6d <8 ^# <+ uf *& z:.1/.A:.UJ 9# ,+ <~ A-.|$.B:.D. ~9 #q ]/ C:.~{.t. q5 b~ w{.D:.Wy ,^ d9 s. Zf kj $  E:.eZ .^.6N H] :@ sh in mc QH )# ^  kW F:.E-.4%.(. 6(.-^.`&.Tk l@ SI G:.n*.+z /~.I+ $# g5 5*.z(.^  |$ D:.f3 qK l] ;p PY .Z rf [/ ,{ 5d X< ;d y/ N( ^m 4  w. &, KM ]N 9V t$.|/ C^ A: jp kq ;: |]._/.2I Sf #F -/ Q$ cD g] 4  HA  1 g4  . u| !# ZV d-.,3 W^ <4 8/ #( 75 [r H:.uD mZ ^~.G@ Q*.^G  3 2D I:.kq kq ZV Er Uo @2 8E A6 F1 y@ =p hF aH oA @/.yk (  z. J:.x,.<U K:.",
"L:.ZX M:.tN N:.J! O:.P:.]N /~.cs Q:.R:.S:.T:.z>.9 .S>.U:.V:.W:.X:.Y:.Z:.`:. <.eZ .<.+<.@<.#<.$<.a .%<.&<.*<.*<.=<.-<.;<.mt ><.*<.,<.'<.)<.!<.~ .~<.R' {<.-t ]<.Ry XS P# ^<./<.;= (<._<.tt :<.<<.!t WM [<.JZ A+ &y }<.kv `& L9 N| |<. z D{.1<.2<.3<.hs 4<.2@ dN $/.'7 ,$.[* ep W# 5<.6<.7<.^V 8<.9<.0<.a<.R^ b<.PQ ~; A> w] 1*.'# c<.F* S&.7; d<.e<.f<.ks /M g<.h<.es i<.(^.#2 eG Ts 7,.9s Ou Zu j<.k<.l<.m<.n<.o<.p<.q<.r<.Zs X@ s<.t<.%,.$>..N 2 .],.>~ $C /0 I% ,+  v r@ gh u<.v<.w<.x<.1 .hs j*.y<.z<.A<.B<.C<.<= D<.Ps E<.F<.G<.=>.T@ i, H<.I<.d6 e= tS J<.K<.L<.M<.+q N<.n* m{.V@ H,.It O<.5# ku 'a `. I< P<.'0 Q<.'a Xi O] g/ ;q $3 u_ `N O: v_.uL |~ R<.5@ x@ /. U( S<.zA T<.w5 #+ u$ X!.U<.Z- L1 P+ 5@ {* P^ e< e@ Kt S&.$/.=] [-.2+ x% ^'.+@ Q  '{ u( /( UM O_ K1 V<.Qb 9{.W<.X<.c! Y<.",
"2s Z<.`<.J~ W)  [..[.[= +[.@[.U& M# &d Yu +t <'.B;.DK Oy #[.O_ $[.%[.v* :_.&[.{q +* Q,.%).a* *[.=[.-[.`<.;[.}r B_.>[.,[.A@ Zx *+ '[.=$.)[.6w ![.1* M- ='.3w =@ ~[.{[.<= t= TM ][.^[.F/.k%.<$ /[.([.v) V# _[.:[.<[.aO h+ [[..U '/.:= (s pF r..+M xu %w }X L9 /& }- }[.a^.|[.3: aB &@ bM &d m~ VQ 1[.2[.3[.4[.%> p@.L&./u 5[.Ru `) Mi *n M] 6[.[* 7[.n+.8[.ZL .z z* 6.  ..'v /J |+ 9* Z# Eu NM 9[.nl 93 %; v* 2-.Ey NS eO u' 4w DK lS 0[.>m p. T  vM y1 a[.|*.Q,.-w KM ** k; &R u{ G,.lw B; :p c^ +).F; |& OV %i b[.c[.d[.y- Kk e[.EL W) OM 5@.3$.l  &(.f[. #.[& A, `-./$ (^.[e s;.k^.I0 g[.h[.<! j+ zJ ,y .*.=: qg 1@ i[.Q' [i I  /O 2~ j[.k[.;M .T :~.J;.t6 l[.M% A{ H6 Mj Vv u. :~.m[.n[.9$ Q= C. O .u  #A C7 o[.p[.c$.mr (+ _r /$ L! l` 4; -3 #$ @g D- q[.L| 5r +! t6 !b |# p) r[.=R P,.&h s[.",
"t[.4+.Lw UQ ~R f+.u[.yQ v[.+Q z_.w[.n^.x[.y[.z[.A[.B[.x, C[.D[.E[.HX o> F[.^) d#.G[.H[.PH q .+> yN `X I[.+U := J[.9I G; OQ K[.L[.-y *..>u M[.L9 |- e` N[.q,.;&.O[.~-.G;.P[.8<.Q[.R[.S[.T[.:' Kw b..((.z'.U[.V[.W[.C~ YQ X[.Y[.-..Z[.`[.GR 0). }.+' .}.!y R].R, +}.R(.@}.#}.$}.%}.1w _* &}.*}.=}.+S -}.;}.>}.,}.'}.)}.1Q !}.~}.{}.:'.Ia vl $Q ]}.J> Dx (, ~P B).i' ^}./}.(}.,, HX J> Uu 6).cv _}.U+.:}.<}.[}.;v }}.|}.1}.U> 2}.cw qp )) 3}.4}.5}.q' 6}.C= 7}.8}.ox D).2-.9}.Ot 0}.cU a}.M+.]) `w b}.Q> c}.J/.d}.'u Iw z! `*.v! D, lS T) e}.u> f}.tw <R .  =..2..2N A!.g}.+-.h}.i}.j}.k}.*$.l}.m}.n}.xX -'.D..o}.p}.q}.UR r}.s}.L).)) 5Q S$.t}.u}.+$.*w V..e[.p .v}.=W L4 7& -3 w}.d[.y, AO 6P x}.y}.z}.|O NX dP ;, )Y G[.A}.:v !' t}.R, eP x'.J% )9 Y- zS 2].B}.C}.$'.D}.(+.D}.E}.F}.G}.g+.H}.e= ",
"x, 7}.I}.EN J}.K}.@).L}.M}.N}.O}.mM P}.L}.Q}.R}.S}._> X@.]@.B[.T}.U}.:; nO ZJ V}.XR UY W}.-u h$.r).C[.U-.X}.Y}.Z}.** `}. |.d!..|.[* UM +|.HY qM CO @|.;7 {L p..#|.FG $|.d;.%|.mU rs s` A].N; KV ~I GF d}.$[.&|.`+ *|.h..=|.@u Yu Wt -|.j! k:.tj ;|.H= H@ GM  ' wc >|.,|.'|.V& 2L )|.f[.B^ 0- )N !|.6R o,.{N ~|.{|.yM /( o$ ]|.y1 '/.q5 au ^>.5! }~.^|.E* 3Z +-./|.;y |- *q M# f(.6O (|.'. j~ Xu 5u _|.^N 8, DV :|.<|.G[.`m -w p= #'.XK }' [|.}v 0R }|.k%.Ga >).^l i~ q# ,y r= s..yK C~ V}.K}.||.oO Sy xL J'.C].M .^r 1|.gy 2|.[y F' 3|.mr as st Aq DK SG P= H,.~-.4|.@z B< L, ~I x .5|.d).0y Yw 0Q l| B@.6|.f).7|.N, 8|.qx 9|.0|.a|.AX J; 3..z^.R}.hq Q' 9O :+.h+.d_.j, *$.u!.)) b|.c|.d|.u> pt c> e|.f|.g|.jN e}.0O $i h|.wL i|.LK j|.k|.u= 3{.EQ l|.m|.z, yx n|.o|.k:.y@.p|.t' q|.3Y r|.s|.t|.",
"Wn /: x8 -q =& h$ C1 (# d% f# (+ 1@ 7@ ^j ;@ E&.s% ::.gW KI W# R{.y  u: H6 W. q^.%I '+ EL gN +:.B+ [_.m(.F' Q=.i+ IH u|.v|._T K+ ;* ^+ U=.4{.;f U& -[.4~.#. x8 s% #t ,. f~ Ca b  E^ l# :o %+ c@ P: U7 Ki  ~.)/ g  7@ &/ m< B_ 4# $@ xU 1] s% F% zl A8 RI 8. 1  w< r< <# W  8: jz Y3 ;p w|.Df .< 7# $f c5 W$.pG S/ y/ b3 W< O6 `q n3 Ne O$ -^ O$ 0d w@ &d  ] 3W =# `G %/ -@ T&.R{ u: }z 5+ L| 3$.K} _w +L 05 (K y% '] N& 1M Fi g-.*~ f:.4y x|.y<.8S *6 Q< #: ah Y^ v( E. UD T$ vb v^ 4{ /  c: I7 9| <] [3 D} A8 f1 *i c4 y|.QK )+ z|.Iy Mg v- ^O z|.A|.B|.-$ G( f< *e _} X1 /@ p4 ^4 p( t< *# @$ ,o  H 6  nH u| JH Y< C|.(s D|.V&.EX #N F' 3:.[i Q: vU Po F* o( Er E|.S7 P  E@ R. r~.*/ g@ ,@ >o Q_ zc _+ F|.G-.6} @~.cC m@ G|. [ zO H|.$# Bv U@ 5C 8+ I|./8 =. J|.~;.kj :k 3W E@ %R {$.+. 1w K|.",
"&d Hr ^+ -^ $/ v( !$ o  Ii v( $~ a{.L|.q[.M|.sc ,. '3 w{.SL QH (J U@  | F1 8O B{ ,$.3@ KM nj ~S B  v{ /: 2~ T( U- zw N|.6, Er /] (o B  `| %q p+ o7 kp @n `/.y1 u  <# (# FC 7&.^~.U+ A.  H G&.(  #z 'I >  X=.O_ BE g< Q*.d+ w| H7 Q  /k ;: V9 Z. Ky /  5h A6 4. N^ ZH Y_ 4_ Hb K} `< yu 4r .$ ]e y*.w. 1$ k# Up g^ <] t{ wf V4 L% D  xk q_ (1 6/ &< O|.0] n1 .Z PC =] V9 J  XW [M ,+ kd vU  ] {&.cc |r l+ 2  +  E1 }p D  8L h  Me (o l$.xR P|.Q|.H=.:< c_ N] E6 d[ 7=.kd XB f< (g `} ]e k6 $~ .} *  /# =1 :Y 4% 8% X^ K} [. S/ */ Y~.rs $#.*i (+ Uy DF C] R*.[@ ;M @% p) =/ `( u/.l@ 6o O+ D$ F( n3 Q$ Eb l$.m].P(..@ HA &{ O  oA Yw t# J1 I# 6L x@ 0] ll d$ &* 9&.=] *q 6  R|.*/ *].T1 _c 1+ ]] A_.E9 .% O8 !+ Yz mZ Uo :/.S|.T|.m} Py gW Z@.[=.-/ #y M. 8~.U|.$% k6 -k 2% (  N6 ^o 5@ |m 0( #z ",
"d+ /W C% &_ E^ Y+ rl +& b. `d DF V9 U< 0] V|.f~ ig a;._k 7@ N& QH A( _. `^ xk _T :. v7 W|.$@ t/.|% ]S ]] t&.:;.;y P' X|.Y|.Z|.rs 3~.HD 4@ !# g$ >~ y$ '# ;p a| 3=.Sy 7Z !~ )  7=.|m -].`|.m~ xq Q% G. Uf 4r v_ Y(.I( F| )/ f} @[ (/ *~ :# Uf 2@ 1k .E Wn n% 5K c} ): nb {9 D{ n3  1.m~.Y3 <3 -6 d[ ~(.&[ 6V 5{ W. i# _6 W6 Vd a< Uf U8 i( ~;.T~ ,o .1.wj |% p&.|=.yo E%./o pl 4. M+ 'I K&.=i K+ ^F dh <-.3k 9=.9< Q@ id LA (e r: ]. f^ 1..>+.m{.P] ;< _0 E] m% 'f %6 2k :W A3 T< A: |6 /d p. 4*.I(.1l @@ y. L< Ne t/ P  2% @% J$  [ gh l@ G@ L< H# K( r^.;% _@  . z( |/ ]. _  T1 L^ .# 07 ^s <3 #% W].T$ I7 XW j(.g$ `% gJ k{ nj i[.X{.*s d$ 2k /: 8g 3@ a^ z{ |k m} G7 I~.V+ =% !] ZA ]. u* ;: Vp b^.;f `#.o+ ;f 3% x8 ol _B +1.(J 2e _B W+ ~j @1.E^.Er H^.6V lc Y< Q2 2F #1.@% B7 /} PY `&.T9 ",
"pV 1@ T@ E. t.  } Fq V6 -. b9 r: b  pl $1.=* |$.V/._. e$ ig 4%.|$ Y^.'D *~ T  g} SL :] d9 8:.(# 4  J{.%1.Lm /] )# 7'.&1.*1.m~ QS Ox e] 8=.3;.dj Nz lz 6L F@ [~.i_.5B =1.T{ !  l: *;.^>.S@  E zy m(.Wq -1.44 (# xm _# ~N t6 a4 xm Ty 8c %6 Pb i| e& ,$ (] l4 P  P+ v# a- ^c dj :  wo _{.Eq 3  rj aH Ck [[ ): 2A E| Y/ &^  D `5 #( A: W] 3| {9 ~0 `1 4@ ql A{.;1.G@ g] >-.'K >z E;.,. 4# }A lq U< g3 I~.^{.8o }  z8 2  B7 >z O6 Sf 5K 5: z#.n~ ;b S2 ^i z3 y8 ,] ug I[ s^ (  )B f8 y@ V1 b2 XH !*.*e g/ no 5K k3 Ox XW 0=. . B&.,b nU {&.t  l: H# H6 d$ +3 m} V9 1n Wn 4. E%.:$.d5 }/ fS q^ s$.-;.#C %} U7 s% X[ I% u8 l  K% <J }/.>1.l: IK r~.,1.u8 y% cC %% ig W^ N/ ^2 `&.^2 %% y0 j@ dj W8 |J K( 2@ v_ '1.4-.8c [:.)1.#q !1.~1.{1.]1.^1./1.A_.'q UJ $1.;q .# 3# Er 6  ~] v  V9 nU '&.Qm fN Z~.",
"Fe T1 =/ :* (1.I{ y$ ^} g} ZL :i yo W$ c(.X& K@ v+ Kt !# '} W].44 =O BE b   V (` I% j# $^.EX %/ E+ _  vU #z x^._1.&E .v :1.j0 O| P+ p# ip Y. >-.-q /~.j(.T<.<1.0. M8 6].u(.A{.8. W8 +& #y H#.mH Er J  ^] G_ ;p s{ [1. } a< i_ w. 05 V4 :] e< cd N_ T1 d* !( E} j| E] {B |$ E} ~7 #( -/ gI 9: M{ a[ 8( 4  W_ 9| 4{ [[ W( .2 `1 M{ %*.*/ %] C1 Ty e# V6 AJ A{.}1.U=.|1.Uo `f 11.8  H. 9# E& v. f  }/ v7 21.%;.L5 M$.p4 wj d$ ~( _c n% 6# 31.|O fd O< 2_ T9 Uf h( 02 y_ SJ +/ Wa  @ Z. 27 X[ C& &[ zA <+ `2 J$ P{ 4F v6 ]] L< J9 Cs R$ IJ S  Fq 2@ Df ig  _ qF Ki Q  'q Uo |@ Cq nU @2 Y  4F d5 ^o SX zk Q@ FU  V }r s$.41.w. ]] V6 !3 3r 51.q: IJ ;f 8$ ^h JH qF o( n% 5@ #+ R*.61.}q <8 k% L! 71./o _. U9 RI S  fz x% nL %z :/.81.91.h^.b9 ;d X^.mc *=.M_.Oo 'X r{ C8 `{ m] ': ol *F g-.01.2X -$.",
"&].on a1.!o E*.j@ p+ fz b1.a( N| p. ::.vU [=.9r kC 3F M@ y. #. I{ L! ^m }] r;.E@ +M D| c1.bf U< b%.P(.r7 d1.pD bW e1.f1.g1.L2 w4 k# cX ,# Y+ uD `].Z~.I% ;^.Ki ds CK 6^.h. |_.Wy 9/ h1.5*.Q^.1@ Y4 U@ i1.1_.5B .+ (_ *f A7 R7 g@ HA 8o *r  5 W8 |r r7 pc Up N/ j1.ll &} 4  ;%.HI r| +2 Y  >/ !3 [1 j| l3 5_ gT x9 p( ++ :0 v% w4 JK G0 .B x4 q: QS O{.Py !J 'o -# S|.k1.0% l1.E+ x. 1% d$ m1.G_ $^.;f U$ V6 L1 q: L+ @/ e] wj <4 '} 2} ~- w/ n1.LH Y] v% Ra [0 yb ': 13 L1  2 d$ 2} C0 1  i6 i| -f if o1.[] up J# G. [] yX B  }. ~~.|  !. $+ @$ 0* 2A s. (/ /h l+ F9 (] 0% 1~ 4a x4 Zy oJ e0 (%  V s. Me J9 1k E@ /o f8 mU +# m. &} d$ 3%.d*.`$.l: J9 o. p1.U< ]e p4 M8 iH L1 X| x7 }: hn Q$ Kh P  R3 O. *. U*.%C ^~.|$..@ j{.]S Wy q1.r1.1] 4G X/..Z 7N &=.SC Cq @l )  a/ ]f 4# X. s1.}] d% (} ",
"e{ vM 1+ m} ^  9| c_ Qu /0 A  y|.f5 V. sI y% 9S A0 [] g@ :  I#.O( W  u. 3  T(.j*.t1.EC 5*.7r <~ 8$ a} )m Jy D@ Hg u1.v1.w1.^T Q. '. '  O% N_ fW d. t-.'X x1.@G y1.,7 I(.4-.,I (# x=.4C z1.Vm SV V1 S@ Tk U+ G_ ,$ }/ zl kd UF l] I6  H mn u#.e+ 9G A1.v~.*  Df 4[ 1r L3 =5 t{ a[ >^ 9. y/ Ne {o ^# -^ I2 py @@ z[ .6 ;d y7 .] M< g~ 9# R7 >: Tk *~ H0 '{ cC 6o <4 SW F. -J Hi B7 oj c^.o7 8(.V9 :W b# O+ r7 D+ B1.D:.2# ,A l].$/.D-.#( 2V Hu h$.@& !3 W. =3 Re 4# I} M3 <7 }l e2 J8 4. 4% 1  >^ x/ _H tf nU `| )/ .F ]. Nz $X ]~ 5/.(r  } #t CW :~ 1% Eb B8 I# :o v_ Q*.<@ Uf k6 MH V+ T6 E1 O| ;. H! Q  Cq 6  E@ g* +& h  Ck |h 1n n~.Bf }/ N  );.S. {&.,+ C1.q^ -;.j# DF LV 1| o. 1. $# j{.>  x~.Z5 >-.)s  V D1.E1.Tk H^.F1.5J CF Dq JF xq v_ 8g G1.H1.I1.{m I% E1 P+ #y =] J1.X{.bT 8  ]e t< ",
"Q% :~ &q l+ K1.T$ ^} H+ r[.1@ z_ &].0( X(.r% )o $% Q1 V^ 28 ~J P] &/.xU /] j..4~.`#.F( 7w X  pn 9/ 6o ^{.L1.~/.(~.M1.Sv N1.5/.#r XY <@ xU |# +D O1.X& *. aN d{.4_.-q y# ,+ E;.,q kS &q NV E%.P1.pl }q IJ Kt r{._] v7 ml *F ~D H. 44 _/ [i /e OH D:.E].`{ 'X %{ r_ y  $% O6 s2 n< }/.Y^ =# UD '^ Zx e_ <H qG q0 Q1..( '^ S2 E*.5e d  L< @/ S0 8c jc A: R1.B$.=/ S1.U*.4{.+&  * 0(.SV 0d |@ s$.1@ )# @% <-.,+ f< =#  ] s*.]. V9 4F Ki Sr a; w- !^.+# M} p( M~ Y  58 l2 5} S1 F} aa 4j ^9 x7 AJ q. 09 #< R$ .@ 3@ !# NV pn C8 %*.Q%.W  %% Xm uG z  #q lq `< n% o. uS p( :o L| :# 4F ~S K( M. hn 6A VC (/ %I </ W].=/ P%.T1.P6 }m a^ g%.F%.k} w^ E1 0E k( Ne ol 23 ;# _s '+ Df ll !: |b d( eq B8 @& ~] k{.`e O( U1.A_.^] }. 2X V1.Bs ~{.;f ^F 3] :/. . )# x*.W1.C8 sW 75 dj FU L^ t{ P  =E X1.@} {2 ",
"]O +N PW R~ g[ Y1.<@ @+ T$ Zo u$ V@ ~9 U& M@ k  g6 /m .+ oJ Mb O] Nz }@ C] 9} K( (~.U@ l;.Bj ]  F# .m FC <~.h( Z1.DR ^v `1.w{ s  6  v_ {_.q: p# &e 1_.!$ 9( bI q; tz 41.ZL ml Ii 'X B8 }r 9/ >-.*D 3~.R. 9t Wn w. {%.fS N= sR U  4* ig a/ }. e^.l&.TI `%. 2..Z V+ qH 64 =5 )  i( )# YC r. Q^ y&.3l 1n q$ !  Y  Yo n% `e A$.#+ k# 9+ Mb  3 =/ @/ |/ p/ ]H Z5 D].oI Uo .2.M!.[=.+2.a;.5*.np ;8 */ *@ U+ W].2% =% [@ </ :] n3 }] k6 ZV ^:  ; 6!.=@ N_ 4F {h B/ D} ,@ k# >} 0( (| }m 3+ [r >. _m l. O$ F6 [1.u;.Li @n -q H_.s:.C7 l-.0S V. GG I# @n e: M. XH I#.DF U< |% ml &^ (]  } 2% |Y  . +G tB s$.F( za B$.9/ Sy 7   H }l ^; @2.K+ #2.5@ d=.L5 a| xm ~@ m].up Ty j( za '} s] R[ ep $2.^{.%2.$3 )# 2k tI Qm l$.n( #3 w9 ,_ EB C. E~.d+ xq <_.9{.a{.&2.p4 1@ ,@ E  =] 9G `H 2k l] *].T1 O| |h YK ",
"_r U& 9] s*.2+ Q  *2.r$ ^h c} P(.kW `| 2@ n4 1$ z( b. vG f  H6 T< R$ S  9# NM a^ H6 [=.!o 4L a^ Q% mU ^m =% s..I1 =2.2/.-2.*  !Y y1 Gr kS <p {~ !J %. Ly /A h  HD ;2.>2.,b z  ,_.,2.'o j: <3 '2.4+ En _] Jb l$.3k 2~.v^ h^ v^ (r )2.mL 1+ U< aN *} -;.1%.<2 E| E$ jp /^ l0 zY 9r Sf pg /d S+ #% g4 N9 !5 Wk *i W+ P. &^ Ma O|.o7 Wy f8 S0 W. K@ ):.!2.f/ M!.~2.Z#.V<.y  <~.y*.2k {2.2  S  !~ cc X~.>: ;%.[=.x8 E@ d/.OW @} @} <8 !/.8% `+ _W ]2.pc ~3 w| /[ ~@ d$ |l T9 U8 !3 @_ E1 |% :b MJ 8l (n }# p/ m5 J1 0% kz [] .1.'K %} DF cC ^# H! Z~.PX XW $@ ^2.h( Hy 6F v( @} [  )e =J xo (K Xn M#.]f ># j# b# zC r7 G. Po ]  (# x. 'K e< 0@ <}  p }] hn g%. H d0 n# 1} A6 ;$ IC z7 !( [q Y  o: ;p <~ T. lm [{ *q '].#T /2.(2.y  c/.I% ^] _2.41.1k P+ y&.3%.:2.W1 d*.#^ 2; Ty a: Me `~.#. /2.[/ l$ ",
"/o RU Z@.8  X+ gh 3% 1(.8O =& r7 Oy 0  <2.:: G. Xr :] 5h v# g  9z ]] '] <* r* p4 l~ `{.Ki ,$.zA c;.zs %I 1D [2..1.}2.v+.ey F  &[ rj EB t@ G_ |2./o Er *  2r v. w{.5e 4{.%C F| x8 AJ }r /0 s1 =  }m 9/.P=.H  y@ 12.22.41.5a f/ IJ [~.&-.8{.Ii _X 32.:;.ls I6 &q _I (o SB o4 0e O{ 0( J9 sb m% T  +2 j5 %| X+ B1 S  }: q$ Ox ]e Cs 2k Y. p5 $F M8 My R7 [~.f~.;m z^ c@ uD u;.Tk !{.T< P0 42.C{.s$ gW s1 ;f Um 52.#+ -;.cC =# <3 (r </ ^: 6L E$.62.P: m_ 4m L% f1 ca Z&.7| ~6 6  RI pl @^ )F =% l< 81.O| K} <@ 0d $# X+ E9 `2 Bc j# <2.f. f} |$.f$ <( F1 >. Bf {f UB uD y6 z  ]] s$ SW `q ,+ ^F no K< lz rH A: L: :. 6(.6@ w=.[~.ng 5K 8  ;q >. %. D<./3 6m b+ *$ y  _H $} P  M@ 2G q$ U| !/.y% t&.}/ I^ x{ tf 64 <~ 2G @% <4 Nz '7 72.b:.82.92.D].Z~.5&.4_.;p ^o |h Nz 02.Xc TI oj >-.*J @% f< K  ",
"Q  JF a2.>-.L^ (# #N Ly ]H 'i ZA D@ 0]  p A* Z2 j| }[ 0( +# */ pV u( ^} Xo 3I ^m b2.#z ~# q; u5 br M!.](.b%.h% /e c2.'@.d2.g^ 7% R{ B: |$ W+ 6@ %f J9 <~ AJ N( Cs 0  ;1.U*.=E Kt r*.`{.p[.&e >  Ii F. &< 9$ J9 h% W. kV @  =O e2.f2.R} zp hn Py [(.YK Uk |$.g~ Q# tJ _} O] w4 8% D$ c@ Ty T6 A$ R$ l] H. Z/ ll ^$ -;.!( U7 V% -;.w. v5 6# B$.!*.'. 0z N& g2.V  1{.<3 :L /e Ii d1.H6 g  0J ,q t_.[8 @. N< 0z IJ Q@ 4G L=.0/ E. .Z #q `d O].h2.[..Q8 Ai Mp ;8 9: m% R8 .i /h E^ uf [# hc P0 e: 8} LA }# ]/ ,A 4m Ac 2j f5 n~.y% Ty V+ dj J9 /  +2 [3 HL i2.V+ g@ &} Q@ /k I^ _e 2~.dj o+ $3 j2.*8 zc 8~.^{.UI `| q=.C. ^+ M< R1 g< $H E*./L Bj -  #y _m zl &} >7 f9 &5 ${.Wf L+ S0 </ Q. v# 0% %% CW $# @C 6/ L% .@ ZA k0 dh .# y  U< (_.Fq k2.jn /e */ R{ pg _a Tk L+ 3;.`q  V #z 5/.'3 g@ T1 y/ ",
"l2./( gc RI z( HA )/ [] T1 d+ #q 3$./X dF /( 6. F( 'b d$ 0d l@ C( II m} 2% !# M< m~ Y  X  -q P(.9# -# vD oj m2.Wn Jt n2.$i ^=.zp xm <e ^   H g~ :% /} /d ,+ JF >w j# Ck (o  * 8S o2.IJ p2.G% $1.J6 3W c+ _6 B7 r~.l; o  {&.UJ v_ 64 d+ >[ W. 0  ^} S8 H# -# (| |k %. PT tf ]e #/ +# j< ^$  . u. >@ C{ R@ .# <+ |k g:.s$ ;% 1  gh L! 5K L  2+ t# D].** 4_.I1 g] )s w^.b-.0: zF J. R/ G-.g@ 2j x~.(H L+ O: O9 0+ 5~.Wx Z_ E&.:. X< -;.q2.r=.r2.oL l@ _[ p< Hk Pi xo J9 rp $5 sp q_ :b 2% !E 1} K< s# }+ 6l D} ,F @V 0U |. 2A .@ (  9=.s2.t2.[3 rH k-.V9 T6 c/ r< 3%.(J >-.[=.d*.Z( W8 uH V9 /@ ^h u2.Eb /o [3 @n Hr 0+ /k v2._} #} `1 @} t  g@ 1. p4 k% r. Q  .1 +# e[ 1{ Zy w2.);.TI 6: Q*.p5 |m s$.'I (=.<@ -/ J1 k1 8G x9 l,.s$ #F #N  2 _s T].x2.}] 3] ,$ 2] _s p+ y2.a: 3$.wE i+ Q&.K} I. (r ",
"z2.6% p&.vz &C :% F' L| ;: i*.z@ V^ (~.vD ZL |  X# PY hX 64 8  U7 n( Pp s. A2.3S #2 Hr R{ |m &].J@ q[.O{.4W 91.B2.~- b..Q[.N_ +# *~.C2.f$ o6 H6 O/ A. kj V1 5j :[ !;.n_.2L 5E d  u;.}[ P/.v- &/ l: F1 x1 4% e# z8 <6 P+ h=.nI FY C] P3 /W %;.D2.Eq k{ jc .: &^ U< W^ S[ 8  T9 v. qn a| 5{ |k tl w1 =} 9( ^9 n: L+ o6 Nz t+ UB !$ N/ e  O8 S@ }: }l Zf _<.#q I9 !{.JH 4%.t6 </.#% |$ E2.'q tz e] 5. gW Z< jj U9 U< F2.k{.qF R{ }+ @  bH 6|.u'.u; |  K^ F@ ]. ^e ]3 G2.H2.f} n8 `< T9 m5 ]/ K@ a7 Xn u} NA x1 l# P  d$ [{.I% e0 I7 i| SL kS 9+ ,$.G/.J=.v6 }1.V+ xU [p *F )+ A-.Uf oA U  <J D$ 8{..% I2.`-.4G Tk ^+ #/ ,3 IK $q l< 4_.A{.jc [. V6 qn %] Y| =# Z!.$: Y[ ~&.6E @V ,] ba Sr }l X< z| J2.b:.!;.3] &  N0 O. u| ,^.Uk h% R&.</ Uo K2.L2._m ]I ]S %C b  !:.c@ HD 0/ 5K $# f( C] Um f5 @/ ",
"&].M2.zA P^ h$ g-.t$ z{ Hr $3 N2.>~ 7{.O2.;;.0~ o7 Uo Uf -: =  O< #% Q# LL GL Cq `$ ,[.`$.m^.7. 0% m/.3@ B* :^.u_.c2.e}.P2.u@ |b '~ Uf 8% =  *# >. ]] I. y  Fq Q% x2.JF 5J *. 41./o ># }p Q2.9( e5 m} _k .. %;.7. (o /( '3 A6 CJ A^ 7r <3 |@ 0  )  E].vU (# v# E^ Ty hI xm W( (} aE w6 +@ T& c+ 4F {m t*.B/ (a uD _~ Wx 8( R7 l^.<z  # Y6 [i !1.R2.3% n( AJ 4@ 6  N+ d9 S2.FI A  x% '. $# zC T2.;: <~ Bc &e 6/ [. O+ F(.aH }# lc Ii nZ n  T% X# Xr C3 V+ ig Vy gI &[ 9[ P: *3 i# P+ R( /e X1 O. K( U2.>. P+ W. ;8 4F ;* P@ UG <~ tf FU aN ~: LV 2A Ty C8 HG +{.9( O9 F( mc 'X ^/ B1 eH )+ e5 +&./o gc oj K} x# KJ nU r7 g$ @+ T@ %/ V2.AJ y@ ~2 0u q_.m< ): +% Ib 'm _~ _. /@ HA e# 07 }: Y1 y% 8e 8% ;]. ] Yz =# rl &-.8o +& qK d*.}$.@$ JF PC y  O( U  E. :W PC k-.)m sW e  z  !* nj EX 2E t@ ",
"W^.e  u5 `|  . <-.[[ ^  s1 GG 4* [] u~.jg G( W2.X2.}a  . #3 6: V2 v~ 8/ &/ s% 3~.</ B+ z  6J f. hp {~ j{..C X< Zf v<.E) Lb 13 w+ <+ X. :H 6/ u].Bj X| {/ ]  z{ Y2.`{.Z2.x~.a4 o=.F. );.!~ l@ !*.t# 1n E^ 0@ k6 $r <~ :o `2.H6 F. hp L  Hr M  8  d/ v# 3$ 0*.Uf =% a| UJ w< o: u. ;f _. /: Vk (K [3 7} W( Kh e; I. .m |=.X-.[/ RC C7 :&.Ky #q zl v( c@ j# #. y=.^o ^%.^I ,/.4-.]. 4B ^h 7N 9/ 0% ,I k% 9/ w7 @$  3.-K %% ;$ 2E G< Pb JF .3.+3. '. } 4. 1~ E(.v( :+ o;.T~ T5 .( 5a Pa a< .Y &e Zy 8F >& &^ 64 aa >  ^h P0 fN c@ y. I~.A*.2X 3%.+/ Q*.O( 8E TI U+ dh uS ]a uD l$.8% $# @3.!*.:&.Cs Of 7K 1D 2  H6 Kh UJ 8% (` t/.NY R&.v{ b# #F Er u. &I W8 ~J >3 F( 0( rJ O( 5[ I7 lz %. rD UD 3;.S].a7 b] .Z AK UG sJ #3.{e )  B. L+ As 0J $3.!/./o lz kq s*.-_ (# 6^.Y(.<4 Q{.G].G{.Z^.Y< fS p^ ",
"%3.l@ wE Kb Ym H6 C@ /: Y+ `& tM a^.$/.Um YS m} p. ,$.2@ W  H# ^o `^ v0 b] D& Y( |r &d L+ ]N a^.w{.(M B&.*. ^] pl  v &3.*3.u_ l@ J[ ]. Q@ 21.M$.FI @} A-.zc BG nZ f< y  0+ V9 2% F(.!*.u  m] O| ^+ !$ #< c].!+ @_ |Y _r $+ _. x*.d3 <~.=3.OJ %B |h *~ M$.i+ n4 2k Tk -. Pr MR l,.%_.}l Sz p4 Y~.KU a| N6 g   / m} y. @2 6e l+ 0/ f< 9( Xr Ay L5 7N ,_ K< X*.,. -3.Q@ ,-.B* !/ ;3.Xa :~ UF L+ 4_.rK l: <4 7  F@ .z Er f< w5 %. kS l< K} J}.j}.g* &] ec U8 U$.UJ `1 U| X| L[ @/ )3 D/ g: >< >  <@ e0 y1 c/ */ G] ^2 Eb Cq Ki ^s >3.,3.A0 ;. N/ O. Db y% 9: l: -L A$.<@ <@ D| ,A xH ;: r7 E@ '3.)3.!3.g@ Up Ca 1. ~3.z  U  _  >. `&.Z(.0  h  &(.)+ ZA #^ }] {3.or p$ 7| a] x~.[/ ]3.8  I# 1. Bs ]3 Y< PC mc ,+ #t Df *F R{ o7 I~.B&.9V dj 6_.x=.8$ ^2 YG Pk `@ =* ^3./3. . ZA >. 11.:&.e0 tI `{.CF ",
"w| O(.o6 g( n^ L0 @/ $~ c@ oZ +N T( 9+ !/ G. `| (3._3.44 a^ ^o 4+ {j '{ 0$ ig sR Q. :3.Bf )  )E o*. ^.j(.j*.Py -q <3.p- C+.6A =} ER N: }{ ^# y% MR u| k}  . 5j B  K&.O=.I{ l; 4# f~ E+ 6].v_ -/ kd =] :# }l #2 a} %/ 6r vU P(.E~.;:.A. 4  V  6_.:o y/ FU Um w^.6  ;K z  Y( 4. ;: ^4 g/ Eb g< Yz f< u: p< u* [} C8 j# ,K *F uO k]  . _k Ti Pk gW [~.S) g$ L| Mb !] G@ 1@ W( [3.<7 gc k} Wr j: _. 6^.V  ;# ^e Ne +@ aN Sf (~.v7 Ti }3.o2.B^ XQ )l kj ;] 8} DG vs |3.W. jj 13.3r Kp <4 M7 Y1 @% >1 S2 f8 rH  | 23.Q  [/ ':.P. ,[ v  >3 2$ 'K *_ y% @} d:.B8 0J 33.uD 6K %$.oJ (] O9 u6 UB Pi 9( b+ ;d l] @% @^ J8 !J }] P$.kC E].h=.]~.s$ iJ +2.0E 0d Zl <3 7J D^ #: |/ Ty yc gG 4| 22.UB 0z T{.#z /{.;3.C&.=% 43.nn 53.y(.HJ *D B. HD 63.*;.Er lz s  6-.64 73.N_.sX qn u: A$.UJ  [ Wn 0*.'3 .y EX ",
"|# M. p. G= |h @@ '  ^2 *  r  @% :  2{ A< 'K l@ IJ ]e K) *  a;.p.  . kj iS Qm f  ;d }] H  %;.g$ s$ }@ O. 5d B@ u$ n* *!.83.I. g/ j: m< N+ s1.l; ^+ :% Vk 93.'I y% >E x8 kB k{ :W %C &/ 03.>z ^  Bf Sy }@ ^h {Y 07 :k `| 9* o2.N& |$.)$.]] {( c+ @[ W+ 2A >@ aH 3  ^} a4 Eq 75 7N /o {/ Er @+ K].^} [*.E  .m o  jc (# 1k VH l: _/.I{ Ck M#.gh Hi ;# b%.)$.fN -< T$ 34 .F 8} Rk .# a;.}# 0J |@ )] I. D| Vk '~ a@ <4 c_ IJ )/ o( 6% R*.mU PR a3.b3.w| !/ G] ~}  ] D:.&/.X| }~.m% `. BK +/ N/ no k3 Yo Q5 c3.Y( FB `d oA P$.Ne W| j@ kA t+ PC mg X< T$ 3%.:B mZ Q=.);.b| }l PC vj Ty I7 ,K s| J< cC R7 p5 g[ j: O$ /k ,+ 8o  ] s$ m(.@% ^e I1 5B H# 6^.Ii (J 5a Q5 ;d .: 2% w2 =% K+ A  d3.`1 <4 $*.D@ -# f@ {;.^{.4e &_.x8 o( dj -# zc *. C7 y=.r< !*.t$.}: ep e3.dN c^.(# ^2 D+ v_ XI :~ Cs !  I1 ",
"!*.9# f3.V9 ~J <k 3W g3. ] <+ 6% yW r  y1 w^.$:.FC vD &+ &/ h3._& 3%.$@ kW z( E*.u: 1%.}]  2.);.!~ oA ^# 7  GX |=.i3.j3.k3.7# V+ L!  . u  y% |@ K) DF Uo 'X s% a^.Q# <3 |h g/ Q% +@ v7 &q l3.&+ uD }l l+ R/ ;C |% eX x. +B V+ ]E Up Q^.f2.}F W].^m Tk ~o ml vD D  _$.j% cD '] Ti P^.O. v{ VH Pb {{ 1~ A8 {=.@} s*.n# :% #+ @2 T| m3.lq KJ )  7. !$ G%.N& A_.g  }] F. n( 0J g@ Q%.z-.n3.-# 4%.^>.QI 3@ u5 f].M1 <# H. X$ #@ Y< C% l{.e% o3.;@ #; Sq p$ %] &+ >^ `< g5 u8 '^ G< [] 'm E1 x8 =p ql <{.`^ OJ V9 &q L7 ^~ O] 1: z*.}] ,I ${ _] >. )] BI p5 0/ 1+ ;q 2I I. no UI (r Ty #F XW }: S/ y7 DG *~ M8 pI O( Pb (o ^2 g$ SC Z/ ln <8 <4 Ki y=.Vy [=.|m T1 p3. } 9| '+ Eq I1 y@ qn E9 pj {&.$3 /o {2 e3.q3.r3.JF Lm s3.k$.JF 5*.Tk I# sI j~.TI 4/.`%.N% f~.!;.V6 )2._s -q zI >[ `^.j@ ;M y=.:/.",
"Q$ 8* Wn /  J{.`  LW @_ Zj L! z  Y( =  y. @$ <~.Uf ,+ ^m 3r y< E@ o7 F  :&.>(.>* *. m} N8 u: -@ %#.*e /$ v_ ,^ E@ 62.t3.u3.v3.O] 6V }/ 4M ZL H# z^ P: n. *r jc g( *~ Gr +& uC V. `y w3. p ^s y$ ;@ V+ Wy B=.># m} !] =/ [M _~ s$.>-.O{._k  _.kp 3  x3.Y< L| Wn v7 m} I% s$ +N 0/ S& o  cW q: a] (@ i# d  v  ^2 m% Uo >-.#( <e ig af L{.Eb ^{.N_ V+ -^.G@ f< 1M y3.Kb U| Py v{ H1 3  J9 [] 8] H^ g(..z Xr /: ^m G. P(.z3.0  $*.)~ +# f^ A3.Kk `& u..%% Q@ L[ B3.68 L| xC d| 2_ C3.Sr 2: FB y_ U7 j  K# o4 6l A# -} 9< X| 4j ^F y  @y %% cC _k $~ ^I i# Eq ^m 5J `2 p5 m% )e U  A7 Y*.pg <3 +| +/ W+ ha t< E~.vD h% A) ^{.r{ Y4 U< {/ 3% ig DE C1.2r v+ .F Oa 8] (] cE ql (  9/ }r 1~ @} x1. | S8 v6 ig |:.D3.5-.k$.4G n( P$.f} 0=.ub fN =] l+ Bq p&.>o <4 8/ FU L|  6 U*.0% }z L5 cC cN w4 C. ,-.",
"+L zC I. E3.);.tl a@ ^2 `1 X~.~Y g[ U  #N r@ g$ r% A) %m $/.!~ F$ #. pl )m Y% F3.GG ]e h} w'.j(.G3.<e r% AJ !  >o ]@.E}.H3.([ =2 ]. zI CH :  S* P  E| P  8S :;.e5 N0 ,Y 0s Wn )e -: a=.0: g< *. W*.=& T1 B8 qF 6@ B* ,: Q=.sI C] C{.kW ig W  J&.z( :/ W+ |k 2; hn l@ b+ W8 X< 5@ @n Wn tJ I# (# ^m L| {/ Sa ^/ 3  =f N= ./.!*.<3 ^/ Nz 7. SL ^  M. ^} +  _: j_.]h s. -$ zI `d X+ %=.R[.Mb 1# *& D+ (^.&[ CF U  44 4G k{ 4% `y 'q H# I3.zy J3.O! ^2 $2.y% s. [F G] Ai ,. i: y_ VD 54 Q5 F1 G] (5 S0 ^+ X| 54 -^ ni W^ L| A8 +C O9 m/.rK O. K} >. 3% }] #/ OH 1+ ,# 64 jp @_.JF |G L% no @/ k{ =} .1 qn 9_..} YK .@ q_.H# p+ v_ +^.(o O] y&.(/ +M 1/.4* J&.P0 j{./X w| w^.K3.[~.9( nU YK SV %% L3.N& wF -;.^1.P/.1/.:W l$.F. /k Er HW Ii 'X M3.)2.~S >X -/ $< C] k2.Uf (/ UG zJ  ^.y1 Q*.a| zC r1.",
"Hi _/ >  >@ 2k V@ )/ w* r% Yz j# z^ s. Q^ 3  7N ~3 !] N& 5-.`-.U@ ;% Wd Ox GX _k N3.V&.O3.PY AJ u:  [ np =/ :+ Rk P3.0T Q3.M@ z  :# e_ ^m ;S V9 ^m %B nl N& |h <K _m ll n. GL Q@ L< qF W) a} ^s Yy l{ ]3 `2 <+ Xr 4# `& t6 I1 <z u  VH t6 8_.[H H# g%.gc |/ r. Q5 -[ }. v_ wj u]._} v  (  7N dO P^ 5a J&.(J 4; 2] ^9 (a R1 2e DF `$.M^ v7 KJ a~ v_ |/ z{ _  V6 Cq f< U. k..5.._6 U& X# f] 2# X  N( -/ R3.y. X( V9 Z,.J9 JI l; =& L+ F6 S3.T3.g6 k  c  L$.[. 3} Sz w2 k6 %B P  B3 O( J9 Sr p3 v  a7 a4 ng y3 M0 *i F%.V+ 66 ec b/ G( vz G-.g$ o( Sp [  C{ @2 4F u(.U3.}-.q; j(.2: @^ j# 8% Ki 7N FU 1n :~ V3.^+ O( RC <-._B A-.UJ B&.^2 w| d*.zC O+ V. ~&.,^ r~.!] M. x7 Ck 9[ B+ x2.I. -{.;# _. S~ w# 'I nU /} s. W3.UJ a^ p# Qm C&.3%.X3.A$.Y3.FU p4 2M ;q #-.k] V1 C% >z Z3.Z~.Q$ 0+ w^.RC w*.",
"y3 t_ o7 no *F #. :o 0# J9 h^ BE G^ h( ^  N< 2% q$ c@ b% ^. 42 V2 5F 4+ )  c: ku F( ^$ i+ |% pZ `3. 4.u(._o (o hJ s|..4.+4.0  j% r% L| R@ $3 zA l: @4.j( s% zc V@ zV 0d I# @2.b| 7  #4._r @2 Z/ qn !/ lz zc )/ k$.!3.BE (s :^.YH 3-./; &_ 2j i=.k# [~.)  *. E] k{ 8} _T p&.Um {2 ~  k-.K% X< 6^.P  w2 i  C1 Q  b# 3: b/ {&.0  G6 K|..m /e pj <3 ^h n( $4.5% a] x].CW 6/ }/ B=.F# %4.{[ Yz 3] R{ 2# 8: V=.dj !*.#( C1 ca o7 N& p. }l K( &4.zy *4.K+ ec _r 05 _] >1 <4 ): ;1 aH O] >& +{.5[ q| L+ P7 ./ 6_.q4 -} ;. cz %k W+ *  G] [r /~.[  Wn Wm MT 4F Qm ^} f( ^  y. zc  H J1 H&.!m u. Bf G@ F1 n< ^2 dj Z  qn %. <@ .@ &Y D| =4.[  3%.R_.(# C] j% FU V1.I^.|].-4.7N ;4.`G uD  [ F1 $# )~ 1d :] @} 9/ &(./e M~ 5B TJ  . ]h -=.6%.[p >4.d/ q: {&.*S L( a} ,4.9/ Fq 3] 7N Ti K=.<+ l$.q: h(.FJ Ii ",
"E|.%C V+ 7E ml %V {B g] r: <]  @ L% l: <( u{ I* RC ]'.5# V+ M@ ,. '4.h# a/ Uf @% E% Z,.;q #2 L| nU C] W# @/ P$ O9 )4.bu eM T~ |/ r$ 14 o6 /; Nz d/ U| _m v7 eO 44 r*.@$ s$ 5K o( ^# 4@ /  |:.#t @} 4. wj <2.=i E9 [/ xq S* !*.=*.p5 B$./] zs V^ M@ S. N| l+ K^ B7 s$ );.0% jc `5 gZ a: UG L1 (  6  5*.O-.q_ 9| A| 3  OJ =] d3 8$ ;. Z^.X  ]~ 8%  3 >@ ]] ^~ D^ 6% z. A$.pl -_ z{ $-.sI &5 e0 r: Xz X3 w4 5B $# Z#..# p% q^ p^ G0 M. ,A d& !4.j$ ~4.[@ )o f&.D3 P5 zl *< x1 ;/ q_ (5 ]%.1  t_.`].x1 7# 2  8/ rl F9 *# X< W< 2] B9 /  P{ af {4.V9 AJ 2% ;%.zI ;].f8 no Pk f{.r$ ol <3 rD zl g] z{ ~{.ef Z  [@ U< 9( ^{.nU G@ g] @2 }m T. _4  ] Dq 3;.7N }(.3%.N( :H c^.a} ]4.0  0% 9/ f$ 4a Y< gW p^ jn k{ }l )~ !] f< ~;.Of  ] 0+ ,b 2G $3 tB |k H# ^4.@} 5. g( A. O. w| 8r vU 1@ ^# R/ ]] ;f *].",
"3: r7 Qu Tk ,& [i d^.nl 5# E$ ^+ 9/ 'I H6 x. 8o Xa `% R$ g5 EX -@ T< M. &q S* PC 0* >X O[.hn V  gh g  oj p4 B8 n3 p~./4.y- L].c< W^ 6} fW .+ W) u| xm 3_.J9 (# W< oj Pb o: e# p* p4 'q r< *5 5[ A{.@{.a^ Uo  V |$.l: qF &/ p+ nH (4.Cs Xc cc Q$ 7} :o }l Tk 8;.Xk Bj EX  [ p. _4.N_ h~ I. N& v~ d  d:.h( $@ ]e !~ gp N$.,< I7 }l H. A^ {o :4.+D qF <4.[4.mg .@ #*.T  w6 np y. 5# U7 @# N^ Rm fN 2C PA >} *F }4. . kS q^.*D (  |4.9} p5 B0 3+.R~ !* m~ {2 hn (] q_ Q: uS N$.}{.<7 E1 @C @^ S8 |} _0 s1 Ec [p U1 I~.0d t+ ]E Wk 1l v_ 3l 8o  F e| */ ^+ t. n~.u. Ck -/ YK `f {2 (o zD w| LF L% PC Ck 0(.*. u| }r ar :~ ~D 14.Dq dj |r u{ 2; kO Mb wp ^I 3;.P(.x1 U< l$.m% Fq L+ Zx o7 !;.B. Q  Pi *  HA 0d g] <@ x8 E^ V+ hJ z  {o M. L| no 6^.^: fz ^e =i l@ 1~ 7N H. {{.w{.k6 +&.f5 f  x. r% 9S ",
"24.=@ .@ ~2 O  %. tB K(.a: on =/ '~ 34.T  PY ;# r;.0_ y< a} l] ^$ 44.C& ]/ 54.6. N& T@ [* =] lL /( I{ =# g@ t  ]. 64.;P 8#.r` T} T$ q_ a| oA lp <] PY a| &+ M+ %} Q=.a% >1 *[ #z <( b  P$ 1. #t ^2 b  P$.k- Xy $. z^ EC [=.|k -_ 4*.$} ]. 7_.u. 5# Q%.kj 8} ^4 [/ y^ E  _{.v~ }# _w X+ `$ Z{ 'K <B ~D b%.74. H y. z{ @@ ^/ |h ef p[.N& <@ SW ;C f  /( v8 #q ]] }@ :~ Y{ H. 8  K% 84. ( !;.94.@@ sk <~.^~ h  nL r< T< zC {&.%q }^ i( 04.V!.tj a4.B* b4.c4.a< 07 !: 6V v( M6 8: -/ J# `@ R[  . o*._] xm Wp s. s  )# <8 8c L| A-.d4.I+ ^m |% G@ eX 4# NV Z^.~S T  t  0J ]e L% RI v6 o( d5 ^m wE M8 -/ 0(.CV t  y=.tz u  >< e4.^] cC h( }-.k@ C] yo _m P$.4r %%.FI Z5 B+ Wy nH !/.f4./( ;d fN [  '7 wE nZ >: Tk A8 2; ,^.[F Bf F( En l: 4&.FY P@ Q@ ~{.@[ |/ 7N */ x8 3: 8$ v~ Eq =2 !/ 2% T].H6 sM ",
"$} g4.4W g$ $  w6 h4.f/ :# y^ $3.P  H{ '] ^} d% i4.~# &N L| r* k/ .z 6+ u5 T( <e 6% 7I Bw l~ t$ <~ Sy 1k v: H=.:] V; p>.H@ [|  * ku _} :7 O  U  :W n. hn  . }% i# LH K( a] >^ O9 ]'.V{ @$ Z@.@n m@ 1{.O1 w].!* 6  ;f +% H. [@ Hr r@ S$ Zy t+ c~._m Wy Ii l+ ;p :] 6% &/ 7  C( |$ ;M e$ '] #/ .@ C( <} T0  % :# j4.XW /O f  /. Yz 7r b% p  ^2 ZG [] E@ (. _  oA m} 1k g$ cX DF f1 F5 p  ^# 8  5..G_ k4.Nh af ^m +& :: g@ $r N+ J8 s  Vk eu v'.O+ l4.@  9S !] uD m% ): oA I{ vz F9 Up L2.nU wE ^s 6: zl !J .: Eb ig @2 I#.3j E9 /. ZA $X (r [G I. $# oK s% a~ L! Ds U+ >f 4r m4.,# LF =J </ ^4 ~S !J ^o XH XG SW Ki FC 2G )# o7 a: V+ 8E 3% SW 0d ^j H0 up n4.s*.FU 7. y0  V w| ]  n*.<2.kA A{.o4.Ty =] `$.2% E@ b^.:~ v  v( C] /d M. #(.;$.2I P@ !o V9 ,o -/ zJ X# W].CH C( 0J .@ Q$ Q  Q$ U+ }l ",
"ef Z@.d` 9= ,- m~ c` p4.t-.V]./0 D- N$ (+ LS q4.tS r4.s4.t4.u4.5@.]T ^- P= (s q_.Qt v4.<Z $w w4.*].U&  v zu _{.q< MC -y J_.x4.y4.x` Vs M! :^.t/.Z8 z4.A4.B4.C4./- 'N D4.E4.F4.qM G4.YL H4.I4.-- $s MC R[.WM {# mu {# q# vO Rt `+ ;f ds iL S@ G>.+z n* `-.^3.M! J4.'] at +M U@ P' p%  % :9 F;.1$ z2.#s z1.q< {# s- V% >..D:.GL z|.W) j  as K4.+u |~ b*.`% M# *..E;.&-.u~.{{.&d $0 v7 L4./; M@ gy M4.N4.o[.Xk =O #w O4.D  A# }  P4.1*.Q4.w4.5<.#* +; =& Qj R4.!$ Sy ^# @n  } rs !: H& |  d% $@ l$ l% Cs W  S4.H0 o= S@ Ga T4.+'.}. c( w= U4.V4.W4.X4.Y4.Z4.R{.Z  3. sc zc G#.S7 `#.tz 9~ !7 B/ d  <( mr .u y*.3  #3 4+ t@ `4.m< QS V|. 5.;z .5.V^.O+ t. A   ^.zC K$ (] }  3%.1] ,$.[. F' C% V+ ~N %. )+ _H W% JF y&.hJ c+ N@ D: D  I7 M~ En (# ig ^m hp 1# a_..z o7 /] N= s..Wn {;.a;.Ay +5.s` a;."};
