/* XPM */
static char * rookiewall03_xpm[] = {
"512 512 8374 2",
"  	c #0A0A06",
". 	c #444245",
"+ 	c #535453",
"@ 	c #595B59",
"# 	c #5B5D5F",
"$ 	c #727374",
"% 	c #5B5B5C",
"& 	c #626365",
"* 	c #5D5B5C",
"= 	c #646565",
"- 	c #616262",
"; 	c #616263",
"> 	c #646667",
", 	c #5D6160",
"' 	c #575959",
") 	c #5E5D60",
"! 	c #5B5C5D",
"~ 	c #59595B",
"{ 	c #5B5B5D",
"] 	c #605F60",
"^ 	c #58595B",
"/ 	c #666667",
"( 	c #575658",
"_ 	c #545455",
": 	c #646465",
"< 	c #625F62",
"[ 	c #606161",
"} 	c #606062",
"| 	c #616062",
"1 	c #595959",
"2 	c #626062",
"3 	c #5E5E5E",
"4 	c #606463",
"5 	c #4B4C4E",
"6 	c #5E605F",
"7 	c #5C5F5E",
"8 	c #595858",
"9 	c #504F4F",
"0 	c #676766",
"a 	c #616264",
"b 	c #626466",
"c 	c #5A595D",
"d 	c #595B5B",
"e 	c #5D6062",
"f 	c #616366",
"g 	c #575859",
"h 	c #5C5C5B",
"i 	c #626366",
"j 	c #636566",
"k 	c #606262",
"l 	c #646264",
"m 	c #595759",
"n 	c #5A5B5C",
"o 	c #636363",
"p 	c #5D5C5F",
"q 	c #5C5C5D",
"r 	c #626263",
"s 	c #5C5C5E",
"t 	c #676767",
"u 	c #585957",
"v 	c #656465",
"w 	c #676868",
"x 	c #626467",
"y 	c #5D5B5D",
"z 	c #656565",
"A 	c #807F80",
"B 	c #6C6C6D",
"C 	c #626362",
"D 	c #6A6A6B",
"E 	c #626363",
"F 	c #646767",
"G 	c #6D6D6E",
"H 	c #656463",
"I 	c #616362",
"J 	c #575555",
"K 	c #555557",
"L 	c #686865",
"M 	c #5A5B5B",
"N 	c #575554",
"O 	c #555656",
"P 	c #5A5A5C",
"Q 	c #5B5A59",
"R 	c #5E615F",
"S 	c #60605F",
"T 	c #5E6061",
"U 	c #5B5C5F",
"V 	c #545757",
"W 	c #5C5C5C",
"X 	c #575A5B",
"Y 	c #5A5859",
"Z 	c #616061",
"` 	c #595A5C",
" .	c #626161",
"..	c #5C5B5B",
"+.	c #5C5E5E",
"@.	c #575858",
"#.	c #545658",
"$.	c #505352",
"%.	c #535456",
"&.	c #4B4B4B",
"*.	c #646466",
"=.	c #606061",
"-.	c #59595A",
";.	c #5C5C5F",
">.	c #5F5D5E",
",.	c #5B5C5C",
"'.	c #616160",
").	c #595A59",
"!.	c #5D5E5E",
"~.	c #585A59",
"{.	c #5D5D5E",
"].	c #59585A",
"^.	c #5E5F60",
"/.	c #585A5A",
"(.	c #5D615F",
"_.	c #5A5E5B",
":.	c #5D5D5D",
"<.	c #60615F",
"[.	c #5A5A5B",
"}.	c #5E605E",
"|.	c #5C5F60",
"1.	c #595859",
"2.	c #626162",
"3.	c #707171",
"4.	c #595B5D",
"5.	c #66656A",
"6.	c #575758",
"7.	c #5A5B5A",
"8.	c #5B5A5B",
"9.	c #595C5B",
"0.	c #656566",
"a.	c #5B5C5B",
"b.	c #5B5A5D",
"c.	c #5D5E5D",
"d.	c #575857",
"e.	c #5B5B5A",
"f.	c #5D5C5D",
"g.	c #636163",
"h.	c #4E4C4C",
"i.	c #5A5A58",
"j.	c #4D5050",
"k.	c #575A56",
"l.	c #565859",
"m.	c #585858",
"n.	c #5D5C5E",
"o.	c #5F6261",
"p.	c #616161",
"q.	c #59585C",
"r.	c #5E5D5F",
"s.	c #5F6061",
"t.	c #5B5A5C",
"u.	c #5F5D5F",
"v.	c #565557",
"w.	c #5A595A",
"x.	c #575556",
"y.	c #565758",
"z.	c #5C5959",
"A.	c #595857",
"B.	c #535754",
"C.	c #575B5C",
"D.	c #5E5E5F",
"E.	c #5B5D5C",
"F.	c #626463",
"G.	c #5C5B5D",
"H.	c #676565",
"I.	c #5C5D5B",
"J.	c #636465",
"K.	c #6F6E6E",
"L.	c #636362",
"M.	c #5B595C",
"N.	c #606060",
"O.	c #5A5C5B",
"P.	c #545657",
"Q.	c #595956",
"R.	c #535654",
"S.	c #5B5E5D",
"T.	c #5E5D5E",
"U.	c #595B5C",
"V.	c #505353",
"W.	c #545456",
"X.	c #5B5E5E",
"Y.	c #555555",
"Z.	c #5C5B5C",
"`.	c #5A5A5A",
" +	c #545358",
".+	c #575A57",
"++	c #50514F",
"@+	c #4F5353",
"#+	c #5F5E5E",
"$+	c #5E5B5D",
"%+	c #565553",
"&+	c #5F5E5D",
"*+	c #56585A",
"=+	c #5A5D5C",
"-+	c #635F60",
";+	c #5D5E5F",
">+	c #595B5A",
",+	c #565858",
"'+	c #585759",
")+	c #545453",
"!+	c #5D5D61",
"~+	c #5D5F5E",
"{+	c #5F5E60",
"]+	c #585C5B",
"^+	c #575656",
"/+	c #505152",
"(+	c #525353",
"_+	c #5A595B",
":+	c #535454",
"<+	c #5B595D",
"[+	c #5F605E",
"}+	c #5E5C5F",
"|+	c #646564",
"1+	c #616162",
"2+	c #666767",
"3+	c #605E60",
"4+	c #5F6062",
"5+	c #606361",
"6+	c #5E5D5D",
"7+	c #59575B",
"8+	c #595A58",
"9+	c #615C60",
"0+	c #585B5A",
"a+	c #646363",
"b+	c #545554",
"c+	c #575856",
"d+	c #636264",
"e+	c #626262",
"f+	c #5A5958",
"g+	c #5D5C5C",
"h+	c #5D5F5F",
"i+	c #605F61",
"j+	c #575958",
"k+	c #626465",
"l+	c #5F6161",
"m+	c #5F6362",
"n+	c #686869",
"o+	c #58595A",
"p+	c #666668",
"q+	c #676668",
"r+	c #616266",
"s+	c #626364",
"t+	c #717073",
"u+	c #585658",
"v+	c #5C5D5D",
"w+	c #626264",
"x+	c #5F5E5F",
"y+	c #606363",
"z+	c #626564",
"A+	c #666566",
"B+	c #626664",
"C+	c #605F5E",
"D+	c #68676A",
"E+	c #646364",
"F+	c #636365",
"G+	c #5D5D5F",
"H+	c #5B5D5E",
"I+	c #68696C",
"J+	c #615F61",
"K+	c #646566",
"L+	c #656868",
"M+	c #616464",
"N+	c #5C5D5F",
"O+	c #595A5B",
"P+	c #606163",
"Q+	c #606160",
"R+	c #686A6C",
"S+	c #606364",
"T+	c #686A6A",
"U+	c #5F6164",
"V+	c #646265",
"W+	c #616063",
"X+	c #626565",
"Y+	c #6A696B",
"Z+	c #646567",
"`+	c #5F6160",
" @	c #5D5C60",
".@	c #686C6C",
"+@	c #636667",
"@@	c #696668",
"#@	c #676968",
"$@	c #5E5F5F",
"%@	c #6D6D6B",
"&@	c #565A5A",
"*@	c #6A6B6A",
"=@	c #5B5C5E",
"-@	c #5F6060",
";@	c #666867",
">@	c #67686A",
",@	c #646768",
"'@	c #5E6164",
")@	c #605E5E",
"!@	c #646463",
"~@	c #68696A",
"{@	c #646464",
"]@	c #5B5E5C",
"^@	c #636764",
"/@	c #636464",
"(@	c #6A686B",
"_@	c #717171",
":@	c #6A6867",
"<@	c #5F5F61",
"[@	c #67696B",
"}@	c #535455",
"|@	c #6B6B6C",
"1@	c #5A5A5D",
"2@	c #656667",
"3@	c #66686A",
"4@	c #636463",
"5@	c #575757",
"6@	c #6A6A69",
"7@	c #6D7070",
"8@	c #5E5F62",
"9@	c #6B6E6F",
"0@	c #606366",
"a@	c #5D5E60",
"b@	c #757777",
"c@	c #6C6F6F",
"d@	c #6D6C6E",
"e@	c #616163",
"f@	c #64676A",
"g@	c #656567",
"h@	c #656968",
"i@	c #646665",
"j@	c #5F5F60",
"k@	c #5C5E62",
"l@	c #5E5E60",
"m@	c #57585B",
"n@	c #626164",
"o@	c #6A6C6C",
"p@	c #5A5B60",
"q@	c #5E5F5E",
"r@	c #646365",
"s@	c #686967",
"t@	c #6A6A6C",
"u@	c #5D5B5B",
"v@	c #686868",
"w@	c #676569",
"x@	c #6B6C6E",
"y@	c #5F6260",
"z@	c #656464",
"A@	c #636565",
"B@	c #5F5F63",
"C@	c #616060",
"D@	c #6C6E6F",
"E@	c #6B6B6F",
"F@	c #5D605E",
"G@	c #626166",
"H@	c #5E6060",
"I@	c #6A6A6D",
"J@	c #747575",
"K@	c #5E5E61",
"L@	c #626566",
"M@	c #5C5D5E",
"N@	c #585859",
"O@	c #636060",
"P@	c #525255",
"Q@	c #696A6B",
"R@	c #4E504F",
"S@	c #0F1011",
"T@	c #111210",
"U@	c #22241F",
"V@	c #2D2C2E",
"W@	c #121213",
"X@	c #101213",
"Y@	c #0E0F10",
"Z@	c #09090C",
"`@	c #0D0E0E",
" #	c #0F1112",
".#	c #131513",
"+#	c #0C0D0F",
"@#	c #100F11",
"##	c #111010",
"$#	c #0E0E10",
"%#	c #100F0F",
"&#	c #131514",
"*#	c #0F1211",
"=#	c #0D1011",
"-#	c #151517",
";#	c #121315",
">#	c #101113",
",#	c #0C0C0D",
"'#	c #111114",
")#	c #121314",
"!#	c #101012",
"~#	c #111415",
"{#	c #0D0D0E",
"]#	c #0D0D0D",
"^#	c #0F1111",
"/#	c #0A0B0B",
"(#	c #0D1010",
"_#	c #0E0F12",
":#	c #0B0F10",
"<#	c #0E0E0F",
"[#	c #0B0E0F",
"}#	c #050608",
"|#	c #111211",
"1#	c #101212",
"2#	c #0C0C0E",
"3#	c #0B0C0D",
"4#	c #0F1113",
"5#	c #0B100F",
"6#	c #141619",
"7#	c #0E0E11",
"8#	c #0C0E0F",
"9#	c #0D0D0F",
"0#	c #0E1111",
"a#	c #0F1010",
"b#	c #121415",
"c#	c #0F1213",
"d#	c #131314",
"e#	c #111216",
"f#	c #131617",
"g#	c #131516",
"h#	c #0E1011",
"i#	c #101313",
"j#	c #111314",
"k#	c #131517",
"l#	c #141615",
"m#	c #0C0D0E",
"n#	c #0F1214",
"o#	c #0E1013",
"p#	c #101311",
"q#	c #0F0F0F",
"r#	c #141517",
"s#	c #0F1115",
"t#	c #0F1012",
"u#	c #131315",
"v#	c #0F0F12",
"w#	c #0D0E14",
"x#	c #0B0D0C",
"y#	c #111412",
"z#	c #121413",
"A#	c #141316",
"B#	c #0A0F0D",
"C#	c #121215",
"D#	c #111313",
"E#	c #151716",
"F#	c #131414",
"G#	c #1B1B1B",
"H#	c #121316",
"I#	c #070C0C",
"J#	c #0E0F0F",
"K#	c #0E1110",
"L#	c #181718",
"M#	c #181918",
"N#	c #101214",
"O#	c #141515",
"P#	c #17191B",
"Q#	c #161616",
"R#	c #1C1E1D",
"S#	c #161618",
"T#	c #101114",
"U#	c #111315",
"V#	c #111616",
"W#	c #0F1415",
"X#	c #1C1D21",
"Y#	c #0E1214",
"Z#	c #0E0D11",
"`#	c #111113",
" $	c #15171A",
".$	c #161717",
"+$	c #101314",
"@$	c #121517",
"#$	c #151618",
"$$	c #121312",
"%$	c #171616",
"&$	c #151617",
"*$	c #121617",
"=$	c #131316",
"-$	c #151417",
";$	c #131416",
">$	c #0F1312",
",$	c #121214",
"'$	c #161719",
")$	c #121515",
"!$	c #141717",
"~$	c #161819",
"{$	c #151516",
"]$	c #181A1A",
"^$	c #0F0E10",
"/$	c #131518",
"($	c #161718",
"_$	c #16191C",
":$	c #17181B",
"<$	c #16191A",
"[$	c #141516",
"}$	c #15191A",
"|$	c #1A1B1E",
"1$	c #171A1B",
"2$	c #1B1C1D",
"3$	c #131618",
"4$	c #151819",
"5$	c #181A1B",
"6$	c #141414",
"7$	c #171819",
"8$	c #0C0E0E",
"9$	c #161716",
"0$	c #121414",
"a$	c #1B1C1C",
"b$	c #191B1C",
"c$	c #171B1B",
"d$	c #17191A",
"e$	c #131817",
"f$	c #17181A",
"g$	c #151616",
"h$	c #161617",
"i$	c #111513",
"j$	c #101413",
"k$	c #111514",
"l$	c #101216",
"m$	c #101215",
"n$	c #151818",
"o$	c #191A1B",
"p$	c #1B1C1E",
"q$	c #131816",
"r$	c #151718",
"s$	c #191D1E",
"t$	c #171919",
"u$	c #181B1B",
"v$	c #141416",
"w$	c #181A1C",
"x$	c #121516",
"y$	c #101312",
"z$	c #191A1C",
"A$	c #141716",
"B$	c #18181A",
"C$	c #161619",
"D$	c #151717",
"E$	c #18191B",
"F$	c #121514",
"G$	c #121317",
"H$	c #111215",
"I$	c #141618",
"J$	c #13171A",
"K$	c #141415",
"L$	c #141519",
"M$	c #16171A",
"N$	c #121219",
"O$	c #101414",
"P$	c #141617",
"Q$	c #101415",
"R$	c #14171A",
"S$	c #0E1314",
"T$	c #141818",
"U$	c #131515",
"V$	c #19181C",
"W$	c #101011",
"X$	c #141417",
"Y$	c #0E1212",
"Z$	c #111112",
"`$	c #0E1113",
" %	c #111413",
".%	c #141216",
"+%	c #111312",
"@%	c #111013",
"#%	c #141518",
"$%	c #121115",
"%%	c #141614",
"&%	c #161919",
"*%	c #131313",
"=%	c #0F0F11",
"-%	c #14191A",
";%	c #121418",
">%	c #171A1D",
",%	c #0D1111",
"'%	c #121519",
")%	c #101117",
"!%	c #131615",
"~%	c #0D0F0F",
"{%	c #111414",
"]%	c #101111",
"^%	c #101112",
"/%	c #18181B",
"(%	c #121716",
"_%	c #131417",
":%	c #0D1212",
"<%	c #101516",
"[%	c #16181B",
"}%	c #171519",
"|%	c #0F1212",
"1%	c #101013",
"2%	c #151719",
"3%	c #111517",
"4%	c #121313",
"5%	c #0E1012",
"6%	c #141419",
"7%	c #191A19",
"8%	c #171818",
"9%	c #111212",
"0%	c #16181C",
"a%	c #16181A",
"b%	c #141616",
"c%	c #141313",
"d%	c #151216",
"e%	c #151918",
"f%	c #141819",
"g%	c #111515",
"h%	c #111214",
"i%	c #151015",
"j%	c #0F0E0F",
"k%	c #141317",
"l%	c #131418",
"m%	c #111117",
"n%	c #0F0F10",
"o%	c #0C0D0D",
"p%	c #0C0C0F",
"q%	c #0C0F11",
"r%	c #131415",
"s%	c #141315",
"t%	c #0E1010",
"u%	c #19191A",
"v%	c #0D0E11",
"w%	c #111012",
"x%	c #080C0C",
"y%	c #06080C",
"z%	c #0D1112",
"A%	c #0F1013",
"B%	c #0D0E10",
"C%	c #121614",
"D%	c #080A0A",
"E%	c #0D0E0D",
"F%	c #090D0F",
"G%	c #0B0B0F",
"H%	c #0D0D0C",
"I%	c #0B0D0D",
"J%	c #0A0C0E",
"K%	c #0C1010",
"L%	c #0E0F0E",
"M%	c #0D0C10",
"N%	c #0E0F11",
"O%	c #0E0C11",
"P%	c #121111",
"Q%	c #0E100F",
"R%	c #161319",
"S%	c #121112",
"T%	c #0D0E0F",
"U%	c #120F14",
"V%	c #0F100F",
"W%	c #101515",
"X%	c #121513",
"Y%	c #0E1112",
"Z%	c #0A0B0D",
"`%	c #0F0F0E",
" &	c #090A0D",
".&	c #080906",
"+&	c #131214",
"@&	c #0E110F",
"#&	c #0F1314",
"$&	c #393B3B",
"%&	c #0B0905",
"&&	c #21201D",
"*&	c #212524",
"=&	c #212221",
"-&	c #1F2223",
";&	c #222325",
">&	c #201F20",
",&	c #1C201F",
"'&	c #232324",
")&	c #232526",
"!&	c #202323",
"~&	c #1C1F22",
"{&	c #212324",
"]&	c #212224",
"^&	c #222022",
"/&	c #1C1F1F",
"(&	c #202122",
"_&	c #222125",
":&	c #222426",
"<&	c #1E201F",
"[&	c #252627",
"}&	c #1F2120",
"|&	c #1E1F1F",
"1&	c #1D2020",
"2&	c #1D2220",
"3&	c #202023",
"4&	c #1F2224",
"5&	c #252727",
"6&	c #262929",
"7&	c #242625",
"8&	c #222322",
"9&	c #242224",
"0&	c #20221F",
"a&	c #1F221F",
"b&	c #202121",
"c&	c #212124",
"d&	c #202423",
"e&	c #1C1E1F",
"f&	c #202123",
"g&	c #202221",
"h&	c #202120",
"i&	c #252626",
"j&	c #262827",
"k&	c #282C2A",
"l&	c #282828",
"m&	c #232424",
"n&	c #212222",
"o&	c #1D1F21",
"p&	c #1F2122",
"q&	c #1F2523",
"r&	c #212426",
"s&	c #1E2123",
"t&	c #252528",
"u&	c #242627",
"v&	c #1E2122",
"w&	c #1C2020",
"x&	c #212525",
"y&	c #222323",
"z&	c #232627",
"A&	c #23262A",
"B&	c #1D201E",
"C&	c #222324",
"D&	c #1D2122",
"E&	c #1E211E",
"F&	c #1F2222",
"G&	c #222524",
"H&	c #1F2322",
"I&	c #212424",
"J&	c #222525",
"K&	c #1E1F21",
"L&	c #1F1F20",
"M&	c #232726",
"N&	c #1F2020",
"O&	c #1F2021",
"P&	c #232422",
"Q&	c #1E2120",
"R&	c #232524",
"S&	c #202320",
"T&	c #1E1F22",
"U&	c #1E2323",
"V&	c #1F2022",
"W&	c #232525",
"X&	c #222424",
"Y&	c #282A2D",
"Z&	c #212325",
"`&	c #222625",
" *	c #232426",
".*	c #202226",
"+*	c #232425",
"@*	c #242626",
"#*	c #262528",
"$*	c #28292B",
"%*	c #26292B",
"&*	c #191A1A",
"**	c #1D1E1E",
"=*	c #242325",
"-*	c #1F2220",
";*	c #1F2522",
">*	c #202525",
",*	c #222326",
"'*	c #212422",
")*	c #212223",
"!*	c #212323",
"~*	c #1F1F22",
"{*	c #202424",
"]*	c #242427",
"^*	c #1C1C1E",
"/*	c #212122",
"(*	c #262828",
"_*	c #242727",
":*	c #212527",
"<*	c #1E2021",
"[*	c #222223",
"}*	c #1C1F1D",
"|*	c #272729",
"1*	c #202325",
"2*	c #1D201F",
"3*	c #212225",
"4*	c #1E2322",
"5*	c #222423",
"6*	c #242526",
"7*	c #262629",
"8*	c #282627",
"9*	c #252527",
"0*	c #232528",
"a*	c #1F2221",
"b*	c #1F2023",
"c*	c #222425",
"d*	c #202223",
"e*	c #1D1D20",
"f*	c #262829",
"g*	c #212022",
"h*	c #242426",
"i*	c #222327",
"j*	c #232727",
"k*	c #212423",
"l*	c #202324",
"m*	c #1E201E",
"n*	c #262729",
"o*	c #242725",
"p*	c #202022",
"q*	c #1D2121",
"r*	c #212322",
"s*	c #212522",
"t*	c #202124",
"u*	c #272A2B",
"v*	c #1F2121",
"w*	c #292B2C",
"x*	c #1E2324",
"y*	c #26262A",
"z*	c #212024",
"A*	c #1B2020",
"B*	c #1E2124",
"C*	c #1F2123",
"D*	c #232728",
"E*	c #1C1F20",
"F*	c #1A1E1E",
"G*	c #222428",
"H*	c #222427",
"I*	c #282A2B",
"J*	c #1F2424",
"K*	c #25282A",
"L*	c #242527",
"M*	c #232626",
"N*	c #202224",
"O*	c #252425",
"P*	c #232325",
"Q*	c #202322",
"R*	c #1E1E1F",
"S*	c #1E1F1E",
"T*	c #1D1E20",
"U*	c #212326",
"V*	c #232527",
"W*	c #242225",
"X*	c #1E2020",
"Y*	c #222627",
"Z*	c #202125",
"`*	c #212425",
" =	c #1F1F1F",
".=	c #28292C",
"+=	c #232326",
"@=	c #202225",
"#=	c #212123",
"$=	c #252827",
"%=	c #232428",
"&=	c #222628",
"*=	c #202426",
"==	c #1A1D1D",
"-=	c #212728",
";=	c #222726",
">=	c #282A2A",
",=	c #1B1D20",
"'=	c #252829",
")=	c #252629",
"!=	c #292A2B",
"~=	c #202425",
"{=	c #252725",
"]=	c #1C2220",
"^=	c #201F21",
"/=	c #252728",
"(=	c #212626",
"_=	c #222526",
":=	c #27272A",
"<=	c #1B1F1F",
"[=	c #222529",
"}=	c #222123",
"|=	c #252729",
"1=	c #222527",
"2=	c #242528",
"3=	c #232828",
"4=	c #28282B",
"5=	c #252426",
"6=	c #292C2D",
"7=	c #202222",
"8=	c #1E2321",
"9=	c #1F2323",
"0=	c #202024",
"a=	c #1F2325",
"b=	c #282B2E",
"c=	c #1E2022",
"d=	c #242428",
"e=	c #242529",
"f=	c #20201F",
"g=	c #1B2022",
"h=	c #232629",
"i=	c #1C1E20",
"j=	c #29292C",
"k=	c #1D1F1F",
"l=	c #262928",
"m=	c #2C2F2C",
"n=	c #242729",
"o=	c #242726",
"p=	c #23292A",
"q=	c #1F2321",
"r=	c #1E2224",
"s=	c #1D2321",
"t=	c #1D1E1F",
"u=	c #1C2121",
"v=	c #1E1F20",
"w=	c #1E2222",
"x=	c #242A28",
"y=	c #1E2121",
"z=	c #242425",
"A=	c #1E1E20",
"B=	c #1D2021",
"C=	c #1E2220",
"D=	c #1B1D1D",
"E=	c #1B1E1D",
"F=	c #1D1D1F",
"G=	c #272728",
"H=	c #232625",
"I=	c #242324",
"J=	c #191D1C",
"K=	c #202321",
"L=	c #201F22",
"M=	c #262526",
"N=	c #242628",
"O=	c #1C1C1F",
"P=	c #1D1D1D",
"Q=	c #212327",
"R=	c #18181D",
"S=	c #222225",
"T=	c #201E21",
"U=	c #1E1E22",
"V=	c #1C1D1D",
"W=	c #191B1E",
"X=	c #2C2E2D",
"Y=	c #070502",
"Z=	c #222122",
"`=	c #232323",
" -	c #222626",
".-	c #222121",
"+-	c #222826",
"@-	c #212121",
"#-	c #242327",
"$-	c #1F1E20",
"%-	c #252326",
"&-	c #2A2A2D",
"*-	c #262626",
"=-	c #242326",
"--	c #242223",
";-	c #29292A",
">-	c #26282B",
",-	c #282C2E",
"'-	c #26282A",
")-	c #28282C",
"!-	c #2C2D2F",
"~-	c #272828",
"{-	c #28292A",
"]-	c #272A2C",
"^-	c #292D2E",
"/-	c #262627",
"(-	c #272628",
"_-	c #292B2A",
":-	c #282929",
"<-	c #292A2A",
"[-	c #2E2E2F",
"}-	c #2B2D2E",
"|-	c #292928",
"1-	c #232725",
"2-	c #292D2C",
"3-	c #272929",
"4-	c #2A2B2B",
"5-	c #2A2D2C",
"6-	c #262628",
"7-	c #292C2C",
"8-	c #2A2D2D",
"9-	c #27282A",
"0-	c #282B29",
"a-	c #2B2C2C",
"b-	c #272726",
"c-	c #2A292B",
"d-	c #262826",
"e-	c #252828",
"f-	c #252624",
"g-	c #282B28",
"h-	c #252423",
"i-	c #292C2B",
"j-	c #282A2C",
"k-	c #272727",
"l-	c #292C2A",
"m-	c #212125",
"n-	c #222226",
"o-	c #2A2A2E",
"p-	c #27292B",
"q-	c #242929",
"r-	c #242629",
"s-	c #232327",
"t-	c #1F1E21",
"u-	c #222224",
"v-	c #252628",
"w-	c #1F1F23",
"x-	c #232125",
"y-	c #1C2223",
"z-	c #1F1F21",
"A-	c #282829",
"B-	c #222725",
"C-	c #232628",
"D-	c #1B1D1E",
"E-	c #212226",
"F-	c #222227",
"G-	c #212726",
"H-	c #292B29",
"I-	c #232624",
"J-	c #1E1D20",
"K-	c #1E2125",
"L-	c #212523",
"M-	c #252826",
"N-	c #202326",
"O-	c #252428",
"P-	c #252726",
"Q-	c #25292B",
"R-	c #1F1E23",
"S-	c #282B2B",
"T-	c #1D2124",
"U-	c #202422",
"V-	c #1F2124",
"W-	c #242323",
"X-	c #222728",
"Y-	c #1F2324",
"Z-	c #262728",
"`-	c #242826",
" ;	c #272827",
".;	c #222629",
"+;	c #222528",
"@;	c #272A29",
"#;	c #202523",
"$;	c #252929",
"%;	c #222222",
"&;	c #282626",
"*;	c #202524",
"=;	c #252327",
"-;	c #232427",
";;	c #252724",
">;	c #1D1F20",
",;	c #232224",
"';	c #202020",
");	c #262725",
"!;	c #2A2A2A",
"~;	c #252526",
"{;	c #272C2A",
"];	c #252A28",
"^;	c #272A2A",
"/;	c #242728",
"(;	c #2A292C",
"_;	c #2A2A2C",
":;	c #252825",
"<;	c #262527",
"[;	c #252A29",
"};	c #2B2E2D",
"|;	c #2B2B2C",
"1;	c #2C2B2D",
"2;	c #2C2C2A",
"3;	c #272A28",
"4;	c #2A2E2C",
"5;	c #2A282A",
"6;	c #26282C",
"7;	c #2C2C2D",
"8;	c #2C2F2D",
"9;	c #2A2C2C",
"0;	c #262A26",
"a;	c #27292A",
"b;	c #24262A",
"c;	c #29282C",
"d;	c #2D2F2E",
"e;	c #2B292B",
"f;	c #2C2F2F",
"g;	c #262A28",
"h;	c #282928",
"i;	c #282B2A",
"j;	c #292B2B",
"k;	c #2D2F2F",
"l;	c #1C1D20",
"m;	c #272829",
"n;	c #1D2221",
"o;	c #080805",
"p;	c #232222",
"q;	c #262727",
"r;	c #1F201F",
"s;	c #030506",
"t;	c #000000",
"u;	c #000001",
"v;	c #000101",
"w;	c #000002",
"x;	c #020102",
"y;	c #030001",
"z;	c #020503",
"A;	c #000201",
"B;	c #010103",
"C;	c #010101",
"D;	c #020302",
"E;	c #010000",
"F;	c #010201",
"G;	c #000202",
"H;	c #020201",
"I;	c #020101",
"J;	c #030501",
"K;	c #010003",
"L;	c #010001",
"M;	c #000100",
"N;	c #010005",
"O;	c #020000",
"P;	c #010301",
"Q;	c #020404",
"R;	c #090909",
"S;	c #010102",
"T;	c #010203",
"U;	c #040204",
"V;	c #050809",
"W;	c #050506",
"X;	c #030202",
"Y;	c #060406",
"Z;	c #020203",
"`;	c #030304",
" >	c #020300",
".>	c #0F0D0C",
"+>	c #0D0C0C",
"@>	c #0C0B09",
"#>	c #1B1A19",
"$>	c #2F3030",
"%>	c #292A2D",
"&>	c #232227",
"*>	c #232124",
"=>	c #242424",
"->	c #29282B",
";>	c #262A2A",
">>	c #232523",
",>	c #1B1E1F",
"'>	c #232328",
")>	c #1B1E20",
"!>	c #2B2A2F",
"~>	c #26292A",
"{>	c #292A2C",
"]>	c #2B2D30",
"^>	c #202021",
"/>	c #202126",
"(>	c #212526",
"_>	c #222124",
":>	c #1C1A18",
"<>	c #0D0B0A",
"[>	c #10100C",
"}>	c #090606",
"|>	c #030101",
"1>	c #010002",
"2>	c #010200",
"3>	c #010100",
"4>	c #020200",
"5>	c #020003",
"6>	c #010105",
"7>	c #010302",
"8>	c #020202",
"9>	c #020405",
"0>	c #040505",
"a>	c #030303",
"b>	c #020301",
"c>	c #070507",
"d>	c #181A19",
"e>	c #232423",
"f>	c #1F2024",
"g>	c #242525",
"h>	c #272928",
"i>	c #272926",
"j>	c #080705",
"k>	c #242321",
"l>	c #1B1B1D",
"m>	c #1E1D1E",
"n>	c #121412",
"o>	c #0B0B09",
"p>	c #848787",
"q>	c #707173",
"r>	c #67686B",
"s>	c #6F6E73",
"t>	c #707072",
"u>	c #6C7073",
"v>	c #767679",
"w>	c #959695",
"x>	c #86898A",
"y>	c #6A6B6C",
"z>	c #717072",
"A>	c #818184",
"B>	c #525554",
"C>	c #656768",
"D>	c #505253",
"E>	c #7C7B7D",
"F>	c #6A6E6E",
"G>	c #666869",
"H>	c #6C6F70",
"I>	c #737578",
"J>	c #696B6B",
"K>	c #838585",
"L>	c #5C5D61",
"M>	c #6E7070",
"N>	c #5A5959",
"O>	c #686B69",
"P>	c #575A5C",
"Q>	c #5E5D61",
"R>	c #828385",
"S>	c #6C6A72",
"T>	c #6B6D6D",
"U>	c #595C5C",
"V>	c #636768",
"W>	c #787B7D",
"X>	c #555456",
"Y>	c #707174",
"Z>	c #605F64",
"`>	c #5D6164",
" ,	c #6E6F72",
".,	c #4E5152",
"+,	c #48494A",
"@,	c #565A5C",
"#,	c #555659",
"$,	c #58595C",
"%,	c #616164",
"&,	c #5F6065",
"*,	c #706F70",
"=,	c #636567",
"-,	c #585959",
";,	c #5E5E62",
">,	c #4F4F52",
",,	c #5A5D60",
"',	c #6A6B6D",
"),	c #7C8282",
"!,	c #060707",
"~,	c #0F100E",
"{,	c #1E1C1B",
"],	c #272629",
"^,	c #242827",
"/,	c #262A2B",
"(,	c #1D2120",
"_,	c #25272A",
":,	c #1E2023",
"<,	c #242226",
"[,	c #1A1E1F",
"},	c #1D2022",
"|,	c #1B1D1F",
"1,	c #29282A",
"2,	c #222523",
"3,	c #25292A",
"4,	c #212427",
"5,	c #262B28",
"6,	c #262426",
"7,	c #1E2024",
"8,	c #222727",
"9,	c #1A1D1E",
"0,	c #1A1C1E",
"a,	c #0E0C09",
"b,	c #131213",
"c,	c #BCBEC0",
"d,	c #656669",
"e,	c #57575A",
"f,	c #535657",
"g,	c #525757",
"h,	c #565959",
"i,	c #575B5B",
"j,	c #5D6262",
"k,	c #595657",
"l,	c #5B5F61",
"m,	c #494D4E",
"n,	c #545756",
"o,	c #4A4D4D",
"p,	c #68696B",
"q,	c #595D5D",
"r,	c #515254",
"s,	c #505153",
"t,	c #5D5F61",
"u,	c #616364",
"v,	c #5D5D63",
"w,	c #616363",
"x,	c #707172",
"y,	c #65676A",
"z,	c #656564",
"A,	c #646467",
"B,	c #727272",
"C,	c #68686A",
"D,	c #55595B",
"E,	c #4D5051",
"F,	c #5F6365",
"G,	c #6E6D70",
"H,	c #4E4F53",
"I,	c #4D4B4E",
"J,	c #545357",
"K,	c #636468",
"L,	c #5F6163",
"M,	c #737475",
"N,	c #595A5D",
"O,	c #6C6D6D",
"P,	c #555556",
"Q,	c #515356",
"R,	c #55585B",
"S,	c #5F5F62",
"T,	c #606367",
"U,	c #555655",
"V,	c #4C4E51",
"W,	c #494B4D",
"X,	c #56595B",
"Y,	c #4C4E4E",
"Z,	c #3F4344",
"`,	c #5B5E60",
" '	c #747577",
".'	c #46474B",
"+'	c #888A88",
"@'	c #77787A",
"#'	c #4D4C4E",
"$'	c #060504",
"%'	c #1A1C1B",
"&'	c #0A0605",
"*'	c #262422",
"='	c #20211F",
"-'	c #1C1E1E",
";'	c #131210",
">'	c #1A1A18",
",'	c #545559",
"''	c #282726",
")'	c #292828",
"!'	c #2A2B2C",
"~'	c #2A292D",
"{'	c #2F2F31",
"]'	c #2B2A29",
"^'	c #312F33",
"/'	c #27292C",
"('	c #232223",
"_'	c #26262B",
":'	c #252625",
"<'	c #242124",
"['	c #2C302E",
"}'	c #2C2E2E",
"|'	c #313230",
"1'	c #282728",
"2'	c #28282A",
"3'	c #302F30",
"4'	c #2B2A2D",
"5'	c #232225",
"6'	c #212624",
"7'	c #272627",
"8'	c #161817",
"9'	c #161515",
"0'	c #151412",
"a'	c #100E0E",
"b'	c #242829",
"c'	c #1C1D1F",
"d'	c #1C1D1E",
"e'	c #1F2422",
"f'	c #282A29",
"g'	c #27282B",
"h'	c #1C1F1E",
"i'	c #1D2222",
"j'	c #1D1D21",
"k'	c #252928",
"l'	c #232724",
"m'	c #1D1C1F",
"n'	c #1D1E21",
"o'	c #2B2C2E",
"p'	c #131212",
"q'	c #181917",
"r'	c #272725",
"s'	c #282727",
"t'	c #211F24",
"u'	c #282B2C",
"v'	c #242928",
"w'	c #232329",
"x'	c #212120",
"y'	c #212126",
"z'	c #252328",
"A'	c #222421",
"B'	c #242828",
"C'	c #1D211F",
"D'	c #191E1D",
"E'	c #141718",
"F'	c #060805",
"G'	c #181714",
"H'	c #080704",
"I'	c #282825",
"J'	c #1A1C1D",
"K'	c #3B3F40",
"L'	c #2A2C2E",
"M'	c #262B2A",
"N'	c #292C2E",
"O'	c #262A29",
"P'	c #262A2C",
"Q'	c #282E2F",
"R'	c #2A282B",
"S'	c #27282C",
"T'	c #262726",
"U'	c #232322",
"V'	c #2B2B2A",
"W'	c #1D1E1C",
"X'	c #11110D",
"Y'	c #151513",
"Z'	c #110F0D",
"`'	c #272B2B",
" )	c #1D1F23",
".)	c #212021",
"+)	c #1B1E21",
"@)	c #252427",
"#)	c #24292A",
"$)	c #242422",
"%)	c #1E1D1F",
"&)	c #1D2123",
"*)	c #1E1E21",
"=)	c #1F2427",
"-)	c #1B1C1F",
";)	c #212127",
">)	c #222829",
",)	c #121310",
"')	c #181B19",
"))	c #1C1F1B",
"!)	c #24292B",
"~)	c #1E2223",
"{)	c #211F23",
"])	c #252529",
"^)	c #1D221E",
"/)	c #27272B",
"()	c #292D2D",
"_)	c #202526",
":)	c #2B2829",
"<)	c #2A2D2E",
"[)	c #222729",
"})	c #252927",
"|)	c #222828",
"1)	c #595957",
"2)	c #0A0C07",
"3)	c #080505",
"4)	c #282624",
"5)	c #1A1F20",
"6)	c #131510",
"7)	c #3F3E41",
"8)	c #262A27",
"9)	c #222023",
"0)	c #1C1B1A",
"a)	c #120F0D",
"b)	c #151613",
"c)	c #0F0F0D",
"d)	c #2D302F",
"e)	c #232824",
"f)	c #29292B",
"g)	c #252525",
"h)	c #242524",
"i)	c #1B1D1C",
"j)	c #1C1E1C",
"k)	c #1D1D1E",
"l)	c #26272A",
"m)	c #262529",
"n)	c #272529",
"o)	c #26272C",
"p)	c #232123",
"q)	c #262927",
"r)	c #242429",
"s)	c #28292D",
"t)	c #262427",
"u)	c #1E1E1D",
"v)	c #232729",
"w)	c #1C1C1D",
"x)	c #151512",
"y)	c #151712",
"z)	c #292C30",
"A)	c #282C2C",
"B)	c #282629",
"C)	c #1E2325",
"D)	c #272527",
"E)	c #1A1D1C",
"F)	c #1D1F1E",
"G)	c #060807",
"H)	c #191B1D",
"I)	c #1C1E21",
"J)	c #0A0908",
"K)	c #181C1C",
"L)	c #1C201E",
"M)	c #141412",
"N)	c #3C3E41",
"O)	c #1C2022",
"P)	c #1D1F22",
"Q)	c #202626",
"R)	c #272C2C",
"S)	c #1B1B19",
"T)	c #10100B",
"U)	c #2D2F30",
"V)	c #1C1F23",
"W)	c #1F2225",
"X)	c #222329",
"Y)	c #1E2221",
"Z)	c #1A1B1D",
"`)	c #1F1F24",
" !	c #191C1E",
".!	c #24282A",
"+!	c #1D1E22",
"@!	c #202527",
"#!	c #1C1B1F",
"$!	c #202227",
"%!	c #26252A",
"&!	c #1F2125",
"*!	c #1D1C20",
"=!	c #1F2425",
"-!	c #212023",
";!	c #1F2423",
">!	c #1D2224",
",!	c #1C1C21",
"'!	c #161413",
")!	c #121110",
"!!	c #121611",
"~!	c #23252D",
"{!	c #1C2120",
"]!	c #222328",
"^!	c #1F2025",
"/!	c #1C2021",
"(!	c #1E1E24",
"_!	c #25272C",
":!	c #35373B",
"<!	c #090905",
"[!	c #0D0806",
"}!	c #282724",
"|!	c #1A1F1F",
"1!	c #141413",
"2!	c #2E3032",
"3!	c #262926",
"4!	c #292929",
"5!	c #2A2928",
"6!	c #2B2B29",
"7!	c #2C2D2E",
"8!	c #2C2D2C",
"9!	c #2D2B2C",
"0!	c #2A2B29",
"a!	c #2F302D",
"b!	c #2D2C2B",
"c!	c #272927",
"d!	c #2C2D2D",
"e!	c #2B2C29",
"f!	c #292A29",
"g!	c #2B2D2B",
"h!	c #292D2B",
"i!	c #292827",
"j!	c #2D2D2E",
"k!	c #2B2B2B",
"l!	c #30312F",
"m!	c #0A0903",
"n!	c #131311",
"o!	c #141312",
"p!	c #12110F",
"q!	c #313030",
"r!	c #282827",
"s!	c #2A2B2A",
"t!	c #2C2D2B",
"u!	c #2A292A",
"v!	c #2B2D2C",
"w!	c #302F2F",
"x!	c #292829",
"y!	c #2C2C2C",
"z!	c #282729",
"A!	c #282A27",
"B!	c #2A2D2A",
"C!	c #2C2A2A",
"D!	c #2F2E2E",
"E!	c #262525",
"F!	c #2B2C2A",
"G!	c #2B2928",
"H!	c #2D2E2D",
"I!	c #2A2D2B",
"J!	c #292D29",
"K!	c #323432",
"L!	c #292C29",
"M!	c #242724",
"N!	c #282625",
"O!	c #2C2B2A",
"P!	c #2B2A2B",
"Q!	c #292A28",
"R!	c #2E2D2E",
"S!	c #2A2A2B",
"T!	c #2F2F2F",
"U!	c #2A2A29",
"V!	c #2C2E2B",
"W!	c #2D2B2D",
"X!	c #2B2C2B",
"Y!	c #313333",
"Z!	c #2E2E2E",
"`!	c #343433",
" ~	c #2A2B2D",
".~	c #2F2F2E",
"+~	c #2F3131",
"@~	c #2B2D2D",
"#~	c #2B2E2E",
"$~	c #2E2F31",
"%~	c #2A2C2D",
"&~	c #31332F",
"*~	c #2A2829",
"=~	c #272626",
"-~	c #272625",
";~	c #2D2E2E",
">~	c #2E2E30",
",~	c #2E312F",
"'~	c #2F302E",
")~	c #313234",
"!~	c #2C2C2B",
"~~	c #323233",
"{~	c #2A2C2B",
"]~	c #2E2F30",
"^~	c #282C2D",
"/~	c #2B2A2A",
"(~	c #2C2C2E",
"_~	c #292826",
":~	c #2A2929",
"<~	c #323030",
"[~	c #302F31",
"}~	c #2B2A2C",
"|~	c #2D2E2F",
"1~	c #2C2C29",
"2~	c #222020",
"3~	c #2A2828",
"4~	c #312F31",
"5~	c #2B2E2C",
"6~	c #282C2B",
"7~	c #2B2D2F",
"8~	c #2E2D2F",
"9~	c #2C2A2B",
"0~	c #2C2F2B",
"a~	c #2B2C2D",
"b~	c #2C2D2A",
"c~	c #282927",
"d~	c #2E2B2D",
"e~	c #2D2B2E",
"f~	c #2D2D2D",
"g~	c #2C2E2F",
"h~	c #2C2A2C",
"i~	c #2A2C28",
"j~	c #2E302F",
"k~	c #2D2E30",
"l~	c #2F302F",
"m~	c #2A2A28",
"n~	c #2E2E2D",
"o~	c #2A2926",
"p~	c #2E302C",
"q~	c #2E2D2C",
"r~	c #252524",
"s~	c #282826",
"t~	c #282926",
"u~	c #222321",
"v~	c #232623",
"w~	c #222220",
"x~	c #232522",
"y~	c #141513",
"z~	c #0D0F0A",
"A~	c #26292C",
"B~	c #272624",
"C~	c #242522",
"D~	c #262423",
"E~	c #272724",
"F~	c #242423",
"G~	c #2E3134",
"H~	c #070603",
"I~	c #1F211F",
"J~	c #1C1B1E",
"K~	c #090705",
"L~	c #222422",
"M~	c #171517",
"N~	c #303435",
"O~	c #1D2323",
"P~	c #040503",
"Q~	c #060502",
"R~	c #0A0603",
"S~	c #0B0706",
"T~	c #0A0906",
"U~	c #080804",
"V~	c #070704",
"W~	c #090804",
"X~	c #080907",
"Y~	c #0D0A07",
"Z~	c #090908",
"`~	c #090806",
" {	c #0B0908",
".{	c #080806",
"+{	c #0A0706",
"@{	c #0B0A07",
"#{	c #090805",
"${	c #0A0B07",
"%{	c #0C0B07",
"&{	c #0C0C08",
"*{	c #0A0807",
"={	c #050502",
"-{	c #0B0806",
";{	c #0C0906",
">{	c #0B0906",
",{	c #060604",
"'{	c #0B0804",
"){	c #0A0B08",
"!{	c #0C0A07",
"~{	c #0B0A06",
"{{	c #0C0B06",
"]{	c #0B0A05",
"^{	c #0F0C0A",
"/{	c #0A0804",
"({	c #0B0808",
"_{	c #0E0C08",
":{	c #0B0C07",
"<{	c #0A0A08",
"[{	c #0C0C09",
"}{	c #0A0703",
"|{	c #0B0907",
"1{	c #0A0A07",
"2{	c #161514",
"3{	c #141311",
"4{	c #0B0B07",
"5{	c #080605",
"6{	c #0F0E09",
"7{	c #0C0908",
"8{	c #110F0B",
"9{	c #0D0B06",
"0{	c #0B0805",
"a{	c #090A06",
"b{	c #0C0B08",
"c{	c #0A0907",
"d{	c #0F0B08",
"e{	c #0E0D0A",
"f{	c #0E0D08",
"g{	c #0D0D0A",
"h{	c #0C0A08",
"i{	c #0D0A08",
"j{	c #0E0A08",
"k{	c #0A0C08",
"l{	c #0D0D0B",
"m{	c #0D0C09",
"n{	c #0D0E0C",
"o{	c #0C0A0A",
"p{	c #0E0B0B",
"q{	c #0B0B08",
"r{	c #0D0B07",
"s{	c #0B0807",
"t{	c #0B0C09",
"u{	c #0D0D09",
"v{	c #0D0C0B",
"w{	c #0E0B07",
"x{	c #100E0A",
"y{	c #0C0D0B",
"z{	c #0E0D09",
"A{	c #0A0806",
"B{	c #100D0C",
"C{	c #100F0C",
"D{	c #100E0B",
"E{	c #0F0E0A",
"F{	c #0C0D08",
"G{	c #0C0C0A",
"H{	c #0D0C08",
"I{	c #0D0C06",
"J{	c #0A0905",
"K{	c #0C0A09",
"L{	c #0C0D09",
"M{	c #0B0A08",
"N{	c #0F0D09",
"O{	c #0D0908",
"P{	c #0E0E0B",
"Q{	c #0A0805",
"R{	c #090807",
"S{	c #0A0B0A",
"T{	c #0D0D08",
"U{	c #0E0D0B",
"V{	c #0D0B08",
"W{	c #0B0C06",
"X{	c #090C08",
"Y{	c #0A0B06",
"Z{	c #0A0C09",
"`{	c #0A0D08",
" ]	c #0A0D09",
".]	c #0F0E0C",
"+]	c #0E0E0D",
"@]	c #0C0808",
"#]	c #0E0B0A",
"$]	c #0D0B09",
"%]	c #0F0D0B",
"&]	c #0D0E09",
"*]	c #0B0D09",
"=]	c #110D0C",
"-]	c #0F0D0A",
";]	c #0C0D0A",
">]	c #0E0F09",
",]	c #11110A",
"']	c #0E0D0C",
")]	c #100F0B",
"!]	c #0C0907",
"~]	c #0D0A09",
"{]	c #0E0A09",
"]]	c #120F0B",
"^]	c #120E0B",
"/]	c #0E0B06",
"(]	c #100B0A",
"_]	c #0F100A",
":]	c #0D0B0B",
"<]	c #0E0E0C",
"[]	c #0E0B09",
"}]	c #11100E",
"|]	c #0E0F0B",
"1]	c #100D0B",
"2]	c #12110D",
"3]	c #100C0A",
"4]	c #110E0D",
"5]	c #0C0D0C",
"6]	c #0D0C0A",
"7]	c #110D0A",
"8]	c #0B0C08",
"9]	c #0F0C0B",
"0]	c #0F0C09",
"a]	c #0E0C0A",
"b]	c #100B0B",
"c]	c #0F0E0B",
"d]	c #090A09",
"e]	c #0F100C",
"f]	c #10110D",
"g]	c #0E100D",
"h]	c #0D0E0A",
"i]	c #0E0E09",
"j]	c #100E0C",
"k]	c #10100D",
"l]	c #0C0A06",
"m]	c #0F0F0C",
"n]	c #100E09",
"o]	c #0E0B08",
"p]	c #0F0F0B",
"q]	c #11120C",
"r]	c #0E0C0B",
"s]	c #0F1009",
"t]	c #11100D",
"u]	c #130F0C",
"v]	c #0B0B0B",
"w]	c #11120D",
"x]	c #151514",
"y]	c #0F110D",
"z]	c #100E08",
"A]	c #100D09",
"B]	c #070703",
"C]	c #0B0909",
"D]	c #0A0904",
"E]	c #080603",
"F]	c #060704",
"G]	c #070804",
"H]	c #0B0A0A",
"I]	c #0A0A05",
"J]	c #070605",
"K]	c #0C0C06",
"L]	c #080604",
"M]	c #080405",
"N]	c #090703",
"O]	c #080301",
"P]	c #1E1E1E",
"Q]	c #353839",
"R]	c #080404",
"S]	c #2B2828",
"T]	c #222624",
"U]	c #232321",
"V]	c #373A3B",
"W]	c #1C1B1D",
"X]	c #1C1F21",
"Y]	c #20201E",
"Z]	c #191B1A",
"`]	c #1C1D1C",
" ^	c #1A1A1C",
".^	c #171A1A",
"+^	c #19191B",
"@^	c #1F1F1D",
"#^	c #1B1A1A",
"$^	c #161916",
"%^	c #1B1F1D",
"&^	c #191C1B",
"*^	c #1A1A1B",
"=^	c #1A1C1A",
"-^	c #181C1A",
";^	c #171718",
">^	c #171A18",
",^	c #171B19",
"'^	c #131614",
")^	c #191B1B",
"!^	c #171917",
"~^	c #1B1C1B",
"{^	c #1B1E1C",
"]^	c #171816",
"^^	c #161A17",
"/^	c #191B16",
"(^	c #181817",
"_^	c #1B1F1B",
":^	c #171915",
"<^	c #191917",
"[^	c #171918",
"}^	c #11100F",
"|^	c #141715",
"1^	c #161818",
"2^	c #1A1A19",
"3^	c #171719",
"4^	c #181919",
"5^	c #191A1D",
"6^	c #161918",
"7^	c #1A1E1B",
"8^	c #181618",
"9^	c #18191A",
"0^	c #1A1919",
"a^	c #181819",
"b^	c #181B1D",
"c^	c #1B1A18",
"d^	c #191C1C",
"e^	c #1D1C1E",
"f^	c #191819",
"g^	c #181818",
"h^	c #1B1C1A",
"i^	c #181C19",
"j^	c #161516",
"k^	c #19191C",
"l^	c #1B1C19",
"m^	c #181719",
"n^	c #1A1B19",
"o^	c #161917",
"p^	c #151416",
"q^	c #1C1A1A",
"r^	c #1B1919",
"s^	c #171717",
"t^	c #1A1B1B",
"u^	c #191C1D",
"v^	c #161417",
"w^	c #1D1C1C",
"x^	c #191919",
"y^	c #151817",
"z^	c #161915",
"A^	c #181A18",
"B^	c #161715",
"C^	c #181717",
"D^	c #151715",
"E^	c #151815",
"F^	c #181B1C",
"G^	c #1B1918",
"H^	c #131914",
"I^	c #161816",
"J^	c #171817",
"K^	c #151919",
"L^	c #171A1C",
"M^	c #181B1A",
"N^	c #191A17",
"O^	c #191918",
"P^	c #151619",
"Q^	c #1A191A",
"R^	c #1A1C1C",
"S^	c #1A1C19",
"T^	c #1D1D1C",
"U^	c #191617",
"V^	c #1B191C",
"W^	c #1A181B",
"X^	c #1B1B1C",
"Y^	c #141713",
"Z^	c #1A1B1C",
"`^	c #19181A",
" /	c #1B1B1A",
"./	c #181619",
"+/	c #1A1717",
"@/	c #171B1A",
"#/	c #1A1B1A",
"$/	c #171516",
"%/	c #171A17",
"&/	c #191B19",
"*/	c #191A18",
"=/	c #1A1918",
"-/	c #1C1C1B",
";/	c #191817",
">/	c #1A1818",
",/	c #181617",
"'/	c #1D1C1D",
")/	c #1D1F1D",
"!/	c #1A1A1A",
"~/	c #191818",
"{/	c #1A191B",
"]/	c #181716",
"^/	c #1D1A1B",
"//	c #1C1B1C",
"(/	c #1A181A",
"_/	c #1A1D1B",
":/	c #151615",
"</	c #141113",
"[/	c #151515",
"}/	c #191C18",
"|/	c #191B18",
"1/	c #171716",
"2/	c #191C19",
"3/	c #171618",
"4/	c #161615",
"5/	c #171815",
"6/	c #191D1A",
"7/	c #1D1B1D",
"8/	c #1B1D1B",
"9/	c #1D1E1D",
"0/	c #1B1D1A",
"a/	c #151315",
"b/	c #2C2E30",
"c/	c #333335",
"d/	c #2F3035",
"e/	c #1B1E1E",
"f/	c #1B1A1E",
"g/	c #1B1B1F",
"h/	c #171A19",
"i/	c #181916",
"j/	c #121210",
"k/	c #10110F",
"l/	c #111410",
"m/	c #151312",
"n/	c #151816",
"o/	c #131413",
"p/	c #0F1411",
"q/	c #141214",
"r/	c #121416",
"s/	c #141512",
"t/	c #131216",
"u/	c #131616",
"v/	c #151413",
"w/	c #131412",
"x/	c #151313",
"y/	c #151415",
"z/	c #141213",
"A/	c #17171A",
"B/	c #121013",
"C/	c #151414",
"D/	c #101110",
"E/	c #111213",
"F/	c #111111",
"G/	c #161513",
"H/	c #131512",
"I/	c #111311",
"J/	c #151316",
"K/	c #121212",
"L/	c #151714",
"M/	c #121211",
"N/	c #161517",
"O/	c #131111",
"P/	c #100F12",
"Q/	c #131411",
"R/	c #11120F",
"S/	c #121011",
"T/	c #10120F",
"U/	c #191616",
"V/	c #0F0E0E",
"W/	c #151916",
"X/	c #100F10",
"Y/	c #0F1110",
"Z/	c #131613",
"`/	c #110F0F",
" (	c #16171B",
".(	c #0E110D",
"+(	c #121113",
"@(	c #11110F",
"#(	c #151112",
"$(	c #080D0C",
"%(	c #0B0B0A",
"&(	c #100D0E",
"*(	c #0C0F0C",
"=(	c #0E100E",
"-(	c #101010",
";(	c #0A0C0C",
">(	c #0A0B0C",
",(	c #0E110E",
"'(	c #121216",
")(	c #131215",
"!(	c #131114",
"~(	c #0A0D0E",
"{(	c #130F10",
"](	c #111310",
"^(	c #0D0C0D",
"/(	c #101210",
"((	c #0C100E",
"_(	c #0D110E",
":(	c #0E1210",
"<(	c #0A090A",
"[(	c #0B0D0B",
"}(	c #0C0B0D",
"|(	c #111416",
"1(	c #161A1A",
"2(	c #1C201D",
"3(	c #151A17",
"4(	c #161B19",
"5(	c #181B18",
"6(	c #17171B",
"7(	c #171C1D",
"8(	c #232827",
"9(	c #232829",
"0(	c #272B29",
"a(	c #30302F",
"b(	c #0F0D0D",
"c(	c #3A3D3F",
"d(	c #282D2B",
"e(	c #2F3233",
"f(	c #595C60",
"g(	c #565755",
"h(	c #545555",
"i(	c #525758",
"j(	c #55565A",
"k(	c #585C5E",
"l(	c #5F6162",
"m(	c #5B5D5D",
"n(	c #535358",
"o(	c #5A5C5E",
"p(	c #55585A",
"q(	c #595C5F",
"r(	c #66676A",
"s(	c #585A5B",
"t(	c #545556",
"u(	c #53575A",
"v(	c #535457",
"w(	c #4E5052",
"x(	c #595C5D",
"y(	c #525555",
"z(	c #4D4F50",
"A(	c #5A5B5D",
"B(	c #7E8182",
"C(	c #171713",
"D(	c #0E110B",
"E(	c #4C4C4A",
"F(	c #505154",
"G(	c #848587",
"H(	c #7A7C7E",
"I(	c #717272",
"J(	c #848486",
"K(	c #878687",
"L(	c #696A6D",
"M(	c #707375",
"N(	c #75777A",
"O(	c #777B7E",
"P(	c #74757A",
"Q(	c #757577",
"R(	c #7A7A7E",
"S(	c #6C6F71",
"T(	c #636267",
"U(	c #707372",
"V(	c #666769",
"W(	c #757377",
"X(	c #6F7575",
"Y(	c #717275",
"Z(	c #767777",
"`(	c #6B6B6E",
" _	c #6E6F71",
"._	c #707273",
"+_	c #67676A",
"@_	c #6A6C6D",
"#_	c #646568",
"$_	c #56595A",
"%_	c #696D6E",
"&_	c #676A6A",
"*_	c #5E6163",
"=_	c #5D6161",
"-_	c #6A6D6F",
";_	c #727375",
">_	c #5D5F60",
",_	c #6D6D70",
"'_	c #6B706F",
")_	c #696B6E",
"!_	c #686A68",
"~_	c #717274",
"{_	c #7F8082",
"]_	c #6A6C70",
"^_	c #666967",
"/_	c #67686C",
"(_	c #6F7172",
"__	c #676C6E",
":_	c #696B6C",
"<_	c #6F7374",
"[_	c #696E6F",
"}_	c #66676B",
"|_	c #737574",
"1_	c #5E6062",
"2_	c #555355",
"3_	c #6C6D6F",
"4_	c #626666",
"5_	c #696969",
"6_	c #707073",
"7_	c #69696D",
"8_	c #666567",
"9_	c #747474",
"0_	c #777A7A",
"a_	c #707175",
"b_	c #5F6263",
"c_	c #717075",
"d_	c #656466",
"e_	c #69676A",
"f_	c #646668",
"g_	c #5B5D60",
"h_	c #656467",
"i_	c #6A6B6E",
"j_	c #676B6D",
"k_	c #757779",
"l_	c #5C5E61",
"m_	c #666A6A",
"n_	c #4E5051",
"o_	c #626165",
"p_	c #606263",
"q_	c #5B5C60",
"r_	c #5F5E61",
"s_	c #696B6D",
"t_	c #646867",
"u_	c #787D7D",
"v_	c #707374",
"w_	c #747776",
"x_	c #6A6C6E",
"y_	c #6A706D",
"z_	c #6F6F70",
"A_	c #5F6064",
"B_	c #6E6E70",
"C_	c #666A6D",
"D_	c #7A7D7F",
"E_	c #636666",
"F_	c #67696C",
"G_	c #6D6E71",
"H_	c #646969",
"I_	c #747678",
"J_	c #6B6C6D",
"K_	c #5E6364",
"L_	c #797B7F",
"M_	c #717378",
"N_	c #6D6F6F",
"O_	c #6F7071",
"P_	c #656569",
"Q_	c #717172",
"R_	c #606265",
"S_	c #777A7E",
"T_	c #636466",
"U_	c #6E7271",
"V_	c #707476",
"W_	c #818283",
"X_	c #727176",
"Y_	c #6C6E6C",
"Z_	c #707274",
"`_	c #696D6F",
" :	c #707373",
".:	c #666B69",
"+:	c #7C7E80",
"@:	c #7F8180",
"#:	c #757675",
"$:	c #797E7E",
"%:	c #777D7B",
"&:	c #707074",
"*:	c #87898C",
"=:	c #707271",
"-:	c #77777A",
";:	c #727575",
">:	c #777879",
",:	c #747676",
"':	c #727474",
"):	c #818384",
"!:	c #7C7D81",
"~:	c #808384",
"{:	c #6B6D6F",
"]:	c #797B7B",
"^:	c #6D7071",
"/:	c #717375",
"(:	c #6F7075",
"_:	c #6E7073",
"::	c #7B7D7E",
"<:	c #818383",
"[:	c #7D7F7E",
"}:	c #727475",
"|:	c #757476",
"1:	c #7B7E80",
"2:	c #6B6E70",
"3:	c #797979",
"4:	c #7D817F",
"5:	c #7C7F7E",
"6:	c #6B6F70",
"7:	c #757677",
"8:	c #6D6E70",
"9:	c #747274",
"0:	c #6D6F70",
"a:	c #767B7A",
"b:	c #757578",
"c:	c #686C6A",
"d:	c #7C7D7C",
"e:	c #828887",
"f:	c #7D7D80",
"g:	c #6E6F6F",
"h:	c #898A8A",
"i:	c #7D7F80",
"j:	c #C8CBCD",
"k:	c #AFB1B2",
"l:	c #777C80",
"m:	c #797B7D",
"n:	c #7F7F84",
"o:	c #828484",
"p:	c #828387",
"q:	c #737675",
"r:	c #7C7F82",
"s:	c #737575",
"t:	c #767A78",
"u:	c #88898C",
"v:	c #79777A",
"w:	c #707474",
"x:	c #777A79",
"y:	c #9A9BA0",
"z:	c #4B4C4D",
"A:	c #797C7F",
"B:	c #77797C",
"C:	c #747677",
"D:	c #808183",
"E:	c #787B79",
"F:	c #78797C",
"G:	c #6E7172",
"H:	c #959698",
"I:	c #838386",
"J:	c #818485",
"K:	c #7D7C7D",
"L:	c #727673",
"M:	c #7B7C7D",
"N:	c #939699",
"O:	c #96989A",
"P:	c #9EA0A0",
"Q:	c #828386",
"R:	c #7A7E82",
"S:	c #888A8B",
"T:	c #87868A",
"U:	c #797C7C",
"V:	c #616669",
"W:	c #6E706F",
"X:	c #73747A",
"Y:	c #6E7071",
"Z:	c #888B8F",
"`:	c #7E8282",
" <	c #7C7E82",
".<	c #717373",
"+<	c #76787C",
"@<	c #838484",
"#<	c #7F8283",
"$<	c #5F6264",
"%<	c #707272",
"&<	c #7C8082",
"*<	c #76787A",
"=<	c #888C8A",
"-<	c #7D7E81",
";<	c #6F7072",
"><	c #78797A",
",<	c #898A8F",
"'<	c #7F8183",
")<	c #7F8081",
"!<	c #878A8D",
"~<	c #828284",
"{<	c #797C7B",
"]<	c #6F7173",
"^<	c #676A6D",
"/<	c #949495",
"(<	c #797A7B",
"_<	c #B3B5B7",
":<	c #010503",
"<<	c #10100E",
"[<	c #A7A9AC",
"}<	c #757678",
"|<	c #646666",
"1<	c #636368",
"2<	c #616465",
"3<	c #5C6061",
"4<	c #5A5D5E",
"5<	c #656668",
"6<	c #5D5F63",
"7<	c #66686B",
"8<	c #616565",
"9<	c #5C5E5D",
"0<	c #5D6063",
"a<	c #505254",
"b<	c #616567",
"c<	c #606464",
"d<	c #57595B",
"e<	c #5D5E61",
"f<	c #5D6266",
"g<	c #555957",
"h<	c #57595A",
"i<	c #5C5C60",
"j<	c #535555",
"k<	c #5D5E62",
"l<	c #525456",
"m<	c #494A4A",
"n<	c #3D403E",
"o<	c #202427",
"p<	c #2F3234",
"q<	c #2C3030",
"r<	c #0A0506",
"s<	c #292926",
"t<	c #383839",
"u<	c #28262C",
"v<	c #181A1D",
"w<	c #0F0E0D",
"x<	c #111411",
"y<	c #151614",
"z<	c #171615",
"A<	c #1C1A1B",
"B<	c #13161A",
"C<	c #070806",
"D<	c #14130F",
"E<	c #0F120E",
"F<	c #1C1E1B",
"G<	c #1B181D",
"H<	c #191D1B",
"I<	c #18191C",
"J<	c #1F1F1E",
"K<	c #222120",
"L<	c #1C2123",
"M<	c #1A1A1D",
"N<	c #1C1B1B",
"O<	c #191D1D",
"P<	c #1C1C1C",
"Q<	c #1F1E1E",
"R<	c #222221",
"S<	c #171518",
"T<	c #201E1E",
"U<	c #1B1B20",
"V<	c #1F1E22",
"W<	c #1A1E1D",
"X<	c #1A1F1E",
"Y<	c #202421",
"Z<	c #211F20",
"`<	c #212321",
" [	c #1E1C1E",
".[	c #272424",
"+[	c #1E1E1C",
"@[	c #1E1C21",
"#[	c #272B2A",
"$[	c #292A2F",
"%[	c #242926",
"&[	c #1C1D1B",
"*[	c #1B1F22",
"=[	c #242123",
"-[	c #1E1C1D",
";[	c #212020",
">[	c #1B1A1B",
",[	c #1F1E1F",
"'[	c #1A2121",
")[	c #25282B",
"![	c #0C0C0C",
"~[	c #0B0A03",
"{[	c #1E1F24",
"][	c #0C1210",
"^[	c #0F0E11",
"/[	c #161518",
"([	c #111110",
"_[	c #2B2F30",
":[	c #1B201E",
"<[	c #343538",
"[[	c #2E3133",
"}[	c #1B2021",
"|[	c #303436",
"1[	c #0C0704",
"2[	c #3C3F43",
"3[	c #060302",
"4[	c #040100",
"5[	c #040303",
"6[	c #050402",
"7[	c #040604",
"8[	c #141212",
"9[	c #2B2B2D",
"0[	c #2A2B2E",
"a[	c #282B2D",
"b[	c #212627",
"c[	c #282D2E",
"d[	c #1E1F23",
"e[	c #222126",
"f[	c #1D2023",
"g[	c #222825",
"h[	c #212625",
"i[	c #26272B",
"j[	c #272B2C",
"k[	c #171B1C",
"l[	c #36393C",
"m[	c #060705",
"n[	c #12100F",
"o[	c #0D0F0B",
"p[	c #26262D",
"q[	c #060506",
"r[	c #030300",
"s[	c #030301",
"t[	c #040301",
"u[	c #303132",
"v[	c #262B2B",
"w[	c #2F2F2D",
"x[	c #100F0E",
"y[	c #090605",
"z[	c #22201D",
"A[	c #141310",
"B[	c #3F433F",
"C[	c #0A0704",
"D[	c #070A05",
"E[	c #090704",
"F[	c #0A0902",
"G[	c #020100",
"H[	c #25292C",
"I[	c #0D100C",
"J[	c #1B1A1D",
"K[	c #252A2A",
"L[	c #1F2326",
"M[	c #292B2D",
"N[	c #2B2D31",
"O[	c #1B1F21",
"P[	c #303232",
"Q[	c #010400",
"R[	c #2B2C30",
"S[	c #2E3031",
"T[	c #060600",
"U[	c #060603",
"V[	c #070803",
"W[	c #090902",
"X[	c #080803",
"Y[	c #050401",
"Z[	c #2D2B29",
"`[	c #2B2925",
" }	c #161314",
".}	c #151314",
"+}	c #3D4346",
"@}	c #2E3030",
"#}	c #060501",
"$}	c #080A02",
"%}	c #080905",
"&}	c #050504",
"*}	c #090906",
"=}	c #090A07",
"-}	c #070906",
";}	c #060904",
">}	c #040200",
",}	c #171514",
"'}	c #212725",
")}	c #1E1D22",
"!}	c #0A0A0A",
"~}	c #1F2521",
"{}	c #28272B",
"]}	c #1B1F1E",
"^}	c #27262B",
"/}	c #2B2E30",
"(}	c #1F2525",
"_}	c #1A1E21",
":}	c #1A1C1F",
"<}	c #1D2024",
"[}	c #1A1D20",
"}}	c #1E2226",
"|}	c #292B2E",
"1}	c #191F20",
"2}	c #15181A",
"3}	c #070602",
"4}	c #0F110E",
"5}	c #131410",
"6}	c #2B2D32",
"7}	c #1B1D21",
"8}	c #1C2023",
"9}	c #212724",
"0}	c #090B08",
"a}	c #0A0C06",
"b}	c #060505",
"c}	c #2E2F33",
"d}	c #323234",
"e}	c #161712",
"f}	c #221E21",
"g}	c #272825",
"h}	c #3A3E3B",
"i}	c #191C21",
"j}	c #050300",
"k}	c #302E30",
"l}	c #3C3D3D",
"m}	c #3C3D3E",
"n}	c #393A3B",
"o}	c #2B2E2B",
"p}	c #080602",
"q}	c #25262A",
"r}	c #2C2F30",
"s}	c #2A2E2E",
"t}	c #353B39",
"u}	c #0B0C0A",
"v}	c #30312E",
"w}	c #303133",
"x}	c #393737",
"y}	c #323333",
"z}	c #4A4C4C",
"A}	c #3A3B3B",
"B}	c #363636",
"C}	c #3E3F40",
"D}	c #3D3F3E",
"E}	c #353738",
"F}	c #484647",
"G}	c #4B5050",
"H}	c #383937",
"I}	c #434342",
"J}	c #3C3F3D",
"K}	c #3B3C3C",
"L}	c #3D3E3D",
"M}	c #444647",
"N}	c #37393A",
"O}	c #444547",
"P}	c #4B4A4A",
"Q}	c #393938",
"R}	c #404043",
"S}	c #454746",
"T}	c #4E4F4E",
"U}	c #363837",
"V}	c #454647",
"W}	c #373839",
"X}	c #444549",
"Y}	c #323331",
"Z}	c #333435",
"`}	c #363637",
" |	c #3B3D3B",
".|	c #42413F",
"+|	c #373736",
"@|	c #414040",
"#|	c #333331",
"$|	c #3F3E3D",
"%|	c #343434",
"&|	c #303131",
"*|	c #333535",
"=|	c #393C3C",
"-|	c #404140",
";|	c #3E3D3D",
">|	c #3B3B3C",
",|	c #3B3C3E",
"'|	c #403F40",
")|	c #3B3A39",
"!|	c #3B3C39",
"~|	c #3B3C3B",
"{|	c #424345",
"]|	c #303030",
"^|	c #373937",
"/|	c #343636",
"(|	c #393939",
"_|	c #434745",
":|	c #3B3E3E",
"<|	c #454548",
"[|	c #383737",
"}|	c #3B3A3B",
"||	c #474849",
"1|	c #3D3D3E",
"2|	c #454447",
"3|	c #434443",
"4|	c #3E3B3F",
"5|	c #3F3E40",
"6|	c #333333",
"7|	c #2D302E",
"8|	c #2E302D",
"9|	c #343535",
"0|	c #323431",
"a|	c #383836",
"b|	c #373837",
"c|	c #3A3B3C",
"d|	c #343536",
"e|	c #2F2D2E",
"f|	c #373537",
"g|	c #393B3A",
"h|	c #3E3E3C",
"i|	c #393A3A",
"j|	c #414341",
"k|	c #413F41",
"l|	c #3D4041",
"m|	c #3B393C",
"n|	c #434242",
"o|	c #3A3C3A",
"p|	c #393B39",
"q|	c #4D4D4F",
"r|	c #424342",
"s|	c #3F403F",
"t|	c #3D3E3E",
"u|	c #454544",
"v|	c #373A38",
"w|	c #434643",
"x|	c #37383A",
"y|	c #383636",
"z|	c #353634",
"A|	c #3E3E3E",
"B|	c #373737",
"C|	c #3D3C3D",
"D|	c #3E3D3C",
"E|	c #353635",
"F|	c #363737",
"G|	c #454444",
"H|	c #363436",
"I|	c #373535",
"J|	c #3D3D3F",
"K|	c #3F4141",
"L|	c #3F4142",
"M|	c #323435",
"N|	c #464646",
"O|	c #414041",
"P|	c #353636",
"Q|	c #383B38",
"R|	c #323434",
"S|	c #404241",
"T|	c #3A3B3A",
"U|	c #515251",
"V|	c #343436",
"W|	c #363838",
"X|	c #3E3E40",
"Y|	c #4F5152",
"Z|	c #3A3A3B",
"`|	c #3F3F42",
" 1	c #414443",
".1	c #424546",
"+1	c #4C4D4D",
"@1	c #343739",
"#1	c #444747",
"$1	c #323532",
"%1	c #3F4040",
"&1	c #505251",
"*1	c #313233",
"=1	c #353837",
"-1	c #4A4E4C",
";1	c #444746",
">1	c #3A393A",
",1	c #606162",
"'1	c #3A3C3C",
")1	c #3C3D3F",
"!1	c #383938",
"~1	c #333738",
"{1	c #3B3C3A",
"]1	c #454445",
"^1	c #444545",
"/1	c #373939",
"(1	c #404040",
"_1	c #3C3B3C",
":1	c #383D3A",
"<1	c #3F3E3F",
"[1	c #383A3A",
"}1	c #464547",
"|1	c #3E4040",
"11	c #525153",
"21	c #434544",
"31	c #404242",
"41	c #404041",
"51	c #484849",
"61	c #383637",
"71	c #3C3D3B",
"81	c #434243",
"91	c #383B37",
"01	c #404342",
"a1	c #3C3E40",
"b1	c #444548",
"c1	c #454747",
"d1	c #393C39",
"e1	c #4F4F51",
"f1	c #383A3B",
"g1	c #363B39",
"h1	c #313533",
"i1	c #434444",
"j1	c #3C403E",
"k1	c #363735",
"l1	c #535554",
"m1	c #585C5C",
"n1	c #515455",
"o1	c #373636",
"p1	c #4C4C4E",
"q1	c #6B6C6F",
"r1	c #414243",
"s1	c #494C4C",
"t1	c #484A4A",
"u1	c #3F3F41",
"v1	c #3C3E3C",
"w1	c #434445",
"x1	c #353737",
"y1	c #3F4143",
"z1	c #383939",
"A1	c #353637",
"B1	c #3E4140",
"C1	c #363734",
"D1	c #363736",
"E1	c #3C3E3D",
"F1	c #3D3E3C",
"G1	c #444748",
"H1	c #3D3C3C",
"I1	c #3D3C3B",
"J1	c #535354",
"K1	c #424443",
"L1	c #403F41",
"M1	c #525451",
"N1	c #353736",
"O1	c #424647",
"P1	c #383A38",
"Q1	c #4B4D4C",
"R1	c #2F3230",
"S1	c #504F52",
"T1	c #4E4E50",
"U1	c #424344",
"V1	c #4B4849",
"W1	c #4E4E4F",
"X1	c #3D3E41",
"Y1	c #484948",
"Z1	c #4C4C4B",
"`1	c #434043",
" 2	c #3C3B3B",
".2	c #454644",
"+2	c #343738",
"@2	c #3F4140",
"#2	c #404142",
"$2	c #343734",
"%2	c #555759",
"&2	c #373738",
"*2	c #454646",
"=2	c #3B3B3A",
"-2	c #474647",
";2	c #49474A",
">2	c #373435",
",2	c #3D3D3C",
"'2	c #353638",
")2	c #434546",
"!2	c #3D403F",
"~2	c #3B3E3D",
"{2	c #37393B",
"]2	c #353436",
"^2	c #403F3E",
"/2	c #3D3D41",
"(2	c #363B37",
"_2	c #5D6060",
":2	c #000300",
"<2	c #121410",
"[2	c #302F32",
"}2	c #1A201F",
"|2	c #232226",
"12	c #4B4A4C",
"22	c #080904",
"32	c #060701",
"42	c #161612",
"52	c #212428",
"62	c #333231",
"72	c #11100C",
"82	c #1E211D",
"92	c #080504",
"02	c #272522",
"a2	c #393D3F",
"b2	c #1F2320",
"c2	c #090B06",
"d2	c #161714",
"e2	c #2F3132",
"f2	c #070604",
"g2	c #060404",
"h2	c #191915",
"i2	c #343839",
"j2	c #100E0D",
"k2	c #050301",
"l2	c #090608",
"m2	c #131011",
"n2	c #0C0B0A",
"o2	c #090904",
"p2	c #030200",
"q2	c #060300",
"r2	c #050100",
"s2	c #040101",
"t2	c #050000",
"u2	c #030100",
"v2	c #030000",
"w2	c #060100",
"x2	c #070300",
"y2	c #050200",
"z2	c #040300",
"A2	c #040000",
"B2	c #060102",
"C2	c #050201",
"D2	c #050102",
"E2	c #040400",
"F2	c #020002",
"G2	c #040201",
"H2	c #050400",
"I2	c #060400",
"J2	c #060201",
"K2	c #050101",
"L2	c #030201",
"M2	c #040002",
"N2	c #050500",
"O2	c #060200",
"P2	c #060401",
"Q2	c #070500",
"R2	c #070100",
"S2	c #070200",
"T2	c #030400",
"U2	c #000200",
"V2	c #0A0705",
"W2	c #050603",
"X2	c #0E100C",
"Y2	c #0D080A",
"Z2	c #090808",
"`2	c #12100E",
" 3	c #0A0909",
".3	c #2B2929",
"+3	c #2D2F31",
"@3	c #1C2122",
"#3	c #080A04",
"$3	c #3A3E3C",
"%3	c #090C07",
"&3	c #070904",
"*3	c #0B0C0B",
"=3	c #4B4D4F",
"-3	c #080807",
";3	c #323231",
">3	c #272429",
",3	c #131312",
"'3	c #3C3D41",
")3	c #333433",
"!3	c #191619",
"~3	c #0F100B",
"{3	c #12100A",
"]3	c #403F3F",
"^3	c #252222",
"/3	c #0A0A04",
"(3	c #0B0A04",
"_3	c #0A0802",
":3	c #090504",
"<3	c #070706",
"[3	c #060402",
"}3	c #040601",
"|3	c #040502",
"13	c #070702",
"23	c #080703",
"33	c #070503",
"43	c #050703",
"53	c #060703",
"63	c #050704",
"73	c #060804",
"83	c #050903",
"93	c #090903",
"03	c #070705",
"a3	c #070903",
"b3	c #050602",
"c3	c #090A05",
"d3	c #070805",
"e3	c #060706",
"f3	c #050805",
"g3	c #070606",
"h3	c #060605",
"i3	c #060903",
"j3	c #070504",
"k3	c #050605",
"l3	c #060902",
"m3	c #060503",
"n3	c #050702",
"o3	c #040404",
"p3	c #040602",
"q3	c #070701",
"r3	c #040703",
"s3	c #040403",
"t3	c #050604",
"u3	c #070505",
"v3	c #050600",
"w3	c #060906",
"x3	c #070A06",
"y3	c #060806",
"z3	c #050403",
"A3	c #060803",
"B3	c #050705",
"C3	c #060606",
"D3	c #050802",
"E3	c #060905",
"F3	c #060602",
"G3	c #060702",
"H3	c #0A0B04",
"I3	c #080A07",
"J3	c #070802",
"K3	c #060A06",
"L3	c #050803",
"M3	c #080601",
"N3	c #050503",
"O3	c #080A06",
"P3	c #060907",
"Q3	c #050804",
"R3	c #090707",
"S3	c #090706",
"T3	c #060802",
"U3	c #070601",
"V3	c #050701",
"W3	c #0B0604",
"X3	c #0A0803",
"Y3	c #0B0B06",
"Z3	c #2C3130",
"`3	c #0C0B0C",
" 4	c #363937",
".4	c #171715",
"+4	c #1B191A",
"@4	c #333437",
"#4	c #0E0B0C",
"$4	c #424244",
"%4	c #0C0C0B",
"&4	c #1E211F",
"*4	c #0A0808",
"=4	c #282725",
"-4	c #181816",
";4	c #404348",
">4	c #0E0F0C",
",4	c #0E0A05",
"'4	c #0B0D0A",
")4	c #10100F",
"!4	c #13130F",
"~4	c #464845",
"{4	c #161213",
"]4	c #0C0A04",
"^4	c #070905",
"/4	c #090604",
"(4	c #060601",
"_4	c #090803",
":4	c #0A0B05",
"<4	c #090907",
"[4	c #0C0905",
"}4	c #080C06",
"|4	c #0B0904",
"14	c #090C03",
"24	c #090A04",
"34	c #090B05",
"44	c #080A05",
"54	c #090A03",
"64	c #080903",
"74	c #080B05",
"84	c #0B0705",
"94	c #090B04",
"04	c #0C0B05",
"a4	c #0C0805",
"b4	c #0A0C05",
"c4	c #0B0B05",
"d4	c #0C0A05",
"e4	c #080B06",
"f4	c #0B0606",
"g4	c #080A03",
"h4	c #0B0704",
"i4	c #0A0A03",
"j4	c #080802",
"k4	c #111011",
"l4	c #111512",
"m4	c #181A17",
"n4	c #1B1B17",
"o4	c #1A1817",
"p4	c #070807",
"q4	c #12100C",
"r4	c #36383B",
"s4	c #3D3F3F",
"t4	c #0D0F0C",
"u4	c #3C4044",
"v4	c #090A0A",
"w4	c #090A0C",
"x4	c #080506",
"y4	c #131310",
"z4	c #121512",
"A4	c #161814",
"B4	c #141815",
"C4	c #23261F",
"D4	c #0C0E0A",
"E4	c #2F3232",
"F4	c #080902",
"G4	c #080702",
"H4	c #080503",
"I4	c #050501",
"J4	c #030602",
"K4	c #090702",
"L4	c #070501",
"M4	c #080606",
"N4	c #040704",
"O4	c #060700",
"P4	c #080401",
"Q4	c #050404",
"R4	c #030503",
"S4	c #050601",
"T4	c #080701",
"U4	c #080502",
"V4	c #060403",
"W4	c #060500",
"X4	c #090502",
"Y4	c #070403",
"Z4	c #070401",
"`4	c #090603",
" 5	c #090601",
".5	c #070600",
"+5	c #070402",
"@5	c #040701",
"#5	c #19161A",
"$5	c #12120F",
"%5	c #161A18",
"&5	c #3C3A3B",
"*5	c #2F2E30",
"=5	c #4D5052",
"-5	c #242624",
";5	c #49494A",
">5	c #313136",
",5	c #12100D",
"'5	c #0C0F09",
")5	c #171617",
"!5	c #191719",
"~5	c #090C09",
"{5	c #393C3B",
"]5	c #292A2E",
"^5	c #242523",
"/5	c #040600",
"(5	c #070902",
"_5	c #070406",
":5	c #040501",
"<5	c #040401",
"[5	c #060303",
"}5	c #060301",
"|5	c #050302",
"15	c #040500",
"25	c #050700",
"35	c #070400",
"45	c #030302",
"55	c #040402",
"65	c #070302",
"75	c #040603",
"85	c #020502",
"95	c #080400",
"05	c #373C39",
"a5	c #323433",
"b5	c #121311",
"c5	c #383332",
"d5	c #252420",
"e5	c #0E0905",
"f5	c #383B3D",
"g5	c #0E0D0D",
"h5	c #0B0A09",
"i5	c #373938",
"j5	c #15181B",
"k5	c #2F2F33",
"l5	c #0D0E0B",
"m5	c #0D0D07",
"n5	c #12130E",
"o5	c #0F100D",
"p5	c #0F110B",
"q5	c #100F0D",
"r5	c #10120D",
"s5	c #0E0F0A",
"t5	c #10110C",
"u5	c #13120F",
"v5	c #11110C",
"w5	c #110F0C",
"x5	c #11100B",
"y5	c #11130D",
"z5	c #11110E",
"A5	c #12110C",
"B5	c #12110E",
"C5	c #12130D",
"D5	c #10110E",
"E5	c #13100E",
"F5	c #13130E",
"G5	c #0F0F0A",
"H5	c #10120E",
"I5	c #0F120B",
"J5	c #11120E",
"K5	c #0F110C",
"L5	c #12120D",
"M5	c #12130F",
"N5	c #0E0E0A",
"O5	c #11110B",
"P5	c #0F120D",
"Q5	c #10120C",
"R5	c #10120B",
"S5	c #110E0A",
"T5	c #0E100B",
"U5	c #120F0E",
"V5	c #12120E",
"W5	c #13110E",
"X5	c #14140F",
"Y5	c #11130F",
"Z5	c #10150F",
"`5	c #0E0F0D",
" 6	c #10110B",
".6	c #11130E",
"+6	c #10130E",
"@6	c #110F11",
"#6	c #10110A",
"$6	c #0D0F0D",
"%6	c #13120E",
"&6	c #141210",
"*6	c #0E110C",
"=6	c #090B07",
"-6	c #0A0E08",
";6	c #030601",
">6	c #0B0D08",
",6	c #1F221E",
"'6	c #4B4A49",
")6	c #3B3F3D",
"!6	c #0D0808",
"~6	c #121511",
"{6	c #363532",
"]6	c #2D2D30",
"^6	c #252424",
"/6	c #15130F",
"(6	c #272623",
"_6	c #232126",
":6	c #3D3E40",
"<6	c #2D2C2D",
"[6	c #191816",
"}6	c #1B1A1C",
"|6	c #393D3D",
"16	c #0D0A0A",
"26	c #0E100A",
"36	c #0D100A",
"46	c #0D0F0E",
"56	c #0F130D",
"66	c #0C0E0C",
"76	c #0B0E0C",
"86	c #0C0E0B",
"96	c #0E0D0E",
"06	c #0C0F0B",
"a6	c #0D0E08",
"b6	c #121010",
"c6	c #0C0F0D",
"d6	c #0A0C0B",
"e6	c #10130D",
"f6	c #0F120A",
"g6	c #0E0C0C",
"h6	c #0D0F09",
"i6	c #070A04",
"j6	c #0C0E09",
"k6	c #0D0C07",
"l6	c #393736",
"m6	c #393B37",
"n6	c #0A0607",
"o6	c #282623",
"p6	c #080908",
"q6	c #1A1917",
"r6	c #38383A",
"s6	c #202627",
"t6	c #0B0B03",
"u6	c #0C0D07",
"v6	c #080808",
"w6	c #0D100B",
"x6	c #101410",
"y6	c #0F120F",
"z6	c #110F0E",
"A6	c #10140F",
"B6	c #0F110F",
"C6	c #10130F",
"D6	c #0F130C",
"E6	c #110E10",
"F6	c #0F130E",
"G6	c #131010",
"H6	c #0C0F0F",
"I6	c #151511",
"J6	c #121012",
"K6	c #11140F",
"L6	c #252521",
"M6	c #373638",
"N6	c #14100F",
"O6	c #343838",
"P6	c #221F22",
"Q6	c #13110D",
"R6	c #282824",
"S6	c #363438",
"T6	c #272826",
"U6	c #414645",
"V6	c #151411",
"W6	c #363535",
"X6	c #1F201E",
"Y6	c #24272A",
"Z6	c #2D3031",
"`6	c #0C0C07",
" 7	c #191916",
".7	c #141411",
"+7	c #13140F",
"@7	c #0E0E0E",
"#7	c #141211",
"$7	c #121411",
"%7	c #131110",
"&7	c #0F1310",
"*7	c #131211",
"=7	c #101211",
"-7	c #141511",
";7	c #100E10",
">7	c #121612",
",7	c #141110",
"'7	c #141611",
")7	c #100D0D",
"!7	c #101310",
"~7	c #131511",
"{7	c #161614",
"]7	c #141514",
"^7	c #120F0C",
"/7	c #282723",
"(7	c #464649",
"_7	c #151210",
":7	c #1E1D1D",
"<7	c #2F2D2F",
"[7	c #333638",
"}7	c #141613",
"|7	c #141612",
"17	c #151310",
"27	c #111511",
"37	c #120F10",
"47	c #131612",
"57	c #151212",
"67	c #131611",
"77	c #141510",
"87	c #161414",
"97	c #161613",
"07	c #151612",
"a7	c #070B07",
"b7	c #161511",
"c7	c #080B07",
"d7	c #0D110D",
"e7	c #252522",
"f7	c #3E3F3E",
"g7	c #3C3F41",
"h7	c #343435",
"i7	c #050405",
"j7	c #363939",
"k7	c #303032",
"l7	c #787779",
"m7	c #47484A",
"n7	c #2C2B2C",
"o7	c #393C3A",
"p7	c #0E120E",
"q7	c #080708",
"r7	c #535757",
"s7	c #0B0707",
"t7	c #0B0E0B",
"u7	c #141410",
"v7	c #141714",
"w7	c #131113",
"x7	c #141314",
"y7	c #161711",
"z7	c #161512",
"A7	c #131712",
"B7	c #171614",
"C7	c #181815",
"D7	c #1A1916",
"E7	c #1C1916",
"F7	c #191C17",
"G7	c #0C100A",
"H7	c #383B3C",
"I7	c #333635",
"J7	c #494B4A",
"K7	c #1C201C",
"L7	c #2C2A28",
"M7	c #3B3D3F",
"N7	c #030604",
"O7	c #969696",
"P7	c #0F080B",
"Q7	c #110F09",
"R7	c #030500",
"S7	c #555658",
"T7	c #2F3032",
"U7	c #0A0707",
"V7	c #080707",
"W7	c #12140F",
"X7	c #0E130F",
"Y7	c #1A1819",
"Z7	c #1E1B1A",
"`7	c #181915",
" 8	c #151713",
".8	c #171814",
"+8	c #121613",
"@8	c #171916",
"#8	c #171515",
"$8	c #181616",
"%8	c #161815",
"&8	c #1A1715",
"*8	c #131610",
"=8	c #090A08",
"-8	c #151610",
";8	c #24282C",
">8	c #303233",
",8	c #151213",
"'8	c #0E0C0D",
")8	c #191E1E",
"!8	c #1F201D",
"~8	c #292626",
"{8	c #080B0C",
"]8	c #AFB0B2",
"^8	c #272A2D",
"/8	c #171714",
"(8	c #080B09",
"_8	c #161415",
":8	c #181516",
"<8	c #111612",
"[8	c #191815",
"}8	c #15120E",
"|8	c #1C1C19",
"18	c #13110F",
"28	c #0D0F08",
"38	c #464846",
"48	c #000102",
"58	c #191613",
"68	c #181512",
"78	c #898B8C",
"88	c #050906",
"98	c #0E0D07",
"08	c #373739",
"a8	c #A7A9AA",
"b8	c #343531",
"c8	c #010402",
"d8	c #07080A",
"e8	c #3A393B",
"f8	c #222827",
"g8	c #1D1C1B",
"h8	c #101412",
"i8	c #191B17",
"j8	c #181B17",
"k8	c #1B1818",
"l8	c #1B1B18",
"m8	c #171A16",
"n8	c #161713",
"o8	c #1A1714",
"p8	c #242421",
"q8	c #323132",
"r8	c #7E7D7E",
"s8	c #14110E",
"t8	c #090607",
"u8	c #18191D",
"v8	c #393A3E",
"w8	c #212220",
"x8	c #373639",
"y8	c #444745",
"z8	c #474949",
"A8	c #323539",
"B8	c #080706",
"C8	c #19181B",
"D8	c #171619",
"E8	c #151814",
"F8	c #191715",
"G8	c #131715",
"H8	c #191C1A",
"I8	c #1B1E1B",
"J8	c #1F211E",
"K8	c #080B08",
"L8	c #232121",
"M8	c #3B3E40",
"N8	c #434748",
"O8	c #292E2F",
"P8	c #121715",
"Q8	c #2C2B2B",
"R8	c #130E0D",
"S8	c #2A2827",
"T8	c #16151A",
"U8	c #3B3B3D",
"V8	c #272528",
"W8	c #2B2C2F",
"X8	c #191718",
"Y8	c #1D1E1B",
"Z8	c #19171A",
"`8	c #1A1B17",
" 9	c #191717",
".9	c #161416",
"+9	c #090802",
"@9	c #0D0E06",
"#9	c #1E1F1D",
"$9	c #2A2E2D",
"%9	c #252723",
"&9	c #292927",
"*9	c #232529",
"=9	c #272B2D",
"-9	c #313336",
";9	c #1D1F1C",
">9	c #0C0702",
",9	c #1D1B1B",
"'9	c #1B1F1C",
")9	c #18171B",
"!9	c #1A191D",
"~9	c #1A1B18",
"{9	c #161A19",
"]9	c #1D1D1B",
"^9	c #1C1C1A",
"/9	c #131713",
"(9	c #252422",
"_9	c #1D221F",
":9	c #38383B",
"<9	c #313534",
"[9	c #050304",
"}9	c #1B1F1A",
"|9	c #16191B",
"19	c #1A191C",
"29	c #191618",
"39	c #141816",
"49	c #1A1D1A",
"59	c #141817",
"69	c #171C1A",
"79	c #1A181C",
"89	c #201E1C",
"99	c #1C1B19",
"09	c #090401",
"a9	c #201F1D",
"b9	c #0A0702",
"c9	c #292B27",
"d9	c #18161A",
"e9	c #333534",
"f9	c #080402",
"g9	c #0C0903",
"h9	c #090505",
"i9	c #1F1F1C",
"j9	c #181C18",
"k9	c #1F1E1D",
"l9	c #1D201D",
"m9	c #1C191C",
"n9	c #18171A",
"o9	c #161B18",
"p9	c #171B18",
"q9	c #1A1E1C",
"r9	c #121510",
"s9	c #151917",
"t9	c #0D0906",
"u9	c #060204",
"v9	c #282A28",
"w9	c #343335",
"x9	c #1A1A17",
"y9	c #060405",
"z9	c #040302",
"A9	c #070303",
"B9	c #060801",
"C9	c #050303",
"D9	c #050202",
"E9	c #010300",
"F9	c #030203",
"G9	c #1E1B1E",
"H9	c #1E1C1C",
"I9	c #24211F",
"J9	c #1A1D1F",
"K9	c #130F0E",
"L9	c #3A3A3C",
"M9	c #120F0F",
"N9	c #0B0B02",
"O9	c #14100E",
"P9	c #100E0F",
"Q9	c #14130E",
"R9	c #13100F",
"S9	c #130F0F",
"T9	c #0F130F",
"U9	c #110D0B",
"V9	c #191F1D",
"W9	c #1B1B1E",
"X9	c #1C1A1C",
"Y9	c #181C1B",
"Z9	c #181A15",
"`9	c #181515",
" 0	c #070506",
".0	c #262524",
"+0	c #37373A",
"@0	c #090503",
"#0	c #100F09",
"$0	c #1B1C20",
"%0	c #2B2F2C",
"&0	c #12100B",
"*0	c #3C3C3F",
"=0	c #232826",
"-0	c #13150F",
";0	c #191716",
">0	c #040304",
",0	c #08080A",
"'0	c #050807",
")0	c #060708",
"!0	c #060808",
"~0	c #080909",
"{0	c #090B09",
"]0	c #0B0B0C",
"^0	c #070908",
"/0	c #0B0A0C",
"(0	c #0A0D0C",
"_0	c #080A08",
":0	c #0C0A0C",
"<0	c #0C0E0D",
"[0	c #090B0A",
"}0	c #0B080A",
"|0	c #09090A",
"10	c #080608",
"20	c #070707",
"30	c #0C0B0B",
"40	c #0B0A0B",
"50	c #070809",
"60	c #0A0C0A",
"70	c #0A0B09",
"80	c #0B0C0C",
"90	c #0A080B",
"00	c #080B0A",
"a0	c #090B0C",
"b0	c #0F0D0F",
"c0	c #121114",
"d0	c #19191D",
"e0	c #1A181D",
"f0	c #1D1B1C",
"g0	c #1A1E1A",
"h0	c #232221",
"i0	c #262624",
"j0	c #14120D",
"k0	c #121616",
"l0	c #3C3C40",
"m0	c #070700",
"n0	c #1F1D1E",
"o0	c #040507",
"p0	c #403F42",
"q0	c #181517",
"r0	c #1A171A",
"s0	c #161313",
"t0	c #1F1D1D",
"u0	c #181615",
"v0	c #161212",
"w0	c #171315",
"x0	c #181715",
"y0	c #4A4948",
"z0	c #1B201F",
"A0	c #1B191D",
"B0	c #303334",
"C0	c #292825",
"D0	c #3D4142",
"E0	c #2D2D2F",
"F0	c #323236",
"G0	c #0E0D10",
"H0	c #151410",
"I0	c #424544",
"J0	c #201D1E",
"K0	c #201F1E",
"L0	c #1F1C1D",
"M0	c #1F1C1C",
"N0	c #1D1C1A",
"O0	c #1D1B1E",
"P0	c #1E1B1C",
"Q0	c #1F1C1E",
"R0	c #1E1B1D",
"S0	c #1F1B1A",
"T0	c #201E1D",
"U0	c #1F1E1C",
"V0	c #201E1F",
"W0	c #222021",
"X0	c #211F1E",
"Y0	c #211E1F",
"Z0	c #1F1D1C",
"`0	c #1E1D1C",
" a	c #1B191B",
".a	c #211D1D",
"+a	c #1F1D1F",
"@a	c #1C191B",
"#a	c #414245",
"$a	c #070404",
"%a	c #0F0D08",
"&a	c #201F23",
"*a	c #191D1F",
"=a	c #181D1C",
"-a	c #0E0A06",
";a	c #0B0A02",
">a	c #272322",
",a	c #1D211E",
"'a	c #2F2E2D",
")a	c #393A3D",
"!a	c #1B1E22",
"~a	c #252224",
"{a	c #1C1A19",
"]a	c #040504",
"^a	c #302F33",
"/a	c #363B38",
"(a	c #1F1D20",
"_a	c #1E1F1C",
":a	c #252221",
"<a	c #1F1B1D",
"[a	c #1D1B1A",
"}a	c #1E1B1B",
"|a	c #211E1E",
"1a	c #201D20",
"2a	c #1C1A1D",
"3a	c #3E3E43",
"4a	c #030405",
"5a	c #1C1C20",
"6a	c #1D1C21",
"7a	c #2E3132",
"8a	c #171914",
"9a	c #262825",
"0a	c #2A2726",
"aa	c #030502",
"ba	c #100F0A",
"ca	c #070301",
"da	c #090501",
"ea	c #15140F",
"fa	c #252325",
"ga	c #1E1D1B",
"ha	c #211E21",
"ia	c #282527",
"ja	c #1D1B18",
"ka	c #201F1F",
"la	c #1A1718",
"ma	c #444445",
"na	c #201F24",
"oa	c #1A1F1D",
"pa	c #303134",
"qa	c #0C0806",
"ra	c #0C100D",
"sa	c #0E110A",
"ta	c #050706",
"ua	c #181C1D",
"va	c #000402",
"wa	c #1E1C1F",
"xa	c #2C2C2F",
"ya	c #131714",
"za	c #141719",
"Aa	c #221F21",
"Ba	c #21211F",
"Ca	c #1E1A19",
"Da	c #221E1E",
"Ea	c #211F1F",
"Fa	c #201C1D",
"Ga	c #21201F",
"Ha	c #252323",
"Ia	c #21211B",
"Ja	c #232020",
"Ka	c #221D20",
"La	c #211D1F",
"Ma	c #232122",
"Na	c #1E1A1D",
"Oa	c #211F22",
"Pa	c #444546",
"Qa	c #0F0D07",
"Ra	c #17191C",
"Sa	c #1B1F20",
"Ta	c #2E3034",
"Ua	c #1A1C18",
"Va	c #0D110F",
"Wa	c #070304",
"Xa	c #363739",
"Ya	c #0D0909",
"Za	c #1A1A16",
"`a	c #161A1B",
" b	c #1E201D",
".b	c #232022",
"+b	c #222024",
"@b	c #221F1F",
"#b	c #211F21",
"$b	c #1D1A1A",
"%b	c #1D1B19",
"&b	c #201D1F",
"*b	c #242122",
"=b	c #262424",
"-b	c #22201F",
";b	c #272323",
">b	c #221F20",
",b	c #221F1E",
"'b	c #201E20",
")b	c #252123",
"!b	c #252324",
"~b	c #1D191B",
"{b	c #1C1719",
"]b	c #4A4A49",
"^b	c #232220",
"/b	c #1A1A1E",
"(b	c #2C2927",
"_b	c #030102",
":b	c #0A0A09",
"<b	c #2C2F2E",
"[b	c #221F23",
"}b	c #221E20",
"|b	c #232120",
"1b	c #242221",
"2b	c #1C1D1A",
"3b	c #242222",
"4b	c #211D1E",
"5b	c #211E20",
"6b	c #232021",
"7b	c #272325",
"8b	c #232023",
"9b	c #242022",
"0b	c #1D1A1C",
"ab	c #484949",
"bb	c #040001",
"cb	c #181A1F",
"db	c #171C1C",
"eb	c #1C1B18",
"fb	c #1D1C19",
"gb	c #060A07",
"hb	c #151510",
"ib	c #20211E",
"jb	c #222025",
"kb	c #0C0E07",
"lb	c #2F2F32",
"mb	c #201C1C",
"nb	c #23201F",
"ob	c #1D1A19",
"pb	c #1D191C",
"qb	c #252021",
"rb	c #252225",
"sb	c #21201E",
"tb	c #1F1B1B",
"ub	c #211D1C",
"vb	c #1E1A1B",
"wb	c #231D1D",
"xb	c #24201F",
"yb	c #211F1D",
"zb	c #1E1D1A",
"Ab	c #242220",
"Bb	c #252122",
"Cb	c #201C1E",
"Db	c #494A4B",
"Eb	c #161316",
"Fb	c #0A0303",
"Gb	c #292E2D",
"Hb	c #323334",
"Ib	c #1A1C20",
"Jb	c #1E1D21",
"Kb	c #1F201C",
"Lb	c #262223",
"Mb	c #242023",
"Nb	c #262321",
"Ob	c #211E1C",
"Pb	c #221E1F",
"Qb	c #1F1C19",
"Rb	c #201C1B",
"Sb	c #252223",
"Tb	c #201E1B",
"Ub	c #242021",
"Vb	c #24201E",
"Wb	c #241F20",
"Xb	c #201B1D",
"Yb	c #22211E",
"Zb	c #262425",
"`b	c #231E1F",
" c	c #1E1A1A",
".c	c #4A4B4B",
"+c	c #181D1B",
"@c	c #1C1A1E",
"#c	c #25262B",
"$c	c #2F3130",
"%c	c #0E0907",
"&c	c #2A2927",
"*c	c #2E3235",
"=c	c #0D0706",
"-c	c #18181C",
";c	c #0F1210",
">c	c #242020",
",c	c #231F22",
"'c	c #231E20",
")c	c #262324",
"!c	c #211E1D",
"~c	c #231F20",
"{c	c #22201E",
"]c	c #231F1F",
"^c	c #231E1E",
"/c	c #251F21",
"(c	c #231E1D",
"_c	c #272222",
":c	c #292424",
"<c	c #262120",
"[c	c #272122",
"}c	c #231F1E",
"|c	c #25201F",
"1c	c #262021",
"2c	c #251F1E",
"3c	c #241F21",
"4c	c #292426",
"5c	c #231E22",
"6c	c #231D21",
"7c	c #262327",
"8c	c #22221F",
"9c	c #211C1E",
"0c	c #272425",
"ac	c #535755",
"bc	c #060608",
"cc	c #0A0604",
"dc	c #1C1E22",
"ec	c #202025",
"fc	c #2E3335",
"gc	c #1C1918",
"hc	c #2C2D30",
"ic	c #0A0406",
"jc	c #333536",
"kc	c #101411",
"lc	c #141814",
"mc	c #2A2E30",
"nc	c #252121",
"oc	c #262523",
"pc	c #272324",
"qc	c #201D1D",
"rc	c #262224",
"sc	c #241E1E",
"tc	c #241F1F",
"uc	c #251F20",
"vc	c #242121",
"wc	c #211C1C",
"xc	c #252322",
"yc	c #2A2424",
"zc	c #221E1D",
"Ac	c #272423",
"Bc	c #252020",
"Cc	c #25211F",
"Dc	c #282523",
"Ec	c #272121",
"Fc	c #282326",
"Gc	c #292425",
"Hc	c #2A2725",
"Ic	c #272023",
"Jc	c #221B1C",
"Kc	c #231C1E",
"Lc	c #252120",
"Mc	c #272221",
"Nc	c #242120",
"Oc	c #282323",
"Pc	c #262121",
"Qc	c #262122",
"Rc	c #272422",
"Sc	c #292625",
"Tc	c #251E21",
"Uc	c #251F1F",
"Vc	c #24221F",
"Wc	c #23201D",
"Xc	c #0B0E08",
"Yc	c #0B090A",
"Zc	c #080A09",
"`c	c #090809",
" d	c #050203",
".d	c #040202",
"+d	c #040203",
"@d	c #060304",
"#d	c #030402",
"$d	c #050104",
"%d	c #030401",
"&d	c #090708",
"*d	c #201D21",
"=d	c #1A2021",
"-d	c #36373A",
";d	c #2B2A2E",
">d	c #313032",
",d	c #131013",
"'d	c #080500",
")d	c #241E1B",
"!d	c #282422",
"~d	c #231C1D",
"{d	c #201C1A",
"]d	c #282322",
"^d	c #272223",
"/d	c #23201E",
"(d	c #251E1E",
"_d	c #241D1E",
":d	c #221D1B",
"<d	c #231E1C",
"[d	c #262221",
"}d	c #211B1B",
"|d	c #26201E",
"1d	c #221C1D",
"2d	c #1E1819",
"3d	c #241E1C",
"4d	c #282021",
"5d	c #261E1F",
"6d	c #262020",
"7d	c #261F21",
"8d	c #262222",
"9d	c #261F1E",
"0d	c #2A2324",
"ad	c #2A2523",
"bd	c #252022",
"cd	c #282121",
"dd	c #221E1C",
"ed	c #1F1A1A",
"fd	c #221B1D",
"gd	c #292522",
"hd	c #272321",
"id	c #282122",
"jd	c #221D1A",
"kd	c #27201F",
"ld	c #2C2626",
"md	c #20191A",
"nd	c #221F1D",
"od	c #282524",
"pd	c #221D1D",
"qd	c #221C1C",
"rd	c #1B1815",
"sd	c #21211E",
"td	c #242322",
"ud	c #414241",
"vd	c #0F0F08",
"wd	c #100F08",
"xd	c #110E0B",
"yd	c #13120D",
"zd	c #14130D",
"Ad	c #13110C",
"Bd	c #12120C",
"Cd	c #14120F",
"Dd	c #15150F",
"Ed	c #14110F",
"Fd	c #15120F",
"Gd	c #171513",
"Hd	c #161411",
"Id	c #161412",
"Jd	c #12140E",
"Kd	c #2A2C2F",
"Ld	c #040802",
"Md	c #292627",
"Nd	c #262322",
"Od	c #1F1918",
"Pd	c #241E1F",
"Qd	c #292325",
"Rd	c #272220",
"Sd	c #272123",
"Td	c #262022",
"Ud	c #231B1B",
"Vd	c #271F20",
"Wd	c #2A2425",
"Xd	c #26201F",
"Yd	c #272120",
"Zd	c #282222",
"`d	c #2A2124",
" e	c #2B2427",
".e	c #2A2423",
"+e	c #271F22",
"@e	c #251D1C",
"#e	c #26201D",
"$e	c #25201D",
"%e	c #261F20",
"&e	c #2A2323",
"*e	c #272020",
"=e	c #26211F",
"-e	c #262220",
";e	c #282424",
">e	c #231F1D",
",e	c #231F21",
"'e	c #292725",
")e	c #272225",
"!e	c #353534",
"~e	c #151518",
"{e	c #121615",
"]e	c #151B1B",
"^e	c #161B1A",
"/e	c #181316",
"(e	c #141918",
"_e	c #171C19",
":e	c #090901",
"<e	c #1F2226",
"[e	c #1C211F",
"}e	c #303336",
"|e	c #181B1E",
"1e	c #2C2F31",
"2e	c #37373B",
"3e	c #1B181A",
"4e	c #0B0E09",
"5e	c #191C1F",
"6e	c #080600",
"7e	c #211D20",
"8e	c #211C1D",
"9e	c #221C1F",
"0e	c #2C2524",
"ae	c #251D1D",
"be	c #2C2627",
"ce	c #241C1E",
"de	c #2B2322",
"ee	c #25201E",
"fe	c #2A2321",
"ge	c #221C1B",
"he	c #261E1D",
"ie	c #211C1B",
"je	c #282022",
"ke	c #231D1E",
"le	c #292224",
"me	c #2B2321",
"ne	c #251D1F",
"oe	c #251E1D",
"pe	c #292221",
"qe	c #271E20",
"re	c #2C2423",
"se	c #28211E",
"te	c #302727",
"ue	c #281F20",
"ve	c #282221",
"we	c #2A2122",
"xe	c #2A2524",
"ye	c #261D1E",
"ze	c #281F21",
"Ae	c #2C2624",
"Be	c #2C2625",
"Ce	c #271F1D",
"De	c #211617",
"Ee	c #292122",
"Fe	c #2B2224",
"Ge	c #2A201F",
"He	c #2C2224",
"Ie	c #261F1D",
"Je	c #271F1F",
"Ke	c #2A2426",
"Le	c #2B2527",
"Me	c #111417",
"Ne	c #494A4E",
"Oe	c #070909",
"Pe	c #070A0A",
"Qe	c #070A08",
"Re	c #050707",
"Se	c #07070B",
"Te	c #060607",
"Ue	c #080A0B",
"Ve	c #090A0B",
"We	c #06090A",
"Xe	c #08090A",
"Ye	c #07080B",
"Ze	c #0A0E0A",
"`e	c #050806",
" f	c #050606",
".f	c #09090B",
"+f	c #070907",
"@f	c #070608",
"#f	c #08080B",
"$f	c #080709",
"%f	c #050406",
"&f	c #040506",
"*f	c #07090A",
"=f	c #040606",
"-f	c #070808",
";f	c #040706",
">f	c #030605",
",f	c #070708",
"'f	c #070709",
")f	c #040705",
"!f	c #050505",
"~f	c #09080A",
"{f	c #151214",
"]f	c #0F0C0C",
"^f	c #313334",
"/f	c #1E221D",
"(f	c #22211F",
"_f	c #282020",
":f	c #2C2427",
"<f	c #2A2120",
"[f	c #231A1A",
"}f	c #2E2426",
"|f	c #292322",
"1f	c #292021",
"2f	c #292120",
"3f	c #2F2626",
"4f	c #281F1F",
"5f	c #292121",
"6f	c #2B2122",
"7f	c #2C2122",
"8f	c #29211E",
"9f	c #2C2020",
"0f	c #221817",
"af	c #2B2221",
"bf	c #2B1F21",
"cf	c #271F1E",
"df	c #2E2524",
"ef	c #2D2423",
"ff	c #281C1D",
"gf	c #291F1F",
"hf	c #2E2425",
"if	c #291E1F",
"jf	c #2B2023",
"kf	c #271C1E",
"lf	c #281E1E",
"mf	c #271E1E",
"nf	c #2A211E",
"of	c #2B2120",
"pf	c #271F21",
"qf	c #291E1E",
"rf	c #2A2020",
"sf	c #302725",
"tf	c #2B1F22",
"uf	c #281C1B",
"vf	c #2B2022",
"wf	c #2D1F1F",
"xf	c #2C201F",
"yf	c #29201E",
"zf	c #271D1D",
"Af	c #2F2728",
"Bf	c #251B1B",
"Cf	c #2F2424",
"Df	c #2B2021",
"Ef	c #2B1F1E",
"Ff	c #281C1E",
"Gf	c #302728",
"Hf	c #2F2625",
"If	c #271A1C",
"Jf	c #2B1E21",
"Kf	c #2C201E",
"Lf	c #2C1E21",
"Mf	c #2A1F1E",
"Nf	c #291F20",
"Of	c #2E2624",
"Pf	c #2D2425",
"Qf	c #2C2221",
"Rf	c #281D1E",
"Sf	c #25181B",
"Tf	c #2B2320",
"Uf	c #281E22",
"Vf	c #282123",
"Wf	c #2A2326",
"Xf	c #2B2425",
"Yf	c #36393A",
"Zf	c #434344",
"`f	c #424447",
" g	c #464848",
".g	c #48484A",
"+g	c #47494A",
"@g	c #434346",
"#g	c #46474A",
"$g	c #3F4144",
"%g	c #444346",
"&g	c #44474A",
"*g	c #454648",
"=g	c #3D3F41",
"-g	c #454949",
";g	c #3F4242",
">g	c #38393A",
",g	c #464546",
"'g	c #434548",
")g	c #3E4041",
"!g	c #434446",
"~g	c #424245",
"{g	c #3E3F41",
"]g	c #404244",
"^g	c #38393B",
"/g	c #424347",
"(g	c #383A3C",
"_g	c #414144",
":g	c #434244",
"<g	c #3E3D41",
"[g	c #393C3D",
"}g	c #3A3D40",
"|g	c #404343",
"1g	c #414042",
"2g	c #3E3E41",
"3g	c #434347",
"4g	c #343639",
"5g	c #444447",
"6g	c #3A3C42",
"7g	c #35393A",
"8g	c #383B39",
"9g	c #373A3A",
"0g	c #37383B",
"ag	c #323336",
"bg	c #363839",
"cg	c #343537",
"dg	c #3A393D",
"eg	c #3C3F42",
"fg	c #3D3E42",
"gg	c #343638",
"hg	c #3B3C41",
"ig	c #383E3E",
"jg	c #3E3E42",
"kg	c #393B3C",
"lg	c #3D4141",
"mg	c #413F42",
"ng	c #424444",
"og	c #3A3E3F",
"pg	c #3A3D41",
"qg	c #46484A",
"rg	c #414445",
"sg	c #3A3C3E",
"tg	c #3B3E42",
"ug	c #3B3E3F",
"vg	c #3F3F40",
"wg	c #3E3D42",
"xg	c #414345",
"yg	c #3F4345",
"zg	c #424548",
"Ag	c #474749",
"Bg	c #4B4A4F",
"Cg	c #3A3B3F",
"Dg	c #454448",
"Eg	c #4A4B4E",
"Fg	c #474A4B",
"Gg	c #46484B",
"Hg	c #3C403F",
"Ig	c #4B4E51",
"Jg	c #4B4E4F",
"Kg	c #515457",
"Lg	c #4A4B4D",
"Mg	c #55565B",
"Ng	c #1A1E20",
"Og	c #333637",
"Pg	c #070B06",
"Qg	c #2C2727",
"Rg	c #251E20",
"Sg	c #2D2424",
"Tg	c #2F2326",
"Ug	c #2C2223",
"Vg	c #2F2527",
"Wg	c #2A2221",
"Xg	c #292323",
"Yg	c #2A2022",
"Zg	c #271D1F",
"`g	c #2E2322",
" h	c #2B1E20",
".h	c #2D2022",
"+h	c #281F1D",
"@h	c #312727",
"#h	c #261E1C",
"$h	c #2E2323",
"%h	c #312525",
"&h	c #2A1C1E",
"*h	c #2D1E1F",
"=h	c #302524",
"-h	c #2D1F20",
";h	c #2C1E1F",
">h	c #302423",
",h	c #2D2321",
"'h	c #2E2223",
")h	c #312325",
"!h	c #251A1B",
"~h	c #322426",
"{h	c #2D2220",
"]h	c #291E1D",
"^h	c #312320",
"/h	c #291C1E",
"(h	c #332627",
"_h	c #291D1F",
":h	c #2B2121",
"<h	c #2D2323",
"[h	c #2D2322",
"}h	c #302726",
"|h	c #2C1F21",
"1h	c #2D2221",
"2h	c #2F2022",
"3h	c #312224",
"4h	c #302424",
"5h	c #2D2021",
"6h	c #2B1E1F",
"7h	c #302626",
"8h	c #2A2223",
"9h	c #2F2525",
"0h	c #2D2222",
"ah	c #2C2123",
"bh	c #2C2422",
"ch	c #2D2524",
"dh	c #2A2522",
"eh	c #2E2224",
"fh	c #2B2420",
"gh	c #2D2121",
"hh	c #2B2324",
"ih	c #2D2325",
"jh	c #2A2222",
"kh	c #221A1B",
"lh	c #2C2526",
"mh	c #2F2628",
"nh	c #2E2626",
"oh	c #2B2726",
"ph	c #271E22",
"qh	c #2C2728",
"rh	c #231D20",
"sh	c #1F1D21",
"th	c #4C4E53",
"uh	c #151711",
"vh	c #343637",
"wh	c #1A1816",
"xh	c #2A2727",
"yh	c #333533",
"zh	c #252124",
"Ah	c #292624",
"Bh	c #291F1D",
"Ch	c #342A2A",
"Dh	c #36292B",
"Eh	c #2C2522",
"Fh	c #2F2223",
"Gh	c #2F2322",
"Hh	c #312120",
"Ih	c #342724",
"Jh	c #2E2222",
"Kh	c #342525",
"Lh	c #312624",
"Mh	c #332827",
"Nh	c #372C29",
"Oh	c #332826",
"Ph	c #342827",
"Qh	c #332424",
"Rh	c #342729",
"Sh	c #382A2A",
"Th	c #372828",
"Uh	c #2E2220",
"Vh	c #352623",
"Wh	c #312625",
"Xh	c #3A2C2D",
"Yh	c #322422",
"Zh	c #352527",
"`h	c #3B2D2A",
" i	c #413230",
".i	c #39282A",
"+i	c #362726",
"@i	c #3B2B2A",
"#i	c #352423",
"$i	c #332121",
"%i	c #332322",
"&i	c #352624",
"*i	c #342322",
"=i	c #382D2A",
"-i	c #332622",
";i	c #352724",
">i	c #3A2D2C",
",i	c #3D312F",
"'i	c #3B2D2F",
")i	c #372826",
"!i	c #332524",
"~i	c #362525",
"{i	c #392725",
"]i	c #352523",
"^i	c #332221",
"/i	c #33211F",
"(i	c #362728",
"_i	c #332623",
":i	c #342723",
"<i	c #3D2929",
"[i	c #33231F",
"}i	c #382C27",
"|i	c #352725",
"1i	c #3A2A29",
"2i	c #342527",
"3i	c #382725",
"4i	c #332423",
"5i	c #342320",
"6i	c #392A28",
"7i	c #32201E",
"8i	c #362425",
"9i	c #322520",
"0i	c #372726",
"ai	c #2F201E",
"bi	c #2F2320",
"ci	c #352726",
"di	c #352525",
"ei	c #2F2020",
"fi	c #342925",
"gi	c #38292B",
"hi	c #302623",
"ii	c #342828",
"ji	c #201A1B",
"ki	c #202220",
"li	c #181E1D",
"mi	c #1D1F24",
"ni	c #1D2322",
"oi	c #0C0F0E",
"pi	c #565957",
"qi	c #0A0A0B",
"ri	c #2D3130",
"si	c #303231",
"ti	c #1C1D22",
"ui	c #161214",
"vi	c #261E20",
"wi	c #211612",
"xi	c #16100B",
"yi	c #1B0605",
"zi	c #190702",
"Ai	c #1D0904",
"Bi	c #1C0501",
"Ci	c #220906",
"Di	c #200503",
"Ei	c #1E0702",
"Fi	c #1F0505",
"Gi	c #210607",
"Hi	c #1E0803",
"Ii	c #1E0400",
"Ji	c #210804",
"Ki	c #1F0802",
"Li	c #200603",
"Mi	c #1E0501",
"Ni	c #200704",
"Oi	c #1F0603",
"Pi	c #210402",
"Qi	c #210805",
"Ri	c #1D0504",
"Si	c #210B07",
"Ti	c #1E0704",
"Ui	c #220806",
"Vi	c #210702",
"Wi	c #220604",
"Xi	c #220603",
"Yi	c #240703",
"Zi	c #260D0B",
"`i	c #220502",
" j	c #1F0502",
".j	c #1F0304",
"+j	c #240903",
"@j	c #230905",
"#j	c #260D09",
"$j	c #240905",
"%j	c #260804",
"&j	c #230703",
"*j	c #250503",
"=j	c #220705",
"-j	c #200804",
";j	c #240504",
">j	c #250B07",
",j	c #230707",
"'j	c #1F0801",
")j	c #1F0706",
"!j	c #250806",
"~j	c #230A06",
"{j	c #210504",
"]j	c #240604",
"^j	c #260604",
"/j	c #220605",
"(j	c #270705",
"_j	c #260905",
":j	c #250300",
"<j	c #260907",
"[j	c #220804",
"}j	c #200501",
"|j	c #1F0703",
"1j	c #200702",
"2j	c #230605",
"3j	c #1E0402",
"4j	c #1F0601",
"5j	c #200703",
"6j	c #1E0602",
"7j	c #220704",
"8j	c #1E0202",
"9j	c #1A0505",
"0j	c #180504",
"aj	c #1D0F0B",
"bj	c #261415",
"cj	c #282223",
"dj	c #1B201D",
"ej	c #151A18",
"fj	c #303235",
"gj	c #3C3F3F",
"hj	c #252623",
"ij	c #1C211E",
"jj	c #31312F",
"kj	c #1B2121",
"lj	c #0B0708",
"mj	c #262421",
"nj	c #1E1313",
"oj	c #23150F",
"pj	c #381E1F",
"qj	c #401E1A",
"rj	c #44211D",
"sj	c #452520",
"tj	c #472524",
"uj	c #442221",
"vj	c #452524",
"wj	c #462423",
"xj	c #492926",
"yj	c #482224",
"zj	c #41201D",
"Aj	c #472222",
"Bj	c #441E1C",
"Cj	c #492322",
"Dj	c #482422",
"Ej	c #482722",
"Fj	c #472223",
"Gj	c #482321",
"Hj	c #4C2421",
"Ij	c #512A28",
"Jj	c #49241F",
"Kj	c #442322",
"Lj	c #492624",
"Mj	c #4E2923",
"Nj	c #462320",
"Oj	c #482925",
"Pj	c #4E2C2C",
"Qj	c #522A27",
"Rj	c #512B27",
"Sj	c #4C2926",
"Tj	c #4C2826",
"Uj	c #4F2425",
"Vj	c #482221",
"Wj	c #462220",
"Xj	c #462421",
"Yj	c #492220",
"Zj	c #4F2726",
"`j	c #47211B",
" k	c #4D2525",
".k	c #48221F",
"+k	c #532C27",
"@k	c #482522",
"#k	c #4F2D2A",
"$k	c #502B28",
"%k	c #502926",
"&k	c #4D2524",
"*k	c #4E2A2A",
"=k	c #4B2624",
"-k	c #492321",
";k	c #4C2824",
">k	c #492422",
",k	c #45221D",
"'k	c #462021",
")k	c #491F22",
"!k	c #4B2625",
"~k	c #452525",
"{k	c #4A2527",
"]k	c #4A2823",
"^k	c #4A2624",
"/k	c #45231F",
"(k	c #462424",
"_k	c #4E2626",
":k	c #4A2423",
"<k	c #4B2826",
"[k	c #482223",
"}k	c #4A2122",
"|k	c #49231F",
"1k	c #482620",
"2k	c #4C211E",
"3k	c #492324",
"4k	c #4B2327",
"5k	c #4A2422",
"6k	c #462122",
"7k	c #411F1E",
"8k	c #422120",
"9k	c #421B1A",
"0k	c #381717",
"ak	c #33191A",
"bk	c #251212",
"ck	c #17181C",
"dk	c #4D4E51",
"ek	c #10100A",
"fk	c #020401",
"gk	c #0B0809",
"hk	c #1F1C20",
"ik	c #0A0701",
"jk	c #282925",
"kk	c #090600",
"lk	c #262325",
"mk	c #2A2525",
"nk	c #1E1214",
"ok	c #210603",
"pk	c #BB564D",
"qk	c #C85B55",
"rk	c #CB5A51",
"sk	c #CF5950",
"tk	c #CE5B51",
"uk	c #CD5D53",
"vk	c #CC5E59",
"wk	c #D06159",
"xk	c #CD5B56",
"yk	c #CF5D55",
"zk	c #CF5B56",
"Ak	c #CF5B53",
"Bk	c #D15E57",
"Ck	c #CB5F53",
"Dk	c #D25C56",
"Ek	c #C85851",
"Fk	c #D45F59",
"Gk	c #D25F56",
"Hk	c #CF6057",
"Ik	c #D15D54",
"Jk	c #CD5C54",
"Kk	c #CC564F",
"Lk	c #CC5850",
"Mk	c #CA5750",
"Nk	c #CF5B51",
"Ok	c #C9574E",
"Pk	c #C4564E",
"Qk	c #CA5A54",
"Rk	c #C6564D",
"Sk	c #CA564E",
"Tk	c #CD5650",
"Uk	c #CC574F",
"Vk	c #CC5B54",
"Wk	c #CA5C54",
"Xk	c #C95751",
"Yk	c #CB5951",
"Zk	c #CE5A51",
"`k	c #CE6057",
" l	c #CC5A55",
".l	c #D16459",
"+l	c #D3635A",
"@l	c #D45E55",
"#l	c #D66158",
"$l	c #D66056",
"%l	c #D55C55",
"&l	c #D6605A",
"*l	c #D46259",
"=l	c #CD5950",
"-l	c #CF5E57",
";l	c #DA635B",
">l	c #DA6357",
",l	c #DA6356",
"'l	c #D76357",
")l	c #D66256",
"!l	c #D56257",
"~l	c #D6645A",
"{l	c #D76059",
"]l	c #DE685F",
"^l	c #DA6158",
"/l	c #D85F56",
"(l	c #D55E56",
"_l	c #D45F57",
":l	c #DB665F",
"<l	c #D56058",
"[l	c #D76058",
"}l	c #D75E55",
"|l	c #D66156",
"1l	c #DE685E",
"2l	c #DC645B",
"3l	c #DA655D",
"4l	c #D8625A",
"5l	c #DB675F",
"6l	c #D86458",
"7l	c #D96458",
"8l	c #DC655B",
"9l	c #D76055",
"0l	c #D15F54",
"al	c #D05D52",
"bl	c #D35F54",
"cl	c #D45E57",
"dl	c #D8675B",
"el	c #DC6A5F",
"fl	c #9B4640",
"gl	c #2D1916",
"hl	c #272224",
"il	c #2B2524",
"jl	c #1E1E23",
"kl	c #171416",
"ll	c #212328",
"ml	c #303230",
"nl	c #131112",
"ol	c #171B17",
"pl	c #292526",
"ql	c #1E1E1B",
"rl	c #28272C",
"sl	c #303434",
"tl	c #0A0E0C",
"ul	c #101511",
"vl	c #1D1619",
"wl	c #230500",
"xl	c #EC706A",
"yl	c #F76452",
"zl	c #F46252",
"Al	c #F66051",
"Bl	c #F66654",
"Cl	c #F35F53",
"Dl	c #FD6456",
"El	c #F66155",
"Fl	c #F86154",
"Gl	c #F76453",
"Hl	c #F35F50",
"Il	c #F46050",
"Jl	c #FA6755",
"Kl	c #F15D4F",
"Ll	c #F35E4F",
"Ml	c #F25F51",
"Nl	c #F05A4F",
"Ol	c #F66353",
"Pl	c #F85C50",
"Ql	c #F96050",
"Rl	c #F65F52",
"Sl	c #F05F50",
"Tl	c #F15E4C",
"Ul	c #F25D4C",
"Vl	c #F26050",
"Wl	c #F45F52",
"Xl	c #F65F4E",
"Yl	c #F76255",
"Zl	c #F76352",
"`l	c #F35F52",
" m	c #F1604F",
".m	c #F05E4E",
"+m	c #EF5F54",
"@m	c #F05E51",
"#m	c #F05E52",
"$m	c #F05F54",
"%m	c #EE5F52",
"&m	c #F15E4D",
"*m	c #F25F52",
"=m	c #F26455",
"-m	c #F26352",
";m	c #F05A4E",
">m	c #F15A51",
",m	c #EC614E",
"'m	c #F26153",
")m	c #F15A49",
"!m	c #F05D4B",
"~m	c #EC5E4A",
"{m	c #ED5A4A",
"]m	c #F05C4C",
"^m	c #F05B4D",
"/m	c #F2604E",
"(m	c #F15E52",
"_m	c #F16050",
":m	c #F25E55",
"<m	c #EE594D",
"[m	c #E9594D",
"}m	c #F15B54",
"|m	c #F05C4F",
"1m	c #EC5A4E",
"2m	c #EF584C",
"3m	c #F1614F",
"4m	c #EF5B4A",
"5m	c #ED5C4D",
"6m	c #E65243",
"7m	c #EC5848",
"8m	c #F15A4E",
"9m	c #EE5B4F",
"0m	c #F26555",
"am	c #F16454",
"bm	c #F36455",
"cm	c #F46656",
"dm	c #F66359",
"em	c #F36053",
"fm	c #F56153",
"gm	c #F16252",
"hm	c #F05D4F",
"im	c #F55E50",
"jm	c #F26058",
"km	c #F46858",
"lm	c #FF624E",
"mm	c #C03C2D",
"nm	c #271A17",
"om	c #2E231D",
"pm	c #2B2326",
"qm	c #2E2522",
"rm	c #262227",
"sm	c #3B3E41",
"tm	c #0B0E0D",
"um	c #313135",
"vm	c #070801",
"wm	c #342727",
"xm	c #30211F",
"ym	c #382421",
"zm	c #3D201E",
"Am	c #3B1E1D",
"Bm	c #3A1C19",
"Cm	c #3B1D1A",
"Dm	c #3E2220",
"Em	c #3C2321",
"Fm	c #3B1D1C",
"Gm	c #3E1F1E",
"Hm	c #3C1C1A",
"Im	c #3D1B18",
"Jm	c #41211F",
"Km	c #3B1A1B",
"Lm	c #3E1E1C",
"Mm	c #3B1A1A",
"Nm	c #3F1D1A",
"Om	c #3F1F1F",
"Pm	c #3F1B1B",
"Qm	c #3F1F1D",
"Rm	c #3E201D",
"Sm	c #391A1A",
"Tm	c #401F21",
"Um	c #381815",
"Vm	c #3A1C18",
"Wm	c #402321",
"Xm	c #3E201F",
"Ym	c #3E2021",
"Zm	c #41211C",
"`m	c #3B1E1E",
" n	c #3E1D1A",
".n	c #3E1B1A",
"+n	c #3C1D18",
"@n	c #442020",
"#n	c #3A1816",
"$n	c #44221F",
"%n	c #3D1D19",
"&n	c #3A1B17",
"*n	c #3E1D1B",
"=n	c #3A1B19",
"-n	c #3C1D1B",
";n	c #3B1817",
">n	c #3E1E1E",
",n	c #3F201E",
"'n	c #41221E",
")n	c #492323",
"!n	c #401E1D",
"~n	c #40211B",
"{n	c #411C1C",
"]n	c #3F1C1C",
"^n	c #452120",
"/n	c #421F1D",
"(n	c #441F1E",
"_n	c #411F1C",
":n	c #44201E",
"<n	c #40201E",
"[n	c #3D1D1C",
"}n	c #401D1D",
"|n	c #3B1918",
"1n	c #3F1D1C",
"2n	c #3C1A19",
"3n	c #3D1B1D",
"4n	c #351815",
"5n	c #452624",
"6n	c #3F1B1C",
"7n	c #3D1B1B",
"8n	c #3C1818",
"9n	c #3C1C1B",
"0n	c #391B19",
"an	c #3F201C",
"bn	c #3D1B17",
"cn	c #371815",
"dn	c #381914",
"en	c #3F1D1B",
"fn	c #381A16",
"gn	c #40221F",
"hn	c #3E201A",
"in	c #331411",
"jn	c #3A1E1B",
"kn	c #382222",
"ln	c #372929",
"mn	c #2F2823",
"nn	c #282425",
"on	c #272525",
"pn	c #212421",
"qn	c #202625",
"rn	c #3A3C3D",
"sn	c #12150F",
"tn	c #23272A",
"un	c #39383A",
"vn	c #1A1F1B",
"wn	c #0E0E08",
"xn	c #2F3435",
"yn	c #0A0E07",
"zn	c #090602",
"An	c #262326",
"Bn	c #342C2B",
"Cn	c #3E3436",
"Dn	c #291517",
"En	c #2B1516",
"Fn	c #331D1C",
"Gn	c #311817",
"Hn	c #341A18",
"In	c #331B19",
"Jn	c #2E1615",
"Kn	c #2F1718",
"Ln	c #321B1D",
"Mn	c #331D1D",
"Nn	c #2F1817",
"On	c #30191A",
"Pn	c #351C1B",
"Qn	c #361B19",
"Rn	c #361A1B",
"Sn	c #301815",
"Tn	c #34191A",
"Un	c #32191A",
"Vn	c #391D1E",
"Wn	c #321718",
"Xn	c #341615",
"Yn	c #361C1A",
"Zn	c #391E20",
"`n	c #351B1C",
" o	c #3C201E",
".o	c #3B201F",
"+o	c #381C1B",
"@o	c #361D1B",
"#o	c #391A1B",
"$o	c #3A1E1D",
"%o	c #321715",
"&o	c #361B1B",
"*o	c #361D1A",
"=o	c #381E1B",
"-o	c #341A1B",
";o	c #3B1F1E",
">o	c #3A2020",
",o	c #38201D",
"'o	c #371F1E",
")o	c #371B1B",
"!o	c #3B1F21",
"~o	c #381F1E",
"{o	c #341919",
"]o	c #371C1D",
"^o	c #381A1A",
"/o	c #39201F",
"(o	c #3E2023",
"_o	c #361A18",
":o	c #402322",
"<o	c #3F2524",
"[o	c #3D2221",
"}o	c #361C20",
"|o	c #391C1B",
"1o	c #3C2220",
"2o	c #3B2120",
"3o	c #3A1F1E",
"4o	c #3B2121",
"5o	c #361E1E",
"6o	c #38201F",
"7o	c #3C1C1E",
"8o	c #3D2021",
"9o	c #331A1D",
"0o	c #381E1E",
"ao	c #381D1E",
"bo	c #371B1C",
"co	c #371A1C",
"do	c #391F1C",
"eo	c #392121",
"fo	c #3C2324",
"go	c #3B221F",
"ho	c #3D2324",
"io	c #382322",
"jo	c #3C2020",
"ko	c #321B1B",
"lo	c #382323",
"mo	c #493535",
"no	c #261B1E",
"oo	c #282525",
"po	c #090701",
"qo	c #2B2B2E",
"ro	c #262623",
"so	c #0D0907",
"to	c #2F3031",
"uo	c #282526",
"vo	c #29272A",
"wo	c #241D1C",
"xo	c #2C1F1F",
"yo	c #281B1A",
"zo	c #2F2123",
"Ao	c #302020",
"Bo	c #2F2124",
"Co	c #2B1D22",
"Do	c #261C1E",
"Eo	c #271C1D",
"Fo	c #281A1C",
"Go	c #2B1E1E",
"Ho	c #291D1D",
"Io	c #2B1B1B",
"Jo	c #26181A",
"Ko	c #2E1E20",
"Lo	c #331F23",
"Mo	c #2E2122",
"No	c #291A1F",
"Oo	c #251817",
"Po	c #2A1A1B",
"Qo	c #2A1C1D",
"Ro	c #241617",
"So	c #231514",
"To	c #271A19",
"Uo	c #201315",
"Vo	c #251518",
"Wo	c #27191A",
"Xo	c #26171B",
"Yo	c #312324",
"Zo	c #29171A",
"`o	c #221717",
" p	c #2A1C1C",
".p	c #261819",
"+p	c #2F1D1F",
"@p	c #271819",
"#p	c #2A191C",
"$p	c #281919",
"%p	c #2D1C1D",
"&p	c #2D1F1E",
"*p	c #24161A",
"=p	c #261616",
"-p	c #2A1C1B",
";p	c #302022",
">p	c #28191B",
",p	c #2A1918",
"'p	c #2B1A1C",
")p	c #2D1B1C",
"!p	c #291618",
"~p	c #201314",
"{p	c #2F2024",
"]p	c #2A1B1C",
"^p	c #24171A",
"/p	c #231418",
"(p	c #2D2023",
"_p	c #2C1C20",
":p	c #271818",
"<p	c #2B1C1E",
"[p	c #2C1D1E",
"}p	c #2C1C1B",
"|p	c #291919",
"1p	c #312425",
"2p	c #2D1D21",
"3p	c #2A1E1E",
"4p	c #261B1D",
"5p	c #271C1A",
"6p	c #291A19",
"7p	c #281B1B",
"8p	c #261716",
"9p	c #211719",
"0p	c #2A2021",
"ap	c #201B1C",
"bp	c #282427",
"cp	c #1B1A1F",
"dp	c #474846",
"ep	c #3C3E3F",
"fp	c #0E0909",
"gp	c #120E0D",
"hp	c #2D2B2B",
"ip	c #343432",
"jp	c #2C2523",
"kp	c #342D2D",
"lp	c #2D2728",
"mp	c #2C2222",
"np	c #2B2222",
"op	c #2A2322",
"pp	c #2D2428",
"qp	c #282321",
"rp	c #272021",
"sp	c #261C1D",
"tp	c #2F2623",
"up	c #2A2024",
"vp	c #31282A",
"wp	c #2E2324",
"xp	c #2C2325",
"yp	c #291F21",
"zp	c #2B1F20",
"Ap	c #282023",
"Bp	c #2E2628",
"Cp	c #2E2627",
"Dp	c #302629",
"Ep	c #2B2626",
"Fp	c #2B2223",
"Gp	c #2D2526",
"Hp	c #2C2324",
"Ip	c #2B2323",
"Jp	c #292223",
"Kp	c #231C1C",
"Lp	c #2C2121",
"Mp	c #281E21",
"Np	c #271E1F",
"Op	c #261F22",
"Pp	c #201A1A",
"Qp	c #211B1E",
"Rp	c #373B3B",
"Sp	c #323337",
"Tp	c #0B0E0A",
"Up	c #171A14",
"Vp	c #2F3337",
"Wp	c #29282F",
"Xp	c #080501",
"Yp	c #0C0D06",
"Zp	c #171413",
"`p	c #171313",
" q	c #2A2528",
".q	c #292726",
"+q	c #221D1E",
"@q	c #2D2227",
"#q	c #201B1A",
"$q	c #2D2726",
"%q	c #251E1F",
"&q	c #2C2826",
"*q	c #2A2123",
"=q	c #292324",
"-q	c #261F1C",
";q	c #2B2522",
">q	c #292020",
",q	c #292524",
"'q	c #2B2123",
")q	c #272022",
"!q	c #26211E",
"~q	c #231D1C",
"{q	c #2D2527",
"]q	c #261F1F",
"^q	c #201818",
"/q	c #241F1C",
"(q	c #292123",
"_q	c #241F22",
":q	c #1D171B",
"<q	c #1E1C20",
"[q	c #16191E",
"}q	c #2A302D",
"|q	c #110E0C",
"1q	c #0B0505",
"2q	c #2E2D2A",
"3q	c #201D1C",
"4q	c #0D120F",
"5q	c #262024",
"6q	c #2A2728",
"7q	c #262123",
"8q	c #272326",
"9q	c #2B272A",
"0q	c #282426",
"aq	c #282224",
"bq	c #232320",
"cq	c #241F1D",
"dq	c #1F1919",
"eq	c #272526",
"fq	c #2A2627",
"gq	c #271F23",
"hq	c #282325",
"iq	c #292523",
"jq	c #2E2A28",
"kq	c #292225",
"lq	c #2E2726",
"mq	c #261D21",
"nq	c #2A2626",
"oq	c #2C2428",
"pq	c #231F23",
"qq	c #191E1F",
"rq	c #2C2D31",
"sq	c #1C221E",
"tq	c #303234",
"uq	c #383C3D",
"vq	c #262323",
"wq	c #2A2224",
"xq	c #282423",
"yq	c #292326",
"zq	c #2A2427",
"Aq	c #231D1F",
"Bq	c #26211D",
"Cq	c #241D1F",
"Dq	c #1F1819",
"Eq	c #251D1E",
"Fq	c #2B2625",
"Gq	c #2B2526",
"Hq	c #241D20",
"Iq	c #261E21",
"Jq	c #252220",
"Kq	c #262225",
"Lq	c #0C0603",
"Mq	c #202624",
"Nq	c #121417",
"Oq	c #383739",
"Pq	c #1C191A",
"Qq	c #2A2225",
"Rq	c #262124",
"Sq	c #2B2728",
"Tq	c #2A2527",
"Uq	c #2A2320",
"Vq	c #26221F",
"Wq	c #282428",
"Xq	c #282225",
"Yq	c #251F22",
"Zq	c #221C1E",
"`q	c #292729",
" r	c #1B2221",
".r	c #3B4041",
"+r	c #1A1F22",
"@r	c #1B201C",
"#r	c #1A1B1F",
"$r	c #161110",
"%r	c #343837",
"&r	c #272125",
"*r	c #282324",
"=r	c #2A2628",
"-r	c #2C2929",
";r	c #211B1C",
">r	c #252226",
",r	c #1B2122",
"'r	c #363A3B",
")r	c #212727",
"!r	c #151211",
"~r	c #2E3131",
"{r	c #282628",
"]r	c #221B1E",
"^r	c #252023",
"/r	c #211D21",
"(r	c #241E21",
"_r	c #1D1A1D",
":r	c #1E1A1E",
"<r	c #090506",
"[r	c #333336",
"}r	c #141010",
"|r	c #1C1F1C",
"1r	c #221F24",
"2r	c #252125",
"3r	c #252024",
"4r	c #2A272A",
"5r	c #2F2A29",
"6r	c #2F2B2A",
"7r	c #2F2F2C",
"8r	c #2B2826",
"9r	c #2F2B2B",
"0r	c #312B2B",
"ar	c #302A2A",
"br	c #2D2929",
"cr	c #2A2825",
"dr	c #2C2B28",
"er	c #2B2729",
"fr	c #2C2B29",
"gr	c #2E2C2B",
"hr	c #313131",
"ir	c #1C1D18",
"jr	c #100C0E",
"kr	c #323436",
"lr	c #110E0E",
"mr	c #2B2B30",
"nr	c #232024",
"or	c #0B0903",
"pr	c #0C0804",
"qr	c #0D0904",
"rr	c #0B0803",
"sr	c #0A0602",
"tr	c #0B0703",
"ur	c #323135",
"vr	c #0C0B04",
"wr	c #2C3033",
"xr	c #242125",
"yr	c #252321",
"zr	c #110C09",
"Ar	c #16120E",
"Br	c #171314",
"Cr	c #181415",
"Dr	c #191614",
"Er	c #141112",
"Fr	c #121014",
"Gr	c #1D1E23",
"Hr	c #333639",
"Ir	c #15130E",
"Jr	c #2B2A28",
"Kr	c #38373A",
"Lr	c #2D2D2C",
"Mr	c #0C0C05",
"Nr	c #363537",
"Or	c #23211F",
"Pr	c #1D181A",
"Qr	c #111614",
"Rr	c #130F11",
"Sr	c #090C0B",
"Tr	c #353739",
"Ur	c #0F0F09",
"Vr	c #191A1E",
"Wr	c #3B3D3D",
"Xr	c #2E2F2F",
"Yr	c #0E0F08",
"Zr	c #1B1819",
"`r	c #120F0A",
" s	c #151915",
".s	c #18191E",
"+s	c #080C0A",
"@s	c #3C3D3C",
"#s	c #3D3E3F",
"$s	c #3A3C3B",
"%s	c #444646",
"&s	c #48494E",
"*s	c #414143",
"=s	c #3E4142",
"-s	c #454849",
";s	c #464949",
">s	c #4A4C4D",
",s	c #494849",
"'s	c #4F5053",
")s	c #474648",
"!s	c #3D4040",
"~s	c #3F4240",
"{s	c #404143",
"]s	c #414646",
"^s	c #464648",
"/s	c #080809",
"(s	c #313231",
"_s	c #35383A",
":s	c #262428",
"<s	c #1E1B19",
"[s	c #0A0503",
"}s	c #424247",
"|s	c #0D0D12",
"1s	c #0C1011",
"2s	c #100F13",
"3s	c #08080C",
"4s	c #414446",
"5s	c #25282D",
"6s	c #131717",
"7s	c #0D1110",
"8s	c #141418",
"9s	c #171512",
"0s	c #12150E",
"as	c #181D1D",
"bs	c #28292E",
"cs	c #353838",
"ds	c #171B1D",
"es	c #0F0E08",
"fs	c #3E3D3E",
"gs	c #070201",
"hs	c #3B3A3D",
"is	c #48494D",
"js	c #171414",
"ks	c #050905",
"ls	c #1D1D1A",
"ms	c #0B0508",
"ns	c #313134",
"os	c #262625",
"ps	c #1F1C1F",
"qs	c #171312",
"rs	c #3F4243",
"ss	c #171C1B",
"ts	c #1B1D22",
"us	c #37363B",
"vs	c #0A0D0A",
"ws	c #212528",
"xs	c #0F0D10",
"ys	c #1C1E1A",
"zs	c #1D1A1F",
"As	c #020400",
"Bs	c #2F3033",
"Cs	c #29292E",
"Ds	c #383B3A",
"Es	c #212025",
"Fs	c #040605",
"Gs	c #2D3030",
"Hs	c #0D0A06",
"Is	c #313034",
"Js	c #0D0C05",
"Ks	c #333739",
"Ls	c #0B0D0E",
"Ms	c #343737",
"Ns	c #36383C",
"Os	c #181614",
"Ps	c #2A2F2E",
"Qs	c #21231E",
"Rs	c #333634",
"Ss	c #343233",
"Ts	c #131115",
"Us	c #201E22",
"Vs	c #2A2D2F",
"Ws	c #2A2C30",
"Xs	c #31302E",
"Ys	c #323636",
"Zs	c #211E22",
"`s	c #2E2E32",
" t	c #101315",
".t	c #414344",
"+t	c #1D1E1A",
"@t	c #323335",
"#t	c #020601",
"$t	c #303332",
"%t	c #2B302E",
"&t	c #393E3E",
"*t	c #464647",
"=t	c #474A49",
"-t	c #4C4E50",
";t	c #424340",
">t	c #343333",
",t	c #333736",
"'t	c #0A0505",
")t	c #2B2F2D",
"!t	c #000602",
"~t	c #141215",
"{t	c #100E07",
"]t	c #222522",
"^t	c #0E120F",
"/t	c #222623",
"(t	c #0B0D0F",
"_t	c #100E11",
":t	c #353A39",
"<t	c #323533",
"[t	c #1C201B",
"}t	c #110F10",
"|t	c #242927",
"1t	c #0D0804",
"2t	c #2E2C2E",
"3t	c #313235",
"4t	c #222723",
"5t	c #2E2F2E",
"6t	c #110C0C",
"7t	c #16161A",
"8t	c #1D1D22",
"9t	c #0A090B",
"0t	c #303135",
"at	c #1E2422",
"bt	c #2C3032",
"ct	c #37393C",
"dt	c #1A171C",
"et	c #343232",
"ft	c #0D100F",
"gt	c #25282C",
"ht	c #424243",
"it	c #161315",
"jt	c #191D20",
"kt	c #353639",
"lt	c #181D1A",
"mt	c #0A0E0B",
"nt	c #202026",
"ot	c #24252A",
"pt	c #19191E",
"qt	c #242227",
"rt	c #2B2E2F",
"st	c #080801",
"tt	c #0F0C0D",
"ut	c #030603",
"vt	c #26282D",
"wt	c #414544",
"xt	c #2F2E2C",
"yt	c #131716",
"zt	c #0D0A0C",
"At	c #0B0D07",
"Bt	c #0F0B0A",
"Ct	c #171611",
"Dt	c #0C0707",
"Et	c #0A0700",
"Ft	c #282528",
"Gt	c #39383B",
"Ht	c #08090B",
"It	c #181814",
"Jt	c #2E2D2D",
"Kt	c #252824",
"Lt	c #343438",
"Mt	c #0B0B0E",
"Nt	c #3C3C3D",
"Ot	c #1D1B1F",
"Pt	c #2C2B2F",
"Qt	c #0F0D0E",
"Rt	c #323131",
"St	c #0F120C",
"Tt	c #140F0D",
"Ut	c #323536",
"Vt	c #2E3130",
"Wt	c #35363A",
"Xt	c #323634",
"Yt	c #515256",
"Zt	c #120F12",
"`t	c #181C1E",
" u	c #1E221F",
".u	c #1C1A17",
"+u	c #3F4041",
"@u	c #25252B",
"#u	c #3A3D3E",
"$u	c #353938",
"%u	c #141111",
"&u	c #333434",
"*u	c #15161A",
"=u	c #161B1C",
"-u	c #3E4143",
";u	c #27292D",
">u	c #1E1F25",
",u	c #2C2A2D",
"'u	c #0D1009",
")u	c #343539",
"!u	c #3A3B3D",
"~u	c #2D302C",
"{u	c #29292D",
"]u	c #2F3133",
"^u	c #080B04",
"/u	c #19181D",
"(u	c #1C1E23",
"_u	c #353437",
":u	c #191E20",
"<u	c #1A1B20",
"[u	c #1F2426",
"}u	c #1D2223",
"|u	c #212227",
"1u	c #181A16",
"2u	c #2D3032",
"3u	c #3E3F3F",
"4u	c #1F1C21",
"5u	c #1C2024",
"6u	c #040804",
"7u	c #373A3C",
"8u	c #191F1F",
"9u	c #252429",
"0u	c #161310",
"au	c #2E3232",
"bu	c #262823",
"cu	c #161A15",
"du	c #1A1D19",
"eu	c #181D1F",
"fu	c #13100C",
"gu	c #3F4342",
"hu	c #1D2424",
"iu	c #383738",
"ju	c #19171B",
"ku	c #2F312F",
"lu	c #282A2E",
"mu	c #282D2C",
"nu	c #323638",
"ou	c #2F3331",
"pu	c #171B16",
"qu	c #292C2F",
"ru	c #201F25",
"su	c #222320",
"tu	c #090B0B",
"uu	c #1E1B20",
"vu	c #242328",
"wu	c #040102",
"xu	c #191C22",
"yu	c #1F2524",
"zu	c #100D0A",
"Au	c #303130",
"Bu	c #303034",
"Cu	c #393C3E",
"Du	c #292D2F",
"Eu	c #0F0C08",
"Fu	c #110D09",
"Gu	c #313031",
"Hu	c #161A14",
"Iu	c #262723",
"Ju	c #2D2F2D",
"Ku	c #0D100D",
"Lu	c #060202",
"Mu	c #030403",
"Nu	c #141712",
"Ou	c #454845",
"Pu	c #1C2221",
"Qu	c #3C4040",
"Ru	c #100A0A",
"Su	c #313435",
"Tu	c #3B3C3D",
"Uu	c #373A39",
"Vu	c #343736",
"Wu	c #353735",
"Xu	c #36363A",
"Yu	c #323130",
"Zu	c #292B28",
"`u	c #1B1E1A",
" v	c #141012",
".v	c #191516",
"+v	c #090C0C",
"@v	c #0A0D0B",
"#v	c #494A4F",
"$v	c #060909",
"%v	c #0B0F0C",
"&v	c #0C0E10",
"*v	c #0C0D10",
"=v	c #373838",
"-v	c #3F4343",
";v	c #404141",
">v	c #45484A",
",v	c #414343",
"'v	c #434746",
")v	c #3E4043",
"!v	c #444645",
"~v	c #424142",
"{v	c #3F4341",
"]v	c #3C4041",
"^v	c #424646",
"/v	c #3D3F40",
"(v	c #414242",
"_v	c #424445",
":v	c #404341",
"<v	c #454748",
"[v	c #49484A",
"}v	c #040707",
"|v	c #474A4C",
"1v	c #3F4245",
"2v	c #404245",
"3v	c #3A3C3F",
"4v	c #343939",
"5v	c #3D4140",
"6v	c #363A3A",
"7v	c #363638",
"8v	c #323639",
"9v	c #333235",
"0v	c #36393B",
"av	c #302F34",
"bv	c #35393B",
"cv	c #464749",
"dv	c #282522",
"ev	c #434549",
"fv	c #161A1C",
"gv	c #0F1414",
"hv	c #0F1014",
"iv	c #17161A",
"jv	c #15161B",
"kv	c #14161B",
"lv	c #34373B",
"mv	c #3F3F3F",
"nv	c #2E2C2D",
"ov	c #333439",
"pv	c #0D0A05",
"qv	c #3B3D3E",
"rv	c #111619",
"sv	c #292727",
"tv	c #1B191E",
"uv	c #0E0D06",
"vv	c #070A09",
"wv	c #363738",
"xv	c #191C20",
"yv	c #191B1F",
"zv	c #424545",
"Av	c #474848",
"Bv	c #404145",
"Cv	c #191714",
"Dv	c #282B2F",
"Ev	c #131718",
"Fv	c #2A2E2B",
"Gv	c #262724",
"Hv	c #2A2F2D",
"Iv	c #393A3C",
"Jv	c #27282D",
"Kv	c #444544",
"Lv	c #3F4042",
"Mv	c #1E2025",
"Nv	c #383B3B",
"Ov	c #1D1A17",
"Pv	c #3C3D42",
"Qv	c #14141A",
"Rv	c #211F25",
"Sv	c #353539",
"Tv	c #323535",
"Uv	c #20202A",
"Vv	c #161A16",
"Wv	c #0E0C07",
"Xv	c #262522",
"Yv	c #181A1E",
"Zv	c #161410",
"`v	c #202327",
" w	c #070A0C",
".w	c #25262C",
"+w	c #1A1814",
"@w	c #24272C",
"#w	c #14100D",
"$w	c #212628",
"%w	c #262C2B",
"&w	c #0A0600",
"*w	c #262A2D",
"=w	c #191F1E",
"-w	c #3F4043",
";w	c #14171B",
">w	c #2A3031",
",w	c #2C2F32",
"'w	c #020501",
")w	c #323534",
"!w	c #3E3F42",
"~w	c #232025",
"{w	c #110F12",
"]w	c #151A1B",
"^w	c #131012",
"/w	c #131814",
"(w	c #0D0B0C",
"_w	c #2C2E2C",
":w	c #454649",
"<w	c #191A15",
"[w	c #313634",
"}w	c #110D0D",
"|w	c #343534",
"1w	c #272523",
"2w	c #171B1E",
"3w	c #3B3B3B",
"4w	c #39393B",
"5w	c #0A0A0C",
"6w	c #090C0A",
"7w	c #23221F",
"8w	c #2A2F2C",
"9w	c #303033",
"0w	c #434646",
"aw	c #0D0F10",
"bw	c #151A19",
"cw	c #353937",
"dw	c #3D3F43",
"ew	c #151B17",
"fw	c #36383A",
"gw	c #2A2C31",
"hw	c #101613",
"iw	c #282C2F",
"jw	c #4D4B4C",
"kw	c #2B2D2A",
"lw	c #0C0E08",
"mw	c #292E2C",
"nw	c #2A2729",
"ow	c #161419",
"pw	c #333232",
"qw	c #0A0504",
"rw	c #282823",
"sw	c #120E0F",
"tw	c #0A0606",
"uw	c #151611",
"vw	c #303333",
"ww	c #484B4C",
"xw	c #212320",
"yw	c #22262A",
"zw	c #111615",
"Aw	c #313232",
"Bw	c #070A07",
"Cw	c #262B2C",
"Dw	c #0F0A07",
"Ew	c #48494B",
"Fw	c #1F1D22",
"Gw	c #0A0403",
"Hw	c #252421",
"Iw	c #0F0D06",
"Jw	c #4E4F4D",
"Kw	c #161914",
"Lw	c #0E0C06",
"Mw	c #484649",
"Nw	c #302F2E",
"Ow	c #1E2421",
"Pw	c #414447",
"Qw	c #202522",
"Rw	c #232927",
"Sw	c #3E4243",
"Tw	c #1F1E24",
"Uw	c #2A2C2A",
"Vw	c #181C1F",
"Ww	c #34383A",
"Xw	c #252B2E",
"Yw	c #4F5055",
"Zw	c #303335",
"`w	c #16150F",
" x	c #343735",
".x	c #0B0B04",
"+x	c #1C1C22",
"@x	c #1C2222",
"#x	c #0D0B05",
"$x	c #24221E",
"%x	c #0A0502",
"&x	c #232429",
"*x	c #2A2D30",
"=x	c #43454A",
"-x	c #2D2E32",
";x	c #161813",
">x	c #24231F",
",x	c #0D100E",
"'x	c #020001",
")x	c #111716",
"!x	c #292824",
"~x	c #0C0A0B",
"{x	c #13100D",
"]x	c #404246",
"^x	c #1F2421",
"/x	c #161610",
"(x	c #202127",
"_x	c #171E1C",
":x	c #0B0D06",
"<x	c #302E2E",
"[x	c #100C0B",
"}x	c #222027",
"|x	c #161312",
"1x	c #26251F",
"2x	c #0A0B0E",
"3x	c #0B0B0D",
"4x	c #0B0E0E",
"5x	c #08070A",
"6x	c #303236",
"7x	c #343634",
"8x	c #464849",
"9x	c #0B0C05",
"0x	c #181413",
"ax	c #0D0905",
"bx	c #191D19",
"cx	c #505354",
"dx	c #333537",
"ex	c #37383C",
"fx	c #393F40",
"gx	c #35373A",
"hx	c #323839",
"ix	c #333334",
"jx	c #323232",
"kx	c #414142",
"lx	c #0F1313",
"mx	c #0A0C0D",
"nx	c #110F13",
"ox	c #0C0C10",
"px	c #0F0F13",
"qx	c #1A201D",
"rx	c #1C1B17",
"sx	c #2E302E",
"tx	c #323837",
"ux	c #101513",
"vx	c #0C090A",
"wx	c #333132",
"xx	c #3A3D3C",
"yx	c #0B0605",
"zx	c #2E2E2C",
"Ax	c #37363A",
"Bx	c #20221E",
"Cx	c #2F3334",
"Dx	c #23231F",
"Ex	c #191E1C",
"Fx	c #1E2225",
"Gx	c #3B413F",
"Hx	c #171D1D",
"Ix	c #0A080A",
"Jx	c #323537",
"Kx	c #343533",
"Lx	c #1D191D",
"Mx	c #292724",
"Nx	c #373B3C",
"Ox	c #3A3D3B",
"Px	c #151418",
"Qx	c #171613",
"Rx	c #1D211D",
"Sx	c #2A2824",
"Tx	c #272420",
"Ux	c #181D18",
"Vx	c #13130D",
"Wx	c #222228",
"Xx	c #131419",
"Yx	c #1D1E24",
"Zx	c #363539",
"`x	c #0B0603",
" y	c #2F3231",
".y	c #0B0504",
"+y	c #272723",
"@y	c #151311",
"#y	c #333636",
"$y	c #0C0705",
"%y	c #0E0D0F",
"&y	c #1D1E19",
"*y	c #1A1A21",
"=y	c #100C0D",
"-y	c #2C302F",
";y	c #202521",
">y	c #333436",
",y	c #343635",
"'y	c #151813",
")y	c #171211",
"!y	c #16171C",
"~y	c #0D0807",
"{y	c #464847",
"]y	c #323235",
"^y	c #0B0F0E",
"/y	c #1B2023",
"(y	c #29262A",
"_y	c #181B1F",
":y	c #313337",
"<y	c #393839",
"[y	c #303035",
"}y	c #222127",
"|y	c #090D0B",
"1y	c #151115",
"2y	c #3D3F3D",
"3y	c #3A3737",
"4y	c #191914",
"5y	c #0C0606",
"6y	c #242320",
"7y	c #201D22",
"8y	c #0E0C0E",
"9y	c #171E1B",
"0y	c #1E221E",
"ay	c #1E2423",
"by	c #272622",
"cy	c #181F1F",
"dy	c #171412",
"ey	c #17171C",
"fy	c #313432",
"gy	c #292723",
"hy	c #2D2C30",
"iy	c #0F0B0B",
"jy	c #34383B",
"ky	c #2A2C29",
"ly	c #1B2120",
"my	c #22221E",
"ny	c #121718",
"oy	c #0C090B",
"py	c #353536",
"qy	c #2F2E31",
"ry	c #343337",
"sy	c #313332",
"ty	c #2E3234",
"uy	c #282D2D",
"vy	c #0A0809",
"wy	c #080D0A",
"xy	c #393A40",
"yy	c #3F403E",
"zy	c #333838",
"Ay	c #333837",
"By	c #191A16",
"Cy	c #2C3231",
"Dy	c #141011",
"Ey	c #191514",
"Fy	c #2A2624",
"Gy	c #1B1817",
"Hy	c #202429",
"Iy	c #181B21",
"Jy	c #3B393B",
"Ky	c #2D2F32",
"Ly	c #17191D",
"My	c #28262A",
"Ny	c #28272A",
"Oy	c #1F1D1B",
"Py	c #313133",
"Qy	c #0F0C0E",
"Ry	c #272C2B",
"Sy	c #1B1917",
"Ty	c #313033",
"Uy	c #22272A",
"Vy	c #333134",
"Wy	c #272521",
"Xy	c #111316",
"Yy	c #313433",
"Zy	c #151519",
"`y	c #4E5151",
" z	c #535557",
".z	c #555958",
"+z	c #5A595C",
"@z	c #515152",
"#z	c #515351",
"$z	c #565759",
"%z	c #47474B",
"&z	c #555757",
"*z	c #575659",
"=z	c #4A494B",
"-z	c #515253",
";z	c #54565A",
">z	c #525154",
",z	c #636261",
"'z	c #5B605F",
")z	c #626267",
"!z	c #5B5B60",
"~z	c #616463",
"{z	c #5C5F5F",
"]z	c #626567",
"^z	c #545557",
"/z	c #525254",
"(z	c #5A5C5F",
"_z	c #626064",
":z	c #5B5F5E",
"<z	c #57585C",
"[z	c #5A5B5E",
"}z	c #5B5E5F",
"|z	c #606064",
"1z	c #13141A",
"2z	c #191813",
"3z	c #171415",
"4z	c #151111",
"5z	c #1F2126",
"6z	c #3F3D40",
"7z	c #414244",
"8z	c #161519",
"9z	c #333233",
"0z	c #090C0E",
"az	c #0A0C0F",
"bz	c #2B2F2E",
"cz	c #353537",
"dz	c #050907",
"ez	c #222429",
"fz	c #303331",
"gz	c #292E2E",
"hz	c #3B3D40",
"iz	c #383A39",
"jz	c #272722",
"kz	c #1A1716",
"lz	c #3A3A3A",
"mz	c #2C312F",
"nz	c #3C3C3E",
"oz	c #3A3A37",
"pz	c #202228",
"qz	c #2B292A",
"rz	c #383D3C",
"sz	c #2D3134",
"tz	c #05080A",
"uz	c #363A39",
"vz	c #2E2D31",
"wz	c #2F3135",
"xz	c #1C1D19",
"yz	c #120E09",
"zz	c #313237",
"Az	c #2F3433",
"Bz	c #1D2125",
"Cz	c #0D0805",
"Dz	c #333234",
"Ez	c #080303",
"Fz	c #0F0B0E",
"Gz	c #3C3B3D",
"Hz	c #313436",
"Iz	c #292A27",
"Jz	c #2F3134",
"Kz	c #0A0708",
"Lz	c #414147",
"Mz	c #171711",
"Nz	c #2F312E",
"Oz	c #505052",
"Pz	c #23242B",
"Qz	c #1D1B20",
"Rz	c #151217",
"Sz	c #1B1E23",
"Tz	c #515655",
"Uz	c #161611",
"Vz	c #373B3A",
"Wz	c #252523",
"Xz	c #474B4C",
"Yz	c #161B1B",
"Zz	c #373B38",
"`z	c #4C4D50",
" A	c #313331",
".A	c #121714",
"+A	c #3C3F3E",
"@A	c #3B393D",
"#A	c #2D3131",
"$A	c #47494B",
"%A	c #0C0909",
"&A	c #080403",
"*A	c #514F53",
"=A	c #2B2E31",
"-A	c #090D08",
";A	c #26262C",
">A	c #201E24",
",A	c #030707",
"'A	c #1B1816",
")A	c #3A3D3D",
"!A	c #171A15",
"~A	c #515355",
"{A	c #15171B",
"]A	c #353A38",
"^A	c #323134",
"/A	c #080C0B",
"(A	c #1F231F",
"_A	c #151012",
":A	c #363534",
"<A	c #5A5A5F",
"[A	c #0E0B05",
"}A	c #373C3C",
"|A	c #3C3F40",
"1A	c #120E10",
"2A	c #424242",
"3A	c #15191B",
"4A	c #0F0B09",
"5A	c #3A3738",
"6A	c #14150F",
"7A	c #292629",
"8A	c #424343",
"9A	c #0C100B",
"0A	c #08090D",
"aA	c #585B5C",
"bA	c #020505",
"cA	c #14181A",
"dA	c #020403",
"eA	c #0D0D06",
"fA	c #37383D",
"gA	c #141318",
"hA	c #2D2D2B",
"iA	c #1A1F1C",
"jA	c #2E2F36",
"kA	c #2E3231",
"lA	c #29272B",
"mA	c #303533",
"nA	c #090E09",
"oA	c #1A1F21",
"pA	c #1A171B",
"qA	c #161B1D",
"rA	c #20201D",
"sA	c #424643",
"tA	c #3E4042",
"uA	c #47484B",
"vA	c #434245",
"wA	c #393B3D",
"xA	c #404344",
"yA	c #3C3D40",
"zA	c #3B3D41",
"AA	c #3C3B41",
"BA	c #3F3F44",
"CA	c #434545",
"DA	c #3E3E3F",
"EA	c #3B3F3F",
"FA	c #050607",
"GA	c #464746",
"HA	c #474747",
"IA	c #474948",
"JA	c #494A4C",
"KA	c #4A4A4B",
"LA	c #4C4C4D",
"MA	c #484748",
"NA	c #4D4F4F",
"OA	c #4A4A4F",
"PA	c #4B4A4B",
"QA	c #4D4E50",
"RA	c #464748",
"SA	c #444247",
"TA	c #4E4E51",
"UA	c #494A4D",
"VA	c #4E4F52",
"WA	c #4A4B4C",
"XA	c #4B4B4D",
"YA	c #4F5151",
"ZA	c #515153",
"`A	c #4F514F",
" B	c #525256",
".B	c #545656",
"+B	c #1D2320",
"@B	c #383B3E",
"#B	c #1B1C18",
"$B	c #090C05",
"%B	c #181914",
"&B	c #2C2E31",
"*B	c #1E2320",
"=B	c #1D1D23",
"-B	c #444244",
";B	c #0D0D10",
">B	c #0E1211",
",B	c #111318",
"'B	c #110B0A",
")B	c #24252C",
"!B	c #353335",
"~B	c #0C0A0D",
"{B	c #3B3B39",
"]B	c #161C1A",
"^B	c #0E0906",
"/B	c #3D3F42",
"(B	c #060C08",
"_B	c #0E1310",
":B	c #0E1009",
"<B	c #1B1C21",
"[B	c #39393A",
"}B	c #0D0A0B",
"|B	c #28282D",
"1B	c #110E0F",
"2B	c #282421",
"3B	c #1A191E",
"4B	c #020205",
"5B	c #161311",
"6B	c #242B29",
"7B	c #3C3E43",
"8B	c #313132",
"9B	c #333538",
"0B	c #1C1B20",
"aB	c #353538",
"bB	c #303537",
"cB	c #363536",
"dB	c #3E4141",
"eB	c #101512",
"fB	c #141917",
"gB	c #0A0E0F",
"hB	c #2C2A2F",
"iB	c #474649",
"jB	c #35363B",
"kB	c #191311",
"lB	c #1A201E",
"mB	c #2D2C2F",
"nB	c #1F1C22",
"oB	c #0A0E09",
"pB	c #120E0C",
"qB	c #191E1B",
"rB	c #17171D",
"sB	c #21221E",
"tB	c #050204",
"uB	c #414348",
"vB	c #282D31",
"wB	c #090D0A",
"xB	c #050305",
"yB	c #070B0A",
"zB	c #181C20",
"AB	c #060A08",
"BB	c #242521",
"CB	c #2C2B2E",
"DB	c #2D3133",
"EB	c #2D2E31",
"FB	c #1B1A20",
"GB	c #181519",
"HB	c #0A0709",
"IB	c #0F0C07",
"JB	c #0B0F0F",
"KB	c #282E2E",
"LB	c #181D1E",
"MB	c #232521",
"NB	c #363639",
"OB	c #2B2F31",
"PB	c #2A2A2F",
"QB	c #090D09",
"RB	c #313335",
"SB	c #0A0D0F",
"TB	c #363938",
"UB	c #2E2E31",
"VB	c #262622",
"WB	c #2A2F30",
"XB	c #37393E",
"YB	c #0B0802",
"ZB	c #2F2E2F",
"`B	c #1F2327",
" C	c #2D3331",
".C	c #0A0B03",
"+C	c #2A2A25",
"@C	c #3A3F3E",
"#C	c #3D3C41",
"$C	c #3F3D3E",
"%C	c #1F1F1B",
"&C	c #262925",
"*C	c #373C3E",
"=C	c #030406",
"-C	c #313434",
";C	c #1B181C",
">C	c #120E0E",
",C	c #303433",
"'C	c #1F2420",
")C	c #3B383B",
"!C	c #0E120D",
"~C	c #262521",
"{C	c #1A1719",
"]C	c #100C0C",
"^C	c #070607",
"/C	c #565757",
"(C	c #252622",
"_C	c #0E0A07",
":C	c #3D4042",
"<C	c #4A4A4A",
"[C	c #4C4D4C",
"}C	c #514E50",
"|C	c #4C4D4E",
"1C	c #515051",
"2C	c #4C4B4E",
"3C	c #505151",
"4C	c #4D4E4E",
"5C	c #4E4F51",
"6C	c #4E4E4E",
"7C	c #51524F",
"8C	c #444444",
"9C	c #171417",
"0C	c #060A0A",
"aC	c #0D1013",
"bC	c #0D0C0F",
"cC	c #0B0F0A",
"dC	c #050808",
"eC	c #050709",
"fC	c #050708",
"gC	c #17161B",
"hC	c #515556",
"iC	c #505355",
"jC	c #4E5153",
"kC	c #5A5C60",
"lC	c #5E5F61",
"mC	c #525354",
"nC	c #4F5051",
"oC	c #5A5C5C",
"pC	c #565555",
"qC	c #575759",
"rC	c #575657",
"sC	c #5A5E5E",
"tC	c #4D4F52",
"uC	c #535355",
"vC	c #4F5254",
"wC	c #4F5052",
"xC	c #4E5154",
"yC	c #444849",
"zC	c #454347",
"AC	c #474746",
"BC	c #4F5255",
"CC	c #4A4D4E",
"DC	c #424346",
"EC	c #474B4D",
"FC	c #49494B",
"GC	c #4E5355",
"HC	c #06090B",
"IC	c #535859",
"JC	c #141A17",
"KC	c #0F0B0C",
"LC	c #22231F",
"MC	c #18161D",
"NC	c #3A3E3D",
"OC	c #161B16",
"PC	c #272824",
"QC	c #3A3A3D",
"RC	c #040405",
"SC	c #0C100F",
"TC	c #101510",
"UC	c #1E1B1F",
"VC	c #0C0807",
"WC	c #181612",
"XC	c #100D0F",
"YC	c #1C191D",
"ZC	c #171215",
"`C	c #373637",
" D	c #161211",
".D	c #151215",
"+D	c #343835",
"@D	c #2C3233",
"#D	c #252A2B",
"$D	c #181713",
"%D	c #100C09",
"&D	c #0D0B0E",
"*D	c #434648",
"=D	c #333438",
"-D	c #0F1215",
";D	c #121318",
">D	c #110D07",
",D	c #3B3C3F",
"'D	c #14120E",
")D	c #0E0B0D",
"!D	c #3D3B3D",
"~D	c #100D10",
"{D	c #131317",
"]D	c #3E3D40",
"^D	c #23282A",
"/D	c #4D4C4F",
"(D	c #1C1919",
"_D	c #1A1A1F",
":D	c #0F0A06",
"<D	c #373D3A",
"[D	c #0E0A0C",
"}D	c #111613",
"|D	c #0B0D04",
"1D	c #484B4D",
"2D	c #39393C",
"3D	c #38383C",
"4D	c #343437",
"5D	c #38383D",
"6D	c #3D3B3F",
"7D	c #302E32",
"8D	c #3B3C40",
"9D	c #414146",
"0D	c #272524",
"aD	c #0B0902",
"bD	c #404044",
"cD	c #181C17",
"dD	c #030505",
"eD	c #3B3B3E",
"fD	c #11100A",
"gD	c #050306",
"hD	c #0C0602",
"iD	c #0B0404",
"jD	c #040406",
"kD	c #0F1311",
"lD	c #181414",
"mD	c #171813",
"nD	c #0B0503",
"oD	c #2E2C2C",
"pD	c #232622",
"qD	c #090709",
"rD	c #292623",
"sD	c #1C1C17",
"tD	c #0C0803",
"uD	c #151113",
"vD	c #120D0E",
"wD	c #2D302D",
"xD	c #110C0D",
"yD	c #242420",
"zD	c #2F2F30",
"AD	c #030703",
"BD	c #24211E",
"CD	c #0F1109",
"DD	c #16161B",
"ED	c #302E31",
"FD	c #201F1C",
"GD	c #0D0604",
"HD	c #0D110B",
"ID	c #080B0B",
"JD	c #030404",
"KD	c #020605",
"LD	c #010303",
"MD	c #030504",
"ND	c #000403",
"OD	c #030307",
"PD	c #020303",
"QD	c #4C4E4F",
"RD	c #3B3F41",
"SD	c #454749",
"TD	c #151B1A",
"UD	c #030705",
"VD	c #070B09",
"WD	c #0C0F0A",
"XD	c #292728",
"YD	c #343334",
"ZD	c #2F2D2C",
"`D	c #35393D",
" E	c #1B211F",
".E	c #12120A",
"+E	c #1B211D",
"@E	c #3F413F",
"#E	c #363C3A",
"$E	c #13120C",
"%E	c #343532",
"&E	c #3B3A3A",
"*E	c #353734",
"=E	c #353433",
"-E	c #4B4D4E",
";E	c #313535",
">E	c #090403",
",E	c #161112",
"'E	c #47464A",
")E	c #040805",
"!E	c #0E0E12",
"~E	c #0B0C0F",
"{E	c #060908",
"]E	c #25252A",
"^E	c #111510",
"/E	c #242228",
"(E	c #171511",
"_E	c #262722",
":E	c #434645",
"<E	c #272D2A",
"[E	c #120F11",
"}E	c #383A3D",
"|E	c #252926",
"1E	c #090E0B",
"2E	c #2C2F33",
"3E	c #303432",
"4E	c #3A3E40",
"5E	c #262320",
"6E	c #2B2B2F",
"7E	c #060000",
"8E	c #0B110B",
"9E	c #353939",
"0E	c #222724",
"aE	c #212629",
"bE	c #0B0502",
"cE	c #2D3033",
"dE	c #18171C",
"eE	c #0A0401",
"fE	c #292D2A",
"gE	c #18161B",
"hE	c #151812",
"iE	c #3E3C3E",
"jE	c #080C08",
"kE	c #2F2E33",
"lE	c #2E3433",
"mE	c #0A0608",
"nE	c #1A1F1A",
"oE	c #090405",
"pE	c #1A161C",
"qE	c #191F1B",
"rE	c #333133",
"sE	c #323635",
"tE	c #181513",
"uE	c #131818",
"vE	c #0F0A0B",
"wE	c #232421",
"xE	c #171712",
"yE	c #110E11",
"zE	c #1E1B21",
"AE	c #2D2E2B",
"BE	c #030600",
"CE	c #38393D",
"DE	c #343235",
"EE	c #23231E",
"FE	c #1B1D19",
"GE	c #0E0A0A",
"HE	c #323332",
"IE	c #404346",
"JE	c #404042",
"KE	c #090700",
"LE	c #363835",
"ME	c #20231F",
"NE	c #242623",
"OE	c #282924",
"PE	c #212026",
"QE	c #080700",
"RE	c #191A1F",
"SE	c #26292D",
"TE	c #100D07",
"UE	c #0C0904",
"VE	c #171612",
"WE	c #0B0607",
"XE	c #181518",
"YE	c #45464B",
"ZE	c #414342",
"`E	c #3B4141",
" F	c #454846",
".F	c #464446",
"+F	c #494C4B",
"@F	c #47494D",
"#F	c #464948",
"$F	c #4A4B4F",
"%F	c #404243",
"&F	c #414444",
"*F	c #434547",
"=F	c #4B4D4D",
"-F	c #45494C",
";F	c #444648",
">F	c #464A4A",
",F	c #464747",
"'F	c #464548",
")F	c #424645",
"!F	c #4A4C4E",
"~F	c #1E1D23",
"{F	c #16191D",
"]F	c #15181C",
"^F	c #1A2020",
"/F	c #2E2C2F",
"(F	c #0D0702",
"_F	c #252320",
":F	c #242024",
"<F	c #1C1A21",
"[F	c #181613",
"}F	c #333337",
"|F	c #3F413E",
"1F	c #24241F",
"2F	c #1D1A1E",
"3F	c #12140D",
"4F	c #0D0707",
"5F	c #0C0706",
"6F	c #1B221F",
"7F	c #171411",
"8F	c #24241E",
"9F	c #13120B",
"0F	c #31302F",
"aF	c #070508",
"bF	c #130E10",
"cF	c #353334",
"dF	c #212623",
"eF	c #323230",
"fF	c #141812",
"gF	c #090404",
"hF	c #1A1A20",
"iF	c #2B2C31",
"jF	c #100D08",
"kF	c #020604",
"lF	c #0F1007",
"mF	c #040807",
"nF	c #130F0D",
"oF	c #1D1F1B",
"pF	c #161011",
"qF	c #2A2625",
"rF	c #0D1210",
"sF	c #060901",
"tF	c #302F2D",
"uF	c #16110F",
"vF	c #25231F",
"wF	c #1B1619",
"xF	c #0F0A09",
"yF	c #292823",
"zF	c #424044",
"AF	c #191210",
"BF	c #1E1A1F",
"CF	c #191412",
"DF	c #30302E",
"EF	c #1A1612",
"FF	c #1E1A1C",
"GF	c #1F1C1B",
"HF	c #171310",
"IF	c #1D191A",
"JF	c #191E1A",
"KF	c #050909",
"LF	c #181514",
"MF	c #18130E",
"NF	c #1B1716",
"OF	c #1F1B1C",
"PF	c #0F0B06",
"QF	c #161111",
"RF	c #181311",
"SF	c #020500",
"TF	c #312F30",
"UF	c #1A1514",
"VF	c #171410",
"WF	c #1A130F",
"XF	c #25221E",
"YF	c #221A1D",
"ZF	c #211B1D",
"`F	c #23211E",
" G	c #221D1F",
".G	c #27211F",
"+G	c #272428",
"@G	c #140F11",
"#G	c #0C0604",
"$G	c #181410",
"%G	c #2D2C2C",
"&G	c #1A1618",
"*G	c #1A1614",
"=G	c #1B1012",
"-G	c #221B1B",
";G	c #21191B",
">G	c #1E1C1A",
",G	c #19171C",
"'G	c #2F3333",
")G	c #070405",
"!G	c #1F1B1F",
"~G	c #1C1415",
"{G	c #1C1514",
"]G	c #241918",
"^G	c #271E1D",
"/G	c #241D1D",
"(G	c #201B1B",
"_G	c #3E3D3B",
":G	c #303031",
"<G	c #12130C",
"[G	c #13100B",
"}G	c #11150F",
"|G	c #1C1A20",
"1G	c #15120D",
"2G	c #1C1615",
"3G	c #2E2A27",
"4G	c #1B1516",
"5G	c #1D1815",
"6G	c #241714",
"7G	c #322A2A",
"8G	c #261817",
"9G	c #1B0F0C",
"0G	c #2D2525",
"aG	c #20191C",
"bG	c #251F1D",
"cG	c #1C1715",
"dG	c #1E1919",
"eG	c #1E1617",
"fG	c #1F1614",
"gG	c #241514",
"hG	c #291818",
"iG	c #130704",
"jG	c #170A07",
"kG	c #1F0E0D",
"lG	c #261915",
"mG	c #28211F",
"nG	c #271B1C",
"oG	c #201D1B",
"pG	c #1C181A",
"qG	c #212520",
"rG	c #15151A",
"sG	c #0D0D11",
"tG	c #090D0D",
"uG	c #0A0D0D",
"vG	c #160F10",
"wG	c #2B2727",
"xG	c #100B09",
"yG	c #201517",
"zG	c #1F1411",
"AG	c #251514",
"BG	c #210E0F",
"CG	c #34201F",
"DG	c #341715",
"EG	c #40201B",
"FG	c #2B1A14",
"GG	c #2A1F1B",
"HG	c #2E1E1F",
"IG	c #1D1818",
"JG	c #020402",
"KG	c #474A4A",
"LG	c #303136",
"MG	c #323133",
"NG	c #353438",
"OG	c #525357",
"PG	c #2D3132",
"QG	c #2F3235",
"RG	c #18130F",
"SG	c #0D0705",
"TG	c #211816",
"UG	c #241715",
"VG	c #291516",
"WG	c #352325",
"XG	c #331715",
"YG	c #D46D60",
"ZG	c #85342D",
"`G	c #3E2B2C",
" H	c #362223",
".H	c #291E1C",
"+H	c #302223",
"@H	c #2B2020",
"#H	c #271D1E",
"$H	c #1F1A1B",
"%H	c #1C1917",
"&H	c #0A0507",
"*H	c #2E2D30",
"=H	c #0B0F0D",
"-H	c #1F191C",
";H	c #201B19",
">H	c #1E191B",
",H	c #282120",
"'H	c #0F0908",
")H	c #211412",
"!H	c #231513",
"~H	c #291212",
"{H	c #392329",
"]H	c #380D0D",
"^H	c #F96A5E",
"/H	c #C2554C",
"(H	c #3A2425",
"_H	c #361D1D",
":H	c #342324",
"<H	c #1B1718",
"[H	c #333737",
"}H	c #2E2F32",
"|H	c #1A1314",
"1H	c #140D0D",
"2H	c #3A3334",
"3H	c #0F0505",
"4H	c #201413",
"5H	c #261413",
"6H	c #2F1917",
"7H	c #362023",
"8H	c #3C0E0D",
"9H	c #FA6F5E",
"0H	c #BA4D43",
"aH	c #3A2422",
"bH	c #281C1C",
"cH	c #221A18",
"dH	c #231C1B",
"eH	c #20181B",
"fH	c #1C1618",
"gH	c #1C1716",
"hH	c #1E1C19",
"iH	c #1C1714",
"jH	c #2F2B2C",
"kH	c #292023",
"lH	c #110704",
"mH	c #311916",
"nH	c #341F21",
"oH	c #401112",
"pH	c #F56A5C",
"qH	c #B4453B",
"rH	c #3C2624",
"sH	c #3C1E1D",
"tH	c #2B211F",
"uH	c #3B2524",
"vH	c #1F1A18",
"wH	c #1F191A",
"xH	c #1C1614",
"yH	c #1D1515",
"zH	c #0F090A",
"AH	c #373633",
"BH	c #2A2325",
"CH	c #120807",
"DH	c #271815",
"EH	c #291816",
"FH	c #311D1C",
"GH	c #372225",
"HH	c #421215",
"IH	c #F76B5E",
"JH	c #BB4F44",
"KH	c #422A27",
"LH	c #41201F",
"MH	c #2D2122",
"NH	c #351D1D",
"OH	c #2A1D1B",
"PH	c #251A19",
"QH	c #241B1C",
"RH	c #201B1E",
"SH	c #1A1312",
"TH	c #130B09",
"UH	c #343130",
"VH	c #110908",
"WH	c #241314",
"XH	c #291715",
"YH	c #2D1614",
"ZH	c #311B1D",
"`H	c #3F0F0F",
" I	c #F76E61",
".I	c #BB4D43",
"+I	c #412829",
"@I	c #3B1C1D",
"#I	c #302122",
"$I	c #2B1C1C",
"%I	c #2A221F",
"&I	c #241F1E",
"*I	c #1E1816",
"=I	c #1B191F",
"-I	c #1A1412",
";I	c #130B08",
">I	c #292022",
",I	c #271616",
"'I	c #2A1614",
")I	c #2C1515",
"!I	c #382120",
"~I	c #44120F",
"{I	c #F96D5F",
"]I	c #B84A41",
"^I	c #3C2625",
"/I	c #2B1C1A",
"(I	c #341D1B",
"_I	c #261A1A",
":I	c #343332",
"<I	c #252520",
"[I	c #0D090A",
"}I	c #191312",
"|I	c #1D1615",
"1I	c #150F0D",
"2I	c #302A28",
"3I	c #2F2729",
"4I	c #0F0907",
"5I	c #271513",
"6I	c #2A1715",
"7I	c #311614",
"8I	c #371F1D",
"9I	c #410B0C",
"0I	c #F66C5B",
"aI	c #B34740",
"bI	c #39211F",
"cI	c #34211F",
"dI	c #382020",
"eI	c #301E1F",
"fI	c #2A1F1F",
"gI	c #271D1C",
"hI	c #251A1C",
"iI	c #281E1F",
"jI	c #282721",
"kI	c #1F1C1A",
"lI	c #1B1713",
"mI	c #1B1715",
"nI	c #100806",
"oI	c #382F2E",
"pI	c #2E2727",
"qI	c #0F0703",
"rI	c #281819",
"sI	c #2C1A16",
"tI	c #301715",
"uI	c #3C2121",
"vI	c #471713",
"wI	c #F66A5D",
"xI	c #B1463E",
"yI	c #402426",
"zI	c #462425",
"AI	c #322120",
"BI	c #372123",
"CI	c #2A1A19",
"DI	c #302323",
"EI	c #261E1E",
"FI	c #211B1A",
"GI	c #3A3B3E",
"HI	c #1A1512",
"II	c #191012",
"JI	c #140B0A",
"KI	c #36302F",
"LI	c #271A1B",
"MI	c #2C1618",
"NI	c #291614",
"OI	c #311816",
"PI	c #3A211C",
"QI	c #431112",
"RI	c #F46D63",
"SI	c #B0473C",
"TI	c #3F2324",
"UI	c #3F2321",
"VI	c #352123",
"WI	c #311F20",
"XI	c #30201F",
"YI	c #241A1B",
"ZI	c #1E1614",
"`I	c #141610",
" J	c #221F1C",
".J	c #14090A",
"+J	c #403937",
"@J	c #2A211F",
"#J	c #302523",
"$J	c #190B0A",
"%J	c #291616",
"&J	c #321F18",
"*J	c #301816",
"=J	c #461111",
"-J	c #F96E60",
";J	c #B4493E",
">J	c #44282A",
",J	c #40211D",
"'J	c #312223",
")J	c #351B16",
"!J	c #2E201D",
"~J	c #2A1F1D",
"{J	c #241A19",
"]J	c #211A1C",
"^J	c #1F181C",
"/J	c #353A3A",
"(J	c #2D292A",
"_J	c #18110F",
":J	c #1E1716",
"<J	c #180E0D",
"[J	c #332A2B",
"}J	c #2D2224",
"|J	c #2F2321",
"1J	c #312627",
"2J	c #150809",
"3J	c #241413",
"4J	c #2C1612",
"5J	c #2E1714",
"6J	c #3F2121",
"7J	c #440D0D",
"8J	c #F96A5F",
"9J	c #B4483E",
"0J	c #472C2B",
"aJ	c #452220",
"bJ	c #352524",
"cJ	c #392020",
"dJ	c #2C1D1C",
"eJ	c #291D1C",
"fJ	c #271D20",
"gJ	c #231B1A",
"hJ	c #363437",
"iJ	c #141A18",
"jJ	c #1F1D1A",
"kJ	c #211B1F",
"lJ	c #221B1A",
"mJ	c #1B1213",
"nJ	c #1F1815",
"oJ	c #140B0B",
"pJ	c #3C3332",
"qJ	c #29201F",
"rJ	c #150807",
"sJ	c #2D1A18",
"tJ	c #2D1716",
"uJ	c #2F1310",
"vJ	c #43100D",
"wJ	c #F56A60",
"xJ	c #B84940",
"yJ	c #442929",
"zJ	c #322223",
"AJ	c #3E2323",
"BJ	c #2B1C1B",
"CJ	c #231A19",
"DJ	c #291D1E",
"EJ	c #211A18",
"FJ	c #1D1819",
"GJ	c #161510",
"HJ	c #0F0C05",
"IJ	c #241D1B",
"JJ	c #1D1411",
"KJ	c #1C1311",
"LJ	c #170C0B",
"MJ	c #362D2E",
"NJ	c #140707",
"OJ	c #271613",
"PJ	c #2D1B14",
"QJ	c #2F1B17",
"RJ	c #412121",
"SJ	c #3E0E10",
"TJ	c #F3695C",
"UJ	c #B84842",
"VJ	c #3C2320",
"WJ	c #401C1C",
"XJ	c #362524",
"YJ	c #2F1E1E",
"ZJ	c #271619",
"`J	c #271F1C",
" K	c #343836",
".K	c #2F322F",
"+K	c #15110E",
"@K	c #1F1B1E",
"#K	c #1E1515",
"$K	c #100606",
"%K	c #3F3837",
"&K	c #2F2423",
"*K	c #100604",
"=K	c #271416",
"-K	c #2C1210",
";K	c #3E2522",
">K	c #40100E",
",K	c #F66A5C",
"'K	c #B2453D",
")K	c #402622",
"!K	c #3B1B19",
"~K	c #342423",
"{K	c #36201F",
"]K	c #332120",
"^K	c #231917",
"/K	c #1D1D19",
"(K	c #010202",
"_K	c #171418",
":K	c #161318",
"<K	c #1E1412",
"[K	c #180C0D",
"}K	c #372F30",
"|K	c #302525",
"1K	c #150906",
"2K	c #2C1A18",
"3K	c #2C1817",
"4K	c #2F1412",
"5K	c #371C1B",
"6K	c #41120E",
"7K	c #F96C5E",
"8K	c #B94840",
"9K	c #452726",
"0K	c #3D1F1C",
"aK	c #2E1F1E",
"bK	c #2C1B1B",
"cK	c #291F1E",
"dK	c #241C1D",
"eK	c #1E1A18",
"fK	c #2A2E32",
"gK	c #1D1716",
"hK	c #201717",
"iK	c #170B0A",
"jK	c #362F2C",
"kK	c #150A09",
"lK	c #2E1A16",
"mK	c #2C1213",
"nK	c #3C221F",
"oK	c #421410",
"pK	c #F36C5D",
"qK	c #B8493F",
"rK	c #442729",
"sK	c #3E1E1D",
"tK	c #371F20",
"uK	c #191615",
"vK	c #171316",
"wK	c #3B3D3C",
"xK	c #1F1E1B",
"yK	c #24201D",
"zK	c #1D1811",
"AK	c #170A0B",
"BK	c #3B3431",
"CK	c #150805",
"DK	c #2A1416",
"EK	c #2D1816",
"FK	c #2D1311",
"GK	c #3E1D1E",
"HK	c #441211",
"IK	c #F46C61",
"JK	c #BC483C",
"KK	c #412525",
"LK	c #472325",
"MK	c #352424",
"NK	c #382224",
"OK	c #2F1F1E",
"PK	c #261C1C",
"QK	c #201D19",
"RK	c #0C080A",
"SK	c #292525",
"TK	c #221916",
"UK	c #130807",
"VK	c #3A312D",
"WK	c #302422",
"XK	c #342626",
"YK	c #190B0B",
"ZK	c #301B18",
"`K	c #301313",
" L	c #3E2222",
".L	c #481314",
"+L	c #F86E60",
"@L	c #B54940",
"#L	c #402725",
"$L	c #3E1C1C",
"%L	c #322121",
"&L	c #361C1D",
"*L	c #2F1F1D",
"=L	c #291D1B",
"-L	c #1F1716",
";L	c #211A1D",
">L	c #262420",
",L	c #0E120C",
"'L	c #151110",
")L	c #221B18",
"!L	c #130A09",
"~L	c #3C3231",
"{L	c #322625",
"]L	c #150806",
"^L	c #2B1616",
"/L	c #2C1413",
"(L	c #2E1311",
"_L	c #402021",
":L	c #421110",
"<L	c #F8695F",
"[L	c #B7423D",
"}L	c #442626",
"|L	c #452221",
"1L	c #311F1E",
"2L	c #322221",
"3L	c #2A2121",
"4L	c #251E1C",
"5L	c #1E191A",
"6L	c #1F1A1C",
"7L	c #0B0506",
"8L	c #241C1B",
"9L	c #1D1614",
"0L	c #1F1515",
"aL	c #3A2F2F",
"bL	c #322826",
"cL	c #312322",
"dL	c #2E2020",
"eL	c #180807",
"fL	c #271413",
"gL	c #2F1312",
"hL	c #3E201E",
"iL	c #471515",
"jL	c #F36C5C",
"kL	c #B9463F",
"lL	c #422625",
"mL	c #401E1F",
"nL	c #311F1C",
"oL	c #35201D",
"pL	c #2D1E1D",
"qL	c #291C1D",
"rL	c #251A1A",
"sL	c #020504",
"tL	c #222521",
"uL	c #1D1817",
"vL	c #1C1312",
"wL	c #1F1715",
"xL	c #150C0C",
"yL	c #393330",
"zL	c #2E2424",
"AL	c #2F2624",
"BL	c #110602",
"CL	c #2A1716",
"DL	c #321A17",
"EL	c #321513",
"FL	c #3C1F1E",
"GL	c #411110",
"HL	c #F76F60",
"IL	c #B4473E",
"JL	c #412623",
"KL	c #3E1B1E",
"LL	c #32211F",
"ML	c #2F1D1D",
"NL	c #2A1D1D",
"OL	c #261B1A",
"PL	c #231B1C",
"QL	c #1F1617",
"RL	c #1B1617",
"SL	c #1E1815",
"TL	c #130A08",
"UL	c #393030",
"VL	c #2B1F1D",
"WL	c #140603",
"XL	c #2B1615",
"YL	c #341C18",
"ZL	c #331517",
"`L	c #3F2322",
" M	c #461512",
".M	c #F76C60",
"+M	c #BC4C45",
"@M	c #472929",
"#M	c #462222",
"$M	c #371F1F",
"%M	c #2D1E1C",
"&M	c #221819",
"*M	c #221A1A",
"=M	c #1C1818",
"-M	c #0B0A0D",
";M	c #0D110C",
">M	c #201E23",
",M	c #1E201C",
"'M	c #1B1618",
")M	c #201A1C",
"!M	c #231C1F",
"~M	c #1D1413",
"{M	c #1D1412",
"]M	c #160B0A",
"^M	c #3D3130",
"/M	c #160807",
"(M	c #2B1712",
"_M	c #321615",
":M	c #412222",
"<M	c #481311",
"[M	c #BB4A41",
"}M	c #402421",
"|M	c #3D1C1F",
"1M	c #2F1C1D",
"2M	c #3B2424",
"3M	c #2C2323",
"4M	c #1A1619",
"5M	c #373B3E",
"6M	c #201A1D",
"7M	c #1C1815",
"8M	c #211716",
"9M	c #1D1612",
"0M	c #392F2D",
"aM	c #1A0C08",
"bM	c #2B1717",
"cM	c #2F1815",
"dM	c #2D1011",
"eM	c #3D1E1E",
"fM	c #451310",
"gM	c #F56E5F",
"hM	c #BB4B43",
"iM	c #3E2020",
"jM	c #411E1B",
"kM	c #322222",
"lM	c #2E1C1C",
"mM	c #251B1E",
"nM	c #1D1919",
"oM	c #201814",
"pM	c #160C0C",
"qM	c #382C2D",
"rM	c #2C1F20",
"sM	c #2B1716",
"tM	c #2C1614",
"uM	c #2F1617",
"vM	c #45110F",
"wM	c #F66D60",
"xM	c #BA4A42",
"yM	c #422222",
"zM	c #472224",
"AM	c #321F1E",
"BM	c #381F1D",
"CM	c #2E2221",
"DM	c #231C1A",
"EM	c #1D1918",
"FM	c #1C1718",
"GM	c #11140E",
"HM	c #272421",
"IM	c #1F1717",
"JM	c #231B18",
"KM	c #201815",
"LM	c #160B09",
"MM	c #3A302F",
"NM	c #2B2220",
"OM	c #342928",
"PM	c #150605",
"QM	c #2A1714",
"RM	c #361F1A",
"SM	c #442324",
"TM	c #471210",
"UM	c #F86E5F",
"VM	c #B94E41",
"WM	c #402227",
"XM	c #392222",
"YM	c #291B1A",
"ZM	c #271B19",
"`M	c #0F0B0D",
" N	c #231818",
".N	c #201817",
"+N	c #110707",
"@N	c #3C2F30",
"#N	c #302A29",
"$N	c #2F2121",
"%N	c #372928",
"&N	c #1A0909",
"*N	c #281713",
"=N	c #2F1814",
"-N	c #311213",
";N	c #4B2A2A",
">N	c #471313",
",N	c #F76E60",
"'N	c #BB4841",
")N	c #3A1C1A",
"!N	c #3B1D1D",
"~N	c #281D1C",
"{N	c #251E1B",
"]N	c #272621",
"^N	c #0F110A",
"/N	c #110E08",
"(N	c #0C0D05",
"_N	c #120F09",
":N	c #241E1D",
"<N	c #1E1513",
"[N	c #211817",
"}N	c #150908",
"|N	c #2D1F21",
"1N	c #180909",
"2N	c #2C1818",
"3N	c #301716",
"4N	c #311616",
"5N	c #3D1F1D",
"6N	c #4B1717",
"7N	c #F96D5E",
"8N	c #BD4D46",
"9N	c #3B1F1F",
"0N	c #3D201F",
"aN	c #312121",
"bN	c #392022",
"cN	c #2F201F",
"dN	c #1B181B",
"eN	c #0F1410",
"fN	c #0F0E12",
"gN	c #201A19",
"hN	c #110705",
"iN	c #392F2E",
"jN	c #312623",
"kN	c #170906",
"lN	c #2C1718",
"mN	c #321917",
"nN	c #2D1412",
"oN	c #422022",
"pN	c #49130E",
"qN	c #F66E5D",
"rN	c #35201E",
"sN	c #301919",
"tN	c #2E1E1D",
"uN	c #291A1B",
"vN	c #291E20",
"wN	c #000401",
"xN	c #000301",
"yN	c #010401",
"zN	c #20191D",
"AN	c #130909",
"BN	c #3D302F",
"CN	c #312323",
"DN	c #2C1716",
"EN	c #341619",
"FN	c #3F0D09",
"GN	c #F56A5E",
"HN	c #B74842",
"IN	c #412523",
"JN	c #3B1919",
"KN	c #2C1B1E",
"LN	c #351D1E",
"MN	c #261C1B",
"NN	c #201A18",
"ON	c #211A1B",
"PN	c #0D090B",
"QN	c #3C3E3E",
"RN	c #2F2E32",
"SN	c #38363A",
"TN	c #3A383B",
"UN	c #484749",
"VN	c #3E3E3D",
"WN	c #393A3F",
"XN	c #383C3B",
"YN	c #201C19",
"ZN	c #211D19",
"`N	c #1C1213",
" O	c #170A0A",
".O	c #403334",
"+O	c #2C2124",
"@O	c #2F2522",
"#O	c #332425",
"$O	c #170A08",
"%O	c #2D1917",
"&O	c #2F1818",
"*O	c #311414",
"=O	c #46282A",
"-O	c #4B1917",
";O	c #F86D5F",
">O	c #B8483E",
",O	c #3C2522",
"'O	c #412122",
")O	c #351D21",
"!O	c #2E1F1C",
"~O	c #221718",
"{O	c #1A1615",
"]O	c #17161C",
"^O	c #0D0F12",
"/O	c #07060A",
"(O	c #1A1815",
"_O	c #272426",
":O	c #1B1814",
"<O	c #231F1C",
"[O	c #1C1413",
"}O	c #1C1414",
"|O	c #140A08",
"1O	c #332A27",
"2O	c #2F2325",
"3O	c #342625",
"4O	c #291511",
"5O	c #301314",
"6O	c #412424",
"7O	c #421211",
"8O	c #F66C5F",
"9O	c #B74940",
"0O	c #3B1C1C",
"aO	c #2B1D1C",
"bO	c #241C1F",
"cO	c #1F1A19",
"dO	c #0D1012",
"eO	c #272320",
"fO	c #1F1613",
"gO	c #211614",
"hO	c #0F0705",
"iO	c #342C29",
"jO	c #352A2A",
"kO	c #302222",
"lO	c #180C0A",
"mO	c #2B1815",
"nO	c #2E1617",
"oO	c #2D1112",
"pO	c #40100F",
"qO	c #F76D5A",
"rO	c #B94940",
"sO	c #3D2322",
"tO	c #3B1C1A",
"uO	c #2E1D1D",
"vO	c #372222",
"wO	c #251C1A",
"xO	c #1B1514",
"yO	c #1B1717",
"zO	c #3D3D40",
"AO	c #25211E",
"BO	c #1D1719",
"CO	c #1C1512",
"DO	c #1D1715",
"EO	c #160B08",
"FO	c #3F3431",
"GO	c #2E2023",
"HO	c #2D211E",
"IO	c #1A0D0B",
"JO	c #2B1513",
"KO	c #311A17",
"LO	c #331616",
"MO	c #3B2020",
"NO	c #4D1716",
"OO	c #F76F61",
"PO	c #B4463E",
"QO	c #3C2223",
"RO	c #402320",
"SO	c #322423",
"TO	c #341E1D",
"UO	c #2F211F",
"VO	c #241819",
"WO	c #21191A",
"XO	c #151317",
"YO	c #221E1B",
"ZO	c #1C1211",
"`O	c #181411",
" P	c #130908",
".P	c #3E2E31",
"+P	c #281C1F",
"@P	c #190A09",
"#P	c #271314",
"$P	c #301512",
"%P	c #3E1D1D",
"&P	c #420B0A",
"*P	c #F86B5D",
"=P	c #B64841",
"-P	c #3E2523",
";P	c #371819",
">P	c #291A1A",
",P	c #341A1F",
"'P	c #261B17",
")P	c #211C1A",
"!P	c #1F191B",
"~P	c #0D0C0E",
"{P	c #2F2C2E",
"]P	c #1E1413",
"^P	c #100607",
"/P	c #362D2B",
"(P	c #302324",
"_P	c #322425",
":P	c #321815",
"<P	c #3A1B1B",
"[P	c #3D1E21",
"}P	c #44110E",
"|P	c #F46B5E",
"1P	c #B64640",
"2P	c #3C2421",
"3P	c #3B1C1B",
"4P	c #2A1616",
"5P	c #241C18",
"6P	c #22191B",
"7P	c #393A38",
"8P	c #2E3035",
"9P	c #1C1612",
"0P	c #211B17",
"aP	c #342829",
"bP	c #2B1C1F",
"cP	c #372A2C",
"dP	c #130402",
"eP	c #2C1918",
"fP	c #2C1613",
"gP	c #341617",
"hP	c #402221",
"iP	c #451110",
"jP	c #F96F61",
"kP	c #B7463F",
"lP	c #392324",
"mP	c #2A1B1A",
"nP	c #311B1C",
"oP	c #2A1E1D",
"pP	c #281D20",
"qP	c #211A19",
"rP	c #20211D",
"sP	c #211918",
"tP	c #18100F",
"uP	c #16090A",
"vP	c #33292C",
"wP	c #2C2120",
"xP	c #2A1F20",
"yP	c #140705",
"zP	c #291815",
"AP	c #371E1F",
"BP	c #400E0D",
"CP	c #F96C5D",
"DP	c #B3463C",
"EP	c #3A1D1C",
"FP	c #2D1B18",
"GP	c #331C1E",
"HP	c #1F1516",
"IP	c #0D0605",
"JP	c #393D3B",
"KP	c #221D1C",
"LP	c #231A1B",
"MP	c #352A2B",
"NP	c #150706",
"OP	c #2D1918",
"PP	c #2D1611",
"QP	c #3F2224",
"RP	c #42120D",
"SP	c #F5695C",
"TP	c #B24139",
"UP	c #341C1C",
"VP	c #3A1F1C",
"WP	c #301B1C",
"XP	c #211D1B",
"YP	c #20191B",
"ZP	c #444143",
"`P	c #211413",
" Q	c #140B09",
".Q	c #302927",
"+Q	c #3B211C",
"@Q	c #F76C5D",
"#Q	c #B6463F",
"$Q	c #37211F",
"%Q	c #381B1A",
"&Q	c #2B1D1B",
"*Q	c #341D1D",
"=Q	c #2B1C1D",
"-Q	c #261B1B",
";Q	c #221919",
">Q	c #1F1818",
",Q	c #201D1A",
"'Q	c #36353A",
")Q	c #1C1712",
"!Q	c #191212",
"~Q	c #120C08",
"{Q	c #2E2525",
"]Q	c #221A19",
"^Q	c #160A09",
"/Q	c #261312",
"(Q	c #2A1814",
"_Q	c #2F1A16",
":Q	c #442A2C",
"<Q	c #420D0C",
"[Q	c #F76F5D",
"}Q	c #B5473D",
"|Q	c #392122",
"1Q	c #312022",
"2Q	c #311B1A",
"3Q	c #292422",
"4Q	c #18151A",
"5Q	c #1A1413",
"6Q	c #1A1411",
"7Q	c #100907",
"8Q	c #37302D",
"9Q	c #160A0A",
"0Q	c #281717",
"aQ	c #2B1915",
"bQ	c #311A1A",
"cQ	c #3E2122",
"dQ	c #410E0B",
"eQ	c #FA6E5E",
"fQ	c #B6483D",
"gQ	c #3A2123",
"hQ	c #2F2221",
"iQ	c #261D1B",
"jQ	c #1D1717",
"kQ	c #1D171A",
"lQ	c #1A1617",
"mQ	c #130907",
"nQ	c #352C2C",
"oQ	c #28201F",
"pQ	c #251515",
"qQ	c #2E1817",
"rQ	c #3D2223",
"sQ	c #46110E",
"tQ	c #F76C5E",
"uQ	c #B3453E",
"vQ	c #341A1D",
"wQ	c #3C211C",
"xQ	c #29191A",
"yQ	c #281D1B",
"zQ	c #1D1816",
"AQ	c #100A07",
"BQ	c #281E20",
"CQ	c #120B07",
"DQ	c #261615",
"EQ	c #271312",
"FQ	c #400B0A",
"GQ	c #F6695A",
"HQ	c #B2433D",
"IQ	c #371A18",
"JQ	c #271918",
"KQ	c #301B1B",
"LQ	c #231D1B",
"MQ	c #1B171A",
"NQ	c #262721",
"OQ	c #0A0801",
"PQ	c #353535",
"QQ	c #332B2B",
"RQ	c #271E21",
"SQ	c #251616",
"TQ	c #271716",
"UQ	c #2B130F",
"VQ	c #402626",
"WQ	c #400D0D",
"XQ	c #FA7060",
"YQ	c #B9463C",
"ZQ	c #3C2828",
"`Q	c #3A1E19",
" R	c #291615",
".R	c #1B1719",
"+R	c #100C0F",
"@R	c #1B1414",
"#R	c #120909",
"$R	c #352F2F",
"%R	c #100605",
"&R	c #221311",
"*R	c #291612",
"=R	c #2B1714",
"-R	c #422426",
";R	c #430D0C",
">R	c #B84941",
",R	c #3A2225",
"'R	c #2E1818",
")R	c #241717",
"!R	c #211C19",
"~R	c #211E1A",
"{R	c #171210",
"]R	c #171311",
"^R	c #120B0A",
"/R	c #2B2424",
"(R	c #110807",
"_R	c #211214",
":R	c #251714",
"<R	c #2D1817",
"[R	c #391C1D",
"}R	c #3D0B0A",
"|R	c #B5463E",
"1R	c #341E21",
"2R	c #371919",
"3R	c #2F1C1E",
"4R	c #2C211F",
"5R	c #1E1717",
"6R	c #17100E",
"7R	c #2D2624",
"8R	c #2E2829",
"9R	c #282220",
"0R	c #0D0504",
"aR	c #241315",
"bR	c #251314",
"cR	c #2C1516",
"dR	c #3A2220",
"eR	c #42110F",
"fR	c #F87263",
"gR	c #B74C44",
"hR	c #341513",
"iR	c #2F1919",
"jR	c #241C1C",
"kR	c #191517",
"lR	c #181416",
"mR	c #2C3031",
"nR	c #191515",
"oR	c #302B29",
"pR	c #1F1312",
"qR	c #251814",
"rR	c #400F10",
"sR	c #F76C61",
"tR	c #B74C43",
"uR	c #351919",
"vR	c #241B1A",
"wR	c #2F2C27",
"xR	c #271816",
"yR	c #291311",
"zR	c #372325",
"AR	c #3C1211",
"BR	c #FA6C5E",
"CR	c #352125",
"DR	c #381D1A",
"ER	c #272A27",
"FR	c #353338",
"GR	c #3D3C40",
"HR	c #0D0609",
"IR	c #211414",
"JR	c #221515",
"KR	c #2B1A19",
"LR	c #3D120F",
"MR	c #F87160",
"NR	c #B34741",
"OR	c #2E1919",
"PR	c #371F1C",
"QR	c #21191C",
"RR	c #1F1816",
"SR	c #1A161A",
"TR	c #191413",
"UR	c #251718",
"VR	c #1F1210",
"WR	c #1F1211",
"XR	c #322021",
"YR	c #340907",
"ZR	c #F77362",
"`R	c #B84541",
" S	c #241615",
".S	c #351A1B",
"+S	c #2B171A",
"@S	c #1E1517",
"#S	c #181313",
"$S	c #251816",
"%S	c #2B0803",
"&S	c #F56F5F",
"*S	c #B5493B",
"=S	c #231214",
"-S	c #351E1B",
";S	c #261D1C",
">S	c #1E1918",
",S	c #1B1714",
"'S	c #1D1211",
")S	c #211212",
"!S	c #221612",
"~S	c #7A2E26",
"{S	c #56120E",
"]S	c #1D1718",
"^S	c #110D10",
"/S	c #1A1311",
"(S	c #150F0C",
"_S	c #1B100D",
":S	c #372A2B",
"<S	c #27191E",
"[S	c #2D2523",
"}S	c #352A2C",
"|S	c #1D1916",
"1S	c #1D201C",
"2S	c #17130F",
"3S	c #1C1E19",
"4S	c #181310",
"5S	c #1B0F0B",
"6S	c #463C40",
"7S	c #332727",
"8S	c #3F3132",
"9S	c #3B3234",
"0S	c #1B1314",
"aS	c #1A1414",
"bS	c #150F0F",
"cS	c #1A1516",
"dS	c #15100F",
"eS	c #0F1412",
"fS	c #191513",
"gS	c #141919",
"hS	c #16130F",
"iS	c #363634",
"jS	c #313130",
"kS	c #343234",
"lS	c #161418",
"mS	c #0A0601",
"nS	c #0A0A0D",
"oS	c #25241F",
"pS	c #1C181C",
"qS	c #0C0605",
"rS	c #0A100C",
"sS	c #0E1412",
"tS	c #0A0501",
"uS	c #2F3034",
"vS	c #14140E",
"wS	c #25272B",
"xS	c #0C0703",
"yS	c #0D120E",
"zS	c #3C3A3E",
"AS	c #21221F",
"BS	c #3F4442",
"CS	c #020702",
"DS	c #424448",
"ES	c #22221C",
"FS	c #0D120D",
"GS	c #10120A",
"HS	c #16120F",
"IS	c #121814",
"JS	c #191F1C",
"KS	c #2A2826",
"LS	c #282621",
"MS	c #151114",
"NS	c #3D413F",
"OS	c #2D3234",
"PS	c #292924",
"QS	c #292D30",
"RS	c #191E21",
"SS	c #0D0E07",
"TS	c #0D1310",
"US	c #262C2E",
"VS	c #2C292C",
"WS	c #0C0809",
"XS	c #393A39",
"YS	c #1B1A16",
"ZS	c #373539",
"`S	c #373836",
" T	c #3E403E",
".T	c #494D4F",
"+T	c #36373B",
"@T	c #383C3E",
"#T	c #2E3334",
"$T	c #696C6C",
"%T	c #2C292B",
"&T	c #383A3E",
"*T	c #13140E",
"=T	c #343936",
"-T	c #414546",
";T	c #353533",
">T	c #040103",
",T	c #48494C",
"'T	c #3E403F",
")T	c #3C3A3C",
"!T	c #120F13",
"~T	c #0B0C0E",
"{T	c #312F32",
"]T	c #0B090B",
"^T	c #14161A",
"/T	c #232420",
"(T	c #404542",
"_T	c #0C110C",
":T	c #404544",
"<T	c #050103",
"[T	c #262B29",
"}T	c #11120A",
"|T	c #333539",
"1T	c #3D3C3E",
"2T	c #2A2B27",
"3T	c #030702",
"4T	c #222420",
"5T	c #333031",
"6T	c #454547",
"7T	c #363434",
"8T	c #060709",
"9T	c #3E4241",
"0T	c #383D39",
"aT	c #2E3033",
"bT	c #0C0F08",
"cT	c #11120B",
"dT	c #1C151A",
"eT	c #2F2D2D",
"fT	c #252621",
"gT	c #090C06",
"hT	c #454A4A",
"iT	c #1E1917",
"jT	c #313330",
"kT	c #2B2827",
"lT	c #181314",
"mT	c #404546",
"nT	c #231E1B",
"oT	c #21181A",
"pT	c #211A1A",
"qT	c #1E1818",
"rT	c #221B20",
"sT	c #221B21",
"tT	c #231C20",
"uT	c #261E24",
"vT	c #211C21",
"wT	c #211C1F",
"xT	c #555758",
"yT	c #2E3233",
"zT	c #302322",
"AT	c #2F2120",
"BT	c #2F2426",
"CT	c #312424",
"DT	c #332625",
"ET	c #302321",
"FT	c #312421",
"GT	c #322322",
"HT	c #301E20",
"IT	c #312222",
"JT	c #352526",
"KT	c #332421",
"LT	c #342425",
"MT	c #322624",
"NT	c #2E1E1C",
"OT	c #322122",
"PT	c #362928",
"QT	c #2D2020",
"RT	c #2A201E",
"ST	c #241A1A",
"TT	c #191518",
"UT	c #110C0B",
"VT	c #16140F",
"WT	c #4A4D4A",
"XT	c #414246",
"YT	c #160C0A",
"ZT	c #130505",
"`T	c #180C07",
" U	c #160908",
".U	c #120604",
"+U	c #130905",
"@U	c #130606",
"#U	c #100703",
"$U	c #110501",
"%U	c #120603",
"&U	c #170805",
"*U	c #130804",
"=U	c #170B08",
"-U	c #140604",
";U	c #140704",
">U	c #130201",
",U	c #180606",
"'U	c #170605",
")U	c #150503",
"!U	c #140907",
"~U	c #130604",
"{U	c #160906",
"]U	c #0E0100",
"^U	c #110302",
"/U	c #150705",
"(U	c #120805",
"_U	c #120704",
":U	c #130703",
"<U	c #130304",
"[U	c #150803",
"}U	c #130401",
"|U	c #130200",
"1U	c #150903",
"2U	c #271915",
"3U	c #1B1515",
"4U	c #0A0D07",
"5U	c #0D0F07",
"6U	c #434647",
"7U	c #201412",
"8U	c #361C1C",
"9U	c #381E1D",
"0U	c #361A1D",
"aU	c #361E1D",
"bU	c #391B1D",
"cU	c #381E20",
"dU	c #361E22",
"eU	c #3A2322",
"fU	c #371E21",
"gU	c #361E1F",
"hU	c #351D1F",
"iU	c #351C1F",
"jU	c #3C2528",
"kU	c #352021",
"lU	c #372424",
"mU	c #401F1E",
"nU	c #3E211D",
"oU	c #43211F",
"pU	c #3D2120",
"qU	c #3F2320",
"rU	c #3E2422",
"sU	c #3A1C1D",
"tU	c #39201E",
"uU	c #381E1C",
"vU	c #391F1F",
"wU	c #341C1D",
"xU	c #381F20",
"yU	c #3A2221",
"zU	c #352120",
"AU	c #1B0D09",
"BU	c #1D1110",
"CU	c #38373C",
"DU	c #474C4D",
"EU	c #5D605D",
"FU	c #2D1B1B",
"GU	c #823329",
"HU	c #EC6659",
"IU	c #DB584E",
"JU	c #D75D54",
"KU	c #D95B59",
"LU	c #D35850",
"MU	c #D35A53",
"NU	c #D95E55",
"OU	c #D65F53",
"PU	c #D75A52",
"QU	c #D55C52",
"RU	c #DA5E53",
"SU	c #DA5B54",
"TU	c #D85A53",
"UU	c #D85B53",
"VU	c #D76053",
"WU	c #D75C53",
"XU	c #DA5B52",
"YU	c #D8584F",
"ZU	c #DA5953",
"`U	c #DB5A51",
" V	c #D95950",
".V	c #DB5950",
"+V	c #D55D53",
"@V	c #D85A50",
"#V	c #DD5C51",
"$V	c #D95C4E",
"%V	c #D85B50",
"&V	c #DB5D54",
"*V	c #D6594F",
"=V	c #D5574E",
"-V	c #D85A52",
";V	c #DC6256",
">V	c #DB6559",
",V	c #E26255",
"'V	c #DF6256",
")V	c #3F0D0A",
"!V	c #2E2723",
"~V	c #4B4F4F",
"{V	c #343336",
"]V	c #666968",
"^V	c #201819",
"/V	c #8D2E28",
"(V	c #F06554",
"_V	c #F26759",
":V	c #EF665D",
"<V	c #EF695C",
"[V	c #EF6A5B",
"}V	c #ED665A",
"|V	c #EC685E",
"1V	c #EC675C",
"2V	c #EA685C",
"3V	c #E9645B",
"4V	c #EB6258",
"5V	c #ED6659",
"6V	c #EC6557",
"7V	c #E96259",
"8V	c #E9645A",
"9V	c #E66155",
"0V	c #E86358",
"aV	c #E4625B",
"bV	c #E86153",
"cV	c #EE695B",
"dV	c #EA6655",
"eV	c #F0695D",
"fV	c #EA675B",
"gV	c #EA6A60",
"hV	c #E7665B",
"iV	c #EE685F",
"jV	c #E96456",
"kV	c #E86756",
"lV	c #E7675B",
"mV	c #E8635A",
"nV	c #E26154",
"oV	c #E5645A",
"pV	c #E8675C",
"qV	c #E3605A",
"rV	c #EA6B5F",
"sV	c #EC685D",
"tV	c #E75D53",
"uV	c #3D0A03",
"vV	c #211819",
"wV	c #2E2325",
"xV	c #424547",
"yV	c #4B4B4C",
"zV	c #1E211C",
"AV	c #080407",
"BV	c #1D0F0E",
"CV	c #221514",
"DV	c #261612",
"EV	c #271719",
"FV	c #241211",
"GV	c #2B1818",
"HV	c #2A1719",
"IV	c #2B1617",
"JV	c #2F171A",
"KV	c #2C1518",
"LV	c #271415",
"MV	c #2F1C1A",
"NV	c #291716",
"OV	c #2C1A1C",
"PV	c #2E1B1C",
"QV	c #2C1919",
"RV	c #2D1C1B",
"SV	c #2A1B19",
"TV	c #2C1B1F",
"UV	c #2B1D1F",
"VV	c #2B1E1C",
"WV	c #291A1C",
"XV	c #2A181A",
"YV	c #281918",
"ZV	c #27181D",
"`V	c #352828",
" W	c #1D1917",
".W	c #090D0C",
"+W	c #0D0F11",
"@W	c #0E0D12",
"#W	c #0A0E0D",
"$W	c #0D0B0D",
"%W	c #07070A",
"&W	c #090E0D",
"*W	c #0A0F0E",
"=W	c #5D605F",
"-W	c #23241F",
";W	c #1E191E",
">W	c #342526",
",W	c #422F2F",
"'W	c #381B16",
")W	c #381B17",
"!W	c #38181A",
"~W	c #2B1011",
"{W	c #381B1D",
"]W	c #391B1B",
"^W	c #34191B",
"/W	c #2F1612",
"(W	c #2E1411",
"_W	c #341716",
":W	c #331614",
"<W	c #331915",
"[W	c #381C19",
"}W	c #331213",
"|W	c #2D1511",
"1W	c #2A1312",
"2W	c #2A1112",
"3W	c #2D1713",
"4W	c #271311",
"5W	c #2A140F",
"6W	c #2A1412",
"7W	c #261513",
"8W	c #2E1816",
"9W	c #351C1A",
"0W	c #311E1D",
"aW	c #2E1916",
"bW	c #321A1B",
"cW	c #291714",
"dW	c #2D1514",
"eW	c #2D1313",
"fW	c #291515",
"gW	c #261511",
"hW	c #281112",
"iW	c #2D1711",
"jW	c #311C18",
"kW	c #39221E",
"lW	c #221C1A",
"mW	c #525352",
"nW	c #050609",
"oW	c #403837",
"pW	c #3C2E2E",
"qW	c #3E2F30",
"rW	c #3E3133",
"sW	c #332929",
"tW	c #322727",
"uW	c #382B2D",
"vW	c #3E3131",
"wW	c #3C2E2D",
"xW	c #3E3035",
"yW	c #3C2A2B",
"zW	c #3D3030",
"AW	c #3D302E",
"BW	c #392B2B",
"CW	c #3C2C2E",
"DW	c #423233",
"EW	c #382B2C",
"FW	c #392C2D",
"GW	c #392B2C",
"HW	c #453234",
"IW	c #403333",
"JW	c #352626",
"KW	c #3F2F32",
"LW	c #3F302F",
"MW	c #36292A",
"NW	c #3C3131",
"OW	c #2F2122",
"PW	c #332325",
"QW	c #302625",
"RW	c #3C2D32",
"SW	c #392D30",
"TW	c #332628",
"UW	c #362B2E",
"VW	c #121717",
"WW	c #070A03",
"XW	c #626367",
"YW	c #4B4C50",
"ZW	c #6B6A6D",
"`W	c #4A4D4C",
" X	c #201C1F",
".X	c #1C1819",
"+X	c #1F1A1D",
"@X	c #5E6361",
"#X	c #212420",
"$X	c #1B1E19",
"%X	c #1C171A",
"&X	c #1F1B19",
"*X	c #030907",
"=X	c #626765",
"-X	c #525453",
";X	c #404442",
">X	c #7A7D7C",
",X	c #0B0602",
"'X	c #3C3F3B",
")X	c #161C17",
"!X	c #767879",
"~X	c #191711",
"{X	c #201C20",
"]X	c #707071",
"^X	c #6C6B6D",
"/X	c #6B6C6C",
"(X	c #302D2F",
"_X	c #636265",
":X	c #474B4B",
"<X	c #505452",
"[X	c #1C1B21",
"}X	c #484A4C",
"|X	c #414547",
"1X	c #141013",
"2X	c #2E2F2C",
"3X	c #434345",
"4X	c #666565",
"5X	c #454549",
"6X	c #3C4042",
"7X	c #12110B",
"8X	c #15110D",
"9X	c #3D4241",
"0X	c #131711",
"aX	c #535758",
"bX	c #484D4F",
"cX	c #010403",
"dX	c #302E2C",
"eX	c #2A2B2F",
"fX	c #5A595E",
"gX	c #595A5A",
"hX	c #505055",
"iX	c #5C5A5D",
"jX	c #4F5153",
"kX	c #525253",
"lX	c #565658",
"mX	c #515353",
"nX	c #555558",
"oX	c #4E5050",
"pX	c #5B6060",
"qX	c #5A5C5D",
"rX	c #5C5D5C",
"sX	c #515354",
"tX	c #565657",
"uX	c #4F4F50",
"vX	c #555755",
"wX	c #696C6A",
"xX	c #525152",
"yX	c #5E5D5C",
"zX	c #605E5F",
"AX	c #676768",
"BX	c #69696B",
"CX	c #686A6D",
"DX	c #4B4E4E",
"EX	c #2F2D31",
"FX	c #717374",
"GX	c #090402",
"HX	c #484746",
"IX	c #4C4D4F",
"JX	c #717475",
"KX	c #4E4E52",
"LX	c #111611",
"MX	c #7C7F81",
"NX	c #6A6B6B",
"OX	c #4B4D50",
"PX	c #0D1313",
"QX	c #454847",
"RX	c #656967",
"SX	c #4C5053",
"TX	c #0E0A04",
"UX	c #151913",
"VX	c #1F231E",
"WX	c #656665",
"XX	c #0C0607",
"YX	c #060203",
"ZX	c #686769",
"`X	c #4C4B4F",
" Y	c #414145",
".Y	c #4F5050",
"+Y	c #282C28",
"@Y	c #302E2F",
"#Y	c #343631",
"$Y	c #2D2E2C",
"%Y	c #2E2F2D",
"&Y	c #31342F",
"*Y	c #2D2F2C",
"=Y	c #323031",
"-Y	c #31312E",
";Y	c #2E2D2B",
">Y	c #2A2F2F",
",Y	c #2B2B27",
"'Y	c #282B27",
")Y	c #323136",
"!Y	c #090D0E",
"~Y	c #767676",
"{Y	c #040607",
"]Y	c #020406",
"^Y	c #020304",
"/Y	c #060809",
"(Y	c #030607",
"_Y	c #080607",
":Y	c #060509",
"<Y	c #060609",
"[Y	c #040206",
"}Y	c #030606",
"|Y	c #05070A",
"1Y	c #010404",
"2Y	c #06070B",
"3Y	c #030408",
"4Y	c #070609",
"5Y	c #030306",
"6Y	c #717474",
"7Y	c #2F2D30",
"8Y	c #484C4B",
"9Y	c #181417",
"0Y	c #6B6E6E",
"aY	c #131815",
"bY	c #706F6F",
"cY	c #0A0404",
"dY	c #3C3C3C",
"eY	c #5F5D60",
"fY	c #3F4044",
"gY	c #484648",
"hY	c #3F4241",
"iY	c #4F4D4B",
"jY	c #2A2A26",
"kY	c #322F2E",
"lY	c #4D4E4D",
"mY	c #100B0C",
"nY	c #545255",
"oY	c #1C1C18",
"pY	c #4A494A",
"qY	c #2A2925",
"rY	c #32332F",
"sY	c #3B3939",
"tY	c #5A5C59",
"uY	c #131015",
"vY	c #3E3D3F",
"wY	c #323034",
"xY	c #606063",
"yY	c #040305",
"zY	c #585A5C",
"AY	c #0C100C",
"BY	c #0E130E",
"CY	c #575A59",
"DY	c #3E3F3D",
"EY	c #3F3F3B",
"FY	c #303237",
"GY	c #5D5E5C",
"HY	c #21231F",
"IY	c #636364",
"JY	c #2D2A2D",
"KY	c #353633",
"LY	c #6C6D6C",
"MY	c #747574",
"NY	c #676B6A",
"OY	c #676B6B",
"PY	c #6C716E",
"QY	c #6B6B6D",
"RY	c #6D6D71",
"SY	c #686768",
"TY	c #676869",
"UY	c #727778",
"VY	c #636564",
"WY	c #656869",
"XY	c #686B6A",
"YY	c #6A6D6D",
"ZY	c #6E6E6E",
"`Y	c #666868",
" Z	c #747679",
".Z	c #6C706E",
"+Z	c #7B7F7F",
"@Z	c #686C6F",
"#Z	c #232723",
"$Z	c #494B4C",
"%Z	c #3C3A3A",
"&Z	c #353434",
"*Z	c #121618",
"=Z	c #727273",
"-Z	c #080A0D",
";Z	c #040806",
">Z	c #050908",
",Z	c #050508",
"'Z	c #080A0C",
")Z	c #090B0D",
"!Z	c #000302",
"~Z	c #0A090C",
"{Z	c #09070A",
"]Z	c #020506",
"^Z	c #070407",
"/Z	c #0B0A0E",
"(Z	c #06080A",
"_Z	c #000304",
":Z	c #0B0D10",
"<Z	c #222722",
"[Z	c #919493",
"}Z	c #0A0F0C",
"|Z	c #110F0A",
"1Z	c #4F4F4F",
"2Z	c #535452",
"3Z	c #130E0B",
"4Z	c #151B19",
"5Z	c #424440",
"6Z	c #87888A",
"7Z	c #0B0D05",
"8Z	c #6F7273",
"9Z	c #7A7B7F",
"0Z	c #8B8D8E",
"aZ	c #7B7D80",
"bZ	c #444749",
"cZ	c #787979",
"dZ	c #1E1F1B",
"eZ	c #1B1C17",
"fZ	c #130E0C",
"gZ	c #2A282D",
"hZ	c #2B2F2B",
"iZ	c #262824",
"jZ	c #272B28",
"kZ	c #110E09",
"lZ	c #111008",
"mZ	c #100B08",
"nZ	c #424446",
"oZ	c #575A5D",
"pZ	c #626063",
"qZ	c #5C6060",
"rZ	c #5E6263",
"sZ	c #5B6162",
"tZ	c #616265",
"uZ	c #535655",
"vZ	c #555857",
"wZ	c #5C5E5F",
"xZ	c #4E5252",
"yZ	c #5B5F60",
"zZ	c #585B5B",
"AZ	c #010204",
"BZ	c #6B6B6A",
"CZ	c #555858",
"DZ	c #5F6465",
"EZ	c #5F6363",
"FZ	c #525557",
"GZ	c #575A5A",
"HZ	c #5C6062",
"IZ	c #515252",
"JZ	c #565659",
"KZ	c #535658",
"LZ	c #525356",
"MZ	c #505557",
"NZ	c #535254",
"OZ	c #4F5252",
"PZ	c #49494C",
"QZ	c #505252",
"RZ	c #45484B",
"SZ	c #27262A",
"TZ	c #1C221D",
"UZ	c #1C1F24",
"VZ	c #20201C",
"WZ	c #161C1C",
"XZ	c #090801",
"YZ	c #1F211D",
"ZZ	c #141711",
"`Z	c #090303",
" `	c #070203",
".`	c #090500",
"  . + @ # $ % & * = - ; > , = ' ) ! ~ { ] ^ / ( _ : < [ } | 1 2 3 4 5 6 7 8 9 0 a b c d e f g h i j k l m n o p q r s t u v w x y z A B C ; D E F G H I J K L M N O P Q R S T U V W X Y Z ` X  ...+.@.#.$.%.&.= = *.=.-.;.g >.} ,.'.).!.,.~.{.].^./.(.= _.:.<.[.-.r }.M |.1.2.! 3.4.5.6.7.8.9.0.a.b.c.d.e.f.O g.h.K i.j.k.b T ^.l.m.n.o.p.q.r.s.t.u.v.w.[ x.y.T m.z.A.q B.C.{.-.D.E.! % F.G.2 H.I.J.: K.L.M.N.O.P.8.7.Q.R.p.S.l.Z T.O.D.U.V.W.X.3 g Y.1.Z.Z `. +Z..+++q @+] #+).$+%+%+&+*+=+_.-+p.;+..] >+m.,+'+)+!+~+{+]+^+8 d./+(+_+W :+K { <+u.[+}+2.|+1+; 2+k 3+4+! 5+1+6+7+S.,+8+9+0+a+b+! S c+!.d+,._+e+f+g+>+G.h+6.{ !.i+j+3 k+T.<.l+m+n+o+p+q+r+s+` ~ t+0+u+@.- v+w+!.x+w+y+6 '.z+A+B+C+D+1+E+F+d G+H+I+;+J+K+l L+[.] M+N+O+s O.P+/.F+Q+R+S+: T+2 U+Q+V+q+W+X+Y+Z+J+`+ @.@+@@@#@$@E.0.%@&@^.h > *@=@-@;@;.q+o 6+>@P+,@'@)@!@~@1+{@]@^@n /@(@J._@K+:@<@[@}@u.F.4+|@1@2@|@F.3@4@X+2+5@F 6@7@8@& = 9@0@a@Z+b@s+c@I d@e@f@g@: d.D.h@`+i@j@T+;.e+k@l@m@n@o@p@=@q@D.r@s@t@u@v@w@x@U 2@y@z@A@q@r.B@C@{.y.W T.D@+.E@[ F@G@7.H@I@J@K@L@M@s.N@Z O@P@F+~@Q@~@R@S@T@",
"U@V@W@X@Y@Z@`@ #.#+#@###$#%#&#*#=#-#;#>#,#'#)#!#~#{#]#^#/#(#_#X@:#<#[#}#|#[#1#2#3#4#5#X@6#7#8#9#0#a#b#c#d#e#f#g#h#i#j#k#l#W@m#n#o#p#q#h#r#s#t#u#v#w#x#y#z#A#B#'#C#'#D#E#Y@=#p#C#F#G#4#H#I#J#K#L#M#N#O#P#D#Q#R#S#T#U#V#h#W#X#Y#Z#`# $p#.$+$@$#$$$%$F#-#b#&$*$=$-$~#-$F#&$o#;$>$,$;#'$*#)#)$!$U#~${$S@]$L#^$/$i#($_$:$<$&$,$[$}$|$1$}$2$3$&$4$3$5$6$7$#$;$8$9$0$Q#($a$b$S@c$d$e$f$g$h$i$b#j$0$k$l$)$($m$n$o$p$!$_$m$q$r$s$t$u$g#F#v$w$b#D#~$;$;$6#Q#;#x$r$y$z$A$B$C$o$u$j#D$H#0#:$E$*$F$G$r#H$I$J$'$K$L$M$t# $D$N$O$H$P$h#Q$($R$S$P$-#U#D$h$T$U$V$.$,$T$@$>#3$.$3$W$X$Y$o$Z$`$ %.%+%K$&$@%k##%!#$%%%&%x$*%P$=%-%;%;#>%n#g#,%'%p#)%d#!%~%r$z#u#S@@##${%]%^%0#/%+$C#r#=#b#i#(%_%:%<%4#[%~#}%|%4# #1%6$2%3%P$4$)#4%5%e#W$1#=#+$6%f#N#*$r#!%7%;#P#8%9%F#0%a%b%c%k$K$d%N#e%[$/$f%g%&$@$h%i%!#)#^#A#+#j%z#L$]%+$g#~$D$a#t#k%r$l%9#m%9%n%T$o%p%q%n$($r%m$j#s%W$h%t%S@u%+$c#,$v%K#1#w%x%y%z%A%b#B%^$C%>#Y@D%n%E%F%G%2$H%-#I%^#J%K%L%M%S@N% #n%$$I%O%)$P%]% #^#8$X@=%#%Q%R%^%S%N#=%T%U%o%Z$V%B%t#W%X%/#-#q#j%D$Y%^%@%T#5%Z%>#]%0$t#`%h$a# &.&N%^#~$h#;#{%+&;$r%@&#&+&9%$&%&",
"&&*&=&-&;&>&,&-&'&)&!&~&{&]&^&/&(&_&:&<&[&}&|&1&2&3&4&5&6&7&8&9&0&a&b&c&d&e&*&f&g&h&i&j&k&l&8&m&n&b&o&p&o&m&q&r&s&t&u&v&w&n&x&y&z&A&B&)&C&D&E&F&)&p&F&G&H&]&v&{&I&4&J&K&e&L&M&A&N&O&P&Q&Q&R&S&T&U&V&C&(&I&)&W&p$X&C&Y&Z&`&1&I& *.*]&+*@*#*$*%*&***=*X&-*;*>*,*'*!&)* *G&!*~*{*T&]*^*/*(*_* *:*<*H&[*}*|*1*]*2*3*,*s&4*5*6*X&W&V&7*8*9*0*a*b*c*d*[&I&(&e*f*g*g*O&-&h*i*!*j*k*|&l*m*n*o*p*>&+*q*r*;&s*!*-&5&t*u*v*w*x&x&b&x*V&y*z*y&L&A*y&!&X&b&!&B*Z&C*+*D*t*L&E*)&F*G*y&l*H*I*e&j&!&J*^&)&K*V&:&L*4&6*O&M*N*d*,*v*O*p&P*Q*R*S*T*_*H*U*m&6*z&V*p&@*W*X*+*Y*Z&J&L*F&Z*`* =v&6*v&.=+=@=#=j&p&[*$=%=d&:&6*&=J**===E*#=x&-=;=a*>=V*,=N*d*<&c*'=O&(*C*s&C&)=]&l*!=~=M&M*v*@*+*P*{=]=^=!&/=(=_=x&:=<=$*M&N*[=}&_=}=M&y&[&C&L*|==&[*t*6*1=:&2=3=g&4=W&5=;&3*6=7=8=9='&0=a=~=b=5*3*c=5&#*/=d=e=f=]&g=d&]&@=,*~=/*h=d=d*4=)*i=Z*j=#=J&1=1*k=l*l=m=F&5* *'&n=j*o={&p=q=v*r=s=t=~=u=!*t=!&X*`*v=**N*a&E*:&w=x=}&7=y=z=T&!*A=)*C*v=B=<&C=D=!*w&r=N*'&<*E=F=t*a*G=N*l*H=V&p*I=Q*]&d&}=d*J=K=L='&k=Y*<*v=M=O&*&p&N&F&p*C&N=a*Z*8=!&O=N&P=N*Q=J&'*R=S=B&c*c*v=T=U=F&C*2*V=W=X=Y=",
"Z=t=`==&W&b& -.-_=v=v*+-@-#-<&b*4&)*g& *$-%-(&&-*-=-z&o=n=4&--;->-n*,-'-`*)-!*!-~-w*{-6=]-^-/-(-_-:-w*j=<-~-[-}-|-;-1-2-3-3-4-!=5->-j*5-@*6-7-8-9-0-/=a-b-l&l=G=c-/=d-e-f-b-/=5&g-(*h-@*~-i-j&j-N=/=6*k-6*R&5&p*B=1=4&p&l-m-n-{&N=o-w&p-C&p&{&`*q-r-n*s-8&t-S=N*|=u-H*e-F&!*q=v-[*'=)&w-!*3&)&v&x-3&1*|*v*|=j*y-T*p&f&O&o&z-F&A-`=B-d=T&C-/&*-{&*&P*r&@*v&D-F&]&W& *)&9-E-3*,=F-6*{&a*v*|*I&U&Z&M&c=L*6*m&C*/=n*I&|*G-j&H-6*A=N=w-t&)&l*I-d*d*I*(&d*@=_*9*+=i&t&}&;&k-%=-&~-{&:& -'-B=c*3-,*_*8*z&m-~=J-6-w-5& * *y&u*E*/=+*_=K-A*L-M-!&r&:&|*e=N-u-C&N*_=[&u&C-3=Z&(&c*D&J&)*O-C*f&-&R&M*e-3-L-P-Q-l*$*x&R-r-)=S-(&'=>*C&S=:*+*(&r&v=O-{*/={&T-O&s&_=U-V*H*)&V-W-G&f&:&X-R&Z&v-w=_*Y-@*`&Z-{&e=J*c*N*<*R&E-`-c=H*[& ;T*m&x&o*`*9&D*]&j*F& -.;U=V*z=d*'-{&+;u-d*X&W&@;#;1*w-$;'&3&i*J&@=%;&;S&7=*;X*L*{&u-<&;&+=,*=;K=-;;;>;,;e*:&l*l*';$=b*>*{&h&1*W&~*3-!=);9-!;w*~;6*{;*-];^;/;6-(;_;:;<;G&@*_=[;P-b=};|;1;5&I*$*2;I*3;w*4;5;6;7;|;a-8;9;n*H-<-0;a;b;@;c;d;e;f;~-a;g;h;G=0-!=i;i;;-3-M-:-j;k;~-n=i-9-Z-9*_-3*Z&=*k=`*l;P-d&]*v&m;9&1*I&2=S=/-r&n; *c=I&b*2;o;",
"`=p*p;H=3&+={&j=I&L*C&m&'&t=9=l*C&q;F&!&!&{-r;S%s;t;u;t;v;t;t;t;t;w;t;t;x;y;z;A;B;C;D;t;t;t;t;x;t;u;t;E;F;C;t;G;H;H;I;t;t;J;t;E;t;K;L;t;M;N;v;t;t;y;O;t;P;B;Q;R;S;T;F;U;V;G;t;x;W;X;D;Y;Z;`; >.>+>@>#>$>F&]*c*%>[*v*V*%=u&v&x&&>z=]&;&>-M*W&]&k={&!*z&]&w&+*)*6*+*_=B=N*Y-L*G&p&l*k=i&r&L&N=M**>y&,=$;J&1=[&V&K*'&6*q;(&;&,*}&=>u&[&'=F&|=u&k*h*->c*{&;>e=^;`*`*'=}&P-7=@*Z&9-v*>;t=v*c*7=)&)&`*[&C&!*:&u&]&:&o*(&O&d*@=I&~;'=]&y=u-+*X*s-i&k*z-,*I&:=v* *]&d*|=y=W&>>p*j*r-Z-c*E-L*A-!&{&9-y&V*u&1*f&o&,>$;c='>N* *H=O&{&4&7*M*$=)*|=4&5&`*)>v=/;N*K&5*M*n&u&/;'-3*W&f&H&k=d*(&_=l*@*C&I&l;d&l*!>C&i&{-C*u-~>Z&H=0*e-<*;&Z&!&C*|=;&]&~* -z*`*>;+=W&/=:=x&3&`*|=i&7={>c&e-S=z&z&{&,*Y-c*Z-)*{*-&d*B=/;;&I& *4&H*-*V*x&C-l*]>)&;&3*!&-&Z&b&u&^>N=`&<*~;/>J&(>/=-;'&<*w*K&Z&v*r*U*(*v=j*e- *U*c*F&F&y&(&r&W&1*Q*:*Z&_>:&!*@*`*3*p&_*N=G&p&Z&l*u&6-V*C&C&|*:><>[>}>t;|>E;M;t;t;t;1>t;B;2>C;A;u;3>t;t;L;w;t;t;u;u;t;t;4>t;t;u;M;t;t;E;t;t;M;t;5>t;t;6>7>8>F;t;t;t;9>t;t;H;t;2>t;t;t;0>Z;v;v;u;t;u;t;t;A;a>t;t;8>b>c>d>n&f&e>y=f>-&b*L*6*Z&%=C*J&I&c=g>t&)>h>y=N=i>j>",
"k>v*l>V&5&<*}&**F&V&#=[&:=;&v*/*!&t*'&F&/=m>n>o>p>q>r>s>t>u>v>w>x>y>z>A>B>! :+C>F D>& E>F>G>H>K+I>J>K>L>P.d M>f@N>O>3 L@P>Q>R>S>T>U>J.V>W>X>f 8@Y>Z>: `>C. ,.,+,@,#,$,%,*+&,*,P =,4.-,;,>,,,',),!,$$~,{,`*>-I&o&#-L*j-7&M&=-7=],W&/=H*[&I& *_=r&^,z=)*6-<*Z&)*X&/,T*J&-&7&J&l*+*n*/=!&p&[&v*-&6*u-P*z=H*)*0=y&u-:*I&(,#=*&/;W&l;d*}&/=0=(&g>X*,*m&v*Z-+*@*N= *=-C&N*R&7&j-,*x&O&L&(&'=:&M*d*L*X&f*Y*C&j*Z&M*u&3*_,(&=*{&I&c*c*c*7=X*e-@*L*W&d*V*@=z&J&5*9-2-e-!*`*:,C*I&'-3&<*G&o=7=e&(&f*<,[,[&@=-&K*n*/=S=j;J&C&b*},p$)&/;V*l;_*|,;&]-:&v*y=1,2,)&c*c=d*_*:&N* -g>z&v-_,7=M&l*n*9-H&v&3,)*|=+*c*.=(>5&!*5&c*4,M*s&P*]&<*C&q*d*v&U*d&N=5,l*6,3*(&I&V&C*}&p*V*a;n=5&y*z&7,<&l*7=)&(&9-8,(&>-Z-h*n=W&c*C-6*f&u&Z&5&>;)&>;f*l*1=)&p&v-/;`*3*c*N*Z&w&N*Q&)&c*l-L*'=7=!&d*d*!*b*!*l*9,V-`& *!*:&-&d*k*/;H=;&y&n*l*U*Z&!&f*_=F&T&(*_=r&M*n*z& -X&<*L*d*]&0,:-a,b,o>c,d,e,f,g,h,L@i,$,j,g k,l,m,n,o,p,q,r,s,A@t,<@u,v,w,x,y,z,A,B,s+C,^ D,E,F,s.8@1+G,H,I,J,l+K,L,M,N,O,P,h,Q,R,S,T,0@U,V,D.W,s j@X,P@#.Y,Z,`, '.'+'@'#'$'%#v-(&[*a*b*I&|&b*Y*2$K*T*L-F&%'N=},D-d*)&&'",
"*'i&;&d*M*{&U&`=6*+=F&g>3*[*r&f&e-c=='b*-';'>','K#''~-)'!'i;5&~'{']'|;^'_=/'8&C&^;{>v=/-*-m;('_':',;<'+;L-3&[&=&['I&c*(-}'_-|'1'{'i&2'n*3'.=3-4'y&s*o=b&3-5'p&<;r*!*@*6'l=z=3;P*7';-W&=>(*{=5*8'm*9'0'a''=(;g&%>R&^;2=m;G&@=%;k=!*/=p&/=c*N=6*0*-&+*y&b'D&q;5&f*:&l=J&n&u-a*J&Z&+*H&!*c=,>c'{&d*{>C-;&7=p&(&d'l*y&!*e'b*9=u-5*_*n&c*f*N&I&]&V- *!&@=u&*&l*|=W&t&|&&=+*O=1=c*!*7*f'a$-*p&C&6*e-3*7=v-X&q*a*/=r*W&B=W&J&n-/;g'(&W&[&M*6*7*1=N=l*N=_=f>T&`&!*n=k*)=h'p& *_>G&#=*=j*V*p&B=I&v-@-^>e>z&P*!&>;H*]&E=]&K&i&4-)*M*Y*n=9=i'a;c*d*7-d*}&j')&7=j-7*k*X*T&K&{&C*_=0=1=j* -:&{&-&)&!&l*u*G&u*F&<;W&5=M*@*c*3*>=^,p&_={*J&C*7=|=6-_* -M&m&v*Z&d*V&1&N= *M*k'^>C&/;J*!&l'{&S=`*!*:-2*z&C*v&C* *M*n&a;<=N*H*9,c&u-c*_=r&V&7=c*c*z&C*X&L*:&o=u&~;3,e-)&X&m'{&N*6*1*3&*&[&i&h*#=/*5&X&C&C*h*v&{*A=R&z-W&n'u&C*k'b;`&@*K*{&'=-;F&0*~=c*9=o'M*V&X-'&i-g>r*--p'q'c%S=5*g;)&g>~-P*5*V*r'o'!&I-@-N=J&g>!*[*)*I*s'V*Z&t'/&[*G&I&!;_*};N=u'7=a-v*)&u&0-/*%;|=c*)&v'i&W=w'7'%*<*-;-;x'o=y'q;j*a*d*f*P*2,z'u&A'B'3->>C'D'z-E'J>F'G'X&<*y&]&r-<;I&v-H=v&@*+*@=X&V=c=X*N*(-H'",
"I'J'G&:&/*T*i*}&k*`*v&C*q*6*r*N*I*2,>*B-T@.-K'L&H&u*{&L'/=g'j;M'{*1=N'],X-N=[&:=O'n={>k*D*1,Y-!*P'e=n*;&D* -W&j-/'('u*~;z&w*e-Q'O&!'w=A'[&R']=1,C&S'L*u*I&X-W&9*_,O=u*0*U&_=T'~;U';-C*V'!'6&e-o'W'X'Y'Z'`'u-H=[*i=j*p-Y&H&h*a*]*f&Y*;>Z&<*V*<* )c*n=+*$*r&.)!*G&6&)&K&H*6-L*c=e-f*@*-&O&b'{&(&7=~=N*N=l*/=(>V*/*L*1=Z&c&*&C&7=I&3;|&@*h>s&W&s-'=R&-;-'!*q;-*l*p*@=t*{&J&8=c=H&}=T&]&+)~=c*T*/=K&p&`*c*_-7*n=9=@){&>;1=D&q*z-k=)&a*C&1*N*U*w&Y*@-#)N*X&9*u&{&m&C*)&~;>;_*Z&~;>;#-N*D-f&u-b'/&$)c*>;_*E*2*r*6-%)5&!&~>/=d'x&c*v&/;'=y=-*)*J&:&u*p&n*r&&)3*$*v*-&@=K*s&F&)&d*H&W&5*D-Z-H=3,y=B'u&U*N=n=V*`*k*~*o=9-<*X&z&-;c**)n&-;1=@*(,6&X&c*a;d'>*e&c*=)-)C*1=;)5*`&:&l*0*L*(&_=c*p&z&!*c*|=U*r&B=)&i&d*u&C&<*`*d*,*H&V*|,h*M*:&:&+*:&V*e-q*Q&!&g>(&W&6&d&0*8,z-b&]&-*!&>)-;k=h*'-|=v&!&)&},B=b*-&S=m;U&|=_=W&-;C-_={&c*/&v&X&>*X&m;E*c=V&(&z&;&c=p*7&6*,)')))!)g>~)Y-},n&u&f-!&!&d*H&/=9&~;{)e-~=`*])a;^)/)*;:&()&=%* ;f*{&&=~=9*(*X-_)c= *y&:&T&C&c=O&n':)I&X&q;t*c*_*&=v&y=<)W&5=D-u&f=/=:*~=h*4&[)})|)j-)=r-r-D#1)2)p*V&**X*{&{*X*8- *T*v*-&l*O&o=B&y&],l=3)",
"4)O&{&k*t=N*n&k=@)5)u&P*}&u-l*#=F&9,{&6)f#7)R&;&r*6*2,X&u'f*f&C*Q&s-e-H&J&)&R&6-n*e-o=X&v-S=Z-m'/-5=a*q;X&Z-,>u&r&g>'&8)<*:-X& *;&/=>=_*f&@*'=f*m;N=l*v=C&u-{&~=r&N=9)~>b&W-5*'&<;p*i&5&C&2'(&9-0)a)b)c)d)3-e)m-u&Q*_*h*d*u-V=f>f)u&M*v&)&^>`&h*'&1'x&6*u$X&n;i&N=d*q=-&g))*X*T&X*v=/=;&X&d*)>Q=X&z-C&(,R& *^>~=l*v=I&g&(&f*Q*[*5'+*;&z=`*0=h*{-C&p&~;1&M&:=Y* *R&~-h'6*j;y&R&1=|=7=7=n&)&v*z=>;h)6*p&z=Z-4=c*]&!&;&C'm>e-'&m&Z&7&5'7=!&f&@*Q&/*i)O&J'a;K='>M*s-j)<*j*c=/*k)|=Z=!&h&P*:*:'O-E-:&K&X&;&[*},/=O&Z&{&l)r*>; ;+*W&m)V*@=V&Y-!*N*5&T&I&6-O&b'$*u--&)&7=$*C&/*U-+*X& *`*N*'&X&5&1*3-:&$=1*_=},L*~)P-]&n* *x&~-c*n)p&u&J&+*X&]&b*:&c*0=}&t&<={&t* *!*o)C-c=G&p)m&!*;&b*;&v-)*9-d*)&:-'&c*X&5=M*+*!*k=[;u&:&Z-t*6&z-+* *q)1&`=g>$;#=u&r)^>k*Q*s)b&=* *5&)*p&/-e>I&-;[*%>(&N=c*r*,;e&{&t)E*f&3&L*X&7=N=u)v)_)1=~>6*-;I&p*7*@=h*L'P*!&<*+=I=P-w)C&x)D#y)z)Z&n&2=H*<-L*t=A)B)v-@*C)c*4&a*u-M*D)G&(>/*5&E)Y&p&'>+*3*B=s&'*'=J&I=@-z&u-N=h)N*/*F&]&z=5&_&y&h*z&@=n;J&O&@-m&/*]&b&o&Z-)&2=)*:&)&M*V-F)(*;&/&W*%*p-7$~.G)]*v-X&H)I)-& ->;Q&8&},@*y=K*C*[&D=f-J)",
"U'K)b$v=X&B*B'(&n&3*^=N*l*3&p&l;C*L)M)X%N)V=`=q;1&c* -;& *G&u*u&]&j;z&x&!*#=K=m;G=9=1*f&y&/;O)P)~=:&d&C-v&9,B-r&K*y&f&a;:&a;|=-; *{*%=[=l*l*C')>]&_=u&0*:&y=;>l*c*Z&W&0* *U*Q)y*9-[&u&l*/=C&R)U*S)T)&#~,U)L*L-#-p&~-|&V)c&N*g>*&+;1&:&:&1=)&W)d=h*V&`&:&'=O&_=b*V*)=#-,;n&p*{&X)C*K&Y)z&I&B*,>4&i&`*Z)!*C&7=>;h*H*{*>>l*/*},h'`)@=C*c&f&P*/=(&_>a;;&H*v- !v*.!S=C*y&m&(&_*`*1*r)P)E={&+!#=2=v=@!)*#!}=b&==Z&{>P*v*|=/*h*;&G&)>R&6&p&v&0*_=t*<*$!c*6-Z-i*f&]*d*L*f&9,_*F-V*9*b&%!W)J*,*!&H*/=&!^&d*N*b&C)H**!a*3&d***=!9=_*M&s&[&V&/=l*C&/;V*`*;&]&)*D-Q&@*d'G&7,&=d')*-;<* *J*0* *u&e&`*W)t=&='-w-o&'-5=<;-)]&_,Z-f&Y*)*-!d*C-D&)&y=C*M=c*1*W&+=D&l)1*r=u&I&v&2=-;H*1={&;!5',>u-'&Y-U*x&,*P)4&v=J&=-Q&)>N*N*]&d*c*(&C-d*1*Z&)&N=Z&)&J&$;{&[&{*:&b*K&~=i=6*f*V&+*C)N=q*@=c*n=`*_,5=e='-V*u&6-z&^>!&V&{*>!c&D&M*]*P)m-3*p&I=b;u&6;*)O&%=X&s&`'!&,!]&L&T*v-'!)!!!~!1*@={!:&]&!*N*]!~)N*^!y=1=_=6*Q=V-+;&=w-v&'&R&b*L*,*c*)=6-Y&n=]*f&t*c*v*u=/!J&(!x*G*|=_!f*R&`*m-<*f&L*H*u'F&!&J&!*b'D*B'7*(>`*:&+*5*d*c=]&5&N*)&C&1&h>/!:!<!1'n&_>-'G*{*]&U*r*D&N&4&P)e&!*V&5&[!",
"}!|!L*/;V-k=C&{*5&<*v&}&@*n&n*O&v*M)1!2!i&j&!&_*:&6&)=@= -{&W&},6-N*#=/;@-d*{-z&o=)*e-[&L-6-5&6*3!_->=4!5![-i>6![&7!8!9!{=:'H=0!|-:'3;k;a!b!i&!;c!j;d!8*_;e-4=G=e!f!g!h!i!1'5!j!3;V';;0!k!8!l!J&m!n!o!p!q!r!(*l&k!3-);s!$=/-t!u!v!a-w!H-s!h;x!y!q;4-X=7&_-g)H-z!5&z!A!h;B!C!D!E![-F!G!V'H!l!I!(;J!H!d-H-K!!;L!)'M!;-N!i-O!|-:-<-v*P!Q!R!d)S!T!V@U!1,H!('V!W!V'X!Y!Z!`! ~d;j-f*.~+~5=E!@~#~d!U!$~%~f*&~1'>=M=j&V' ;*~h;X==~-~;~!=''>~k!!'0-!-,~7;<)k-j;'~d!)~!~~~{~]~j&^~3-*-E!/~d!4-q;{>(~9*u!4-{>}-v!h>_~:~v!<~[~}~/~s'!;|~i-7;B!d;!=f!~;{-1~=~d-k-h;6-O!2~j&3~s!y!X&!~|;v-/=4~%~5~6~7~;~8~}~A-s!'-9~/~0~_-O*a~f'H-5~b-}-V*k-v!X=y!b~k>k!c~@;d~e~f~g~h~{~4-~-a;A-!=g>s'q;;>i~:-_-V@2-j~p-A-G=k~4-l~v!5&m~.=3;/~q;n~}'f'P-3;o~/-(~ ;l&p~a;f'T'Z-9;>=q~X!u*|*:-r~%~X&k-X!5&V's~f*l)i&/-M-r~i!R&=-@*(*~;_*t~k-u~s'l&z=h;W-q)g>K=l&v~w~s~;;*-M!i>;&G=H-x~h&y~.>z~A~4!a-2;B~q;:'L!:~c!C~5!b-);h;0;l&!;7&5&q)H-'-W&D~*&[-l-l-j;E~r'S!7!x!l&c~o*R&s~[&:''&x~8&m;v-7;l)F~;-p-N-,>T&G&'=g>Z&c*L*h*N*H&y=D--')&+;I-!*3-e>~;[&)&=>*&G~H~$*s&-&E*(>*&I~h>J~9=l*+*T*<=y=6*K~",
"5!v=0=L~Y)**!*a$o=W&u&7=v*5**=<&b,M~N~(>p*h&O~/==>N*v)V*N=L*k*,*3,7=/=Z&)&:,l=R#)*@=`*t=i>P~Q~R~S~T~@>H~U~V~W~X~Y~Z~`~ {.{+{T~@{#{${T~%{&{*{={-{;{>{,{<!'{o>){!{>{~{{{]{ {^{/{({_{:{<{[{T~;{}{|{1{*%2{3{4{5{6{7{8{9{m!J)0{~{a{%&2)b{|{@{c{!{%&d{e{>{f{g{o><{  h{i{Y~j{k{l{m{n{o{p{|{q{@{r{@>s{<{t{b{1{j{u{v{w{x{y{b{z{A{&{B{y{[{C{D{E{m{%{F{G{n{H{e{;{@{I{ {9{_{b{_{J{t{%{%{K{7{Y~>{q{L{>{a,K{M{o>K{c{u{N{O{[{P{@{<>Q{[{t{R{K{a,S{[{T{[{U{H{!{V{z{W{X{o>1{M{Y{ {t{4{Z{`{ ].]@>%{+]@]c{@{t{V{e{T~#]V{@>$]$]r{[{%]L{&]*]4{i{$]=]g{-];]@>$]>]!{[{V{,]%]&{^{z{z~T{']a,V{h{G{-])]G{m{!]z{~]{]e{]]^].]%#T{/](]_]l{q{:]<]a)[]}]r{z{|]-]~]1]e{/]2]1]m{3]g{h{%{B{`%1]P{4].]-]M{5]&]~]${$]@{6]7]m{>]@{8]9]0]-]:]@>${m{a]b]4{c]d]e{e]U{&]a,N{f]g]h]1]i]L{j]C{1]e{a,k]@>l]G{H{i]g{u{m]2]n]N{2]U{o]-]1{!{2)){a,8{z{g{_{^{p]l{}]V{q]^]-]r]8]B{s]9]|]U{t]2]e]u]k]e{v]~{w]x]y]6]<>r{ {!{z];{A]b{B]A{T~a{|{#{4{C]!]D]A{/{E]R{B]W~F]U~G]H]I]o>T~K~  K{<!J]K]'{L]M]U~0{N][{H~!]T~D]!]O]l{k'B'm-P]o*C&d*p&+*X&h*6&5&:&$=)*Z&M*c*`*z&9*e&R&)=`':&Q]V~5&5';&m*@*f&V*H=E=!*{&v&X*N&O'R]",
"S]i=*>m&u&-&2,e>k*<*@-f&T]Z*U]z#o!V]l&P)p&c*v&k*n*W]!&!*z&5&{&C-(*J&(,t=p-)&p&~)o&X]l; ~o>Y]d>Z]`] ^#>.^i)+^@^#^$^%^b$`]&^9,&%a$o$*^%^=^-^P]E#;^>^'),^'^d>)^!^~^7%U${^]^^^M#/^M#(^b%6$_^:^<^[^`]}^|^E#1^2^d>8'2^]^3^~$4^)^&*d>5^q$d$M#6^7^~$|^8^#^9^&**^E)0^/%a^V=b^c^d^ ^J=e^f$>'f^d>D$g$g^h^w$Z]4^d'd$i^j^8%k^o$>'l^m^M#1$n^9^o^p^V=6^Z]o$q^]$r^f^s^A$t^u^6$v^w^!^t$f^6$O=8'u$M#8%7$x^y^4^z^A^s^f#B^4$`]7%[^9^M#C^8%!$E=g$|^r# ^D^E^F^&%j^a^a$M#8'8'd$G^o$h^r$H^I^a^u$)^J^K^L^M^N^A^')N^'$(^&%O^*^t$8%t^O#P^b$q$Q^`]1^R^g^~^S^]^1^f$=^l>T^6^>^U^9^&$8^8%r$&*V^&*W^X^]^!$k=Y^Z^`^D$ /+^./.$x^<$a^1$A^(^k=7$}*b$+/K))^9^G#@/#/r^#/Q^$/%/]$~^&$&/*/M#D=d$=/u%&/V=8%4^%'.$J'B$-/@/%';/>/M#~^D-l^X^7%2$'),/k)=/x^<$]$%'d$'/M^g^/&&*N^B=j^)/')+^T^7%0)g^F)Y))/^*G#t^t^o$d'R^!/M^V=d^d>a$T^i)a%q'~/{/]/.$^/k)T^!/ /t^R^&*%'~^//V=#/G#)^G#(/_/e^4^N^G#Z)k)O^O=:/</|^[/1^%/}/7%#/X^9$ ^|/1/2/x^&/Z]3/9^4/E#O^Q#s^h$s^O^A^4^5/t$#/{$6/a$7%#^7/%/8/.$9/x^u%|^0/s^$/a/8%($l>D=6]V*)&:,d*`*D=v-1&m&k=|***f&!*:,i&6&o*M*6'H*i)9-p&j&R*b/c/[&a':&I&k=v=:&z&Z^X&'&v&0*K=B='=B]",
"h-A=>*E-i={&n&+*6*d*t=m;1=7=y]1/d/g>[*r-P-c'i&=-`&w=n*$-}&~-=&g'L*S&F&b'C&_>V&5&e&:&/-.*3$r*!$>#D=y^e/I^D-f/b$'/P)8%v=Q^l>j^{/g/R#G#E=n'4^//2$2%h/C^J=1$C^!/a^8^9$i/1/s^w)2$R^F=T^X^k)u%Z^X^&*Z^j/D^A^^*z~w%k/H#!#z#1/&#l/m/|#$%c^k=;$9$.#|#l#F#n/q']/o/##p/0#|^^#l#x$&#(^h$!%q/r/($s/&%&*{$#$t/$$*^!%u/C$v/E#u#Y^;^.$w/&#9'x/Z).$K$y/z/Q#x]{$A/r%T$y^g#{%O#Q#B/C/b,a/~%D$j/V%.#n>B/F#.#p#D^*#)#b%d#D/E#E/$/s/F/G/T%F#d#]^H/o^F#F$0$*%)![$4%M)I/q#J/W@,$K/)#$$@#N%[$f#;#%/6$r%;^&#,$)#L/M/o/W@b#3{W$E/($r$N/v/6$F#Z$*%b,z#x]F#)$O/:/D/ %p#h%K$P/Q/o!F/d#p^R/g#S/I/+$T/U/+%V/|#q/B^)#W/c#X/9'X%{$K/%$+&Y/o/q/Z/W@{%&$y#`/ (q#.(H#[$M#Z$&$S/]%+(@(W$#({%1#z#S/H/o/4%t#F/Z'b%@#p'z/#$$(Y/K#t#%(|%@#^#*%t#C#%#&(n>k/=%W@L%X/Q%^$i#7#*(=(Z$T#O/-(J#^#;(N%9%)#l#`#0$j%X/>(=(Y/,(1!'(*$9%E%q/)(,#$$j/!(|#+(~({(n%c%b#K/S%=%L%](M/!#]%^(S@J#/(((_(9]:(3{]%<([(}(//w$8/r#+(D$E'|(D$o^3^s^M^1(==t$2(K$x^&*3(n$>^0$8'o$1^C$4(&%&$!/_/a^'$o$u%8%u$5(8'J'7$!$6(l>7(s^s$d>k)a$$-f/p)v-`*/;F=-;M*v*(&]&u&(&v-/)c=-&S*f&a;C*L*B*5&B=Z&8(9(/'0(a(:'b(2${&E*<*0=I&-&b*V*a*+=C*B'Q{",
"s~v=C-@=+*)&:&e&_=+*y= *}&0'J'c(M-i*f&N*d*2*N=f*-&+!V&/!/=6-C&6,Q*p*(,T*u&q;N&I&'=e-[&a*d( ~e(f(g(w L,t,N+r>n h(i(j(t,,,@,k(&@l(3 m@m(C.V n(o(p(,,q(E,r(+,s(@,S,t(u(v(w(x(y(4 r>z(4.A(f,~ P>y+B(7=C(D(E(F(G(H(',I(J(K(L(M(N(O(P(Q(a@R(N(S(T(U(V(M>W(X(@'Y(Z(`( _._H++_d,#@l(@_#_$_%_&_*_=_s+V>-_;_|.>_,_'_0@u,)_!_D@~_{_I(]_^_/_(___:_<_[_u,R+}_|_m(u,1_2_3_4_5_3@B 6_7_8_9_0_a_b_M+c_d_E e_f_i g_',E h_{ : S+i_j_k_-_C>(_l_m_n_o_` p_q_Y>r_s_; t_@_u_<@v_Y>w_Q@x_F>3_p,y_z_b_:_A_B_I@t,C_D_E_F_m_G_H_I_J_K_L_M_N_o@O_P_Q_M@R_S_T_x@U_V_W_ _s@X_Y_Z_`_9@ :T+.:+:@:#:$:%:&:*:=:-:$ ;:>:i_,:':):!:~:{:]:^:c@/:(:_:= ^:::<:N_[:w_}:B |:1:2:;@3:4:5:,:6:7:8:9:0:a:b:c:d:e:f:g:h:i:C,0:j:k:l:m:n:o:p:q:d@r:s:t:u:v:w:M(x:q:y:z:2:A:B:C:D:E:F:G:H:J(I:J:K:L:M:J>9:Q(N:O:P:Q:R:S:T:U:V:W:;_O_X:Y:Z:`: <.<+<@<#<$<~_%<&<*<=<-<;<T+><R>,<'<)<I_!<~<{<]<^<>:/<(<_<:<<<,{[<}<|<w <_l(I |<1<2<3<+.%<k 4<b &,5<6<7<8<9<U>v+0<U+# 2<a<b<c<d,k+d<u,e<f<g<h<t(i<4+j<s.k<H@l<y(S,m<n<|$h*C&r&t=0*@*y=v*X&_*^~p&1=M&z&o<7=e>C*j*P*L*c*r&_,3=.=N=_-p<q<P{N*o=f&*&U&{&Z&*;d*e-i=v-r<",
"s<<*9=(,M*H*B==-p&f&d&Q&M){/t<%) -/=w*0&$=C*v'u<g;3-W&C-%;W)7&J*@*o&f*g&}&e=-&P*b*M*n&4-)*z=J'Y)S#v<[$c%I$U${%g$V%1/W'&$.$7$f/F/Z$:/}^w<x<K/{$E#8'k#u/j%y<z<d$A<&%$$!^7%9%h$>$$#O#0^y^+^9^r#E#B<C<D<E<(^S*g*_/<&6^N&1^&^9/S#F<G<g&[%H<u%-*&^s^j)*^Z)D=e^R^A=3/ /P#>;G#R*M^**u$I<m*5'J<N&5$b$u^Z)~^k)E)F=)/K<E*&*L<,;-)u%%/x^M<a$>;]&k)~-B'#=D=U'l>(&*^d'u-7$8/N<k=S*G#1&I~O&|&&*w^!/+!O<D=Z]S*P<v=[^`]+^K<'/w) ^a$>&Q< /-'L&F&R<T&>;w)P=M^9*j'L=k)e/E)1&2$<;D=V=b&-'**b$u$t-a$S<Q<$-z-T<r;U<D=X*w=J-P*t*`]P*X*V<2$O&o*7=)*C&r;T=9/T*v=},X^W<X<Y<V&l*k=u-(,O&i)F)+*F&Z<`<E*3&b&h'>&v& [.[#=6*D=P]R&#!f&^><&P]+[9,=&<*Z^B&^,p*@[ =#[s&$[n=+*D-7&6*7=%[&[k*s&(&V&e/B=V*4&>&;&.**[r!j=e&P=5==[=*u--[,>~-t-~;;[>[/!+*@-u%m'S*h&.)%)G#^>,[7=N='[D=**2~v*~*(=g&t=u--&Z)-&l>r*v& =t'b&>&1&W&'&I&/*)*K&t*!*^=i=@-+*P)>;n'D&n&$=y&)[ *6&w-c'S=O&O&S=$=(,r;h'{*~)&-![$/~[{[*/b,&#v#b%Q#q'v^b,P^I/D/x$-#%%+^!^*^o/e%P%|$][^[ %Z$#$/[.$5$*/([/%,$.$9'w$a^K$S<j#A#c%6^0'a#W$o/8/W&1-#*Y)V*W&d*1=/*6&3*_[Z-!*{&#=(=:[I&^;<[7-[[_[}[L-;=9;5&7=Z&a*|[|*y]x&_>)*v=(,V*h*:&v&K&B'1[",
"g)_)5'+*)&L&h*K&q*|&]&b,y~2[~-d&V*p&q;O=~;F!X/3[4[5[6[7[8[R!_,M*9;M*a;N-{&V&K&6*5&/;C&1*M*#=1*{&)&{&d-;&H&L*l=)&]&I&@*1=p&a;)*f&,*;&W&d*i=c*h'z*o&v-<*b*X&G=e-B*U*n*[*#=l&t)W&c*S!p*|~-;'-n*1=9[C/c]e]T^`'~)`*q;:,u&7&Q&6&,*6*Z&)&'-V*/=|=9*0[a[n=H&[;!&s$u&h*:&9*s&t*$*j&$*C*+;y=l*];;=1*K&Q*b[u&Z&H&-;T-p*H=W&@*L&@;N=(>I&J&]*f&{&X&F&s&1*B=A=j&U*/,c[2':=4&5&_*/={*Z-t&V&9=)*'*Y)w*_*%*]&~):,5'6*D*)&_=)&~-Z= *m&k)S!X*e&^,>;3-d[N=`*q=(&W&+=#=u&J&C*l=x&X&]&p&1&v*s&z=w&!*e[C'i'Q*~)e-~&d*K&l*Z-k'r--&'-1-d*I&N=X&*=W&f&p& -)*{&_*o-F&n=z&c*O&)&`*{&)&n'Q=^,f[)&!*L*(,e=d*p*M*~>H&<)y=g'C'B)o=z=g[_*c*;&*&0*Y-h[/;_=`*;&7='-Z*v-U*y*{*'-)&-;_*u':=+;e/X&/;C*3,J&u&N*~>i[2=<)j[k[u&~=U=i-u'^;y=o&c* *[,Z&+*b*u-]&Q*d^c*^>B&`*%*7&c*'-_=c&(,3*6'q;y=D*-&Z&Y*d*3,e-q*Z&x*I-y&>;)*u-r&L*7&C*`*/=)*@~%*@;*;B'g>:&{&V*z&6*)&-;m&}&[&_)G&N=1--&/=e*)&2=G*l[m[n[o[p[m;3*1*~=z=%*H=F&i=L*l;(&w&u-p&<*!&!&E*7==&P*;&j'b*N&8=**{&|&Q&B=)*d*Q&O&|!K&Y)r*a*]&Z)T&p&C&>;@*/*C&`*3*M&L=7'7=y& *!*3;_*a~_=K*f*v=_-c^q[r[s[t[|{=/u[~;},X&L*D)v[M*w[{-x[{&E*`<d*_=M<I&{&P]/=y[",
"z[d'6*t=g)v-h))&H*3&A[Z@B[`)e/#=k=T'*&[~o{={N]C[D[E[Q{/]F[G[|&o'N&Y):&a;T*{-W&K&L*m;O&H[:*!'j*2=Z&v&d*!&8&f*2,p-{&L&N&6*a*c*!&|=t*c=,*)*n&K&J&e[!&6-g&T*7=S*t=2=3-[&+*(>d*X&X&!*;&Z-t&]&q;W&3-l)![[{I[B$`*=>Z-[&J&4&J[[*Y*#*l&},k=U*N=f&v)O&]&+;~;]*`&X&{&G& -E-o&/*f*;&r=V&)&~=!&m&,*+*Y*N=s&S=^;+*I&&=h))=$==-%=_*<*/=C&r&_=0(F=e-z&g)I&3&r-v-`&X&|*N&C&!=U-%=V*G&C*K&`*m&)&g&_&`*X*E-!&m;X&-&y=N=@*l)[&k=U*_=f[{^/,,*6&#=p-T*L*(*`*/;(&(*2=3*I&N*,>)&(&U*{&i*l*]&$;)=U-'>J&J*%)6*p&v-t&X*w=|=K[u&d-&=},L[3&_;+=f&S=V&G&m&_=3*6*_*]&&-)&+*)-n=N*2=_*_>5*`*-&p&`*h=i*^,a;4*N=c=>;-;l;S=7*~;D*)*`*_,6-!&Z&c&b'!&X&M[[&B*l--&L*=*;&v-u&E--&d=q)6-]&B*X&N[V*t*;~=-e/_,]&!=5&'-C*9;6&3-!*L'e-P-x&#=3*l)r&~=;&V&n&^*v&C*I&Z&d'c=O[u)(&5&{*I){&W&-*U*`*/;D-k*]&p&Q&N*{=n&;&9=V*I&/;P*C&Z&@*f&J*C&/,[&]&^!+;n'+*;&c'[*7-$;G&p$@=`*z=Z&z&v*D&>-c*7*R&h=n*5*6*P[Q[-(p]R[V*T&p&7=:&<*`->;[*^=v& *t=)&d&-&K&X] *X*{&<;e&E$K&';7=:&#=>;u&},A=`*P)O&-&(&!&c&V-3*N*s&i&C&u&W&-&C*)*;&{&C*u&t*M*y&p&n*:*V*e/r-S[.#T[E]U[V[W~0{W[X[Y[k*<)n*-&h=q;!&~>{-Z[o>**U'u&9,y=V&(&>;9-K~",
"`[k*8&!*W&n'$*-;!* }.}+}v*G&C&P*Z&f>@}#}$}a]%}&}*}c{=}-};}2)>},}M[},{*'-P-+=X&#=`&I&!=/=W& *)& )v-N=:& *b'(*H&'}@=(&]&Q&Y*n&p&c*c*!&p&{&X*0=y&)}P-9;g)t&>;+!`'L*>-C&:&f&_*g'j[e-c*l*9-C&~)#*!&S=!}T{U{G#u=d-~}{}T*L*N*V&b*e&,>s$`=V&T*|$Y)X*v=k)z&{!X]I&r&g/n'3*9-I)p$2=Y)N'/&l*6&v){&},]}^}@*H*H=/}(};&@=n'K)o&0*<*{&C=V&_}[,3&v&`<2$l;3-v*Y**)]}e*/;Z)A*/;v&@=Q*l)')s&9,T&b*<*X*!*g&4,C*p&B*^!1&l*x&,*I)B=k*_*=&c&>!C*7=<*/&C*N*^*s-:}(&&%o<Z&s&e=<*U*x&>;v&*)X&k=i=,>&)c=!*J-H){&t=L*V&T&<*/=i=[*w&R^E-N&O[)>p${&A=>;(&J-^>.-f$|,c=G#4&c*+; ^;=h*d'b*#=Z^C&m)H*X*r&B*n;b*<}c=7, *V&_=K&y=M&Z*9,t={*A*{&;&v=1=s$B*>;/&1&T*e/N'-&m;0*F&j*R-u^L&^*1*J&/)Y)[}Z&Z&`*i=t^N*1*v-}}:&|};&b*H),&C&9=i=X&>;T=`*9=J'k*o$p&1}f&_}**e&B=K&Z)5^l;(-J=]!q=r=/& )Y&L&1*n-w&q*2}w)P).^F=d^-';!2$y=n;v=/&e&1&:&Y-.=>-m&C&>-M*+*3=t*-&/!4&l>:}&=X#4,D*p&z&{*v*n=Y-p&>!~-3}4}5}6}*)k*3*Q*7}_,X&5&d*~)!*K&X&:&)&T*^>+!8}/&W&D=9}^=>[U*^>k) -O&y&L=_=)&v*3-W& *c=Z&7&},c*]&(,6*X&s-q*M*_*6&a*N*g&:*d&v*)&r=a;)&S-G=0}A{a}M{c{,{b}<{I]=}E[m!&{c}u'$*};C&)*6~d}V@e}f}u~V&v&V-U-{&n*&'",
"g}H)c*F*d*)*!&{*<]p^h}T*3-+=f&i}@!k~j}@{W~[{'&k}l}m}n}o}r;d]Y{p}X!r-g>l=Q*f*t=Z-_*z&(,B'B=Y*M*g>v&)&`&2'^,u&)>q}Y):-u&c*I&2=L&M&7=X&5*q;O-d*a&b;y=p-7=(>r}k-2,j&~->=>~H-~) *I=g~n&/&m&H*s}G=b't}u}e{F{v}w}x}y}l}z}A}B}C}D}E}F}G}H}$&I}J}J}K}L}M}N}O}P}}.Q}R}S}T}U}V}m}W}X}'~Y}Z}`} |.|+|+,@|#|$|%|&|d)*|@}=|-|;|>|,|'|)|!|/.~|{|]|!|^|/|(|(|_|:|<|[|}|||1|2|3|4|5|A}6|7|8|9|0|>|a|b|%|c|T!d||'e|f|g|h|i|j|k|l|m|n|-|o|p|q|r|s|t|u|v|k;w|x|y|z|A|B|C|D|E|F|G|H|%|I|J|K|P}L|M|B}N|O|P|Q|R|S|T|U|V|M|W|X|Y|Z|`| 1.1+1@1A|8~#1$1%1N}&1J|*1=1-1S|;1>16|^|,1'1]|)1!1~1{1]1^13|E|T}/1(1n}_1:1<1[1}1L}O+|111P|[.2131{14151617181917)01{|a1b1c1V}g|t<d1e1f1g1(1N}h1i1t|;1j1k1l1O m1%.n1o1p1q1r1s1t1u1v1w1x1y1z1n}K}A1B1A1C1D1;1B1E1u[F1G1H1I1J1F1K1L1M1u1'1N1F|O1P1Q1R1S1T1U1V1W1X1O|Y1Z1t<`1 2N1.2+2@2#2$2O*%2&2*2=2l1-2U};2>23|,2'2)2!2e(i|>1~2{2]2^2/2'131(2_2:2a,<2[28-r}A)/;v~!*B=Y*H&c*]&6-R&j*5=q;K&I=**`=!*v*F*Z&1&L*E*r*h'0,)&Z=7=l*m;v&F&;&_=C-C&)&l*X&Q&{>J&{&]$u-I&}2D*|2c*f*x&f>/;M*{&]& ;[{U[!}~{j/W}>|Y.12i).&22q{324252u&g*{;M*A=$=62u&72r;:*P*82`*,&U!92",
"02[^[&B=:'Z*f&T@M/a2|,N=)*!*b2(&:~']c2+{d2e20|X/f2g23)h25 F#6{$]3>i29[c*V*L*[&u&[&!&=&!*N=S=n&N*q;$*/=c*,;Y-(&G&4&v&^,:,!*V*!&c*_>]&g&f&!*`*`-z=y}H%@>5{j2>{k2l2a]r]t{m2[{;'D/e{k/%($]%{n2=}$$p's[j>o2p2q2r24>3>s2 >I;t;O;O;G[t2G[p23>4>G[p24>2>4>O;M;E;u2v24[O;>}v2G[|>G[w2r[4[v2u2p2j}x2O;p23>v2u2y2w2G[u2>}4[ >p2j}t;G[E;z2G[4[p24>A2G[u22>>}G[v2v24[4[B2A2v24[C2k2y24[D2u2O;u2E2r2>}p2j}4[O;y2F2O;E;r2u24[G[G[A2O;u24[v2>}3>u2O;G2t;p2A2A2O;H2t;t; >u2s2>}E;4>O;2>A2G[>}z2t;O;>}u2O;3>E;O;r[M;v2O;E;I2G[u2v2p2j}4[>}O;O;2>v2O;p2Y[w2r24[I2v24[u2v23>E;G[u2v24[v2t;v2y2p2G[O;t24[G[O;r2v2>}O;J2E;>}G[>}K2G[|> >M;2>O;u2p2t;v2u2u2v2G[2>|>v2E;O;L2p2>}p2O;u2v2>}v2u2v24>O;O;A2u2M2p2p2G[G[>}s[E;v24[v2N2q2H2O2>}J2r2>}r[O2z24>I2p2>}6[P24[>}Q2u2>}G[G[N2A2r[v2E;r[y2r2R2x2I2v2S2O;u24>u2r2y2p2u2u2z2O;H2p2G[>}C2z2z2r2z2p2p24[v2T22> >4>H2G[:2p2O;U2v2%&V2W2r]a)H%X2@(q{Y2R;Z29{Y{K{`2 3j2Z~}>M{ {#]<>C]!}*/.3+3#//=d*E-@3I~(& *u$W&n&n&M*I)o=c*|=},R#w-/!k)P*/=)&c*C*v*4,M*X&)*{&6- -e&A~=/#3-]*}$3L*%3j>&3@>*3=34^-3T{p2;3>3X&x&{-$=p-T&y}d$|] *9=F*==&)/=0{",
"s<A=a*w=N&q;,3m^'3E*~)3&,*'&G&D-Z-}{V{S@)3!3H'[>m]y]~3{3V2]3X@S{b{^3u*[&l*a;3-L*d*6*J&6;9=6*f*)&m&:&Z&u&{&Z&!&}[M*3*j&{*t* *o=+*l*-'I&v*Z=V<*-4/H2W~o222/3H{J{{{  (3a{#{_3C[E[#{a{U~T~/{Q~H'#}:3#{H~R{-3.{<3U~T~E[V~[3F]}3U[|3132332,{j>334353B]H~6373H~83U~9303&353a3G]22H~43%}W2b31333c3d37323V[H'C<H~o;e3f3g3U~h3,{B]i3j3b3F]J]k3l3H~F]m3U[&}n3d3W253o3U[F]p}U~B]f2p3q3r3F]0>m[43n3m3H~s3d35{U[F]43H't3u3n3j3U~V~V~53D[,{G]j3y[L]$'v3J]H~f2w3V~t3V[G]B]53-}j3B]m[U[o;f2F]B]-}J]j>B]-}F'o;W2J]<!&},{U[b}W2H~x3H~%}73o;K~V~o;y3U~B]H'd3m[z3Q~03A3B3m[C3D363$'U[G]E3W~7[F3o;m[G]&3y3F]G3&3%}&3U~H303*}B3I3F]U~d3a3J3B]63G]K3d3d3C<0353H~J3f2L3J3d3k3M3f273V~G]o;G]p}e3f253N3W2O373W2L]J]U[F]F'73E3F]y3G]F3e3F]B]W2o;V[j>73d3n3b37363e3j>j>P3Q3R3.{V~F'S3T3H'-}6322F]D3L3i3W203W~A3d3U3G3F'53o;$'F]f2G]53H'z3V3f2o;k3U~G]V[C<G]03o2H~<3m[V~5{m[22o;#{Z2W3h{C[o;R~=}a{Q{Z2~{/{~{]{.&I]X3V2*}|{Y3@{I]*{j>E]~{J{N]>}$)`=}[/=B=X&>;:,p$:&'*-!H&p&n&f&f*K&f&x&7&{&v-*)p&{&y&u&L*e&k=|*g>B'n*p&X]Z3V~`3#] 4N3}]z#K$.4~/+4T@@4a$Y3#4W~C-_*(&3*$*)=M=*&$4@*%4&4Z&{&4&h>*4",
"=4C&u-.)O';'-4;4Y)M!d&L&l*k*[&^~>4T{g{l&h),4'4)4!4([%#V/k/g2~4{4p!s[%*f)6&~>G&'=Z-n=b&)=O'>-'=]&6*p*L*p&Q*`*(&S=d*N=_*o=v-@*+*t=Z&)*=*'-;>o'g{F3%3q{]41{(3o;o;,{Y=U~V~V~&3h3^422U~F]H'U[W2/4(422c{${  #{#{<!23]{#3  22Y3W~W~_4.&o;c3${1{o2U~_4*4:422T~<4@{I]*}J{a{]{T~Y{<!J{:4%&Y3c{c3T~${Q{c3c3.&[4a{J{Y3j>}4M{/3m!|4  a{l]E[I]c3I]c3*}22  (30{14T~22Q{#{#{4{J{Y{@{24`~I]*}34]4H3I]W~m!`~1{:4>{7{X~I]V244E[%{[4=}4{o2#{D]/3  =}J{a{T~|{1{1{o2(3J{.&%&>{22@{54E[a{%}_4c364*}7484m!%&<!4{W~.&V[J)o2<!9404<!D]${a4*{4{U~]{b4C[J{~{%&J{  s{c3C[a{|4W~H~24=}I]E[o2c3;{D]A{#{c4I]=}W3%}Q{24>{  S~U~a4*}~{%}#{  A{d4a{<424c{c2e4`~X[D]c4<!04l]/{c3<!@{%&A{&{22<!|{D]K]<!<3~{*}.{(3J{o273N];{/{K~T~V[03I3f4U~24  Q{#{g4C<A{%&|{J{L]h4%{d4c{>{<!93W~64W~.&<!^4]{%&:4Y{T~^4#{I]/4U~.{H'|{*}%}#{W~22A{o2*}o;.&23U~_4U~V[o2o;T~I]J{G]<!i4+{V~`~-3<!*}o;I]A{22H'X3I]I]a{44#{F]H'53V~L364H~53V~m[G]`~j4/422A{D[2324/{V~.{I]8]r[i/_,3*C&U=D*_=v=,*/=-&!*!*f&:,k=3*`*t*!&>;D-|='*n&!*`*c*u&i=[&/&`*:&K&Y*c&Y{k4$^W'M/,$l4f^m4m4h/n4o44-p4q4T2r43*i&J&c*|*/)D*V*s4&$t4K=f&X&f*f4",
"{-q*1&V=+]>'u4p;f)R*D&6&)*/;e*u&v4r]w4C~x4x]y4%#y4z4A4y~B4S%C4b$D4r[E4d&N=@*u&z=)*~;'*`*M*`*C-d*A)!*7=`*Z-3-N*!&l*M*u&6~!*t&Y&H={*@*D&},g~H]23){W~  t{B]E]#{22F]64f243p}F4L]G3H'b323G4H4j4o2o2B]  J]I4F4D3m3={t3Q~H~H~J4W2W2V~-}V~X[5303n3d3d3f2o;N3F]p}o;F]d3d353H',{f233L]E]F3G]23F3K4&3H~73#{d3J]53E[N2E]F]H~T3h3J]&}={L4B]m[j>G3H~,{N3M4b3N422h343F]N3Y[43U~V~23U3(4O4F3E[P4,{j4H~U[B]p}B]f2$'32#{N]G343G3J]G3f2H~G313Q~V3p}3}H~1332H~n3L4F3B]Q4N3F3H~&}b35{E],{j4M3[3,{3333R4S4F3V3V~F3S4p}H'E]5{b3U[Q~Q~F3L4F3N3T4(43}W2Q~N3t3n3H~R4Q~b3U4g2B],{B]E]V4G]m3J353B]W2#}5{O4t3I4Y=G3F3[3U[b3J3F3H4U[3}v3M3I4p}j3N3F3W2p}V~p}U[,{H4L],{H'Y=W4b3p}F3[3X4F343O4J]H~3}L]G3(4j3={Y4X[T3U[Q~T4I43}L]3}N3F3N]}3E[,{13H~H4$'F3O4o;V3H~I2p}q36[32Z4F3Y[D3m3U3={[3U[L423o;J323i3F]a3E],{F392`4W~E[E[K~13E]Q~23X[A3Q~Q~m[43H~3}E]G3 5G3X[n3H~.513[3f2F]#}I4|3+5@5|3U~325{i3G3H'F4I4U[32d3p3G]W2H'V[Q~F3Q~I4N3L4&3i4+{o2R{b{Q2C^P'J<~)7= -/*`*J*z-H&e&`*E*Y<X&X&e'!&D&Q*a*u&{&/&_,~=;&Y*v=O*)[#[C*h[#5M{*] |J]$5%5&$>^B4';X^D-|&b&]|o>  &5N-p&c*)=~=L*7&*5P*=5D2=]H&{*-5&'",
"N!n'&4e>V[;5,&L'j;2$p&J&b&#=e/>5o;a),5f->]6$'57%D^q/)54/J^!59'm'~5={{57*5&d*;&z*@~1*D*@*e-0*E*z-[&Q=f*;&c*4=U*h*]5n&^5g'd*S=H=g&{&@*}=I*Q{I]q{%&R3<4/5u3H'F]c3<3U~G]23o;<!(5G4E[23H'5{b3#{A322D]S422X[H'n3y[G3N]H4,{X[U~$}`4(4_5F33}:5N353H4H2F3m3m3U[[3<5:5#}53#}(4<5m3U4I4J;3}[5z36[S4}5|5Y=b3/53[|5z215={I4={F3<5I45[F3U4F3U[={<53}m3={I425={I43515<5#}t[I4Y[I4m3={Y[b3j} >S4#}6[<5Q~E2Y=<5:5q3H~Q~W46[Y433P2N2k2F3Y[E245Q~F3I4Y[F3Q~b3[3t[t[I4F3S4I4J4H26[U[F3m3[3I4I4F3W4H~N2}5Y[I4U[k2|3t3(4={F3b3U[Q~+53}Y=I4}3:5G3V4W4={={m3X[15n33}&}N3={F3L433m3j325W2W4L4Y[={U[H~Y[55J;6[U[f2(465m36[Y=U~={15T2g2j}|5|5<5E2j}75[3E2|36[55U[}533k2J;P2b3P2#}E2I4b3#}Y[53N385s[#}P2p3z3Z4[3z2Y[={t[={k2={Q~v3p3|3}5z2&}<5V~F3H2|3S4b3}3:5U4P2v3f2N3S4b3m36[2345p}P2/5>}Y=T[Q~S4={Y4S4N3b3[3:56[U3Q~n3H~S46[:5U[6[H~b3}{G]m3H2T3/{T4F3I2P2F3S4m3n3,{F353(4m[b344G3Y=G]T463{{j>22T~23o25{X[d323<!X[j>V[H'o;95}3V[W~${I]T~>{u}j}N&6*f[G&/;Z&u-7=:&{&f&z&/=g&t=I&W&e&W&y&]*;&>;1*5&9=V&'*B=(*v=X&N=6&.]C{t{05o!($e%l>E=]$P#P]`^@^G#a5f{b5c5Y) *~;r&:*a;M!/'h=@=l^;'C&V<@~H4",
"d5p$ =;/e5*5_*d*S={&u-_=(*C*/&f5.&g5L%j')!z/4/I$($m^y^t$8%,}g^(&h5}3i5h*^~:&/'V&v-t&J&C*$=%=6*Z)u-c*W&V*u&m>x&L=v's->-=*#=w*#=>=[&j5k5#{U4q{a{6]a,#}H'&3z3l54{p{K]{{h{a,m51{K{${]{J{Y{b{Y{h{c2Y=F3I2G3@(n5t]T)k]y]f]P{Z'72)]k]t]y]t]o5~3[>[>p5q5c)r5X's5t5u5v5w5w5x5[>v5q5<<r5t][>~3+]x[!42]y5}]x5o5e]c)z5e]g]q5k]A5B5f]R/A[p]M/$5o5f]e])]`2C5w5D5E5`%o5F5t5G5G5p!,5R/$5}]z5H5c)I5o5J5k/D5C{`2}]y]%#[>D5K5L5D5X'p5D5z~M5~3>4K5N5O5}]P5t5Q5k]R5q5t5q5k]p!C{D{t5g{s5c]f]q4R/Z'm]D5k]c)S5R/4}M5D5T5]]c)>4m]q5[>v5e{t5X2y]~3v5q5U5x[)]f]X'`%D5e]<<s5<<O5f]$5M5~,t]k]t]4]V5$5e]P{K5w<$5@(e]w<k]j2B5[>W54}q5}]M58{X5D5H5@(Y5<<k/@(Z5S%X'J5k]@(z5$5+]t]<<k]72e]C{t]<<~,k]y]}]R/`5C{ 6y]z5`5~3<<8{<]v5y4V5.6+6/(`%Z'y5[>p!w]t]e]Z'@(@(@6X'`%D5!4}]q5t]W5 6X'[>k/D5D5f]`2q5o5@(<<e]l{C5z5C{z5c)<]>4m]C{#672,5q5T@$6J5,(<<%6&6j4Q{%3n]l5K5~3m]*6r]G5)4l{N5T)){L{@{93b{G4G3C[6[&]t{1{o>t{=6c4!{[{M{-6@{M{1{|{-];65{g4.{>6W~b{T~m{p2,6s)6*T&**n&7&'*&4<*V-]&X&a;;&L&]&o&1*C&+*N*:,'&~={&X&u&I&N*v-},f)D#}^<]'6Z^f$%'u)8%[^-)V=v=e*&$)6!6~6{6K=V*U-|=p-n=B'[&]6l*^6/6^*<&l=C[",
"(6Z^z-0^V{x1c*_6/=P*<*|*(,f&W&:6B]D5${<6<]1^!^9^!/w^]^O^[6j)}6~$%6g2|6S=/=X&^,C-v*;&U&r&Z&H&!&z&C- *f*k*4*~;/-P*i&3-b'5&9-H&:&{&V*N[_4#}h5m{*]%]Q~L]F3j3J5t{Y3z{h]&{&{']>4g{&{#]G{i{&{[{c]@>={#{O416n>*3D48]e{p]<>E{<]l5F{P{+]S{.]t{~3e]s]k/`5g]D5o5s5264}*(C{l5f]D4[>x[e]36L{y][{m]o5c)o[6]o5x[2]=(~3l5|]>446X'56P{~3D526]#.]<]V5o5N5q5>4=(e]k]~,p]m]66g]m]72&]e]V/~,P5g{`5%4`@m]|]76n{86,($6g]y]a'96n{y]}]w]r]D4l5c)06|]U{m]|]D4a6%4f]D4>4o[66t4o5']P{D4X'G{m]o5o5e]o5D4U{L%R/z~}]l{%]e]f]+]k]z5V/m]b6y{Z'N5c)P{o[G5[><]>4e]<<`%x[g]([T/.>D5n%o5@(D5c]c6f]>4L%)]f])]|]T@+]D/p!e]P{>4j2}^I[H5g]e]$6o5h]D5']|]H%y]o5*6D5o52]w]`5t]864}~,)]q#+]=(J5T5q#<]l5~,t5)4I[o5y]y]$6q5<<<<t4e{e])]4}x5k]m]`5&]g].(06Q5d6m]e]k]P{C{k]m]j]c]`%B5c]@(>4;'Q51#P{z5s5p]X2.]k/c)J5o5q5j]|]~,p5D5q5e6g{<<y]B5C{+]m]Z'T)f]y]`2l{`%D5/6E]8]2)N5`5p]N5;]z~<]f6![26n{q5X'X[O3o2g6W{m!>{D[={r]'5 ]&3${%(M{t{&{h6[{:{@><{R{p]L2i673*}V{'4j6f3k6p29/-;*){&9*X&]&*;R*]&<*a*1&{&/;W=+*r&p*4&!*O&c*{&C*M*c=4&v&v&J&=&z=}])4l6S%W=h't$==Z]k)F=l><&>;g}f]p!m6'=-&'=~;]&!*c*)=o=Q&-5c]a$z$-&n6",
"o6l>u%*/i]o1:-f)I&n*c*B=+=h&h[@}p6{$l{K1G{Q^%%e&5$.^%'V=q6h$r6r{M)w<s6a-x&Z-!*)=$;6~)&;>u*c*u&(*a;'-J&J&:&3-X*k)'=H&]&6*`'f&*&(*+3E[n3  `{;];]N3V[Y=t6P{u6v{E{<]>4P{C{k]f]~3c))]+]U{l5<]e{I4J{v6 ]/(t54}.(4}y]h6e]E%T5y{y]X2<<y]D5m]m]w6y]w5C5`/y]R/~3k/`%S%j/g]k]-(w]x6g]2]56B5+]k]E<H5y]c)T/`/D5k/`5y6*(D5_]@(t4!4@(w<e]p!%6e]k/w]M5$5R/c).]y5c]B5`5D5%#R/D(3{<<)!g{!4m]k]R/R/`5c)J5z62]N5<<m]Y5<<D5B5a#.>)4y]e]X'j/X'n{<]c)}]A6B6e]r5k]p!)]q5g]~,J5V5m]q5*6`%<]<<<]J5C6`5z6<<o5e]V5D5>4D/m]c)o5.(.(+]X2+6[>)!<]4}w<l{R/-(4},)e]M/f])4L%I/D5b(=(J5([X/X'z5D6/(4}E6}^x[P5%#C6e]R/r5y]<<F6;'c)V/z6M/p!~,J5F/t5,3)4([k]k/o[D/.6g]c)([@(^%D5-(e]8{t]Q/N5q5H5J5T@<#.(}^Q%g]D5`%T/G6E<f]<<D5|]V/z5a'H6Z'I6)4<<p'J5b6f]<<P53{|#z5m]T/!!b5H5g]D5T@M5j/H5T/p!:(k]](p!J5T@O/T/H5y]n[c)!4)]p!v5f]o5P%j/J6P{z5g]z5y]k/D5p#y]1!%}z~b{T@~,R/V%m]4}Y5K6<<~,B5+]r5F3){x3<<;]*}o;m{L]#}M5-]L{~3L{![86$6[{N5&{z~%(o>%(X'3}o;T3C]b{h56{1{p]k2L6/;+*p&M*K&p&4&l*e&o=Z&Z&7=(*f*/*r&D=y=t=!&:&b*1&y&G&6&h':&/&M6i{N6-'v&u-o$Z)K^J<t=V&<*R#8-t{'!m3O6x*D=H**;-;p&9=~>P6W)<&Q6&4A=i&5{",
"R69^:[y/V{S6C*,&c&y=]&/;T6W&Z&!%U6p!r5V6`}{$X^R*x^%'8%i)m4f&}&c]u5W6X6~=x&g>2':'G= *(>m&W&]&[&Y6:' *M*)&C&{&{&D-!=x&3-@*1*C*a~Z6A2}{c3c{y{6]63H'f2W~@(h]h6D5l5`5e]z5.(c)c)<]M/2]=(k]w<`6={T~J{/# 7}^+6P{t]T/Q/<<m]V5T@T@y4-(o5p!3{p!J5M5J5R/D5S/q5n!l5n>l/x].7R/o5M/P%<<T/M/V5f]y]f]R/p!,)<<](a#,)c)}]D5)4T/3{w/##[>o5([4}k/M5k]+7Y/`5b5##n!`%@7#7@(y5>4;'H5([##)4$7$5)!3{%7!4k/.7#7m]](T@b5T/@(e]O/B6&6`5n!l5D5&7b6<<t5V%~,e6X'D5m]*7}^,)%7>4)4z5<2x6f]Y52]<<C{@(z5@(z6T@b5D5P%b5m]B5)4w<)!X2k]$$,)@(=7D5j/I/=7$5T@D55}}^O/}]/(b5I/-7)4V5n!o5x]!4;7y6M5V%n[I/j2>7R/V%-75}z6<<,)Y/*7p!](3{D#<<a#1!-(B6v5D5.6j/,7x6~,;'j%*7z5H5n!)!,3p#,3z5O/,3)4-(y4`/%#4}]%o5J6p!4},)C/<]'7@($$Q/}^u5j/A6j/4}k/s/n!~,}]}])7T/!7}]Y'u5`%M5z6y~b5w/1!b5}^$$M/5}+%y~$$%6/(n>n!M/n!o!5})4M/B5/(<<@(](T@H5z#*79%~7y~b5z5k/Z$+%p!y5^#n!$$3}&]g{{7z43{r5I/R/=7T@`%X'*7Y/]7H~<>22d2f{+]e{U~M{I]T[j2G5~,1]e]E{u{;]m]m]h]6]P{t{>6~7Q~k3p}#{j6@>){44p]>}+**=,*{*[&T& *1&6* *e-X^n*x&a*N*_*-;:&J&9,5&I&c*(&C*_= *J&l=6=p4^7%],|d$w)!&Z&<=D-v*J<1&e!@{3{)3u/,*]*{&f*X&v-7=c'@-!*T]y4#/&*O'g2",
"/7d$X^]7[]N}V*n&a;O&N*Z&+*n=}&b=(75[_7z{:7w}k/#!u%#/#>|^g><7H~F/j2[7v-!=u&~>c*N=~>u-j[]*v&1=^;|*e*X&1=1=i&>;i& *+;f*u'p&g>P)v![]}{o>c3c{8653<!J)R3v/p]o5f]q#`%([z5/(Y5R/}^F5$7-(,)1!u{_4${:{_4#/<<j/R/b5Y5,35}v/t],)M)&#b6T/k])!([D5/(~7K/T@n!W@n>,3n>}7,3,)y6M/k/)!|#M/m].#@(.}##j/H/,)s/9%T@M/([4}b5s/w/*7M)M5~7*7}]8[/(n!$$W$Q/T@P%b5X2y4H/%#o!3{o/[/p!z5|7M)f]n!M5,3&6](O#p'6$K5o/H/n!$5Q/K/([<2}7S%)!([!4P%+%n[<<B5V%G6Y@n%@(@([>T@.#p'-7x/x6M/M/o!<<17D/X/z5n[s/p!5}z#n!t]k]Q/p!$5B6T@+7d#,){7o5f]|#M)*7[/z#b527x[M/D5R/I/H/b5/(Q/,3|#<2p!~,)4n!9%V%]7w/M)s//(37*7b5](1!$7%7;'Y/47/(d#1!w/,3|#](E/I/6$w/571!+%67}^R/O/~7g$m/]777O#M/m2R/87,3)!T@.#I/n!y4K/Y5n!##*%1!n!n!M/F/M/H/Y'y4*7R/D/p'n!4%-7P%j/w<x]*%m]Q/,3]7T@I/n!,)1/V6o/}797Y'07x]5/E<Y/w/D/x<2{Z/D/n>*7z#y~07K/M)c%z#D/##([,)*7.#8[07b5.74%n!M/*%42a7|]o52{K5V6,3J5<<R/,)}]@(n!}7b7B]<>c7.4<<)7.]o[o;<{*}Y=y]b([>']g{t4~3C{j6N5e{72d7@7k6,)b3y[93a{D(8]k6@{H%r2e7/;r=+=n&@-6*_=B=h*b'{&N&l*}*n*o&m;I&d*p$Z&)&X&d*v&z&<*|&l;f7%(#7C{g7a%e-_=a&m;]&*;h7*{`/i7j7E&a*{&9=Q=l*4&G&V-w~==a*1]0/q*,*U4",
"022$.^O^|{k77=;>{&'-^,W&0(p&h*L*A%l7H;'!L5t]m7n7%5d>Z!o7-4<{p7q7r7>;B=p*b[6*[&c*m;~-n*d&T]V*l*5&4&[&d*7&8,u& *c&N&9*(&O&g&@}s7X4t{c3&{l575K~d3R{D^E%t7t%j/](4}n!u5$$Q/n!}7x<Z$M/o/c263c4u{<!8/c)~7A[.7b5H/{7{7x]@(.#b5.7k]x)b5S%,3*%2{$$H5M/}74/##|#y<d2D^9$y~T@H/s/x]w/j/{7{7u7y4y/Y',3'7@(y<b)}7:/v7I/H/P%&#$$d2Y'$$&#|72{y4j^o/6$*7w/y~}^o/y4b5,3Y'w/w/;'07w7M)y<D/*7,3+%]75}z#T/z#&$y~x7o!F/o/([M):/y7$$Y',)z73{77,3w/M/M5|71!1!O#@(w/-(K$*%Y5T@:/M/b5b5!7P%M/$5,)o/c)*%n!$7)!$5O#j/y~v/@(6$/(H/y<Z$B^b,s/)!H/[/$$*7$7W@w/9$M/:/[/y~H/Y'o!n>x]F#o/,39'K/j/%#)!%$H/X@H/.#X%y~F#w/E#x]A$u#,3y$y<w/$$D^y<d2&#*%{71/8[M)$74/T@x].$:/,)|^.#p'p'1!j^](&$)#{7F/w/]^y~y<o!{7b56$n>x/<2x]L%%%.7j/-76$L/)!{7{7'!M)K#q'v/y<M)*%Q/s^9$%$%%4/$7I^!%:/m/J^A7w/v/s/y~4/2{)4w/c%D^Q#Q#$$x]B7b52{s/Y''^,3}75/4/b):/y~C797E^s/w/D764J5t5E7w/s/+&=7M)b51!n!Y5T@n!d2h4`%}4F7 6{#k]V/C{${${c7V3j/[>n!o5V%o5z5~,*(G7j]c)N5m]1]C7Q~G].&j>p]h]q{f{<>55=>1*;&B&Y&B=e& *R&Q&o&~-l*Z&)&7=g>_=9=1&I*'=t= *c=c*/=~*/=g)O=P%k4W{H7I7&!A*g;J7Z=){c)P3r.A$ *a*0,_*1=H&)&V*,*v*e-@*}]K7I~=*p6",
"L77%,>Q#b{M7r-C&`*X&Q&j*)&u-n&;>/-N7O7t;M5$]E]P7@%K/O%b{Q7v/R7S7a^|=5*-&M&c$ *F&M&H&f*b'`*W&;!7=!*:&p-3-C*,[|=_=W&X*E*y=T7U7g4V71{Z{o>Y=L]o;Y{&#86-(D/$7W7b,1#|#I/n!+7M5X7}7y~Y7 3V3&{e{Y{Z7-7K$<2w/b5B^.#*%,)y~[/B5o/p'$7,3b5y#$^9%2{:/+%s^y<v/]7}7C/L/>^*%4/D$:/;'s^M)H/y~$5`7M)n>{7x]|^47D^9'x]y6A4c%x)s^|^j^O#y/47Y'.#D$q'w/w/&#d21!,).$T@[^s/%%]7l#}7@(:/1!:/w/2{B^L/ 8w/C/Q#{7l/o!D#{7R/o/b)x<v/E^47]7i$2{w/x<1#y~Y@2{b,,)D/j/n!p'd#Q/}7p'y/[/y/o/1!([.8P%|7!7+8|#w/n!b5F#&#c%]7'^y4&#y^x/s^M)l#l#|7n>Q#I^}7*7r%]7z4Y'n!g$$7{7+%v7v76$x)6$y~4/0$g$n!Q#b5.#n>-(y<p']7c%U$y#D^F#x)[/L/6$M/7$[/K$d29$8'm^8%4/4/0$y^E#D^4%C/9':/[/Q#[$E#9'D$x<*%'^w/y<.#9'+8K/*%8%7$n>x]4/)^x]O#.$'![/s^%%o/S%]^[$y~y<o/a^U$E#l#{$w/8'P$r$$7y~g$Q#M#H/L/L/Q/1/1/[/y<L/.4s^y<o43{s^@8O^k$1#D^:/$$s%3/x)y<a^#8}7.#2{*/$8x]4/y~l#%8d2R{H5@(&89'5(N^.7-#n/*8P$S%D^+8C(V~06-3i)K6b5y]t]~3-]4{1{=8P2-8J5P{X'k/M/I[ %V5P5)4n[s5<]D4v/F]o293Q{V5G{_{4{a,E26*~&u&g&m&;81&s&c*';H&c*Q-I&J&V&Y-<*l*X*!&h*{*$*w=c*7=C&;&>8[(;',8a)1{'8}^8{5{2]k/O27:#%X*_><*f*'-`*D*M&v*2=#;)8H=Z'!8J'm;$'",
"~8d$,>A^&{1|F)n-3=;&'-O&u&H*@***7=q;{8]8Z~1{Q#M)H5}]'!.>t3[$=,|$^8n=/&Z&n&Z&P-b*c*u&z&>;Z&)=H=,*D*V*/&d*L*{&J&u-(&:&:&e(X[`~D]C][{c)`4+{_403[/x[Q/x]J56$[$)!w/F#o!$7Y'1!/8y/Z]Q4c3P{|](8/*y4&#I/1/%897M)h$n!y<d>z/B^x]C/%$=/$$x)B^6$Y'b)B4,31^:/2{D^1!M)l#x^@8g#&#9$#887$$h$%8,/v/y~C7A$4/d2[6{$4/#7(^1^B^,34/Q#G/B7n>5/5/1!6))!9'b%B7M#8%C^<^Z$C^q'z<2{B^c%n>_89$[/O#:/]7#8b59'x]9$6$s/4/v/2{z<.#M/b)6$.$b)42Y':80$1!4%%%*%&#K/Y'C/y<]71/&#>79'B^$/:/0'{7{$|^C/,3c%W/[/Y'w/'^9$[/d2%%A<|#C^%%E#U$<^B^:/%$8%M#z<4%D^J^4%{7y<l#6$[/K$:/u/y~j^[/:/,};'<8([]/j^<2g$b)x]9'y/[/x7O#n^z#-#O#1/&*&$E^L#[84^p^(^$^{$.#t$a^x]u%S#[6x^.#J^x][/|#O#s^8'9$Q#[^Z/4%[$S%c%97h$;^]7h$p^{$E#9$x]E#9'C/,3)#[$<^9$I^M/B^87*/s^l#&$&$.$4^]7t$1/@8Q#(^1/]7E#y/%$.#I^.$f^Y';^U$L#g$I^F#y~1/J^9',/1/y<%$z<i/A^x]]7%$s^&/x]9$9$/8<^y~9^J^#>a}k/}8'7y<#71!r%Q#,347k/|7l#$5U^L]<]<4|8B6R/W718D5X'B6  b{u{T~e]H/p!R/3{M))!.6p!k/([y{1!o5@7z<G3/3W~o;<<28l5k{862>i!y&v-$=N&<*<*!&@*7&_=9}Z&P*b*i&z-6*t&2=5&f&@=#=/=X&C-G& *N~3848+%5868B7c%}^b{<378889-d&`*I&r-c&W&v=V&Z-/>u-R^{~A[E=/&!*3)",
"I')^D=;/9808)*$*~*)&1&l*Q*r-W&+=u&n&b=P#^;a8b8t;t;c8d8e8! )=|$>-7&c=C*c*y=V*z&9*I&@-o=J&n*X&_=f8R&j-|*j-_*u^(*{&T'n=Z}X;o;0{1{e{c]U4<!`~`~u%I[@%j/z#*%+%M/H/b#y~:/F$l#8'5}g8|5@]j2N5%(r;Y/]7z#o/L/B^y<:/b)/8(^b%.$y/Q^F#b5h$(^n^O^[$)5D$!^A$:^>^%88%]^d#8%9^g^8%{$b%9$L#=^]^$^o!F#{$*/4/!^6$t$m^3/9$[^{$!^B7/87$2{a^#/$8w/-#H/f^c%9'*/C^4/s^0's^97c%r%S#g$%8Y'x]*%z<B^87o!.$L/C/.$a%8'9'y~y/x]h$8'z<]${$}7x7Q#)55(F#6$g$.#Q#]7,):/%%o!!%:/4/y<K/Q#B7|7z#o/Z^:/4/!/*%l#9%x^x/#$y<4/J^8'1/D^u/4^8%C^K$($6^t$]7%%/%j^8%y<9$g$a^&#5$&$t$8'U$O#p'*%C^M#9$b#F#E^&$%5L/8%B^g$|%]^&*K$Q^g#[/3/=/M##$M~6^9$x]%$s^y<g$G#K^E#;^h8)#*/O#v7`^A$x^A^G#@8O^$$3^1^[/y~&$d>:/8's%d#s^+8R^s/2{:/J^.$1^;^7$*/L#4^;^%$7%U$!/Y'-#i8h$q'9^h$u%7$v^'^I^b%Q^K$D^J^%8y~r$o/t^o^q6t^4^A^0^z$9$!^1^1!4/]7j8//p'-4;^').#*/!^[/k8]^[^x^$$&/4^~/N&m{p]S/l8d2`7.$9$4/:/D^j^D^z^Y'i)_4T5m{G#77T@q5C{R/<]~,~7`6a{e{U4,5m8n8b,^%F#C/P%l/B6D5f]T@;]U{o8N2<!.&#{t]U{n{&{a]k2p8#=`-T&`&N*f&:&'=~)/=N*q-C&]&C&{&X&W&f&0*R*X]c=r***n&m;G*T#><Y1B;T;U276q8r8$4u#j;,>Y6]&'-z-N&M*h&`*f*|*$;|2j&s8r;^*'=t8",
"6!u8&/#>c{v8w82=j*_*v-**~>0*[&g>@*S=>>c*M-M#v6x8y8z8A8J=g^n***y&_,W&c*E=_=Z-f*p&]&1&u~9*0*l*!&[& ;n'~>l*I&Y&/;'&M*T!H2D[a{G{n2a,F3U~K~B8A^<</(4/0'x]s^=7%8-7B^d#y~4/5/*%D=m354e]4}m]6*b){7|^^^{7v/J^B^y/d>!/]^)52$B^,30^^^8%&/L#:/s^0/a^B^$8/8E$9$g$!/M#q's^)5M#g$/8|/C8&/C/*/O#f^g^[/y<S).$Y'x7(^D7d2D8l#C^Q^%$8'Y7.#z<x^y~&/8%!^p'`]O^I^b,=^+4A^4/%%:/%/]/M)s^[^]7 /B^X^f^O#M#E8&$[^J^&/M#1/)$;/@8(^.$(^;^K$)#1!1!D^)5]^1/J^B^-4g$@8F8E#[/9${/o$g^4%f^}7$74/n>E#Q#n^'^*/J^d2M#j8]^M#8%d>B$u%j^q'&/C^Q#S#v$%8h$4^G88%q'h$x]s^.$g$[^I^L#J^1^Z][$j8%8!^&^%%O#a^(^4^g^[$8%;^8'd>E#B^l#J^1/%'n$8'y<H8;^0^~^E#&*1/s^@8($$8&*E#B^^*N/M#s^q'x^x^[^I^3/$^7$n$G/I^a^8%1^M#g^o^L#I^g^i)y^4^>[>^]^8':/Z]s^A$X$D#1^D^g^4^y/u%0^h$I8#/]$8'S^J^J^B$#/4/S^D8.$)^g$Q#8%N^x^M^x^&*G#[^8^A^8%2^*/($J^)^9$8%`^.$J^g^6$&*3/S^g/n$)^I8J8K8x[)4(^y^J^;^1/8'8'B4d$n/.$>^q'c2a't{L8+6j/r5R/*%F5D/9]b5!{k{t{}{n5!^H/77%#M)-7@($5,3`5K6D5D/;]x^,{4{/3R{m]p]<]g5g{z2y&@=o&@*f'7&z&F&q;_/}',>6&U-/;v*/;@*u&[&|,C-o&N= *o=V&R*M-l&v#(;M8N8O8P8^>)&u&+=/-o=z*]!^>f&G&`-X*e&]&(&k=Q8R8m*,=g>0{",
"S8T8`]M#V{U8,&_&l*j*-'!&v*/*_*u&!&v*V8x*-;_*(-h=W&h)m&y&,>d^%^C&L*N*p&9=P-]&J&V*I&+*6*>=m&m&@*a;6*},A*W8M*t=2,N&U)92T~*}a};]u643B8H'J]h^z5Q/.7b#$7I^&/]^%8+%h$D$[^x^t$g&04G4+]q5I/i&v/q':/.48'%$!^)5l#x^')g$O#7$x]4^&/7$o^a$9$q6[^ /q'%8&$!/5$~/o^!/u%x^($G#)^)54$%8P=R^d>1^[^@89$M##>L#%8~/A^2^&*&/J^s^8%R#J^n^u%3/x^;/9/i/8%8/!/!$%$&/[^s%4/S#&$&*n^~/t^D^l^7%#/'/#/B^g^&$8%a$2^E##/>/;/*/C^;/5/&$P<)5M#2$l#n/Q#E8B^O#.$a^w/.$8'L#!%%%n/J^D^4/l#h$4(A$B^9$8%s^M#(^9$*^]7M#8'j8y^&^d'R^5(f^4^3^u%|&H/7$L#v/!/1^Z]5(5(]^7$D$t$C^[^g^u%{7M^A/**M#//>'u%]7J^0^4/c%D$!/4^X8>^+^7%&/C%P#Y8s^R#&$a^C^&*D$H)`]d>Z81/d>X^9$9$l#&*`]q'Z^t$1/t^a$i)1^O^1/{$z$:/8%6$m^[^>[A$g$Z]J^~^+^}/e&($9^#/i/7$J^b$~/b$P<')1(.$a$[/f^2^>'x^~^%'A<!^h^G#t^%'O^1^9^M##^&/;^D$a$O#7$X^&*!^i=Q^!/4^==`8%'}67%=/g$l#h/o$d'*^Z^ 9L#6^W]q';^8%S*_4-(.7W/D$&/A^N<7$1/.$M#r%.9]7F)i6m]1{r*u7p#[//(l/X/}^F/@(o!@{<]*]+9k/2%*%{7$$o/*%Q/-71!J5w/o5@(t7q'}3[!~[T~w<N5|]u6@9y2i&n*e>j-y&v&z=2=z&f&k*X*Q*7*I&+=I&-;7=N-[*a*#9d*f&==P*A=o&/;$9f)`'g&7&;=W&m&V*+*Z=O*z&/;},u&h'E-k*u&f*E*s~G6**f/%903",
"&9~/G#J^w{$4C&%=]&#*f*`*@*(&)*I&w=6*/&/*l*d=v&*91=-'J&{&W&_=z=,>w8I*b*K&@*V&9=5'a;c&,>6*d*V*w=!==9L*M*f*S-J&d&-9j3T~*}=8  z{G3W~=8M{4^@(j//(T@,)1/2^5/x^n!g^4/i/(^O#;9Y=>94}g5)!O&_8[^3^A^K$g$8%4^&/=/E$d>Q^:/'/8%x]O#R^f^#>6^l#J^7%!%J^;^f^a$H/t$%/Q#m4G#[/h'`]s^m>P=E#t^2^t^9$.$Z]s^2$f^q' />[B^*/%% /z<Z^N^O^A/&#N<&*[^~/y<a^;/`^[67$d>]$8%[/O^s^@81^g^f^s^,9O^%8g$o$i)m>H8M#$/<^a^4^{$($'94^9^U$//0)8%!/ /M#m4&%2{D$Z]7$d2K$A^;^g^g$$^o$C$.$.$Q#i/o^d>A^n^3^]$9$d>J^a^h$*^h$W]|/q'&*&*o$M#X^>[g$8%.$a$]^#/8'u%d>J^Z]a^l#P<)99^3^J^')2$>[G#')a^8%u%A^>^7%Z]q'7$ ^S)L#}*S#J^a^#/d>9^-^9/&$d>d>*^8%($.$D^4^J^v$2$w)x^./x^A^l#w)R#!9S^E$&$`^4^Q<X^>'!/)^Q#~9>^8%G#[$A^$-**F^{$m^)^l##/g$&$a^.$x^|,{9>^ /A^1/d>!/L#u%8%8/#$M^~/5$[^Q#*^m^-/(^#/L#D-e^S<i)s^d'V=e/W]i) =7$s^+^&/%)A$9^7%^*~/Q#~^8%8%P=x^X^]9D=t^Z^}&='X~T/}7!/9^]^q'($%'!/4/]/g$8%d$^91{y6o;1'+7M)Y'k4Q/,3<2.#~7*%y<a{u{6]J{V/4^z74%s/]7n!T@;'T//9.7C6w/L%O^q[W~84  D5`6%]G{F{15(9i[b&!*N*{=[&C&%*(&7=V&{&X&|&o=)*j*C&y=m>f&]*C&$*4&`*1=7=v-V*v*z=!&Z->;_9{&@*u&I&u&u&v*F-k*i=`<F)F~O<3;j] /c&m&F]",
"A!%^2$7%Y3:9C&L*=>-&b&b&b*X&!&^>h&v=o=5&c*Q*F&X&g>(&N*p&m& *c&1*`-#*'={&d*3*R*6*7=!*2=3*p&W&]*)*f&^><-^>Q*-&<9x4c{X~4{o>c)92W~L][9B$g]F#l#$5b)h$1#P<!5h$4/{/:/(^&%';6[#{@>@(C{m;9%E#)#T^I^e&[^`^$^x].${/l^&[&$`^E$f^m4*^!^Z^Q#u%I^+^[^Z^A^A/&*b$d$K^&*o$i8g*M#z$-/w)O^9^}9u%*^`]M^T^a$5$1^t^ /w$t^>'2$f^+^)^&^&*I^%';^w)`]|$8/{/>[+^|&7$l#Z^a^*^t$e%3^{/&[q'>[1^l>h/g$f$M^8%;^^*x^9/X^|9y/t^8%19h/;^t$Q#&/o$d>-'g$1^%$h$I8I$r#J^M~~$;/4^f$h$)5C89^29G8z$>[9$7$p$Z^3^@/M#b%W^!/J-t$o$D-|$~/)^r;4^f$*)3/4^E)t^4^E*)^'$g^I8&^t$[^Z)~^&^&%x^.4t^-#X^+^$^/%J'39://&t$>;u$d>m' ^//^9c'R#Z^d'P=1$z$&%a$d>.^e&&*u$d$.$w)a^x^J';^%'K$-'+^~*g$P<x^#/&*`]'$s^h$)^h$b$Z^&/>[x^t$2$R*2/X^@/Z^Z]k)4^9^E$P<49t^+^2$7%%',3&$M#`^*^Z]0^*/p$D-u%A/P]R^V=u%t^`]I^9^P=59~9X*M^-'k)J'~/)^Z).^g^D-69B$u%799^s^S*9^i8P=L#a^>;{/x^~^G#W]k=#=V~|#u5V=(^`^8%d$5$2$2*)5y^h^;^89#{k/J)^;~7p^4/P$B^M)D#]7,)$5@(p^<{86>6J{p!R^s/.}O#6)|#v/~,.#y~y~k/y44}99n3@{V{92D(u6g{<>){09a9p-M*P)6*'&A=X*)*X&g>L*U-!*-)s&Z&]&f*v&)*v*<*u$*&`*{&w*/=)&M*g>6*u-m;9*F&o=o&C*3-C&a*u&/=;&/&=-!&d*4!p!;9**j-b9",
"c9d9X&8/8]e9'*D*-&f&)-D*!&Q*z&X*!&(&p*7=B=7=_*Z-p&{*)&A-+*!*r*)*V*>;(>(&y=p;|=!*/;+=_*n&u&9*C&t*`&/=/*H*G&Z}f9g9~{[{m{G{25h933|{j^;' 8l#P%&#G/n^;/y~2^K$x^h^($!^B&:5W~X/P{5/-!.#9${$&/)^N^-45/ ^q'E#D$R^c'&##/0/i9n^P][^R#)/M^(/^*t^_/)^8%*^t^X^j9t^V=k=f^A=T*k)n^Z]I=P]L&.)z$m>T^k9<*a$V=2^&*W]Y8o$w)>;~98%g*P=e/!//%P<&*<&E=p$8&(&[^l9=^-)8%X^**u%Z]}6,^Q^&*O^Q^u$)/w)<^e&)^m9-/^*4^9/F)4^R#!/0^J<')R#X<i=J^Q^V=f^u%8%)^s^d>r^.$2^8';^-/d^[^&*d^h&E$X^S*g^ ^7%;/,^d$g^D-E)7%&*[/J[M^S**^p$4^ /,>Z]k=&* /t^a^~/R*8'8%t=d^Q^%'Z]u%E)J^t^e&X^!/'/P]m>D$7%)^<$7%#/#/&^d^V=/&7$T^F=o$&^D-d'1&G#o$)^N&Z^M^$-4^M<2$l>9^9^V=M^d$%$u%t^4^k=M$k)&^+^w^x^A^($-/5^}*m^#/<*B^.^t$2$w$7$Z]k=&*m^&/==J'W^Z]/%E)V=P#7$R^G#19o$!/{^T^p$G#n9X^`^R#c't^R^9$w)I<-'o$f=)^8/9/v=t^+^q=U$k)==-'|&E*w)t^x^o99,b$d^p9A=a%V=`]Z^<&'/}*x^&^e>@{b6w/)^t$,[1(&*&/c'!^7%J~r^q9r;Y~J5-34-n!:/z<b5:/r9B6%7y~p!|#)4K/Y3z~>422R/@/s9.^q/C6y<b5&#M5/(.#,3m]q5V=Y=a{t9`~<<|]b{a,H%u9w8m&G&;=:&u&=* */*~=]&u*},v&+=8,p-/&{*$=v&M*>;/=g*f*u--&*&>;A=d&5&!&C*_*+*8=J&w-<*B=1&Q&+*!*7*}&H*v9T)r;#/[*M3",
");E){/<^u}w93-n-P*!&!&B'J'!-v*p&f&p&_*:-`*=*P*-'L&c*<&;&/&[&r*c*z&C*q;q}(*n&2$X&7=u&F)N*(&p&K=g&~=.)B*1*@}`4_4p6u{y{*]#}G4#{q{Z)Y'.#g$3{X%0^z#.$o^!/($p9b%u%W]F=Y=o2@(.6</g>[$')x9E=7%`]O^&*a^==B$9$]$J^9$V&Q/k3B].{m[:5y9[3Q~V~G]I3%}#{;}*{p}={H4H23[33E]53Q~5{`4f26[j}`4H~Q~>}L]z9e303W2U792>{A3c{3}Y[G3L]f2&}X;m[H'L]F][5B]j>h3h3B]A9z2q3S4L4W2t[B]n3L]Y=B93[o;N3P233|3[353G]G]C9.5I46[[3R7H213U[P2t[G[6[P~t3<5Q3y2F3s[y2s[D9o3D;|3T2E9F9<5t[z2>}z2Y46[|506u-9^Z]7%&^P<*^i)')P]Z]D-=^5* ^E)^>%'i/D=&^<&9^z$X*]/8/o/o$t$m>[^-']$J'1^'/ ^`]>;%'!/.$J'a$@8|$&*N&&*T^e/u^7=Q#e/d't^'/M# [t^~*t^u$&^t^t$2$ /Z]l>Q^9^G9;$D-H8/%~^9^|$=^u$-'Z)&*Z^b$9^t^P<O^d$a$A^h/>;($t^e&D$h^&*V=t^!/)^3&~$S#Z^}6V=>[8/q9E=&%h^t$D-[,4^R#%'Z)G#t^T*P=%^d>8/u%&/t^Q&W]@/k)k^H<P]^=Z])^R^J^d>/%K^+^^9|&8%B$t$|$>^Z)-'7$9/o^Q#E=&*%'D-C&`~o/$7H95$4/9,b$A^X^_/8'7$8/B4B&D]$7I3T6J^<$I^87[^y~s/0'z<E#1!*7.73{a{+]P{G4R/A^4/.4%/*%'^4%H/y4B^]^M/k/n{<&<!%{#31{L{m]P{l{@(Y[I9*&)&,;1*h*)&*;(,3*H&:*:-S'N=5&+*a*}='=!={&^>v=~=}25&a*$;#[J9o&2=9=v&L&V*O&`*Z&{&@*}&j&u&N=3,M*f!K9a*F*G=B]",
"3~5$Q<8'|{L9w=n-!*@*a*p&G=*9/*,*)&X*g&L*Q*m;Q***q*c*Q<z&k'H='=t=(&I&g>v&X*$-2*]&|=J&X&a[v*Z&c&f*!&)&f&7;L]|{o>1{;]@>H~%}93k6&/M96$V%:/8'@8>[O^f$L#u$E^+^W]O#j&A9!{X2k/S{)*`^J^+4//N<X^h^2$&*~^t^c'#/J^4^6)M;N9w<j2z6X2j]`5c][>c)C{}^2]t5C{@(2]`%2]k]c]g]&]n[z5B5D5p5Y5j/,)j/;'O9;'P9;'`2x[t]$5z618Q9@(U5`5z6X'R9,3B5T/t5H5#7f]`/}]@(S9~,q5H/X2)!V6)!k]@(R/D5k]M9}]q5J5!4R/K/T@&60't]}]3{T9z6D<$5y4##u5%7)70'M5$7*718n!b5$5;'5}b6Z'z6D5R9p!([f]D{C{T@Z'g{m]U9@{P2>4|&x^,^#9+^R#*^k=!/a$>;!/5$2$($4^v=]$a$V=B$m4o$%'A=&*I<2^l>F=c't=d']$o$//a$V=^*-'}6+^7$i/<^E=!5==V=v=D=u$M<%'d'o$~/9,#/^*D-R*a$T*==F=]$R#{$a$b$Z^`^w)B$]$t=X^|&F){/a$P]@/F^c')^%'.^Z]b$&*4^R^T*>'G#2$D=J&-)o$T*k=+^;^Z^==-!y^|&=^9^`^%/V=p$i)]$Z]D=S*}6V9e&R^^*s&-'5$e/N&^*w=t^V=/&D=E*d'W9>;X9R#&*a$b$k)&%h/W]/&t=W]t=k=19k*;^]$>&)/>^d>z-Y9R^O&s*U~M)x)l85$//P]o$d>,[x^x^)^W^T$O&:{M/c2g~)58'A^2^7%{7]^[/](,}K$D^z5X%'7Y3>4~3N]P%C$!^Z9,8%%.%Z/w/y<w/$$,(%7j/`9`~*}=}c3E%e{<48]g{p2:'~>:&!&'=-!n&5&M*e&G&c*p$W&>={&7=M*C*X&N*S-H*U-_*N&7~-&v&i&V*+*X*J'm-W&*)f*>;{-H&`]c=R& *+*a$9;}]k=)*,; 0",
".0d'2$9$`6+04*#-5&O&&><&A=r&Z-c*6-~-o&-&L*v=c=`*c*i=l*#=B=/&_=[*k=z&{&3*7&d*Q&f&3*`&h*P*X&z=P*N*g&J9u[+5V2A{I]l{G{@0/{Q{3#1/K/W@v/J^1!D^Z]d>O^y/8%P]4^h$h^y&V[!{#0.]<]G=C^%8,9C^d^F=8'7/]$e^P<{/h$D=Z=`@u2F/T/p's/Q/w/y~I/*%&#6$g$X@}7l#b)D$l#,3)#[/x]Q#A7F#4/D^]7b5.$Q#z#d2b)x]H/|7n>Y'b%s^%%)5x]j^2{4%4/:/9$z<v/p^&#:/m42{x].4s^v^h$!%%$.}O#:/6$m^n8[/Q#o/r%U$D$)#b#K/d#w/6$w71!v/'^j^o/*%.#O#F#O##8K$4%%%]7{$j^Q#1!$8 8G8T@g$,}6$w/B^C^r%.#B4[$2{0$3/,39%K6W@44&{/!O^n^'$}*W]7%P]1/w^j),[>;b$e&W]{$e& =7$H<*^f$x^'94$R#Z)d$w)a$//==v^D=R*F=l>d'/&i))/2/2$D=d$J9B$e/O&|&K&a$R#R^'/<*E=k^K&8/f>&^A=L&|&D=o$Z)e/!/2$F^Z^Z^a$E$u^ =E=|$H)J'l>*/d'1$R#p$d$%'p&')l>R#J'**k=/&&$ =8%$-z-Z^o$-'D-^*-'19O^9/Z]F)z$Z]#/P=$0/&A=F*V=h'-'a$F&J=p$P<V=R#)>N&B=i=},~^T&k=c= =D=C'B$G#A=*^//t=2$b&u%X6P]M^*)#=t=z=a$($V=a$Z)N&W-.{+(b%P=c')/p$J[c'X^t$4^C${/a%7&#{b5%&%0&8z$(^P%[^{77%]/!^9^D^/8q/1!x)0'6]j]g{W~]# ^4/E#G/0^L/n>X%$$-(x]Y5([)!l8N3]{[{  [>`%<]G{<]H2w8.=z&t*3-~=.=D-]*3&-;y&;&]&V&)*R&p-d*i&'-7*_=^~q)@*>=N=C&o&v&{&)&{-z-M*`'u&z&y&!*P=Y)P'.-k*h)&0%'v&g&j3",
"b-~^X*l^b{*0_-C&D=D==0:&q=>;C=c'p*b&v&y=l=C-y&R##=X&O&)*|&/&n;{&W&O&P-)&~){&6&,*7=z=y&p&C*5={&=;c'$>33B]Z~-{o>e{U3U~t3D/.}b6D/d#{$B^9$&*&[!/i)&[9/&$a$r$u)j}m[%#-0${*5:7h/D8]^;0'&j)V=R*G#t=&^U=)^e/3#J]l4}^D/>0w4,0+>R;'0)0p4!}!0~0{0d]/#b{]0%(^0/0*3(00}>(_0<(v]H]:0S{<(/#+]{#<0,#d6x#[0}0/#p45]D%<{%(G{!}l{<{p6;]H%Z~=83#[(|0v6102030v6(0o%v]}^40g5Z{46v6d]9#%(=}-}v4h#m[1{50'4!}H%<#]#<#D%`@6003[0*3v])4{09#*]/05]70T@V/8090H%|0;(760080d6a0}(H%@7+>c630b0c0b5c]_{<&t${9v=W]v*)5#/|&9/X^T*R^-'G#W'.^a^e**^Z)9^b$O&-^d'Z^n^&*-'V=X*1&//w)4^L&u$o$7$a$T*,>`]R^>'9//&y^R#E#Z=Q^t^c't=}6i)F=2$)}B&(,e&P<m'&[V=N&t^-''$M#|,W97$E=#>{/+^v=u$a$'/8%d0*^5^u%d'l;O#n'R^X^D-D=^>k)J'>;k=5$2*Z)v=w)h$e0v* =R#e&-)**i^X*t=z-g/c'`*u)#=D=>[2$s&X*K=O=E)e&D-^>a*h'c'w)b&p$e^w)R#z$6^t^w)Q<N&F)N&t=&/k)j)L=9/**o$d'>;|&7^]&q*5*%4M/p'I~==X^d>u$Z^]$&^t$u$f0{^x'%&j/=},-=^G#7%f^7%L/M#p's99$1/M/]7Y5/(x]4/h]|]l5o;k/g0%$g^P8n>%8$$.$0$.#z4~,C6k/_/V[c3&{4{@(|]h]v]T)>}h0/=z=_*=-L=6*H=7=/=1=c*r=i0(&c*n'k=c*@*<*|,!*`*(>*&F&O&7=;&!*k*d*@*C&{&(-v&)*3&i)r;r-C&i=;~j0-*T*`*L]",
"x!9^f^k0  l0d&c*W&)>(*q=l*d*G&C&C*J&l*5&Z&h*k=n*w&z&X&M*I&f*{&r&{*n*/!R#]}X]L=O=^>:&P]O&W&!*3*d&~~Q~H~%{:{[{y{(4D]<4w<!$+7w/z<(^%$!/I^b$[^;^//Q#P]==.$<*m0<!2]T@`5/|:/q^k)n0N<g*)^@-h'e/Z]J[a$ / =l{`4w]w/o0'1p0{^h$`]v=>^a^s^N/x^#$q0s^9^+48/~$o$M~L#t#d%(/J^R^;^r0`^#$V=i)0'($f^s0n9J^ /3^,/f^a*B$[/R#{/t0J^o$9$u%t0#/Y'N/;/u0J^r0N<)5y/v^*%8%!%T@4%$/4/]^v0w0s%z#h$C8F$9^a^c0.}J6W@4%u%h$y<g$J^v$B^'${%&$&$k4b$p'J[x9J^79x0K$[$%'U$S#l>x]9$h$#/P^K$u#K/B$y0R;s/p#z{K~F&k=]}-'-'{^%'&*V={&J^!/v=m9o$**z0M<h'}6,&p$D=d'v=A=|$v&E)R^t=z$g&7=2$e&^*+^V&u${/==,>]$-'!* ^R^d$.^V=9,494^O&k=v*F)t=<*A0D=%^Z)D=/*!&Z)j)D-i=t^j):}F)M<_/H)J'R#]$59k=w)>;^* [v=u%Z)U-s^0,)/X^M#i)f/R<#^==-)]$J'2*o$e/D-n&C*v=e&e/^*9^*)R^o&F=e&S*e&**'&<*!*7=Z8.^|,F=e&R#g&c&v=>;|&o&]$D=1&)9l>V=E=>;)^V=i=p$l>4&/&}6`]V=o&J' ^v=A=t^w)k)C&!}5/x]^>K&>/#9D-{9!/S)d^q'H8e&`=%}n!X{B0/% $o^0/8%M#'^]7I^g^4^:/o/o/Z/y$p!O#g{<<o>~{,)a$g^O^>^9$4/}7G8|#)!g$B6|#D/*/53-{:{%&j/`5p]l5P{Q~S^1-h*'=^-l*J&C-/=+;z&n')&p&x&C&Y6v=V*F&k=<&<*z&!=)&-&j*7=G&k*l*/-o=l){&P*]&(>7,^,u-~*!*f)B5h/o$)&E[",
"C01&&^x^4{D0'*S=@*-;g&V*n=%!<-t)`*J&@*F=+*)*)*)&Z&L*X&@*!*+*`<4=n&1&*&/=b&v*Y*P))*$*C*X]7&E0K*F0t[I]~{c{c7m]+9#{#{n{Z]&6B^b)$7[/n8]7{$t^%'L#&[o$x]7$[*33{{x[T/G0r}/%>/D-A=c'R#o$==d'J<R#2$J[S*g>{0'{K/H0=}I0Q%H9m'{/z-X*I~l>**^>+4 =J0P]r^K0G#L0P],[M0k)`]-[p;Z<=/.-w)!/w^A<N0X9O0g8P0Q0Q<+4-[7/H9R0-/0)N<S0|&K<Q0P0m>L0P=f=f=^&T0Z=U0n^P]$-Q<s^k)T<V0>&S)w)0&W0~/f0g80)X0Y0#^Z0`0 af=P=w).a+am>f=V=H9//{,L&w)b&]9L&N<N&u%g8G#@a$-t=`]d'G#O^ /D=7%}6D=9^;9n&O##a$a#>o/%aD43*q9,>V=j)R*e&P<c'R*e/j)5^5$J'q'J~Z^n9`^e/&aR*W]]&';a$1&z-V= /G#V&e*[*k=k)A<O=|,Z] /f^I)e^P=P<7%F=v=d$p$O&&^1&v=T&m*O=.^Z^Z^Z^k=Z^d'L&*a7=.^t^~^V=4^e^a$l;h/$-[^^*X^7$c'<$D={)l>d$)/7%4^&*-'f$**v=,&p*F=c'E)|$E=W9l9T*`0<=]$z$d'A=3*D=p*e&R*^=X^w)P=T=E*P=k)9^p$l>=&R*c'y=7=9^E=l>)*]&@-R*&%i=W]R^D$N&e&g&`=W9d*7=v=c'd$e*o$e&p**!=aH)**h>-}c%6$P]u% =|& ^w)**<=k^p&X^5^I=Y{,)0}u[7%l;')t^P<Z^ /~^%%p^S)d$y<2{g^0$)#W$M#4{p566-a@(/!!51^X88'g$9'y~4}([e}=7k/m/*/H4;ag{#{)!-]h]t{L{Y=>a%*-;i*f*7=]&`-~)n=>;@-F&F&>;k't*_=#=n&K&`*`=O&;&G=]*f&Y)R#t* -3&Q&}-S-l)p*v=/*]&v&q*j;x5,aa$`=3)",
"'al><&-^%()aQ* *[*n=h)!a`%F3T2~at=v-o&B'K=m-D*:&u&)*j;:,M*h*2${&f&]&W&N*Q&F=I*7*d&c&'&u&q;n'6|m3]{'4h570e{>{B8/3@>{an>b)o/K$.#//g^!/J^T$!/#/#/M^F=n&]aC]4}([-(^a.$d'%/0^Y8a^u$3&a^i=V=e/k)P<d&|0N]O/b5@7/aE/T^|&w=Z^D'[*|&A=G#P=k=d'2$^&e^u%v=(a^>>[v*;[**Q<P<e*0) =G#-[+[L0+*Z<`0V0w^t0{,Y0f=p;k)x'_aV0**P0Y7:an&0)&*<a,9K0~92~K0#9<&n0[aa9J<e>O^}a =|ah^Z<L0W0,;u):7@-{,K0S*1a=[-[w)S*F=}=%;g*** [P]*)W]e^X*z$|&&*k9u)u)m>F=Z=*^2a&^g8T*V=A=O=f=N<m'Z=^6a$m4($3a4aI^Q/p][{Q*!9-' =<&**O&#=N&-' ^W]d'e/O^)^E$}6R^F=t=l;k=*^W'^*d^[^[*D=c=v=k)V=^*O=T*m>*^n'l>T&/% /H)d*E=;^P]v=d'M<W9//i)F=e&(&Z^Z^e&Z)c'r$Z&I)d'v*X^19D=w)n;w)w^p&<$D-e/O=X^5aZ^2$Z^&^-'a$&^~^!/(&t^v=1&d'9,c'l*O=P<N&2$v=)^E)O&#/c'k=H8Z)6a!/r;e&B=c=v=J'#^F=t=P=b$|&C'O&|,o&l; ^D-V=Z^e&*^+^o$n&V=v&D=&*o$v&R#w)j'&4D-Z)Q&V&}*C*N&,&t=E-)^U*P=6*H]b,:/#//&-[J'//<*G#)^'* =`^>; =~]%%0}7aP<E*.$;/a$4/u%I^5/ a(^($[/E#8a|^'^y/x<#^h{x5[{13}^n'!^B7Y'.$.#Z$y~.$T@1!s/x)Y/4^n3<4Y3]{R/l{n2n2x#y2+aA&(&u&n'v[9=l*X*d*X*J&T&!*<*B''-g>!*$-e-I)c=t*<*9=,&W&z&^>N*L&9a>}4[Y^5*F)v=<*y&v**-P{k)//Z=92",
"0ac'd$ ^k{l}`=;&C*[*n&P*aa*/&^ba7&5'R&4&O&C&C&V&c*I&d'^>7=h&r**)W&`=f&1=R&b**&c&@*M*5&y&N=!'ca!]q{8][{g{X[V2W2%#b%z6y6.}z#8%0^-#8/N/-/D=i)*)2$M^Q*3}%3k42]-(%~>'9^J~4^n02$l>9/7$E!2$**b$t^6->{daea4%>4b|P8H9P]#^~^-'W]d'_/k)D=q^9/G#)/Q<5/&*0^)^S*P<w^z-;9 /b&,[`0'/U07/ [Y]~9far^L0 ^V0//>&^9k989gaP]&[P= /Y8haw^W0Z0n0K<iaP]t0t0f0N0 =x^Q<f0^>&[f=^/Z79/ =u-n0J^T0jai9-/';G#J[#>H9kaY0`]V0:7Y]`]m>t0k8k9X9r;X^la//o$v=*^T=J'@aW]L&g8-/d'Z)v=>;**J[P=,[|&19^*t-F$maZ20',$6{5])&G#d'k=&)B=t=5$z$V&o$|&h&D=z-u8}6m4O&==.)X**>V=o&9/p$<*O&L&T*a*[*E)/&[^t=c'X^/&`]<*i)E$//==`]R^k)d^n'K&-'&^t${&P=+^u$d'@-==b*w)z$<*%;k)w)~$~^m&.^^*2$Z^>;a$p$R#d^>;k^d' ^5$b$]}8&n't^d'{/.$V&k)5aV=,>u)V=h'R*u$P<D=F)X]e&/&b***U'T*V&W9e^i)na(&t=d>$-z-K&v*I)i)~*!/e&b$F=V=**o=d'!*k)|&2$c=t=,>F=k=oaJ'X*L&V=F)e&7%7=/&},h'E$,&'/-'})X{&#G8w8X#l>u)S&S*t$h'g^%'//H<m*J{o!F{pa/&E$~^n$X^Z)]/7$9^u%+^A^9$9$4^y<o/%$M/p'q'qac)n2o2K9h'Q#D88'o!Q#x)b5o/}7#$s/l46$W</4Y~@{V[}8ra-]sak]z2&/l*;&D-/=V*`*b*[&N&'-W&>;e-f&W&I&!&('|&(&O&c*/*w=M*u&Q*#=>;c*J8.7h/ta`'A-G&Z*_=uaZ-B5}*9^M*U7",
"r!4^k)9/`{c|w=e[b&l*!&8-va(aW'.>O'T&{&o&P*J&x&7=6*y=a;waQ&*&c*6*D&!&v=t=9=Y)9*[&v*{*f*o*S-92m!V72)66t{A{_4h4x[a%](w/n8Q/%8h$*/#/&%E#E=)^i)<&m*I&5{*{K/Z/H5xaya;^A^a^J^19V=`^t=A=g^w)^*8%h'%(2327&#S@*|za,[o&&4L&L&J9D-]9x'Aaq9P<~^h&V=:7%)X^';:7t0='A<r^S*.)Y]'/`0Ba|&e*.)V=:7P]2~M0k=r;S*w^@-Ca2ak=p;R<P=,9J<Da';w^EaFa{,Ga`0HaR<HaL&99K0T00)IaJa0)p;J<>&m>N&Ka-/`]Q</*)/ =)/LaMae^`0i)Z=Na2$z*k=~/`0L&x^R*.)J< =*^@-P0&4T=c'Q<Oa(/a$T^1$X*d'^*~^//!/#/,[B&M#';j)r#Pa|{s/r%-]Qag>d*e^-'!&(&L&`9>;i=_/E)5(#/D=L&n'>;9/{^)>Q*3(!5<&z=e&V-(,7=k=Ran&<*I),=t^w)R^^*d^d>-'i),&****d>**^*|&W]^>t=P]D=Z^F=P#L&)^k=D-i)d>Z^n'Z)&^O&k*M^p&d$R^J~7$t^,>e&)^X^+^A=T&l;**W=v=e^==l;F*2^)*v*e&O&d'N&(&)9T&M<r*|$**z$4$T*2*a$F=|&k=<&J'C*i)>;2*F=D-Q&]$n&-'*)Q&D=k)a$k=g/g>8&2$Z^K&&*E)*^%'E)e&9,w&c'!&>;q=w-v*+!V=W'N*`*';%)h'5&o>&$>^t=SaF&-'G#E=R^v=b&7$`]X]k=J{j^-3Ta%)f$2$f0W'!^u%7$1^h'E#.^Ua0,J^.9p9)5}7Y'/(z<34Vam{W~0]4&C7A^9$b%:/l#}7y4H/:/D/'^j/L#={  Y{]4A6n{g{l{l5caJ<j-M*d&d&i[a*:&f&p&I&q-H=~=)*Z&V*V&(&$*F&#=(*-&M-r;)&q=-&E=f-n[N&q{q<F&`&W&X*-'5!N5^***'&Wa",
"=4p$Z)~^%(XaP]J~M-c*r*j-E;=&W]z/m&L*v*p&[*v-V&P*<*k= *5&!*z-a*I&+*c=V=&aL&v)c&_,J&n*v&8-p}@]44Ya+>g{_4B8{{M{+4,3y<<<S#9$j^o$2^x^R^J^Zap$~/a$y&z3Y3##~,[$}-[/V={/d'B$e&k)a^%)h^E$^>F=Z^/-;]C[v/j#f]}-`a-'2$F=X^z-t=F)R^z-X*L& =*)7=m't^Oa bm>k),;A<:7P=V=N<:7^9`0/*R0f=S*M0Z<.b+bx'w^@b-[F~n0 =#bV0f=$b1aq^%b&bX9*b=bT0^/-b2~+[;b>b:7p;7/,bKaZ<2aEaR0T0T<'b)b`0,[`0!bJ<~bN099T<{bm>P]L8R*w^'bw)ka+a99N<L&h0@^y&m>f0m':7X09/f^U'.)W]m><& ^)^-[t=v*-'A=V=N&$-i)2$`*b&v=w/]bR;s05}x[U2^bY)&4 ^/be&C=G#X^E)%;2*b^k=A=C=<*e/h'~*l>k=,[J'<&z-a$/&Z)-'k=5^d'd$'&w^k)**4^ )k=a$5$|&g*e/2$';P#o$K&L&|$d'c'a$-'D=>;/&Z^R^q*V=~^e/L&Z^]&N&^=V&9,v&f^4^L&G#2$z=P#R*y=n&0=-']$)*Z^**<*%'v=%^d'b&!*a$D=V=f&a$V<(&p&(&v*v=;&A=>;2a7=w)0,l>e^R&P=h&{&O&-'k={&C'3&s&<&<&Sad*t^**z-&*u~V=T&d^V=h't=d*W]~^T*X*p*e*W] =w)B&X&<&t=';F)t^<-63.$@8w8s$p;O&P=.^V<F=8%q=X^J'Q<${+%X~$~a$E*d>M^m'8%G#t$F*1^2$;^[/8']^8%C/y/.4M)y<W$!/t{M5r].&']%^R^A^b,.#M#]^{$.$o/K/2{o/z#S*H'1{b{:4P%D5m]%(n{p2`00*V*n&N*B=>;u&f&C-o&+*|,A=K&Q*-;X*f&)*p;y=&4<*I&'-=!P)`=E!x7t^{0|-6*_*Z*';!&|-S/^>//o=a4",
"(bJ'X*[^|][~h*1=p&j*'&i-_bG#Z]`%O*O&(*r*N=,>C&p&*=w=G&c*n&C&z&+*)&S*v*:=R^;&n&I&^&X&1;[3U~4{t{)7V{H'V2b{t{)5V5n!K$]/O#A$z#x0a$L#==t^2$t^.$*>85g{z6F/b,S-R^9^E*}6`]8%7%+^d'|$9^N&)^P<k-:b13S%y<](<bP)#>X]F&p$b$O&%'O&L&J'K&z=v=W])/p*r;`0V0g*G&[bh&S*m>>&w^}bfa|a:7Y0T=.)|b1b2b}=Ga!bL&I=Z<K0V0{,Aa{,2~3b4b5b2~.a,b6b#9<aV0Ea7bQ<;[8bU'+a1b('^=9bZ<0b}bH9S0h0P<W-.)Y]c^EaZ<J0HaJ0>b|a,[Fa`0-[>[}b8&.--[P]P=>&P<T= [+a:7w)Q<w)k).-V0%;,[/*R*-'u%c'S*X^^=+aV=n&%'J8P]a$X*N/ab%(&#o/17bbm>_={[(&,[*^';d'7$d$&*D=b$/bW]v=e&>;-/e&2=F=O&F=L&J'2$N&9,l>t=*)6*|$k):$X*P=!*f02$R*w^k=Y9t^a^c'S*cbd>9,v*T*k=X*D=<*<&O=X*0,m>^*K&y=D=D-Z^V&N&J'OaK&h'|,{&*^L&a*-'L=A=o$**V&Z^e&**:,2*V&%'B=T&c=O&*)w)F=k=>;-'O&p&#=R#k=n&!&)*X*K&V=<*t-Z^]*p&G&z-X*R^t-O&c'X<w)|&X*N&M<e&p&L&0,>;<*m'd^u$l>v=n'69}*}&~*R#Z&t-i=X*C&Z^h&h'>;-'%;y3W/E^N&I~E=v*q;w)l>~^P]Z^<*dbg>:{Y'A{e(F)V0p$#/G#R^Z]>[g^W939f$A/{/g^-#x^O^8^4^9'o/Q/1/o%^#l{m!c{V&&%#/!$($%%0'.#s^9$C/9$x)-(ebB][{]{K~B59]L{4{G{G3fbw-l*e&)&d*:&i*2==&r&Z-m*<*l&3*l;N*i'~*k=[&{&y&W<)&-*O&~;1!d^gbk~@*V=d*S*3*''hbibG9**Y2",
"5!A=7^~^b{9|1&Z&h*_=s&z&O;#>9/@(6-/;p&+!6*|=r*a[W]J-@)E*C&d*-&M*8&6*L*f&I&/! *jbg&a-Y[V[%4-{t{n2H'0{H'b{F)67w/4%:/G/(^y<b)N<8'C^-'v* ^~^U'j3kbS@9'n!lb)^S)D^t=7/}6%)*^e*2&b&d'~^-*'&4{53,3M)<2$)B$e*~^D-d'H8E=19L&^***Z=k)|&**/*}&`=/*;^n&O&a*`= /#^:7:7.-mbK0 ={,Ea4b-[nb^3obnbpbY0h02~m>|bH9qb@bMaS*T^N0rbsbAa^6P=K<`0GaL8tbZ0ubN<sb:7Ea-bZ0vbX0wbxbP0kaZ08&ybk9;[t0K<T0vbzb@aAbBb$bCbT<Ean^+4T<X0P<t0,;vbh0S*T^M09/Z=w^g^W'K<g8W0[a#^f=L=Q*|&&[ka@-p*8&A=C*X&%'k)T*|,Z$Dbd6Eb8'I/W~k/O&#=F<C&Z]';F^X^O&T*Z^P]o&D=<*`]}&z&d*;&X*($g&6*j)#=G#U=%'**a$V&e/9^R^^*]&Z^X*d^!*w^D-P#J'p$($e/O<v=F&F=(&>;f&f&G#T*,>z$y=J'%'Z)t=M^c$-'<*^>n'B=w= ^-'W=v*D-n&+=^>:$]}w)C*i=R#!/**k)g>d*B=O&k=N&J&|&/&C&9/<$p&m's$C*7=F=o$r;T&^*9,^*X*c&<*t=D-_>~^o&o$o&t*d'8&i=F=d'F*]$%;Z)5$c=Z^*)v*9/X*V&<*z-SaS*!*-)k=o&oa5$P'{&/!^*P</-{0x]b)%;f%u-]${/<&y&a*Z^8/A=/&}&T~0$W2@4Z^19*^8^//s^E*8^2$')K).$s^;/d>;^4/D-[/M#4/.#6$.#.$|]}^o>J{R9F)M#/9d#8%8%!^.4B^M~O#$$M)`/Z]b3X~W~]{<<j2;]D4[{t[c^&=o=/*F&!*9*8&4&F&}=J&r&n&7=}&I*d*>=B=Q=l*/&a;'=X&m&7&]78/76i-b&]&.)^>D=F!#7`]a&5&Fb",
"i!&%_/>'06Y!/*L*d'C'-'m;63f=8/+]#=;&Gb!&v&Z-V*h><&/,4&g>J&b;a;C&{!r&U*k=+*c'b&'&S!I413@{J)l5 ]H'c{a{c2T^A6{$B64/w/9$Q^*/J^8^D=X*M#2$E=|-U[M{4}h$,#HbD^4^~95$A<f$ ^1^h&%'O&2*)^p&A=f]X3D5l#I/e>Iba$2$H<_/O&h&W't^G#-'t0 =u%C&L=-'E)z-z-JbW]-/R< [Kb8&8&:>k9Z=Ga5b;[^32~-bLb*b*b*bMb2~.-NbW'ObLa6b-b]9Pb*bEa6b)bP6QbAaK<.a.bkaRb}b>bSbTb@bUbVb(9WbX0K<EaDax'XbHaY0-bm*YbV=+[EaZbnbH9W-0)`bk9-bJan0P],[V0$-('6bP< c^&$)Ea#9h&P<|b8%m>L&f=y&A=R*w^L&,[<& bQ*v='/<&P<e%';k)Q<T^^$.cn2]7v7}7W{H2r;-&u)R^D-T*u%(,)^E=L&a*e&+cd'B=c'^>@-*)d*S***u-5^~^Z^O0l>T*Z])/Z^W=e*P=i=C*)>T&m'D=S*v*e&Y9 ^H<3&)>l;C&e*c'[,J'|,Z&>&Q&.^>;0,w&v&i=c=2*d*9,4&/&w)P#-'c=~&9/c=-&g&E*/&2$3&i=g)d*-)O&V&<*m>V&D=E)Z*E*T*d&n'F=1*p*B=e&E*a*n'I<}&h'O&[*t=Q<W9]&z- !z*4&d'v*p$e/1&8=d[|,d^O&SaO&Z^R#R#M#-'p$#=d$==X<)*o&F=E=0,2*c=.^o&z-|,!&w*a{(^o^#9c's-l;T*J=Y)J'@cN&t=>;2,:{D^w3$~d&9^R*z-a$F^d'n/H86^a^x^#/k)')o$(^*%$$($[/I^9$n!$$~/g{@(%(Q{~3e&}78%o$d$8%#$z^:/1!0'K/Y'B6^9[3|{*}~{p5`5N{g{>4Y=C7#cM-R^/*T&{&5'I&J&SaK&y=6*D-_=P*v*k*h&|=`&b&z-^>)&3b(^Z^06$cJ&-'8=;>>;h-F5Q&0,a=%c",
"&cF^8'&/^{A}L*F&X*!*y&k-s3O0)/c%`*;&X*l*!**)c=@*`*u-!&q;_-)-i&L*6&*-t*[&d*1'l**c33=c@{k{U{b{m!_044*]G#/(o!C/$$4/!^*^8%7%d2X^Z^Z^f^-cM=H4b{<<I/;c^~4/l^s^p$X*9^L&A=:7f$>;d'J-C'&>k/}{j/y~`53-)>#!~^**F^C'D-J-^>**2*^&7$3*|&L&L~J-f&T=m;:7Q<R*P=9&//(';[W-T0P6Ob>cK0|a*b,c'c)c!cmbUbPb~c}b{c]cY0M0.a6b~8T0!cNa{,^c/cJa(c~c_c:c^33bFa]c.b@b<cqb!c[c}c9b|c>c1c~csbBb)c2csb^&3c4c9b5cxbJ0T<|a6b@bW-6cJ0Q<1b7c8c9ci9ha0c;[Z=!cP6=>-[9&^*/*^>Q<D-'&h&W]P*[*d'-&'bm>o$w)m>)^E)V&9/O01!acbcz7]7F#~,cco2@-~;dcW9X9:&A/f[p*2$0=7=v&&*C&=='&i))*l*l>D-v=S*d'=&)*@/9,J&a$s&19V&;9<*,>b&e*2*c'>;o&|,ecf[C&>;5*X-P)v-L*d*0=3*e*H)>;e&)*h)c=V&v*V&^>F=y&y=|,w&N*J[m>-)-&E*L&'*a*E*+*<*-'K&V&1&m-D-+=k=E-!&T*n;t*%)f&B-N*v*U*T&V-N&e&-',*z&v- -U=6*l;d*l*(,f&E*3*4&&)O&d*w&#=z*1*N&D-<*R*d*9^1&E=R^!&F)C'N&w)]}o&a$v=C*C***R*a*h'B='&=}Q#v7(&,=P=x^u$Q&u-T*|,b&A=W<p*4{4%03fcD-E*^*a$J'-'&*V=~^%'P<a$A^4^u%2$i/q/X^C^4^y^y<v$q'[/o/[]m]+]W~#]y=9^[/X8!//8z^L/{$|^m/I/s/|#//U[8][]o2D5##g{a,z{P2gc#[d*I&[*/*B=I*|=I&Q*H=J9x&S=<*C&O&n&z='={&4&{&l*;-u7*^[(hcQ&X&p&^>D=8&E5g8^>v*ic",
"4)t^Z]W]<{jcS*t=d'9=:=(;:2R*%',))&_=:&1*{&@)W&6-~>:,9*`*_*P*a*~^>>:*M*f>})C&V'[5c{@{`{N5r{K~,{C[l{]/n! 8}7.#kc4/lc8%!^t^q9}6k^C$s&('I2e{~,y$C/mc0^X^{/V= =%'a$A=P]t$f&O&>;e&2$g6H2;c$$)4`<0=|&4^Z^2$~^!/p&<*l>A=S*z-A=%'+*|&j)O*7^R*w)x'N<n0,[#bJancn0@b>cP6oc`b,bpc`bqc0crck9sctcucvcwcxcyc(ctb4bt0^3zcAcBcCc@bDcMa|bWbL8EcX0Fc@brc[cGcHcIcJcKcLc0cMc>cNcOcPcUbGc'cQc)bW0Rbf}RctcN0ScTcUc]cVc@btcY0*bWb>cY0Wc5b=~P0>bW0EaW-,[Q0R0.b%)F=r;K&v*`=}6R#b&7===a$2*i=Q&)&r$^* !]$E=u/v.x7c%y~r${7Xc/4G2b(n/x^p!`%]%U{;']#@(x[c)c)$630`{@{ {:]<{M{k{H]1{b{q{Xc@>+>){ 3Yc=8Q{=8d]Zcl5`c*}p6V7 {<4S3Q~R{#{<3p4y9P~&}*}u3$'$'Q~ d,{s3f233H'H'$'$'Y[$'p3B23}m3.d+5F]k2,{Q4$'+dV~03Q~55@d[3y9V~$'U[#d[3j>h3,{F]1333@5$au3$dU[W2|5T[t3%dz9Q453z3|{&d;]']h$**G&)*}*f&(,)*!*x^<*c*e/d')^R&J'K&-'E*<*O=L&p$J=F=J'K&/&/&]&V&;&'&{*5&K~-#x]R*W<-'_*n&f&D&J8|&Z]c'J'^>*},/882!d*E*V=e&l>B=t=%'a$w)P]t$Q<&*Z]d$g^s^B^7%g^U$6^O#E#o!B^9%v{=(g{({V{*da$1^.94^6^%%E^6$-4o/$7x/t4f0F]a,:422L%q5']b{g{13b)'-a=f[X]C&9/(*9*v&V&6*G&c*X&S=!&O&)&p*:} *v*0,R&9'E=l5lb6-X*<&H&=dS!}]82g^8&n6",
"s~d^F&j)&{-dq;p&*a'&@*h>&}9/k=p'}&f&%)(&Q&C&^>;da;|*-&7=z-E*9*J&(&c*h*'=h[>d4[G4!{~{P{V{H'F4<!U{4^M5*%F$B^J^o^~7S#d>)^J^0&J=`01&O*#}~{9%M5,d9;x/P=n^N&8/E=-!%'}6X*t=J'>; b2~46'd;'Y'V/('3*N<&^,9)^h'n'e&H8C*F){^V=W&$-'&`=:7r*X0t=p&z*9&ka|&L8Pb-[>b>bEaMawcJaTc2~Pb3bDa)dRbBc|c!d~d{d]dEc^d/d(d_d:dUc<d[d}d|d1d2dqbFc[dBcKc3d4d5dMc6d|a7d8d9d0dscqbadbdcdUcddUbedfdgdhdfd6didjdkd2cldmdnd3cod}c8dpd:aV0qd<drd9ctbsdpcH91bG9Z<%)S&-bR<N<tdg*-!.)R*2$e>=^u~*)<*F=U*E$I&!&`]-'R***a^!'ud<4P#l#E#]%y4V5u{o]e{C{_]z6q4vdwdU{R5B5 6y5O/xdx5u5yd%6 6zdAdBd+6%6q5Y5+7Cd$5$5C6n!J5A[V6DdBdB577t].7A5X'EdE5Cd~3W5$5*7w]5}eax5:/P%n5$5<2.73{u7CdT@.7W5p!CdDdu7z#w/!4T@b5}]5}u7D<u7u5CdI6F/V617T52{97*%+7Fdn!Gdy418X'o!HdIdQ/V63{u5z7z7J5n[JdV5DdL5#6A5${X3H2Z~Q<-> !b&#=c'N=F^l>A=T*|&1&N&<*>;<=F&r;*^a$z$D-n&V=,*M*('X*J-n&j;Z~8%y<e^F)A=**w=[,(&>&k)P*L&|,!*<{(^X~r4W<Z)n&H)E)%'-'m'T*t=i=b$w^p$f^t$t^($@/g^.$D$@8Q^X%]77%u/V%g{<]l5d3Ya`]a$N^9$I^g^)$b5%%#8W7,3y#u5')5{8]l]~{##t4+]Z{v{U[z7_,{&<=d*o*u-)*3*I&O&/&~>s&y&/&-;v-3*2&D-V&!*@*87&*;]<)Z={&f&i-'$r!f]R#D-g&t8",
"h;b$J<P]>6%|c*|2]&V&w8j;P;r;-/z69=`*v&d*x&S=g>;&M*T*<&'-y=f&$;X*l> -U&w&Kd}5%&q{@>o54{Q{v6%}m]6$&#W@d2z#l#Q/y<m^;^($)^4^')~^Z^9,LdO{]%](A[o-1!o&==c'2$P)*^^*#9r;*^)*(&X*X*v%W4S%d#F/P&@=%'*^P<-4:7*^)/X*)^E=K=F)O&)*V=6*(&EaQ<i=6*I=Z<.)R#[*X0('u)V0MdX0^3NdOdp;!bPdFaAaodQd8dRdSdLcQcxc}a'cGc3c|d<cddTdUdVd!dKaWdtb0dMcLcGcXdYd.aZdYd`dWd e.e+e@e#e<d$eLc%eUc9d&e1c<d2cddXd*eqd=e-e%eCc;e0dVcUb2~xc5dxbI9&;>e,e'eqc`06b,bMap;)e^&+aZ<N& /e^u)S*/*}= =p&o=9*&4v=e/z$L=^>J-C&q*.)t=**w%l.!eJ]H5t^x^d>]^9$@8L/F#D8'^E$a%s^;^b#[/~e5/y<{eL/A$($y)3^O#>^8'F$l#1#)$%5'$r$j$ (6$$$($)$z#A/f#]76$'$;#~$]e1^==a^!^U$&*;$($^ey^&$i$)^!$/eQ#(e1^.$+%b#l#59E'H#{%)5)$r#D$6$'^6^X%n/%88%N/($.$#%g$g$x$N/r$f$D$a^b%A^y#1^J^7$#$h/$/'^E'+%Q#Y'==Z] 8_eE#8']^h$$$D{:em3:&%*O&/&E=N*X*<e<*(&(,[*e&v&p&(&F=J'[ek)7=T*e/V&t- =p&p*9,7~a{N^P$'/W<y=,>R^E*_*2*B={=i=z&,[1{B^I3}e/&|ew$h'=^)*l>9^P]a$g&B&^*8'!//%o^d>D^.$2^>^n/C/I^9$]7Idp9}^g{D5T{e{$6G##///[^e%]7E#)$}^L/B^1!o!l59^53;{q{o;=(G5T5$]u}a4q5Kd'*J&@*(>p&Z&v***v&&=Y-c*G&X&y=Q&(&m;K*A=A'~7M^L%1e@)`&'&x'%)5&z5j)E$c*<3",
"&c7=g&T^o]2ee-0*!*#=V*9-t;a$u%x[3*J&c*>-C&;&{*[&Z-E*L*i[/=F&Y)t*y&m-|&{'z3o;4{h5P{g{030{}{n29$+%I/9'L/(^##O#%$3el>&*Z]V=`]>&g&334ep'W7U$.=]$)^J[}6X^t=-/)^G#M^Q^G#-'|&5ec)6eb5,8h{V&=& =k=a$X^-'&^v=H8l>8/]$K&[*w),[*)S=,[g*]&k)r;P6m&!b^=6b}bvc7e~cp)Ja8eTcnbWbOc9e8d6d0eaebecedeeecdfegeceheiejenckelemenescoepeqerescsete9duedehe0dvewexeyezeyeAecd4d@eBeCeueDeEeFe*epeGescHekdIe%e+eJeJe_dOcycid&;/c9e^dKeLe0c*b^3Sb1bGc-~8bPb&bm9/*M=5'G#/***)*v=h*_>V*R^F=X*R*t=**)&l;-!^=u&|&h'k=MeNeg @)`5h3_060:bZc(880OeC3Pe80Qe 3;]v]P3'0(0^0Re^0I%SeTe`c[0d6p6~5Ueo>G)d]v]60Vev6e3We~0Z~XeYeZe`c[0|0I3)0u}h3f3[0'0<0H%`e0>C3 fRe<4R;W; fTeC3_080p6.f${C<+f~0p6@fZ%d8#f$f%f^$d3v6h3&fH]*fC3H%I3N7/#X~e3d]P3=f)0-fOey3p6;f'0>fX~W;,f'f)f!ff3~fF/n^!%{fj8w/4%m{Q~]fj;l;K&=*<&O<)/v=v&o&C*d'D-8&<&-!J'+**!X]/=2* *y=3*K&<*0[70:/<2@--)n&7=X*G#(&d$]&<*(&K&`=T~[/1{^fV=:}%'T&d',=F*5$u^J9o$p&e^f$~^t^]$L#&*l>t$)^+/la]7%$s^]7.48%Q/a]P{w<_4w<X9V=1^N/C^&$1^%%<2o!~6<#M5([Q^L]I]T~H'}^6]U{i{q5V~6$l=-;X*3*p*/;B= -m&=9[&N*I&!&L&)&_={&n&},5&-7Z]`%(~A=Q&/*S*l;a;*7/fe&F&*{",
"o~P]~^`]c)Xa!&h*y=7=P]=-2>8&==+]#[z-N*U'X*;&V& *J&I&o&;&Y)n*e-!*{&>;|~}5-{@>m{.>`5f2H~Z2[{]^<<d#0'c%K/)5o/u%F$t^~/N<=^f=}*Z=F3r{D/D/$7I**/l>>^R^P<t=#/~^t^'/B&-'D-}6W&B6#}D/j/%#(f$!//Z)>;w),>$-Q&n'X^D=k=A=M^|&@-*^V&L&L&J->&>&';b&s'J<-b-[~a^didscPdOc_f:f<f6d[f}f|f1f2f3f4f5f6f7f8fHe9f0fafbfcfdfefffgfhfifjfkf7flfmfnfafofpfqfrfsftfufvfofwfxfyflfzfffAfBfCfDfEfFfGfHfIfhfJfKfLfMfNfOfPfQfRfSfRfifgfTf7dcdlfFeUfVfWfXfMat0Z<J0=~w^('m>P=/*p;N&l>!*u%|&t=X*w)w)C*c*'/N&v*^*O=T*u-D-)^u&v=<0+bYfZf`f.1 g.g+g@g#g$gm7%g31&g*g=g-g;g>g'3,g'g)g!g~g{g]g^gH7b1/g(g_g(g:g<g[g}g|g1g2gc(/|-d=|3g4g5g6g=g7g,|8g9g0gage2bgf1cgdgw}~2c|eg7gfggg|6hgigjgkg<[lgmg=gngogpgqgrg|g~1Zfsg5gtgugL|vgwgS|qgxg3g&g>gygzgAgBgCgDgEgFgU6GgHgGgIgJg.,KgLgMgX.W88%*4&$1^.$[/'^r{>}ha7*d[-&@-)*Z=-&^=:'d*c*c'e&:&V&+*d'l*:&Ngd'J~T*O&(&A-=8C/.$.)/&e&o$J9 *m'1&-&|&A=7,~;c3i#03*|8/*!o$F)9,W]8%-'D=L&p$5$A/b&e/E=*^k)h/a$M#4^J^&/!^,/A$]71!x].46$h]n{G5[4N5X**/B^S#u#%%7$O#:/n>s/@(F/R/M#33!{c{o;w]1]g{U{i]5{x)p&Z-]&J&V&,>)&j*u&>;+*v*7=6-f&9*(& -#=:'x]]9+]+~u-p&/*+*O<U'4] /l>&)s7",
"A!792$Q<N5Ogv&;&J&-&!&f&R7Z^C'70:&^>v*~>a$Oae-O&`&u&W&M*'=c*I&]&n&u[3}Pg1{1{n{+>}{W~Q~%4y<$7g$0$y^n!:/g^,);^(^J'(&~/>[Z]E*W4%]`#]($$/,~/~^~/t$Z]D$R^K&e^N& ^V&<&o$|/y46ec)y4K/9*L)-'t=d'E=)^v=R***9/y=,[>&V^w)Z=l>O=g> ^Q&'&V0<;F=P6=[pcpdQgPc.)RgSb_cGcSgTgqeUgHeVgWgbfXgrfYgZg`g hre.h+h@h#hNf$h%h&h*h=h-h;h>h%h,h'h)h!h~h{h]h;h^hxf/h(h_h:h<h[h`gQf}h[h|h1h2h3h4hGe5h6h7h8h9h0hahbhchdhehfhghhhYgihjhkhlhXgmhnh7dohphqhWf.[rhPbg8e>Cb%;N&+a,9>& ax^p* =l>v& =X&R*i=l*c=.)/&|&h'e&9,E=t=J-/&X&7=D*9/>&v*C&)&]&.)@-f&l*i)+*;&O*R#6*m&)*)&@)W&nar;7=-')*|&1&[**!3&c*4&m&A=V&*-],=&r*C&}=;&'b:&3&d=c=y&V*h&)=x&3-k*8& *shZ&S=P*U*e&M*u&9=:'f&@*n*M=}==>X&8&b&l*c&W&l*(&9*X&C&#=g>>>p*d*m;9= =e/+*9))&)*X&y=`={&#*e-!*h*)&W&u-S=C&m;[*|2Z)1!|(E$th^ 40B64^'^($}^/{R/'&v*C&d*p$d*R#I-;&~^A=>;k)w&/*`*e&d*<*2*V&Q&N=/-!' 3O^uhS=)/g/c=f&4&@=H&f&{&d*m*_*~{ %=8vh|&7=R#k=V=z$X]2$>^//2$t^t=a$)^;#J'W]G#6$#93^8'-/&/P$O^W@.}87,3Q#.#j]L%30(3-(6/(^#^9$M#&#1!*%]^j^Z/$5Q#p!`7B8C[[{V~}]R/j6*(l{H~whL*{&M&U&{*c=7-X*I&r-c=u*b'!*T*p*v*~*g&,7t$/# ~c*m&L=F*},xh$5`]+^G&N]",
"&9a^&^E)%(yh/;'*[*<*m&h'3>{/h/R/K&G=1=]&M*S=A*_=/&},c*,>u&X&<*e>k;@0D]2)4{'].]}>*}c7`%/8,)F/,39%A$+%$$9$d>#/&*d$-'-'A^x'P2U{z5]74%j;A^1$l^C8 7k=B&t^0)Z^w)d^7=$-z$M)q2q5$5$$H=<*D-2$E)F)h'v=E*l>k=t=k)P=7=Q&&*%)(&t=i)E=h&;& =/)(/9&r;>&zhP6Ah=*BhChDhEhQfFhGhHhIhJhKhLhMhNhOhPhQhRhShThUhVhWhXhYhZh`h iQh.i+i+i@i#i$i%i&i*i=i-i;i>i,i'i)i!i&i~i{i]i^i/i(i_i:i<i[i}i!i|i1i2i3i4i5i6i7i8i;i%i9i0i)iaibicidieifigihiii5f4djiFcHaI=Z<Q<n0|bB~t=ki#bm&w)(,^=L~k)c=2$ =c*!&o&/&v=I&^*=&K&^>R^a$J[i&~;F&]&,;-!@*J'D-V=K&c=v*]$J&/!9^y&W]e/%)e^liO&N&**<*K&4&e/N&@cn&V-},o&F=B*d*i)b&D-T&P=v*R*R^V&R#3&V=w)Q&t*y=~&D'H*~*D-mi{&>;n'B=P]}=|$-'C*M^X*niD-:&T*,=9^y=1(,=|&p$I)d>X^L)C*p*s&*&W&M<X*w=0*a*L&p$-&Z)[^E*^*ual;X]k)|,E=c*|,K==&2$(,c=|,-&<*d'*)oio'pi(0*7O#]7-(E[64j*#=t*S=>;&43&~)d'<*t*]$v=c*I&J-e*q**&!*X*(&E-}-*}[^1/Y]t=O&=>=*d*b&l*p*)*u%@=`<k67$S308&[z-d'-'v=R^-'O&Z^Sab^P)R#E)1^`]Z^S*o$y/r;B&V=d0F^87+8]^D^D/97]7}7A4P{z5h]I]o!]$+%4/&*l#'^.$E^6$I/h26$b6](9'<!s{|{5{>4k];]i]l{E]-4!=Z&Y6B=:&c=~=p&m&h&=9P*P-c*'=_=l*e>Q/0/qirim&;=J-O&)>L6x5h'{^n;W~",
"i!h&9,`]>4si},_=C&k=9))*6[2$&[)4W&L*P=|&y=C&=>p*`*~;X&/;y&f&*&]~m3D]&{8]i]+]G4!]o2o547o!1![/C/m^Q#.41/g^`]-c)^}6)/t$y&cak{p'p#([2'7%3^C8R^*/L&$0`]t^u$V=p*P<katiuiY[@(x<D/%>w^D=<&^* =b$&%d'p&g*X*%)O<P=w&^=9/{&k)w)m>[*v*k)h&k)w)7'i0LcSdviwixiyiziAiBiCiDiEiFiGiHiIiJiKiLiMiFiNiOiPiQiRiSiTiUiViWiXiYiZi`i j.j+j@j#j$j@j%j&j@j*j=j-j;j>j,j'j)j!jLi~j{jWi]j$j!j^j/j(j_j;j%j:j<j[jNi}j=jNi|j1j2j3j4j5j6jMi7j j8j9j0jajbjdfkecjf}3c)b|a'b>/k)#9$-O&:-v=c&A=j)I& ^M<e&p*X^'&^>I~s$G&t=e/^*%^/&p&F&F&}=C*<*!&c*)*^*$-v&7=l;/*3&~;B=_/q*C'F&1&f&t=A=1&(&e&F=C&V=F)V&8&K&9)4&e&T&dj *r;k)';>;t=w&!&7%A=V&v&7=},**f&c')*9^w)5^l*<*v*>;m>0,J'D-k=e^i'i=,[+=e&c'i=k=k)n'c=c&e/X^w=D-S*T&t=e&P<2*a$[,ejt*X&v=v=+!v=>;L) ^Q*)*v*|&**L&7=F=T*f&k=-/>;-)F*c'N&I=g%fjgj`@ %w/:/0]G[)=f&F^p&v*Q&t*D&==a*P)!*-&!*D-N*E=a*A=i=},Q*^;30[$:/hj}$^>u&h&k*3&ijT&-'E*`*F~  -$70jjf=-)|,o$X^d'l>K&}69,^>e&Y9J'i)/&J^e^u%'/d$N/K&8%%'9^$$Z]8%y<l#I^1!Y/E^v{u7l{V~j^}*d9J^f^I^&#4/4^X%0$y~$$Q//8d2%}J{+{j>`5w]o[h]%]p}ed}-San*Q&j*B=/=v=M*P*H=v=5&e&4,Y*M*j/G#m]O'|&{^Z&Q*kjS!%]*/9^U&lj",
"<-F)]}i)m{:9p&B=l*5&}&5=I;+*-'F/I-i=c'v=t*d*c*f&X&<*I&T*b2{*j-Q{U4${=}'4>4H'1{y[c)6$@(c%]7F/4/M/f^G#1/m^9$k)!&a$d'k*|3Z{M9/(`#_,-^==ejQ^D=X]e&&*^*b&a^Z)&*#=Ba1/j}.]S%b5k*SaI^l;N<)^L&)*Z^p$X*7%<* =d')^ ^D-P]~*G&K&W'n-i)^>R#L=|&,[mj*>>anjojpjqjrjsjtjujvjwjxjyjzjAjBjCjDjEjCjFjGjHjIjJjKjLjtjMjNjOjPjQjRjSjTjUjVjWjXjYjZj`j k.k+k@k#k$k%k&k*k=k-k;k k>k.k,k'k)k!k~k{k]k^k/k(k_k:k<k[k}k|k1k.k2k3k.k4k5k6k7k8k9k0kakbkpe<dXg^c-bKa#bSb,*v=R<`=)&e*L&6an'F=:,///!-)z=N*D=p*a*#=4& *O&k=N&c=uap&V&Z=e^v&d'P*V=c&;&V&2*';7=)*k)k){&c=7=N&+*d*D-W)e/(&b*V&l;z--'t*A=X*J=E*I-t={!V&2$a$0,L*v*c=o&z*p&J&X*[&2*|,w&=-|$]*t=v*Z^p$F&D=N&Z)>;]$w)'bN-T*3*3*X]V-|&W)Z)i=c'p&:,#=a$d[F)d'<&t=v&ckR*)*t=-&)*,[D-c'-'O&|,a$v*O&@=+!{&!*<*&ab&k=f&|,V&s&X*|&k=E)^>z&9#dk*3{$/[%%ekfkk&B=0,7,%)N*{* =C* *9,t=p&**T*^>H=W&K&3&t* ~gkb%D^r;L&hkN&c=a*J-u-t-E*Q&D&W0T~g$^0T|!$m'O&<$Z^|&|&J'}&a^W9e*D=:}W]v&l>q^v=R^#$C8s^ ^;^+4Z]%%B^M)Y'F#:/1/2{]/>4P{v{W~,3-[8'~/7$:/1^F#L/B^F$x]v7]%x/]/#{W{h{]{c)~,@>a]T5ik99|=,*[&{*E*N*t=K&)&-&S=r&m&e&c*Z=M/E)96#~b&r&C***W)d-{(4^X^5*A{",
"jku%i)u)m{9|#*/;.*t='-p&:2~/h^b(}):=p*B'!*)&I&u&m&]&a*B'Sag~W~64m{&{:]e]J{M4<!N5d2;'x]:/.#[/d21/[^)^+^}&V= [&^c'O&%d8].74}.9i; 9Z]T^R#a^&^5$4/t^O&'&d>t^==-)yakkc)*%v/8&,&&*H)|&:$^*L&d'd'c'>;f&t^wa==K&N&j)R^c' =A<z-R*|&d'A=lk9!//i&SbmknkokpkqkrksktkukvkwkxkykzkAkBkCkDkEkFkGkHkIkJkKkLkMkNkOkPkQkRkSkTkUkVkWkXkYkZk`k l.l+l@l#l$l%l&l*l=l-l;l>l,l'l)l!l~l{l]l^l/l(l_l:l<l[l,l}l|l1l2l3l4l5l6l7l8l9l0lalblcldlelflgl_dpfhlil8dI9Q0pc>&Mb,;8bV&9/w)P=(&g&F)X*v*1&/=f&v=7=b*H*W<d^(&i=)&f&Z&|,F&c'f&<& *t-!&-'<*t={&o&e*jl49v=^>(&D=z-0,D-2$p&/&*)7=e&,&e&e/,;P]v*C*^>v=%)f&f&+*:$+=V&Q&>;V=p&_=i=N&-!}*p&g>f&E=m&R^O=O&,>b^K&k=>;Z&e^y=d'/&z-c=)>F=f&d'$0I)T&J9b*r*d'(&<*i&'/X&J-b*},$;k^<*v=(,,[l;X*e&Z&v*e/z-E=B$A=<*F=K)<*R^k=V=|&X]F=z--)'&k=k)t^F)r$C}+#kl.$$$m]U~9;~*L&u&v=X*t=l)-&F=)*Q*w-]&i=X*O&u&X*y=~>~0 ^2^|b9^ll2*]&p&D=y=M<)**!X]u&p6X%t{ml;!p&`]>;==]&p$F&X]2$}&9^d'P]==m> /9,h^b$~^7=p&4^3/P<E#w)o/q'z<1^z<v/M)V%39']>4G{U[nl7%A${94/L/ 9v79'*%q6I/o/V%g$1/J]<4V{c3`%.(m{m5-]j}.4m;g><*]&m&;&/&N*i&w&(&7&2*},r*O^ol-(e-)*I&1*{!B=plz6K0B$-**{",
"h;R#J'ql<{&|X&`*M&Y){^rlx;L&&/([1=y=d'p*k=X&|&9=b&@-v*-;slC2cc>{&{tlC{f2J{W~a]A/q#([Id:/%%P$8'8%1/W9+4*^s9#/b$V&P2~{D/n!I/a-D^@^t^Z^+^i=J'Z^(&i)>;1&D-^>t^&$Q2W$ulk4(&c'&*C^-*^>T^o$**P]E*y=d'-'[*1^J'D=i)w)N&B=a$F=S*f=w=r~|&'/5!&*V0Nd0evlwlxlylzlAlBlClDlElFlGlHlIlJlKlLlMlNlOlPlQlRlSlTlUlVlWlXlYlZl`l m.m+m@m#m$m%m&m*m=m-m;m>m,m'm)m!m~m{m]m^m/m(m_m:m<m[m}m|m1m2m3m4m5m6m7m8m8m9m0mambmcmdmemfmgmhmimhmjmkmlmmmnmompmqmrmf=Q<!cK<!bg*Gaz*d*g*t=i&^=*!o&1&g&p*t^,>w=P*p*OaC'd>v*a;_=5$6*r-v&O&k=Z^1&R*X*{*7=f&J&5'C*1&R^-*c=+=W&7=T]N*b&*)O&^>O&]&/;n&e/:&w& *e&2$!&z-O&)*z-Z^c'#!]&)=l*!*C&b*C&1&9=x&Y-u&C*1&H&`*u^(&F&z-`*K&**R^v*{&e/X^y=E*s&E*C*s&T*v=e/-&7=X*)*a*]$<&d>!&J9v=:,0*f&u&v&c'g/n'o<C&-'%'@=c&/!p&C'6*R^v&|,C&O&>&i=C&d*,>d*'*-)L&/*D-t$smtm;^B^b%K]']e=e/0*B*K&{*!&2*E*i)%;{&i)b&-&N*D=~)O&u*_0h/8'k*>;F=G&j'5&2$T*W&-&k=t*/=Q{v$<{um7=79k)~$u^R#*^n'R^X^-'^=z-2$c']})/W9P<RaZ)K^F#P#x^u#M^m4%/S#|^6^+^2{.#M)w/M5i]e].(R~F8~/ebn^:/D$v/Q#B^$50'Y'z#w%,3a^|{J{8]h94}c)b{v{q{q2*/H*Q*-;#=|&e/p&F&R&{&<*^>C*e>D^#/>^8-N*)*B=!&/&h)@(Q&u$R##{",
"b--^&^R#F{T|6* *X6v-X]J<%dz-S*j/k-n'X&:,6-)&:&V<v-)=v&2'C;6]|{ {H%%]J3W~vml5=/=7+([^=^h$4/[$R^{/[/9/+^l>1^1$R&|3Y~|#;'u#r}%$%$}6o$D=y=>[z-!/X^J'|$f$|&==G/N2H51#j/='d*u^~^F^A^)*2$e&R^e&A=k)]$1&e&p*8/h&R*X^^=d'** =O&=[.)#==&!bE!,e^6S]kewmxmymzmAmBmCmDmEmFmGmHmImJmKmLmMmNmOmPmQmRmSmTmUmVmWmXmYmZm`m n.n+n@n#n$n%n&n*n=n-n;n>n,n-n'n)n!n~n{n]n^n/n(n_n:n<n[n}n|n1n[n2n3n4n5n.n6n7n8n9n0nanbncnLmdnenfngnhn<ninjnknlnmn9e~diannon!b'bn&$-P0V0='Oa;&7=w)k)-'(&e/X*&*5'U-)&7=7=v='-/=y=]&f&[*V&{&-!e&>;X*<*g&>;!*1&d*R^p&A=V&w)D-T*O&;&a=d'c=i=d^Y-o&X&E*,!**c&V=X*d'C&Z&o&i)9*e&T*2*t=y=-'pnt=d*T*<={&L)Y69,v*|9d*g&p&';n'|$p&<=S*qni=N*z-7=R*;[{&1^g>]&d',>1&W=c'f=F*d'X&d*O&]&v=Z&9,m*o& =_&X*P=p$T*]&l*l*I)/*K&a*r*b^N-F)-!-&-&e&(,{^t*c't*^>|$i= =_/}=>;/brn;]o/:8snT~:^tn1&>;v&v&T*p&r*W&J'V&Z&(&C&1&n&T*i=o'`~d2E#k)f&^>X&f>-&v* =D&p&#=+='&a{;$){uny=W=d*H)d't-2*l;X*(,V&c*C*c':, ^J=x^j)]$vnd$k)g^;^3^L#E#A^1^A$K$|^D^y<]7g$P#0'wn=(%]W~>^19L#y/D^.4&#y<6$K/x7y~5}$$-7C(<4{{*}l]x[o['4n2g{P2-/xn>;F&v=p&C-k*C*B=1*Z-v=U]Q/J^-(j-i&e>Z&d*y&g>6{k)e^n&y[",
"*--/k)v*ynN}M*(&6-@=:&],<5k)>&P9<*d**-c&R^B=7*;&;&0,k~>}{{H]=8;]m]H~.&E[06}6X%a/0']/&#]%p^;^t^<^.$|,G##/($@-z3w{z6y4[$o'7%t^B4f^S*g$L#x'a$K&I<5$:7|&l>/8znP9$7Q#e&m&b$ ^r; ^D-!*v=z$A=y=8/-'&*I^f0d^Z]&*8&/*Q^';n^h&^*R^m>X^'bT<g*<;EaV0AnBnCnDnEnFnGnHnInJnKnLnMnNnOnPnQnRnSnTnUnVnakWnXnYnZn`n o.o+o@o#o$o%o&opj*o=o-o;o>o,o'o)o!o~o{o]o^o/o(o_o:oPnSn<oAm[o}o|o1o2o3o4oYn5o6o7o&o8o9o0oaobocodoeo>ofogohoiojokolomonoWbLbooLa9eZ=V0&bR<Oa-!9&,[O&F&v*P]|&{&>&E-7=!*b*(&'-d*p&J&k~v*{*t*b$4,~*Y)**,=<*J9c=f&u-y&#=^*i=9=Z&X*/*b$h*O&e&l*)*p&~={*h*|,P*%'v=C&b$ua{&t=p*l*O&D=3-!*//Sa;&n't*<*t*K&p$o&Z&K&Z)p&G*W&d'5*T&o$p$u^T*7=b*N*d'd*O&K&]*j'C*#=u-W]V=L*e& *3&%)_=w)t-X*O&y=F=3&C*>;}, ={&)>{&F&`]t^X^i=d*b&,>D=(&p$R*k=p&7=)//*Z)N=F&e&o&{&|&c&|&C&>;F=*)w)w1g3y/2{18po';>;N*5&z&:&V=M*t*z-/* *s-V&|={&`*4,5- 3a^,3=^*=e&%'%)e&#=(,-'^=v=~$j*o;[$J)}-c'Z^,=k)d>z$)^c'p$z-D=&*-'p*R^5$s^2$.$R^<&o$#/t^d>2$[^Z)&%g^J^3/!^C/')<^x]B^h$b5T5<]$6X4-4#$#/.4.4;/o/*%8%j/j/v/j/D/R/~$`~~{>{T~c]`5[{:]6]+5<^qo^>,;*& *_)~;,&l*d')&='W@S*-({~+*c*g*y&i=h&+]G#x^v=L]",
"ro)^*^^*so&26'~;<&{&P)k-aaD-~^-(_*;&r;Z-]&,>{&c=*&toz2=}@{!]u}U{W~L]<![{5(T@P%O/+%l#%8l#.$a^q'{/3^&^A=`^%;F]4{t#b5K/l=*^O^5$J=//D-]$9^#/+^F)**v=S*t=G''d~3,367 /N=P#8/Y9**J'g&W]N&I& ^**z=k=a$>;2$e&X*d'{^A=b$D-d*3&=&y& /C&b&P]e*g*=bP]uovoQbwoxoyoqfzoAoBoLfCoDo/hzoEoxoFoGoHoIoJoKoLoKoMoGoNoOoPoQoRoSoToUoVoWoXoYoZo`owf p.p+p@p#p$pyo%p&p*p=p-p;p>p,p'p)p!p~p{p]pQo^p/p(p_pyo:p<p[p}p|p1p2p(i&hFh3p*h4p5p6p7p8p9p0pub0capbpgaLbh0EaR&p)2$^=D=n&2^Oa`]Q&+^T&T*M<<*v*{&z-C*A=4&%=f&|,7=V&v=i=J&C&X***_/k=_/3&`*/;>;@*t*]&h'z-Y)5a(&I&K){&k*n0H&B=N*J=<*7=;&v=O&K&v=V&O&<*b$A=6--))*%)d^~*w=K&V=`*>;!*p&K&/&3*s&K&C&>;-&c=F=;&9=g&u^]*J'e&{*3*V=o$<*p*B=>; -F=K&t=u^L&X&c'T*#=O&c'&*v&i=<*`*>;O=u-k=v=[,V&n&f&7=o&%)X&Z&p&0=]&w&L&J[v=Q*p$X^L&b*b&';cpy=d*F=3&w)e%dpg6[^1^z5da-5l*p*I-T*7=:}K&)*g&D&@!/&~)g&R*C&^-#{(^w/&4/&{&%^J'7=(&c*V-r;P)X#5=4{D#/{ep;&+^Z)L&t=/&Q&F=o&0,X9|,t= ^o$Z^o$u%C&I<`]R^}6g^,>9'~^S#4^Q^.$O^E#s^1!J^7%K$O#g#V%fp4]|]U[Q^0,a/z<^^O#&#B^:/o/T@v7P%K/P%f^M422~{c2J5n{h]&{N5Q2#^Q-P)|*;&]*kip&9*!*y=(&c%G8k4}-$-D&{&k=/&W-gpE=Z^{&+{",
"hpv=E=u)L{ipz&}&<*q*:&w*z;/%-/v])=j*y&T*(,;&@*[, ~33~{$]I]n2p]+{<!Y{h59^g]6$9%E#ya]7Q#o^D$;^J<L#V=4^7%#=A3*{i$F#1!<-7%Z]}*!/e/(^|&[$o$P=t$B=9^*^1&.9L4n[Y5#7Z]c*9^S#==c'E)v=t^X*e/F)%'>;t=K&D-n'd'|&|&t=X*-'k=/;';k)^>[*F)O0L=p)v=I=*bQ0oouo(fSc;&(fqbLajp1c:cAflekp^dldlpmpnpop1fppviihqp1fpeyc4clerpBcrpsptpupchvp hlfwpxpypzpEcApypue5fBpCpDpEehhofcjEpnhlhFpGpUgHp6fvfIpJpAfpfxphfKprfjp7d<dmfLp!h5dwe4fVfMpNpOpPp`b,e&;uo*'Qpg)%))*u)n&Q<.)8&';|& [I)T*c=T-X*S=p*)/{&p*i){&u$M*p&q*/&v*O&7=c=#=B=d'y&r&f&3&L&>;O&4&r&o&p&C*E*T*O)y=#=Z&p*q*l*'=c'V*)*m-C*v=T&p&Q&b&(&|,-&e*I*E*:&(&T*p&l*v*},p&v=},~))*^*L&v&]*2*E=k*n'd[O&|,n&(&V<|&{&/&|,3*<*F^D=v=2$J&e&Y-L*v=P]-&L=B=7=h'b$v*!*O&W&p&-'V=)>e/F&k=v&p$K&9,^=w)o&i=o&1&#=,&v&m&r*7=>;v&c*<&/&E)N&R^.)T*n&z&J'X$Rp([g$D^y]H'<-c't^X&<*v*Z&)*w-n&c&x&G&(>>&H*l==6E#E#E=/&6*t=-;X-J'q;v&x&v=p$ ;n2F#N3Sp9,'$E)u-%'D-b$7=(&V=O&K&/&c'==5^k=w)d']$V=D=2/5^[^5$d> /Z]>[V=#$1^F#4^q'6$|^D^.$y<#8g{E%TpD]Up)^]$]/8'[/~/[/v/T@l/K$$$W@~,g#O3#{Y{T~c)D{l{m{N5C2U0VpO&N-{&n;b&l>`*y& ={#**`/%~L&g>m&k=Q&{&c)R#8%{&B8",
"&c-)b$x'N5)~=>,-y&I~e/~-2>-'I<m{(*k=o&p&c*I)f$Wph{@{n2o]P{j%E]|{#{H{~/M)o/.7y4]/n/q'+%y~1^-/x]-)0)6^--XpYpZpB6v$y*n^R^P]8%t$_e&*a$&*Z^a$)^t^v=l>8%G2n[:/`pr%l=*^&[ ^a$k=v=@-9/t-B$d*R^k)L*|&<*,[J'v=h't=z-D=a* [3&e*r;|,X9b&k=ha^*N!F)W0h&n0Ha^3Ub q1b.q>cbdTd+q6dvc8h]dnnQdZd@qRg>a#qwbEc$qop7bje%qcjcjXfweqdCp&q<d*qIp&eUc=q-q1fSd;q6d%q>q6dMcEc,q4f*qhh'qil)q[c!q8hme~q+e{qle]q^qde]qpfJe/qWbXgEeilEe_c(q1c[cZd_qQd}a.0:qL8J0r~^='&<q =-!>[{)Z-('7=*)P)C*k*W=-&Y)!*X]K&@=P)4&Z^%;2$+*|,b&/*e*(&n'O&#=q=k=H&#=%)T*r*l*y=&av&P<{&D=l*4&{&,*v=y&+*z-s&Q*v&p*N**)5$:&)*k){&Z^**P)E)o&p&L&l*[&X*V&t-v&z-6*,;V-/&X&|&#=L*k=k=d*n'h*v*Z&-;,>>;-;p$K&])t=u-4&},p*'=f>d'C*d'7=O&e*x&K&t*y=!*A=e/**>;O<F&Z&c*'&]&K&>;]&<*F&W<C*t=B=g&i)F&-&9,)&T*V-B$g><*J9p*V&C*+!N*T*b&%)+![q}q]^,3.$T)m3Y&K&v={>k)$0(&j'K&/&X]~)^>R*e&7-q{x]J^=-e/+^K&k=2*3*T*(&b&d^Sa:'o2-#I3Rpk=:,^>p&J'k)R&5aSaT*|&<&m*R*7=2$P]/%L=%)X*p*>;O^J'D=7$*^&/)^B^Z]%8{$~^[$s^O^O##$D5g$5}h]m]h]J]x]S*J^x^.4~7y<2{9'B^=(.#n!T@;'4/h5T~Y{>{,5G5l5A{o%N]#/{>0,-'Y)N*c*I&N=J<$$%' %M'm&K&d*d*)*i0|q`]Z]^61q",
"2q|,v=3q  c/Z=S=X&c=G&m&5[}6g8e{M*-;I*S*L~S=9;q/Z~!}a,E{p]/4<!j4[{Q^M)L% 81!*7C/4/{$t$I$t$h$h/9^l>(&N3e{n>C{h$;-k=3^+^D-t=l>N<P]$-l>d^[$j)0,d'n'X;%7%7z<4qM[M#2a')!/W<h$E$C&8%N&c'!*d^f&2$D=<*y&**^>p$h'+*^>T^T*u-C&t=O=^>d'N&)*L&B&:- /ka.)6,|a=[.)~a5q6q9b5bSb7qUcuo8qJp9qNdzh0qBb:cnnaq/cbq/c|flhcqJpEcdqeq%e8dZdPdfqBbbe|cgquoPc+q{q^d)q}chqEc]qiqjqOckq:crplqmq7dle[ccjBcnqoqucopjhWdwe<cZd/c]q|fcd0chh]cf}id9e'cuc}a2~=bt0z-pq'b**$-;[n&^=,[f&>>!*#=p&v&t*Z]<*kie&(&h&4&z-K&E)}*J9X*-'R&e^J&b*1&d'>;O&v*p&C&a$c=i=<*X]w)0,)*(&z&Sav&V-r*d*X&o&N*N=]&1&v&4&X&4*V&*)-'c=!&N**^Q<a$f&f&f&q=Y-N&|,y=!*T*p&/&@=D&d*qqc=v*b$Z)L=2$)> -J&v*R*t=]&]&p&N&}=L*H*b&=-v&-;P*k)_=i=j*)&P]c=7=L&h*P*X*,>}&v=#=<*7=p*<*p&}&c*<*b$1&p&Z*p&!*O&V0F=V*e*D&m'-)l*k*C*V*J9/*Z)-&t*!*},7*d9Z/v^x]a]G4rq/&:,c*~*>;3*f&V&=!T*e&N*L&t&t{s^M)e^sq+*k=**J&2$7=W]}&f&V&'&|{9'.{>g;&D=*!3^<&/b<*^>k)-[v=J'/*X*7$d'T*d'^*k=P<Z^Z^o$a^!/Z^-#~^a$&*h$R^Z^o/+4S#x^v7I/p'%$9$b5%]k].]G4 /i=O#4/K$g#D^E/$$]7l#1!F/o!y]s^W{@{!{@{([b(.]x#H%G4p&I&1=;&h*V&/=/&^=G/>[-7X!h&Z&5'3&K&m;t]1^X6r*`4",
"S84^1&u){#tqh&]*7=>;&!{~b3D=i)q{7!Q*g>!&2, ~U0P2r{[{K{j]3}-{Y=+>A^q4D5r%n>A$!%x7b):/d$3^O^+^L&=/!*53~]a#R/n>!=-4]^==8^4^P<`^1&a$D=8%X*R^P<8%F#z24}z54/H/uq>[b$l>O<2$G#a$D-c*d' ^b$k)d'X^H=<*C&|,>;Z^,&2*Y]P]**t=';c=Z<|&h&@-';%)r*^*L*f=x~g8L&O&tdQ0W-zhAa)'Mc~aeqvqoo=bnccj1cpfwq[c)qxqncyqrcpcrcTdncpcZ7zqAq1cUbrpnn[cRd/cnq^drc9bNbKe0cIcBq^3CqDqOc6dEqLeDcFqnqGqXgnn!dPdEpHqcjIq0d1c|c%e:aPpJqqb~cwc]cCq^caqxb5!Kq,e'c~cW0An+a/*f=w8u)r*t=P=R*(&i)1=<*_*u$v-k)<&B=E*<*u^B=L&!&/&k)p&X]3*G#-'v=)*V&y&!&k^|=/=v*]&V*!*`=)[Z^lip&W<7&#=B=N*y=z&y=f[v& *`&!*x*e^k=v&a*i=f&s&w=+*/&V&v*(&o=J&F&0=W&D--&X*!&I&l*Q&X]E*k=~)_=K&{*(&E*f&c&D-499=f&h&Q*4&C*f&w)G*9=4&@-|&l*-&u$$-(&c'h'J'y=f&T*+*L&J9w&n&v*J'X*n'7=s&k=T*e&!*X*v=r=1&^>^>v*Z&W&t=y=5aZ&9,R*9*>;A=`*%)|=Z^:,T&G&W|S/($%%#(N5]#z-!&]}z-^>>;m&Z)2&%':&d*l*8-C<f^]7=&L&}&&^ *R&>&u^b&f&O<Saq;Y{s^!0E}~^c=2$H)Q&H8/&l>W&Z)K&D=1&|$G#R^&*2$Q&^=e^I<k)M^~^*^t=b$,&'$x^X^d>Z^w)j^!$&$B7(^t$y<07J^]%<]G{4]G4>/]^y<B^y~l#E#1!1^Q/j/B^;'H5X/.4-{o>Q{/3`2T5g{|]U{t[<-H*-'(&I-I&X*('y/i)w/'-b&n&V*!&2$~;J5H8c'5=Lq",
"G!O=0,H9[{a5v*1*,* /N&h>X4-)H<k/u&v*:&E-Mq;-D]%4U{06n{V[K~<4;{<$Y/([,3M5'^M)n^x]o^j^5$Nqi)%8o^H&V~Y3`#z4h$L'.$l>]^3^[^}*9,e&|!O&9^l*w)}69/>[W4Y/*7w/k/OqZ^D-6/O^+^J9**2*&^(/c=A=^>F)Z]y=D-v&c*T*Z)=&X^L&0,p$:[#=v&3&X^9,S=kic=D-t=)*z=P]PqP-+a,c!b7'.[]&zcMap)W-^d=[7b9bD)QqveG!bd)e`bMbPd`bnbQc0q]cpcRq[dncMd4c;bNcoo>bSqTqubOc!dQc;bia6,>c1bUqnnW0NbQc|b~cPd%eVq~8Wq.bkevc,b<c)bQc8eXq)bYq^dap)qXbCc)bqcZqOcWb>ctd<am>@-6b}aLau)`qW'@^K<Q<I=|=!*F&v*g*w=V-i)9)I)c=t-P)!&z*d^v*a$}&n&9/z$*;W&4&(&I&L&X*P)v-F&3*<*v&7=.!V*F&U-!&O&o&I~-'@*<*p$e'I&I)`*`*F=1&o$k=-)6*F*!&D-R^p&S='-d*E*P]D-l;v*C*E*';I&d*k=^*l9!&a*z=F&,>e&`*a*y=f>V&X*&!X&y=<*5^^*O=-&!* rc=9,`*V&v*c*b$W)4&d'd[e*q=f=t=C*},F)-'d*4&z=K&4&F&U=7=V=w=D-N=k)F&P)O&t$f[D-y=d*e&#=<*t=c&-'O&e&I&Z^C&p$p*p&o$#=m^.ra]B^F#k/!]h^&=A'W&v=t$=&!&1&K& - *F&f'o>Y'~#y&&^L&_^+)c=<=V***e>5$+r_=@{9%=}2e==u%@rm*t^z=X***R#y=1&a$L)X*J'd't*i)4^R#d'>^7%#r9^7/]$t^~$d'R^c'8%t$7%O^#/r$[^g$X^j^d>9'q'yd$6m]L{zn@8Z^]7g$^^:/!/M)w/:/H/n!-(@7t]b%_0`6q{_4a'V/D46]*}G[s}k=h*n&f& *B=)!G#V/K[~;{&V&&4;&s'$rR#49>;a4",
".0R*Z)k^z~%rp&p&p*!&9*)=U[^*>;<>g)7={&f&_=[&V~n%G5c]t5ccF3|{2^f]]7[/v/y/|^6$;^M#y<|^&^!/x^>[k9/4T{18D<d'~-8%|!l>#>P<Z^3^!/4^a$//R*2^h^t=M#Y[M59%k/=75~o$X^A=-'>;v=)^t=R#E)n&N&V&7&F&d^-;J=)&t^j'k)b$^>2$X*t=5$F=9*X&=&2$(&p&p&A=fa'&V=^&~^g>A=+*#b~ap)5bI=Q0);W-W-2~Y0AnkaQc&r'cpc'c*rXqPcbdtd6d>btd*rJp(9xbXb]c^c=r-rJc>eJaLc_q/c]c0cnbndgcT0KqWb%q.aDa+qhlkd8d<chh1cycI9}c#q~81cJe!qOcMc`bLcBcS06b(c;rNc^32~*bUbvcmbR<Z<T<-/'/fa^6P=@b|&g)o&C&W&)*;&I&'=I&P*t=C*<*E*X&*-v=J',>L=C*B=],T*W&:&n'Z&m&1*}&y=p-0=l;@=~*+*U=d')*F&!*-)c&]&,*/&c=<*>;y=}=!*Ngd&k)J&5an&I)(&c&<=X*V&D-M&O&O&B&,>e&f=d*#!e&l*X*}&:,n;>rW&^=B=!*u&3&g&M*v*f*X*K&^=|&<*@)2*v*K&y=)*m'L-u-l;z-{&w-]}T&C*C*c*a*(&,[N*X]l;J&]&**C&6&|,w-u-3&!&z=k=c=s&p&Z^(&[*_>p&*^b*E*J'u^>;a*R#v&)>c&(&-)O&%=P*D-Q*9,&#`|g587z<s5K4|*7}8&w=/&-**^<&+*R^D=:&a-%(C^.4**,r'&R**>L*l>~=)>8/<*4&q;4{C^,{'r9,+!Z)O&a$E)>;K&p*5$>;d'h'M<i)^*/&t-'; ^'99,J'3/F=g^t=D-P<d$d$-)`]M^>^!/f^A$]$[^n>E#]71!O^O^@(j2K5^{M3h^[^-/>^.$E^I^)5V67%.}*7,3M5}^&6%}  >{]{p!e{%]j]!{q!-!1&C)X&U*X*.#6^=7h>]*p&v-_/1&0!U9o$m>F&%&",
"x!v*<*Q<t{$>b&/;{&V&z-O'3>%'x^g6e-u-~= *)rU!6]p!j]D5V2I]6[#^_]}^|#w/x/9$x]$/F#U$J^J^ ^.$f%z=>}6{P9!r2{N*~^j)i)Z^E^1^;^+^P<G#N&O&~/S*e&4^P2k]n!b,a#~r5$K&H)]}6^9/k=J[e^`^2*L=O&t^T*k)*&h&2$v&!*F=**L&g*c*R#,[r;t-'=L&O&T*'&k)}&+a'/P#g*n0v*Q=P]+=I='b 9N&P* =7'=*K<^6<'.b0c6b{rnc}cLbD)]rAbUbK0'cxbrbAc8qxb~ak>*bQc)c]cPc]cJq.a+qHaW0>b^3^37q.aeq;bN!]cCb>bPc.b/c}b^r=[_dGcZ<|a/rFa3q7eAaBb(r'bPb.)_raq*bNd:rT<t0>&&b+a,[0)Z<x'A=F=T*T&X9*&v*C*A=N*!*==`*$-T*t=7=p&p$u^B=]$/&Q&c'9,#=c=o&*)7=/*v=L*p&2$k*F)o&>*V&;!v*L&C*p&$-f&!*a*E)p*c=>;C&7=x&%)D={&X*S=;&t*-'R&]&y&/&/;p&!*~=E)V*p&#9`*T*t=6as&:,N*<*T*f[Q*V=(&f>~):&/&u-I)s&u'n':&y=&=&)c=~*X]:,V-d[(,^*^!c=J&/=<*l*z-!*N*6-c*d*Z^9/g>a*N->&(&';X*.*p&~)R^v*Z*N&)^7=3&d*|$W&t=t*+*&a=>-)<*W&v*e&7=C=X*U*l*V&n&9,@*O&v&7*&4&%kgkc|^!^&{<rY&-)v-0* *V&|=@=K& *)&g'+f)5b)H9]&/=/*N-i=s&~)T*=^d'u^~;k{n!13[rq=.*K&M<D=o$O&p&r*T*v=|&i=Z))&|&F^O&Ibe&~*l>O&l;Z]X^b$J'V&F=o$]$R#F^+^($a^u%a^~$Z]L#6$l#{$$8H<<<v{%]l{152^t^Z/s/a^8%<^O#J^w/4%6$v/`2m]1!A{;{Q{R{F5U{j]%]9$h*J&4,f&F=k*k/k[n[7-e&[&!*v*3&:'}]r;**q=Q{",
"E~8/'/R<c2%r8({&l*[&B=+*aa:7M#<#|=L=h!p$N*H-w{}^T@2]_4y[E8$$nlc%]^M/b5D^w/I^t$a$B^n9(^M^P&V4F{}rB6t^f*=^Z^j'h$'$4^)^ ^R#u% ^J'-'5*|,n^T4!4.}y)n[~r a !R^o$<&-&Z)[*c'ejG#Q*n&==Q<u^p$R^v=i=R#u^g&R^5***|,|r^=F)k)7'c*E)D=D=**8/u-%'2^w)g*t*>bu-1r5=>&P6z*m>AaK0rb2r6b=b--8d2~=~Mb7bqcY0~aNc;e(99bqbi!0c.-6b&rk93rmj4rPb]cAciqoorh=[hqK&W-w^^rY0+qsb:a.b<a*b@^5=`b5r6r7r:)8r4)>a;e9r0rarbrcrnndrerfreqgrplr'>a~8AcS].qx!6q|-0cI'k!2;1'hrq;t=_>_=u-h'1=w);&C*]&(,O&t-a$y=z-o&O&2*b*$0-'F)T*e/v=V=f&v&K&Y)R*C*W&w^C&2*O&4&-&H=w)E*Z^{&;& *'&1&B'}&A=R#c&]$b*{&:,x&1&C*,=R#1&O<E-P)Jbd'N&C&z=^;5*m&]*F~T'r!2'k&q;~;C&W&r*T'g>A)P!3-P*B'z!:-]*l&z&5&v[|=@*:;v-G&G=R<Z-y&e&h'P*F&p*+*c=d&W]>>c=a$p&T*A=>;)&{&Z- * !v*-&~&'&1&K&a*,*f*'bv*$-D=q*E*L*3*@-,&W]**N*D->;>;v&i=<*d*v=B=(&|&^>/=4-M)j#F$h{ir)[)&i=-;c=6^B=m&d*O=:-o;#8b)%;M&E*+*9=F=(&Y)b&r*K&V-p*$]E#a{B|1&-)-'5$t^X^i)w-R^z-p&//X*d'o$w)C*n'o$ ^c=<$.^]$9/P<v=a$2$.^&***H8V^Q#0/;^*/]$m^x^x^U$M#z#;^B^{$*3b6]#C{4[i)h$#^g^*/|^E#]^s^07.7x<)!n!l{97j>t{T~k6jrT@@(B6C-!;#=k*/*2~P%&/L%h*g>v=z=g&n'v~N5)^R#`*E[",
"&9L&4^S)86krN*6*z&W&o=w*aaT<P<m/G=`*2$l*{*+3_{Z$}^b{244{w/lrz4X%$$F#:/[$g^.$9$Q#d>g$1^^6Q~4{$$.>8/';|^I^%/u^&^ ^>;&[%^p$%'v=p$k=%']9Q2z5w7g$S@mr6^g^-'o$M^5$2*d'!*b$2*d$]$t*<&T&+*L&;!p&C*F&Y)O&c'Z*z-t=|rG#7%<&@*M*2$x'O&k=r;L=<*}=L=m>k)L&T^%)/*9)2~,[nr^=b&//L&#=O*9&P]!bX0,eEaAa0c8q>crc!b)cJ09&>bPb~c$bV0>a*bCbhq>bK<EaUb1bQcPcNd)c4b9e--hkqcZbk>pcMc.36,E5y2O](4>{orprK4qrrr[4_4g9o;X[3}C[zn3}b9srP4s{]{W~trtr`4X4N]H43}L]|{m!P215;{/-Q*8&5$V&F&v&!&D&J~|e{&J&{&J&d*P*J'V&H&K&t=c*V=T&i=f>/;c*<*]&z-;^/;%^!&1&u&D=2*(,)&w-O&N*l*+*!&N*R^@= -w=e&;&!*-&J&F&K&e&b&m&H&2$k=2=(&(*Y/p2E;G[r[v2:5Y[j}>}T[Y[j}W46[P2H2/553T2/5L4F3z2y233G3H'33H4 >t[>}[36[4>t[E2w<'&X]N&Y)N=k*Y*E*X*-')&d*)*c'},2$u-E*c*c=3&/&b&-&#=i=d*7=-&v=E*]&}=~=/&;&N=;&a;k^**Z=t-T&I)p&#=D=u=K&2*K&w-F&7=]&}-&#]7v/T@r[j=p&<*^>[*7=/&B=k)l*g;{0;^1/!*+;K&{&L&v*1&#;z-1&p&5$%~O3]7X~krt^^=B=E*R#w)d^o$&^9/dbd^g&t=SaO&M$naB=E$Y9D-]}w)'/8%5$K&&*P#5(W]7%.^D-]$P=&^9^:/&$D$J^j^*/1!8'.7!/![E<D4c)X;';D$d$n^s^x]2{4^Z/4}k/T@Z'D/.(Q/%}){){z#]%b5Q/:&Y-p&L~c*!&*7]^y]A-*[d*i&-*C*H=G5E)P<*-A{",
"s' ^)/m*t5urZ&K&1*]&p-u*s[G#i)p!2'l)/=D* *7;{{x7;'M{vr,39%*7!4w/b5&#I^J^D$2$.4*/x^,$[*I2V{([k]`^Z=:/P<N/t$d'!$v*M^^*=^+a-/2$*^za~/I4$5b5M)W$wr<aR^m'`]X*H)2$R#)*x^a$S*O=u^D-C&n&9=f&]&)*N&5*==L=]*(&b&}&*^)^#/@=/&,*b^a$|&/*L)e-}=k=R^e&**xr.)/*~*^>2a,[J-A=`=L8Q<O*.)Y0Z<vc;[Ja5bm>K<K<sb=[)brbnn2ryrK0Z0Da{,6btd`b)beqg&J0uokaZ<p)('=*(')c=b+qEaD~ =LaA-[635zrArN6Brv0M5CrDr:8Id2{2{Z9u0z<z/ErC^]^&#1/:^97u7C/4^1/4/(^[8X8B^2{{7q'%8W7E{>}%;i*l&,[-']&P=b&'*l;[*V=**T*c=/&5$<*v&>;f&X],>*)D=d=Z*^=<*H=Q*t=t=.*$-7=Q&O&%)|&Q*(&n&N-X#>;n&[*2*c&y=H*Z)v=N*(*p$K&*&/&u-K&p&c'1=}=d*P<U3T@](4%|%Fr4%K$Z$U$=7u#i#l#D^[$]7{%:/z#&##8r%W@w/{$1!M/K$6$q/.9'!n!F#r%o/;'h{o;!=A=t=L*d*J-O=p&n-`*>;(*a$c=]&z-E*C&v'z&i&Gr!/~*F)u-!&A=@-+*c=n&y=b*'*C*6&H*<* *i):,Y)V&t=,;(&X&W&V&Z&P*9=J-f>g&L|I%z#878{a]p-*>u-[}V=k)q;1=;&(*<3[^%%}=v&V=e/f&t-v*2=/&~$`=N*O*  d253Hru$J't=p$N&>;O&)*/&,;p*D-<&F&p&l>&^,>b$/&O&K&5$)^&*(&P=B$9^5$l>>;=^P<9^}6F)]$+^4^<^9$g$f^[$D$:/z/L/1/30`5m]+]<5b&7%4/g$0^L/b)[/]7[/%%G/x6~,z5IrH{=6+&T/$$(^4&m&n*N*K&.-V5#/<0b/|&@*_>{*D-Jr[{a$7$I=r<",
"T6W95$V=6]Krb&c&O&<;)&/)P~m>d'v{T6^*h>m&K=LrMr;#M)/{Y3x)Q/_83{Q#.#A$A^]$;^B^h${$;^Ga15%]x[V%t^~*J'~^[$ =e^5$d^Z)d^:} =d^o^i===(aI4P9g$O#@#Nrh$z$e&Z^w)c']$2$,=W=J'X^k= ^V=z-u^q*t-V*D=O&:&O&^*,=-*<*g&b$'&)*y=-!)*b&v=+^(&g*m>m'%)$-2$%)F=w^N&('sh+=<*X*)*Maw^J0[*V0V00cW-^=x'!bUbI=onW-F~(f [Q09&9&h-L8]c5bk9>b.-Cch-.-Orp;0c>;>&Ma,;#=^&5=W0Z<7=@-^&';h-I2%6Pr6$q'O#t^i8ob.4M$]/#^h/)5>'.4x]f^g^L#0^7$3/a/Qr-#B7y~=^./(^C^A$9$&/Q^4^8[##<]r[R'[}>;b$p***wa>;A=5*2*!& *`&:&w&;&**{&C*N*p&X*e/V&6*h'~)V-p*W9`*,=k*-&$-b&c*d*q}E$H)c*C'#=^,<*9^{&9-]&]&t=d'#= *V*{&SaD=<=Q&X*B=7*L*N3<<d2^%a%b#L#x^y^l#b57$D^{$z<O^v$b,&$O^_8:/O#E#[/($[/Y7 /:/6$$7K$+$h$d2Y'.$Rrp'T~v//)m&C*C-B*`*V&D-X^}[l> -k=v=N&K&X&d*Z&y=l*f&>;:&B=>;-)g>*)J'+!**v=>;d=Z^9-[&C&p&y=k=o*4&c*p*1&!*3*V-7=v&d*v*|&%5N[.#[$42XpM-E*t=z=_*;&|&|&)&j-Srj^A^>;o&==O&;&)*V-d*5bS*D-g//-|{!^A{TrE$:,3&a$u$-){$/*%')9)/W9e^V&5$L&F*o$E=d'a$:&F=)^>;m>T*O^*^p$J'`^0/.$]$h'W<0,7%h$d$J^J^//:/{$r%9^y<1!c'30.(x[l{U4**l>;^[6-$y~z#;$]7@(](<<Z$##L5T~k{u#1!#7b5V&^=3-t=~;:'](2$]%z&%-fa3&;&t$|*Ur~^Vrf&]4",
"*'X^+^t^${Wr@*>;(=:&v&n*U2^=R^']/;I&9*@*N*XrYr+&A[f{2):/M)+&H/.7W$g$g^P<Z]s^@8u%Bav3e{K#V59'k*994^a%d>%'**#/`]#/0^^*t^P<2^d'~9x2'![/]7q#u[t^9^)*x^|$|$a$D-e/R#O0O&%)i))/F)I~h'<$<=/*K&-'y=p$C&(/v=X*3*J[o^*)7=(&d*P*l;b&V&V=y=.)1&`]V=^>O*k)V=n&4!~*<*+aP<n0&*GaW*d'Q<J0p)MaW06b^3V0K<Pb =6,:7^&h0kaZ=M=B~W->b_cHaZ<^6>bU0p;A-Y0`=Zr-!)*a$W0+aH98&P=fa[*y[`rD$6$V5)4{$N<X6#$ /Z=a$,;|&V&1$~*X^hkN& ^w)t-}6pbe^l;o&m>N*S&&*P#-'Z^P) s2$]0&*0'n2w{/-U=G&Jbf&v&e&**w=/&`*F&o&d*,*F^k=v*=^p*p&D--;/*z-X*y=.s/*n'3&B=E*^>z-]&F&C&D-_>y=<*+*P*Q&]&N*)*,*e/)*v&p$z*>&H&d'!&]&B=J&:&z&P<|/J{9%F#+s@s$>#s7)$s%s&sl}*s;1!g=sX|-sy1;s>sab,s'sDb)s!s~s{sngfggj-g]s^si1$4>8o/{$s/s[X=l*(&0*O0p&c**&d'u^O&U*7=l*E$i=f&t**&c'6*V=t&B=a*X*!*:}g*7=>;r*%;*)P*n'/)('==]&=&[,X*v&z-(,7*|&y=i=}=L&V&#=~*)*c&k/y<i$a)R9z*K&-&L*+*i)]&v*v-/sS)D$ql !h*d^Q=|&R*C*<*C*{^h=v-R;x]75M|>;4&-)+)L&e&/&K&,>R*5$F)J^d'u-J'i=d*E=D-J'o$!&V^b$[^b$7=w)1^8/4^F)O=H<T*8%i)7$8%!%:/A^L#4/d$Q#D^z4L#U$t^c2j]<]8]H2T*h^h/O^J^4^[^:/eal#y<9%p'i]y{8]1!C/$$|7I&z&Q<I&}&a&<2^^H%o'T&-'[*r*p&e-m]2$h/I-L]",
"G=E=R^R#m](sJ<0*r=c*X&3-ta(^E=<<c!^>X&H={-tou{P%*7@{~{y~<<M)4%+8.#J^U$]/7% %q'J<z9n2C6%#]/s-$^I^f^9, 7u%d$E=-*>;i=!&H8M^1$.9Q2S9F#b%Q%_sZ]z-.^f^d'u^|&u$m>^*F*k)z$I&t=c'C&n'9,N&R^T*n&p&u^/*R^D=7=7=J=L&F=7}]&-; =I&d'd*X&t-t=:s>;_>X*o&<*y=S*)&t':7v*T=';Z=P]'b/*/*r~_>g*~;.0T=,;g8HaSb/*>&w~'b);P<Ja'&ka-!&b+aV8M0!b5b2~'bfa;[u-ha =;[g&ka)*_>R*Q<v=<s[sN6M/]/&6}sQ#b5K#,$z#N#j^E/)$@6,$|s;cs^S%P$}(I$)$^$1sw4`#$%j#2sr%t#-#d#3sN/A#4s~,d#y~h4(9E*y=n'%)K&b&i*t=y=N&]&]}|!F),*X&<*v={&w&p&,*c=b&|&A=Z&C&L<X]d*<*}&d'!*N&b$C&2$e&l*e&F&1&O&/=1&`&l*<*)*<*N=`&;&P*`*e&O=W<R&F&5sD9X'v$!#|gY@U$z66sr$Z$7sj#*^1^8s~$R^]$S#%/r/39v#Q$4#]^~$s%r$[$/%NqI$=$L#*#E$4^9s1!4%0s`~v)_=t=.*H8(&F&B=K=z-l*h&r*C*_,M&1&c=1=b&/&y&Q*},k=2=2&k)O&B=(&v=,>X*Q*9-e&v=W]u^[*C*_*O&c*I&B=F*Q*b$r;v=(&1*e*<*E4S%!%,3&}1e/=3*y=!&as'*,>bs.{(^!%a$K&V<]&b*@*>;l*s&w=t=v=j*<{L/E3cs+*d[-'A=v*-*a$a$e%-!Z^v=2$D-,&:,,>/*v=O&R*>;]$X&E)v=i)e&4^X^ds}61$P^E)w&7%g^j)S*A$}6<$*^*/1/$^o/1^C^]7D5R^H]z~66esM3{^W]X%E)y^E/i#j^0'y~w/l/z4!{;][/O/*%M#3&c=c=x&!&w)S/)5@&7-m&h&.)A<v*tdB{*^P#L-k3",
"m~d^t$;9e{fs!*7=`*s&8&7*r[m>7%'4S-Z&`&{*K-Xr[>c%x/M{Y~([-(x7Q#m^*/l#E#2$c%8%L~gsd4T@C/2^m&(/[^~^E#{^a^#^t^p$p$B$>[d'G#Z^Y8u2m]u/,)@7[71^R^Z^d'o$V=o$J'|&X^p$)^|$R^.^T*1$(&19|&%)k)5a<*z=6*~^)*t-F=e*2*D=R^X#T*K&b&t-T*K&E#S=E=!/#=O&*^)*7=*)K=)=^=z-'&(&F&G9P<^>kay=t-N&=>(a%;g*M=Ea.))*>&V=!bn0`=>&p;apg*,;-bMaGau--[5bki,;P]Z=wa('.)>&:7N&3bOaAa3&6~x4`26$$8J]hsZ-a$V-l*>;F&m&A=p&P*P<~;)&!***F&$-R*C&/&&aw)_&/*p*z=>;f&D=#=p*O*|&:,O&`&h$|#K/Q~i&V&7=p&T&B=O&p*v=z$3&2*d'/&4&d*c=A=Z-R^^=O&t*P))*-'1&;&w&>;i)q*!*V=;&b$},L&X]<*)*o&)^d*P=!*+*{&6-|,h'd*#=[&t=X&z-f&a$c=`*ki`36]&$A^s9u&o$X*N*r&y=3*J'd*{&k*Ib9,:&;&c=f&r-0,:&('X&L&w)x&v*~=<&r&3*`=n-N*~;E)isZcr%js@{,3d*r;)&-&<*2*;&X*2$C=b*f&<&<&{&R^{&V=Z&@/O&v&%*]*D-a*~*P*2$E=1*n'I*1*C&E=v*E={&T*n*K&]&(&]&y=d*(&t*/*0,N*w)N&d*p-H6:/g$P5^>L*[,p&u-k=('m)b/ks%$-#Q<6*t&@*1&m&X&-/**E*L&(&g) ]&#o>Q]#!b*t=e&**v=1^2$d^J'>;;^T*V$H=l>Q&e^D-v*/&';z*A=T*e&R*2$E*F^&^>[1/Z]D=r*2{==R^t$O^W]!/u%5/q'~/4^8'2%|^{$K$]/o{e{k]l5D9ls4^,/h$,3:/y<1!}7Z/;'Q/|{246$D^p'*/Z&4&V-p&H*}&0'Z);7a-`=X&t=I&(!(9U{V=W]h&ms",
"R6V&4^|a<]nsJ'f>69t*Q&S!D;R^0)u}_-^;l*)*J'<)x{K/~7<{i{S%$7%$Q#h^Q#9^D^t$7^k=B]o]+]K/C^I=d>($(^9$!^&*Z]%'I< />'|&d>*^a$d'p2P%T@g#K$W}:}Z)==J~k*v$e/1^/&b&@-J-N&*!v=,>F&]&**F=F=$-p$R*N=+***X*7=-)b&e^:&-&y=z$v*9*T*p&(&B={&//,;O07=^*B*<=f!K&~^;&L&shZ=2$C&[*{^:7k)Z=X*P* aI=r;}=^6f0I= =,;/*Z=P0os+a`0*bE!+aI=A=Maka+*V0/*&a.-`=.)('P]^&u-k*^>[*psz*9/h{s/O#@(p0u%-!e&L=F)E-R&&a}=#=g)z=3&+*]& *.)W& *W-b$A=)*S=7=>&1=t=1-u-(&t=P*d*Z=v=j7%(E#qsu{ 8i=t-L*X&h&X^E*J'v&t-D=J'{&T&f&#=7=7=5$O=o&B=r=N&y=*)Z^r&W&{&f&!*v=V&{&3*1&7,z$s&F&]&n'/*l>z-]}-;c*_&Z&|,&%N&;&s-<*`=^*k=h['{<2l#X~rs,&b*$-)}|,V-a*6*x&m&t=2=z-u-e&b*s&:&b$Z&V&Y)E*#=k=)=N=*)X*1&l*q*V&,=<***6*v/v/)!V~&-sstsv*E*C*v&R^C*v&A=C=C*>;},<*@=4&h'7=!*C***9,9)B'C*}6O=~*C&Y)d*)*'&U&X&W)T*T*;&1*7=/&O&V*M<7&@-^>c'i=T*^=b*|r5&](U#*78]Z-{&p&Z&9=^>W)H-p4O#E8Z^Y*{[X#r&p&W&1&l*o&o&*=M==6N/o;usu^A=^*>;i=b&<*R^**K&}&M</&2$u$Ibk=,>Z^F=+*J'J'^>D-X^>;Z^a^l>**==}*N<9^&*2$2$=^H)b$a^(^4^(^7%(^S#[/a^*76$B^Y'&/|{o5T/vs$'!/2^#8{7:/Q#q/b5g$b#s%){%{x]y<8[d26*C&b&5&wsQ&1!7%xs_-<&`*#=|&/b6,e{yszs|&}>",
"i>*)E=z$6]!1d&w-d'Q*7=n&AsV=E=l57!_=K&7=N=r}8{b,o/*}8]w/H/1!1/;^%8x^h$x^|rE]~{V/$$J^]&!%8%3/&*{/E$M#(^8%k)7%~$b$z-5eR*E2)]*%@(P9cs8%a$M<k=x/t^w)z-b$a$Z)X*X*=&V=E$9)D=z$v=v=y=!*-'B&D-!&K=@=Z),>B=y&p$O&Q& *&4p&**7===<*/*1&L&t^N&0=(&D-k=P*1=T='/K&'&N&v=(>>&O&|&.),;9/`=,[p*X&3b`=('V0g*';%;@)z*Ma~;*)=b;[f=>&P0lk'&%)g>V0.)'b@-W],[3*y=d'T==- *v-|5z5%%,}n$%!j&e/';V&3&e*z-K&U't=v&/=Q&P<v=X&I&~a+*u-l*h&<*N&1&V=<*c*k*b&^*3* ;>;]&P->%Bsy<f#+&zn`<@)Y)|,]}';}&<*<*o&19|$h*Ib3&G#<=2=!*t=X&`*/!v=T*V&S=I<D=N*)*p$(,v=U-P)5*H*K=R#p&a* =m'3&:&w=y=K))*E=f&S=JbE=!&z-)*3=j-#{&0B4;^l~T*`](&-)/*5^:,|,C*)*d'E=CsX&d'X*a*[*s&h*;&x&[,c*u^g>(&<&_=Y*K&_*-&Z&F&J&#=Ds-fw/v$l5%7u-';F&a$v&Es<*0,v*$0v&n&{*0*(>C*p&c*b*C&y=p*b$Y)y=:&c&u-N&)&#=d-v*p&Q&i=_=g*<*w)5&]&B={&V&Y9]&<*B=I)c=!*n')*y=7ao[C/x<03L'y=`*z&E-('x*Z-D%7%](;[z&}~o=$*g>b-S-y&M=%;!*h)a]1!v4cgk=T*k=O&d'**&*J'w)X^6^#=}&c'c'v=@-&*|&E$R^';E=k=o$d'M<Z)p*^*|&D=i=2$w)z<8/o$9^o$7%4^Z)8'P$2$4/8%q'Q#E#C/E#.#:^T^a{>4q#L{v3X6J^5/ya1/o!P%:/%%~9J)u{F#b)G6O#%=I&~=>;P)w8x)~946/}<*v=F=m*-&h&#6~/i=(=E[",
"ro2$V=T^a]w9:;c&3*N&U*u*Fs-/X^d]Gs_=(*c*b^Z6T{+&.#){Hs:/G8Q#x^.^s^}7n$z=}3|{B5|#A^$=|^Q#]/~$>^9$|&[^G#4^E)&*=^b*%'^935N5b5N/l{Is&*D$F&u)g$O=t^M^!/y&X^D-O&m'R*k)u^R#.)D=<=O)E*f$F=9,%;N&2$p$/*,;},w)&^c=W<!*==e*A=';v=<*e&a$5*@*q=p$R^2*H=n&{&b&O&N*e/]&e-)*N& ^]9)*O&9*J<u-f=_>';k)}=(&#b.)h&=-`=h&h&^&]99)y&I~q;`=xr5b--C&O&/&Z=Z=~*v*-!K&/*O&N*s^JsQ#.7$]g7D)n&*),[;&3*~* -*)L&{&|&C&/*k).)m&e*f&L&#=_*3*7=$-5&u-y&>;<*<*!&n& !Z&Q*ki1&KsLsf^[/[>E{4,y=v=<*u-d*e&(,M#c=c=**Z^N&z-X*-&t=V=Q&E*|&<*==a*k)_*H&y=/*X]V&)^E=&)J'f*-)D-w=k=c*<*!*:&>;N*{&~=F&(&4&p&b*;&>;i'U&w)%&U$:/UeMsr&Q&f&H&<*)&O&R#c=g&N=d=k*v-C*u&!&I&<*V&_=Y-f&L*A=7=0=U*J9v&%-<*<*:,3&(&U*2}Ns77O#s/H~T':,)&<*!*e&!&b&t=c'X]p*l&`*L*z-[&_=`*7=f&2*a$]&{&1&x'<&<*y=I&d*l;z*;&F&,>!*f*W=c*/*c*f&g>8&B=l*`*p&P*<*v&h'H<a;n%Q#Osp]D*s&q*L*B=b&v&%~O3~^E^}5A2>}r[|>P2 >Z44[p2Y= >z2V5,},{@4-&w=-&o$ *E)N&o&%5d'e&^*R*E=E=T*a$ ^0,|,o$Z]v=e&t=t=m*<*s$Z]&[2$d^t^D=9^Z)c'4^E#Z^o$1^t^I^8%]^h$&%P$]/~$&/]^5}o/[^<>y{f]e{R7-'k#z<B^1/o!A#M).$=8q{g$l#1!S)e=(&!*p&#=k9Z/R#J#PsH&Y-L&g>V=Qse{9/W]&4n6",
"f- !d>`]u{RsQ&H*=-/=C=Q=55u),^']!'+=/=Z&H&Ssr{p'v/6]r{C^j/7%.40b%%E$e&u2z{Y/l/*^,;y<l#s^l#k^l#d^Q#k)M<&4Z]9^e&z$z=u2%7Ts1/n%+~!9(&]$a$R^&4V=2$f&R^6^g&T*E'Usy=T*e&J'y=}*]$T*R*a%r;-'v*>;**f&L*H)v*)*e*O&(/d'V*}6D-e&9=g>d*(&h'Z=>;T&a$9*K&-!5&c&h&';m&;&k=^>/&}=N&;&R<('z-c&k9)&w-$-';!*^6!5**}=5=u-k),[h&=*h08&.)(''/('}=fa-'t-<&i=(/@*c=%;X*Zb!;C218F$n87;#%t=(&-!L&T*)*k=e&'bh&*)r*(&'=6*t=U*/*Z)-'h*k=T&I&L=<*)*'&U=f!F=o&R^=&<*X&_>f&D=|g$#1^b%q{=&]$Z&E=-':,1&b&2$t=>;K&D-N&N*+^O&^*@-v=P<==w-F=f&;=R*(&b*!&B=`*U=.=o&T]**v* *^*E*|,Z)p&K&N&X&,*d'|&F&k=s-X&n'm&|&Vsj3v5l#[/v11(~*F&3^p&A=Z^`^-&/;|&$;G&W&+^ *O)v&$=<={&k=k=c=_=N=c'9,z- ^{&]&-)c*D&g>}*e*},d!J#y<|#.}K]WsS=F=!/c'M&3&L*X&D-P*:*c&]&t=F&V&v*N&-'V*N=~*7=S*+=#/%=2$d&{-L*y'b&t-d&t*t=f&<*Z&X^v=O&p* =y&c=Q*x&e*b$^*#=,[/=Zp$$k4Xsc=<*F=9=J'N*[&-3lc sE/)5I^[/y/&#1/o/E/i$O#&$x]n!]7J)YsR#g/v*l>d'^>f$l>d$e&p$u8R#D=-',=-'X^v=B=t=2$2$(&t=(&9/t=v*e&u)8%`]u%W<%'0/l>==p$4^z$V=0^9$h$.$r#-/.#u%#8*%y<T@O#D^x^`6h]66U{Y=P=z^g^s/x]B^n!x]>{6]K$D$S/9''=C*p-)&C*,[c%*^j%);c*m&q;k*s&m&$]o$B&F~C[",
"&9d^4^Z]_{9[v*C-p&c*P]_-E9l>G#'8b/:&1*v*X&7;w<z#y~|{V[!/n8!5B$4%%59bp2']o^G/~^L&]^!/D$~$.$'$u)($2$&^R^&*H)k)2$=*O;X')#b)D5E})5w))^b$d'Z^')-)c'O=L&J9<&d'D-C*-'D=v=~&t=~*D-d'Z^ -u-X*~*+!p&t-,>d'Q&|,e^2*c=>;Y*J'v=d^==^*/!|&X^P*P<c=-;@-v&y&F)!&f&(&f*;&u)k)i)F=k)_*n']&J~T*v=h*'/'bh*~*I~1&/*Z<$-V=/*}=N&$-)*L=W0';N&p*%)#b**p&O&Zs =>;**z-5)z-v5U{ 88[3#`s`=k)F&O0*>Z&`*]&e&U*]&|$S-5*!&X*W&)=l>K&-'o&f&K&N&c=c*N*X*p&c*p*c=B=V-|&)&C*9,k=v=8%;0X%|qH'<-U=9,>;1&V&V=R^K&v=o&c'J'(&)>T*&)Y)i=N=f&J-D=-;O<f&R^d*>;e*v=#=v=I&t*-)D=^*/&K&-&T=<*!&`*u-J9d*z-c*Q&F=k*`&|,r-=%[]{$J^ tr&A*7=Q*y=T*3*(&>~O&[*3&k=8(S-_=O&b*c'E-c&k=Z)}&t-i=~*+*]&O&V&O=S=-&;&>;T&k*_*J&S#.tu}b)M)m{#!3&N*c*C-z=2=d*c&T*K&1*]*d';&F&L*>>;&Y-E*F&2$|&$-i=)^-;1&u-T*=&:&H=q;Sav=}&C&c&c$c']&/!Z)|,<*>;!*X^t*p&X]J9t*^f&6D$]7u&s&X*7=,>/>#=3-Z~,/ sN^[^]^n/o^b56^9$)5/8U#_%8^s/M)o>i2)/)>e/.)D=P#**N&o$-)b$t*o$d^2$p$1&e&>[}*1&-)==T*h/K&v=v&~$,>x^W<a$k)Z^7$M#&^2^P]&^`]^*9/8%%/z<19D^J[v^*^!^t$O#6$B^M)[^C]y{w<o5W4P]8'B^K/:/:/&/T~30a^A^p's/V&/;#=@*c*u~F#}*t4L!|&&)P)k=:,q;r]+tP<=>V2",
"_~)^m>;^&]@t@*C&6*[*[&(*#tb&6^80'-V*]&+*_*+~9{$$9'W{J{O^%%(^1^t$@-W46{o5l#I^Z)a^.#$87$g$H8x^]7{/4^z$2^w)R*;^^>>}[>r%w/n{$tL#c$g^-'L&}6<*z$)^k=A=)^z-n'-'0,D=k=T*D=D=V&D-S*X&%''/==W-P=[*|$g*p&9)1&9*R*(,1&<*4&*)E*y=C&C*y=~*>*c')***C*u-`*K&/&T*k=X&V&D-F=/*Z)J~d*{&P=/*Sam&d'T*k=--N*(&[*';(&'&@-|&[*#=@-b*e>b&'&p*z-Bat=m&K&m'%;)*V0|2d&J~R&@*(4,8w7Y',2E$u-Z*]&+*)*;&O&(&R^,*d&#!#=v=c*4&z=Z*X*<*n&V&L-n0**='y=f&v=O&E*n-<*V=T*n'c*Z^B=b*N&}g%4%%.#6]l8_=A=jl:,D=A=<*9,p$G&o&+*v*>[<*n;1&1&4&Z^y'i=v*4&(&i=k=e&7=V&s$)*,*|9V&v*m&K&C&F)r&-&n')*u^X&F)`*i=V=O&y=!*E*z!z21#07d6R}';<*X#>;y=Q&E*K&]}(>p&7^X&-)~>J&|= *O&d^!*c'D&W9e&V=C&**E*C&K*/&^>:&W-/&~*:&o&a$[&E=N-[/.}JdK4r~c=!*X*w&S=n&o&c*6*:&/-l;u&e/)>V&|&!*4&K&N&I&o&)*B=0,%;]&N&';C*k*D'O[Z&D-T&b**-z--&y&V&i=]}`*3&Z^<*H=:&m){/%tZ21!%%[|v=v-X&L&y=*)>=Z~s^B^G=&t'g*t=t-tgjR}21Lg31;t>t~,O#80,tE)v=p&A=N&O=D&d'k)Z^0,D-P]w)_/v*,^n'`]b&c* ^b&i={^z$d*T*},t=1&7/t=2$b$x^e/X*2$&^i=w){$4^q98%J^'$Z]u%%'1/1^O#/8[/]78[C^q't{-]j6P{E2q^i8|^&#E#t^-{a6]$g$G/%%c*+*-;`=b*;[D^E)`%N=K&F)/*v={&='H%lsA<N&'t",
"T6w$%^H9e{@4'=%='=p&r&}-U[d$0/@>)t!*(&c=_*o-H{nl:/i{V~ /8'9$}/z#!t_{76@6,)V&d2t$1/L#M#8'O#2$`^7$!/}6a$A^v=X*Asw<1!x])4^ff$p$k^J[D-P<d^&*l9**e/R*V=i=h'Z]%'J'X<O=N&-'|&k)v=1&(&-',&l>v*l*E*u-t*T*!&;&^=p$-&:}c'v=C*J9X*]&k=>;(&(&k*F&C*c*)*'bT*A=p&[}^>{&A=e&V0k=^=J-u$w)>;L=m>X*V=8&V=W&`]b&I=r*^*I=>[q;-&.)y={&N&p&Z^';h&>;Q<OaO=@*w8^*B=p*u*H%^7)58'I%{>='n&p*L*$-l*|&V-e*`*Q*]&N&#=)&7=|,I&]&>;Z&/*{&D-<*:,#=b&R*V&w=m&-'X]q*z-{&%^5'F&f&>;L#e>9$~tZpU~}}d'F=E*r* ^B=f&-&X*F*h'f[)>}&Z^,>k=v=v&Z*Q&<*f&D-V&<&**C*<*C&~*R^p&v=~>Y9/&l*Q&a$v=e[f8V&y=I&`*t=<*y&`*>;1*`%{tS#js]tdcA=q*p*9=d[N&S=)*J*-&i=o&<*f&~*S*f&D&L*];R*>;f>U*(&2$g*D-s&v**^v*+;=*[*r=+=6*~=S*N*D&WrY{]^'!#]^t.!v*:*w=K*!&d*(&)*-*Z&:*q*+;d*Y)k*D&C-w&p&q=h'>;(&F&/!q*g>2=p&1&:*9=D-z&5*:&+*/tf&m>d'p&w-F)x&v&z&k=7=|&>-6==8B^h$osN*v*SaN*4&9=h*=8B^5/y/T%Z$y$H#E/ #(tx$j#_t'()^l{]7i{:t}=h'h&!&p$q9==C*R#)^D=J9)>X]a%1$G#c'>;e&F)[*]}-&0,v=[,b*]}:7]$n'~^]$n'5$D=T^H)P]2/+^a$L&5$')k);/J^&/4/h$!^&/[^g$g$&$1!:/[ac{t4y]u{Q2$^g^o/]^X^60=6&^4/c%(^@!k'l*:, =-'x]-/([Vs$-W))*c*&)kis]|rc$k=`~",
"e!r$r;9/y]<tQ&0=_=V&3&@~<3o$h^j/2-*9l*O&N*o'Q{d#6$E[U~[69^W/Q#E[a])!<<r%)&$8%5!^J^8%E8t^M#*^h^Z^h$b%!/f$[tj}x{C/b)}tx|@/&^2^-^*^V=&^d'E$**!/p*==($d>h)l>t-w^^=t=2$D-X*X*W&%'1&-;t=N&T*-'h')}w=|tZ^h'b$W<_ee*>;2$^=v*y=f&:&//-&e&Q*u) =t=t*p&E)>;'/c*c']*`]|&v=r*_=L&9/Z&#=%-p&f&)*,;g^v=>;n&@-Oaz-3&3&d*C&)&P*A=v*}=L&c&|&=>e&[*)*v*L&`<p&**R<1t-7y~<<X}:,t*E=#=N*T*0,L*V-[&+*k^#=]***#=)*n'P*t-z-X*)^)*g*_&X&2$f&(&-'e^B=(&F&N*g*l*R*T*I&@=1=N*J|Z29';/a]-7N*r;M<*)<&]&c=)*7=9,^=D--'D&I&T*p$C*>;l;F&~*F)*)N&v=t=>;T*c=V&]&-'p*@*y=T*0=>;K&y=s&g*~*d*J'r*-&{&n'f$p$('+9n!&$~0/gf&_*T&,>F&)*v=~;**h=5$f[G*p&!*v*`*c*v*Y6d*L*>;d'f&;&O<C*_*Z&D={-(>(&;&9*>;|2)&},e/O&V&J'<-,}Z/z/U~u&#=c&i)6*F^:}3&!&:&6&Y- *p&d*!&T&v*r-<*,>n*V*L=_>}&K&d&D={*g*>;k=1&t=V&L*Z&V=N=y*d^g>O&,;d'~>J&)*]&a=-)C&i-h{:/'^2t+!>;)=k=r=T&!=S{g$*/#9,>a$#=/*y=b&;&p&2({&i=i&34F#Z~~rD=t=v*7$V=J9t=Z)D-`]T*R*!*V=2$K&R^ =P#V&**F&|&[*h'|$!*E*&^c'r;e*Z^n'd>-/o$R#o$D=D=d$8^o$B$>^!^0^9^E$u%.41/{$@8s^v$x]+%x71!!^44q#80g{W~97g$;^{7 {[{u%K$1!D^:,h&C&R&)>d'&6H8`5$=V<X*q&1&&aW-K{F<P<=&K~",
"=~)^>;!/E{3tV*V&P)L*d*4td3~*j)+]^;C&M*o=q*5tz{y<o!K{@{x)v7x]3}6tb0`5:^}*9%0^s^`^.$g$8'D$9^8%2$[^9,I^b$D-z2a'$$F#J#4g9^l>B=K&D=d'|&D=V=R^T*D-|&t^)/T*;^X*O&^*5$`]|&F=-&2$K&E=*)c'5*$0j)p&m-V*s&t=x&E'F&^=E*`^K&p&C&D=/*X*5*V=k)u-p)z-/*%)Z)c=k=v=e*{&:,t*}&m>E*2$T*-&@-f&7=l>F&u->;e&L&I=Q*C&w) =/-v=L&(&T*X*!*^>#=+=n&)*>;3&X& *X*)*t-<&l>o=d3_71!.91#C&m>A=c=}=I&+^g*3*E*<*d'X^P<V&q*d*H<E*V*)&~)k)i)-!X&n&F&>;n&o&e*]&{&w)=&/*{-'&/;<*>;E-^>>;n'A}!4c%m/;{6*i=~*<*^*0,v=C*9,T&/&c=]&V&,&R*C&&4p&}&k=u-M&S=<&~*==N*h^(&!&(&l'(&O&)>v=}=t=y=R*p&x&d'Q&_=t=:}c=p$c=r&Y3E5c%h$ml7te>t*v=V-=&c'E=M^^>d*_=c&v&e&{&-&n'e*v*8t6*6&7={&>;l;-&d*5&d*!&f&3*+=X*C&;&z-N&)*d*I),><*7a)0n8.#,5e]Q=t=W&c&F&g*(&W&N=I&N=J<d*A=w=K&`*D-r&n'|2c*`]f&*)y=Q*V-N*_><*v=@=rl**c=T*Z&@=T&!*b*:'L*v=p&f&p&/;c*X&;&J&H]a^C/r!]&d*~*(&K&>;k'@{D8!$b$v<d[/%^>V&X*E=^>v&%)7={-@{g$J)@t~)>;-'D-t=E*M<d'v<J'X*I<d*3&N&e/R# =**$-0,z$<&5$k=t-k=k)2$Z^u^Z^R^F=Z)H)2$k=2$Z)Q#5^V=T*X*r$%'B^R^4^7%;^M^J^8%h$s^h$.#($:/,3%'5{z~l5g{#3x)x^,3G{[(#$B7F#2^]&z&7&q*|=,&9'-'g5{>p&)*c={&O)='e{G#7$x'o;",
"=4==2$~^N{j!8=z*p*p*c*v[&3k=/%9tk&<&:&c*,*S!%{F/z6){!{8'y<.5>]`%K/u%t=4%L/W/0^b%n>d>[^x^[^E$G#R#t^V=,[E2p];':/|]0tE)&*O^~^$-6^p*k=w&v*8%*^2$<&k))^p&J=g^0,$-R^7$5$|&k=E)[eV=y=t=X*0=v&J':&i=-'z-Z-1*t*M*F*F=2$h&V=&>^>V<N&Z&>;]&>;g*v*1&r*#=@/e*#=MaP]{&P]t^m&(&N*h'Q&|&Z&(&D--)a*v=F=**<=6*+*3&n&T&)*2$ath&T*L&7%`=]&@-z-6*8/{&R&[*l*(-p&p$I]S%H/&d+gV=** [k=9)r*B=~*<*<&L&kiM<L&t=b&O&(&^*'&A=e&|=)*G&v={&D=+a.)[&R^F)D=e*C&k=Z-N&U'~=**=*i=^=t=:=o%Y'.4q#I3^}+^B=[*R^V*J9V&(&R#L)O&9=k==>b*[*F&(&v*b*W]X*y=b^;&p*^>1&>*P)*^P*-;,*e&V= *f&p&u-B=d*G#X*Z&*)E=:&#=Z]b{K/27G]btX^F&p&a=k)v*@=w&)}T&+*v*9,b*D-)&P*p&]&c&{&u&!*{&i=a*e/p&c=V*]&i=J-=>-)`*F&C&7*C*b*N&M*p&I)E$rnD/C^-7D]Z-_=F&<=r&3&!*p&v=/!1-v='*!*`*X*J&c*,&K&~*z-)&^>W-/&k=<*p*d*d*N*d&(&C&Z&B'i&W&i*X*F)L-p&N&^>u-f*8([*},';(*%(E^$$Z!O&]tw)@*M=B=A)*{H)b)&[>*|$Z&v*X&X& ^T*-')/d><**}O#R{ctR^ ^t=c'|,O&H))^R#E$p$R*S#V&>^m&z$d'K&z$I)K)(&p*X*^*a*t-F&h'0/R^D=Z)6^F=b$#>g&t=E*5$D-P<8%X^m4a$&[B$5/ ^]7.4]$-$h/m^1!2^]7/(I^-4B]m]|][]G3 9}72)L{7$E^[/>'1*b&N*$-<,L&.#)^[#;>9,d*6-n&o&B&V{#^dtJah9",
"G=%$$0!8p]et**V*+*4&I)i;=}e/f0S/7&5&N&q;j*l):{E/O#Z{l]J/b3k]H5ft 9{&%%-$y<N/A$ejt^;^q'8%%$j)%'8%]$b&E2D4g%k4t^L'0,&%Ral>E)O=&*B$T*P<k=H) =]$v*t^G#M^e/E=2$D=Z)k)D=D-},3^D-N&t*n'2*1&h'Z=C*L*P*W-E)X]d*,*X*K&v*},!*d*l*|&p;';l*P)V&^*<*N&N*6aG&j'B=)*v=*)p&K&e&~*c'V*p&d&A=7=L&k*B=d'a$+*O&[*:7L*9/X*!*g*l*5*l*F& ;N&Q<;&+*;&>;X*K&{/n*v=gt[5l/d2s^`=5a*)~^^*b*d^1&g&!&v=-;n'a*J'v*|&v={&O&z-J'M*X*7=b&v*Z^!&!*y&t*o&7=<*E=N*!=e&(>,*y&1&e/,&o&g>#=#$ht{0l#it<{h0f&-)d^q*k=I&J'L&v&O&u-e&x&>;O=T*o&e/f&l>/;:&Y)Y)k=-;X*D&k=8&B={&e&>;W&p*O&z*D-3&e&^>p*F&B=c=X*J[/=o;t5z#](M}'$O&>;C&.)`*k*9,u-:&;&[&C&]&J&n*`*Z&t=A=g>@*6-,>L&Q*p&O<V*I&`*f&t-i=e&3*V*y=9,3&{&v=e*)&M*.-D&^=F$)5z#P5*}{><*A*w=N*},Z&T=z&~)_)F=V=:}t*o&M*!*)&l;{*/&#-T*]&s&t=c=|&6*F&N*K&]&p$d&+*{&X& -k=1*P*C*#=<*J9e*X*4&q*k*<(D^b5v9b*v*)*R^^>z&@~-32%'$V=v=jtp&L*a*u)K&+*/&L=a*]&a{o^y3kt9=(>p&D- ^R^|&b&D=w)d^d'!&5$F&c=[&D-1^d'G#e&+))>oaR^E*t=7=[^i=k^%',=E)]$o$&^d'&%%'&%K)b$a$6^t^*^O#f$J'd>%/M#ltg$O^4/9$8'b)O#K/Y'z$43y{ek>]U~Z]l{g{h/6^B^~91=v*6*X]H*v~[87%mtu&U*Y-V*h&E*r^f{W'^*9/J]",
"B~P#2^9/k6IdI*B=N=+=j*4=={n0u^Ls(*o&^>y=N=:7r{h%K$X~E{33`5L%p]p$/*g$)59$M#*/]77$F#[^q'd>&*x^;$W]`=y2e]:%`#1/f*T</&t^-'d>R*k^p$-'F=t^E=0,i)w)]$e&kiN&f0%)F=M$D=V=t= ^E)V&p$R^q=>;X*|&]&4&';2$u^u-N*c*|&-)D=->/&C*I~O&^>3*I&(*V=V*';d*u-c'1&%;V^+*/*e&u-b&-!e*K&@=|,>;X*z*)*A=F)N*^=197=t^O&<*(&S=e*-'('d'R#O&c&A=h'%)d'(au-}&[*[&u-t=)*}=(^~{.#($v6S6^>O&P<F=V0c'd'e&F=]&z-^*H){&X<+*/*(&E&Z&|,t=v*b$(&b$F&Z)=*p;(&O&V&h***f&m&l;<*!&S=K&b*v={&(&,*0=A=6*i/P$`2o;5&A=C&/-D&r&H=GrV&)&7$h&E$C*{&p&**T*!*]&D=Z)>;L&<*)*O&i=N*l>v=X]|&'&s&N&E*L&f&/&m&I&Q&G&j)ntN&@=&$[4y~9$I%ot;&J&k*d'r&)&*&-)p&C*F&v=d*p&V-c&8&L=-*!&-&X&c=:,u&]&A=m-F=P)V*[*{&d*y&s-v&Q*f&p*C&O&<*F&w&I&F*+)W}q7)4I^I]x~v&O=e-{&/*<*)&(&/*u-S=C*-;B=v&$0=&O=N=X*d*X* -r;n&J~n&5=@*e*C&w&!&6-T&+*R#/&V&9*p*V&;&)*c*C*!&**k*Q*!*<#J^}7jjd*@*<*!&B=O&d!p4.$9$k=+)z!3-C'4&T&K&Q&4^l*m-~-c2-$`ckt&**!^*t=,^f&D=R^]$J'*)W<e/P=u%`](&2$|,D-Z^e^Z^Z)F)@-u&Y){9y=u%#=P]ptq6C8 =>;M#z-X*|,e/t=}*;^u%D=|%V&q'g^^^9^}7 /[/[^>'f^l#.#/8Q#I/|8=}U{t4U{V2E%h]n$1^y4Gdz)8,3*<*q*h^Pq)^c%H-4&L*c*qtrt4430]/|&O&st",
"os /^*|&){Z~J{tt.4d#d#!^33p*+[R{628&T'u--/#{98+(*%  `6`3h{1]M#V&1^]7.$K^!/%$C^{/4^d>f^P#R^m^59=&t[s5:/m4*^=*n^/bV=J'N&n'J'P=%^w-5$0,<*e&1&v*2*d$2$a$i=9/Z^**.^l>{/i)V&O=>&C&Y9shc'/&R*|,v=>;-&!/t-(&y=c't= *!*f)e^b&O&p*k)V*==V&_>q*<*N*C&';d'|&;[F)l*R*D=K&<*v=<*_&{&e^n&T***@c>;(&L&O&^>X^A=b*v=m&!&#r;& )F),;b&v=B=z-|,p$7=^>)=';l;*-G3Y5o/Y':to$9^n&|&<*v*p$d'<*D=d'~*F)p&p&L~j)a*K&D-N&b&<*>;_=A=t=`=N*<&/* =F=`*:,v=l*)*B&d'Y-9=K&N*$*r&w={/l;c*:!utC8U$b{S);&G&F^<*O&!&4&v=L&F&K&d*k=`*V&}*2*9=l;~=b*X*-&$-)*9,T&)*3&p& ^:,0=)*F&v&]*y=C&<=r;},<*f&i)X<vtr[y4n!x#wt ^~*L^v&d*e//-s&-&d*S=K&2*f>4&'-T&V=p&C&#=U*Z&&4T&k=,=O&A=V*==B=S=p*F&{&o&%)[*p&T&:&6;!&#=y'F=t=Q*y=w-s^[/j/ca#~X&N&z-N*H*!=Z&kaX*!*#=X*V-E*o&k=i=,>c&c*B=v&V&l)R^d&]&T&y=w=k=>;a*t=(&l*v&k=3&p&A=N*c=k=d'@)z&{&S=6*`3.$d#xt},H&_/V*|2w&q)p6[/O^S*d'|,L&<*)*0=h'p$X*S=d[G=<!)5 {w9`&F=p$p&Sa/&b$^e>;e&u$|&#^c'>;9^R#m'!/p$-'J=e/c'>;t=t=2*>;d''$k)!&ytX&4^F=b$2$O&s^o&Z^d'4^**d$E#*/5^&*f^h^r%8'!^G8g^8'O#g$,3}7*%.$Q/N^|{ztb(AtBt&]4^D^=8U4s^1/2^'9t^Ctwhz-7%K0x]D#g$q5b{}>B6.40^v*Dt",
"s<R*F)I~@{9]<4*}f9XpEt_4@>]4orHsH2I2Q2q2I2j4r{p^L/Y{4{&]&]Y'Y-^*I~B^3^]^2^O#7%g^f$B$N<z$y<-$b&z2r{o!p'E=@~2^h'l>**z$R#($R^&*e/D-R#t^R*d'%)e^0,t=o&h'6^R*n$z$X*+ai)p&1&>&k)e&f&e*g&T*Z^X*2*d*t=f& !A=v*p&x^p*l*X^{&l)2*X*c*d*b&e&k=X*k=v=}=c'R&i=b&+*d*r*I&^*F&^>i)t-t^p&D=*^e^'&N*AaJ'y=V&)*<&9-h[[*)*4&a*c=Z^F&V=I=|&F)g>R*:&D-v&:,@~t]#0)#x]!}@}N&w=O<Ng3&uam&L&C&O&'&X*T*q*9)9*^*}&p&4&O&|&X])*X&>;v&X*c'r&]&Z&p&V&!*F&c*1&T*O&*)m&n&7=6*9,u-9*;&N=W=K!+81^$/N3b=,> *D=f&]&:&-&I)V=E)(&,><*v=!*C&<*n&v=c&~=N&E* *J'F&`*q*]&Z)5*e/b&E=)/I&E--&+*+!M*p*X*c=c*!#)]!%.4o*L^!*y=FtX*d*C*{&(,v*F*+=-*+*d*w&Y-Q)/&x&v*n&K&^*T*v&~;;)f&3*y&l;p&d*!*;&6*W)3*d*d&P)Q*:&d'^=d'(&},c'jtGtHt8%,3`/Itf&R</;|&H*4&v***J&u=|&&*(&@=f&@-d*Z&**V*f>!*t*t=;&>;i*o&-*]&H=y&*>V&n'B=<& !:,n&]*)*f&#=q*w)Us`*v=M-}(a^GdJt1&F&!&#=I)o&@*e3Y7M#J<v)(&t*d*v&)*]}B&R#3&v=*-1{y<c{bgD=5*d^/*`*F=K&2$]&/&b$2*u=`]-'d'H8*)7=a$O<Y9~$v=v*<*4&=>X*h/2*&*8'l>w)b&J^2$a$L)E)#/v=o$9^Z^2$9^1^A/x^^9d$.$Z]-4I^(^y/:/&$l#y<[/.#4/k/ />6q#l5G{m]o$:/!^J3X313kkB]Z4b{H~|3W[K43}U3E[U4U~e]w<z<D=C&.{",
"Kt)^=!b^K=:{B686k{=}70S{c)U{`5%4m{@>O3Y3${c{P%8[j/j6b{`5X~J-1^1^L/u% /B^h/s^;/_8s9d>^*k^o^|rK~rr,3F#>^~; !f/c$+au%D--'R^`ah'a$[^i)W]R#X<U$SaP]R*o$p$Y9o$%^m9J'==u^_9X^D-p$-)O&L&(&h&{&-'9,<&>;d*>;+*P=p&N*V&n&6ay=V=z-A=C&c'~)y&{*(&'*P<v=l>2^^*d*A=>;2$//C*D=/&;!R*X*-'.-a$7=F=l*O&u)V&';<*F=.){&/=-&d'g>X*R<%)c'<*V<7=&4c&P<%;/*C&m>L4o/g$q#I0b$F=p&g&k*<*V*/*c*O=S===<*tih'A=O&v=[&-'y=N*2*f&h)F^t=N&e/O&v=v&V&J&>;e&)*7=o&D*z&N*,&l*a$N=o&p$W&9* =(,LtMt9'`9|]3{v&**==s-k*f&(,>;%'W&q*~*l*i=d'/*p& *I&Z)3*^><=K&z${&/=(&o&I)<&X]h'K&b*p&q*p&C&+*e&2*O&F&6-95M)k]40NtX*.*1&;&<*X*)*c=@38=w=U*NgB=h'/&<&>!X*_={&I&|=X]C*t=i=(&==R&S=*;{&m-F&=&]$|,c=Q&>;u$e&v*-&K&%)Q&<*J9i&Otg|n!x7!rX[Pt(,i)X](*m;d*o=S=@3d*n&@*c=S*(&>;{-:&;&O&/&=-{&K&c*]*l;~>m&,=D={*Z&m&O<c=C&_*@=9=~=]&(&t=7=y&v*}&(>Qt07p'Rtw&d&V=y=C&a*6&<4;/97:7R&w-L=/=8,Sa{&u-v&$-=dM&%4/8O3Z}k=Z*]}k)|,}*W9c=e&t=W<>;2(M#K&a$m*7=W=z-%'a$%^%)J'V=k=/&x^O&-&z$|,2$H)V={^i)==U=J=c'!&t=/%a$&$n'4^J[d^J'Z]J^J^1![/A^B49$j#4^1^O#]76$9')4q'=8X2c)ba&%X8@8s8StP{6]=6h5`6b{`%~3U~>{Z2s{22t]o5c)N* [(&R{",
"Dc1&*[>;{en74}70@>30v{Z{p!$$b5F/l5/#$]>6:b5]9$N/4/4{{{w3;~n!o/D$%/P<*/[^#^6$u%4^Z]z<8%1/`*}3o2;'+]n&k=s^^*($/&/[^*7=Z^T*d^d'O^e^p$Ra{^^*E*b*d^d')*a$D-d*Z)2*`^K&<*)^H&g*R*X*z&T*k=/*0,>;k=(a#=V<A=p&-'A=n-X&X*z$1$/*V=4,D-C&t=~&X&0,9^D-z-Z)a*-!l;k=},O& =V&/&O&2$v=V=e*<&l*O&>&7=N&f&!*A=)*7=+;F=%-R#X&W&5'A=*)[*w)k)`*{-K&M*T*1&n*i{p!F/)5r%V&$-7=W&e*>;Z*>;-)(&l>!*O&*)m'n'c']&D=O&l>D-1&<*M*F&M<ki<*|&p&l*0,5*{&F^!&A=K&<&T*P)/&w$C*c'>;9=v&!*:&^>>;>%n}<<6$Y'13@~>;]&<*R^C&;&N*e&)=e&k)t=u-X*k*>;0,~&i=/&b*p$p&e&B=S=A=b*|,R*l;>;S=.^(&I&C&#=s&-&k=,*C&u{TtY'`#Ut~$5er&e&N=*&@)X*P)M*f&v&3* ^d*z-]&Q*>;e'i=J~(&#=C*/=3*V=(&z-B=t${&t=D-p*l;R#^>p*-&u$L*{&)&<*z-**z-d*9,O&K&]&T%B^y/u5~]M[h;!&!=F&q*l;{&<*-!(&'&>;{&!&S=T*7=~*J&]&L*`* *}&_*Z&`*D-V&}&!&f&w-~;;&z-(&#=j'G&|,*-c&>;U=[,`&U*@7I^c%Vtb&C&V*p&{&F&[&h{h$s^/*f$c*a*2$I=V-g*k=c'S=:$z=8]($X~Wt2$4&E*Z^;&0,e^V=#=F=K&==T*r= =u%**<&**R^k=,>&*>&Q^P)$-a$O&#/J~19p$d't=A=)^A=Z) ^6^b*t=ckk=}6-/o^{/+^{/W9+^&*M#*^2{:/(^h$9$g^J^6$z<]^~6+%}^ /l54{~34/<^E*O#x<g][0L%~,)!;'o!+8T@W$c)z6k6'4u%)*<$F=_='{",
".q}*a$]&t*'&F=!'p-I* ;Xt)4]7-4Rr{5Xr~> ~|~Yt%}o!97G{W~m;Ztc%y^:/B^C/U$-/`#8%4^4/)^u%t$G#m{93*7b627N=u%(&b$*^.8l;#/J't^-'$0^*J'`tJ'D-<*t$v&^*k=c&I&v=3&e&)*J'R#g&2$Q*q*Z&1&V&c*v&k=|&p*C*N&d'B=K&-&==3&<*f&-#R^'&u-P)^;~&A=z= uC-t*|&K<A=D-A=F=K&v*w-p&T&[*>;<&O&|&7=D-2$Z)9,k=/*^*;&Z)/*[&T*`*S=,;)*V&>;J&>;<*C*u-y&J'I~u$b&p&I=`*.u9{8[#7]#+um>X*w=V&z-d$E*Q*C*d*>;v*V=R*A=7=V&t^b*o=7=k*K&J9p*~;X&<&*)<&k=<&K&X&d^!&d'/&6*y=H*|&K&_=F=v&w-a*c'K&#rW&R#F)k)b##$~#y4c2@uI&c'f[j'p$i=7$c=p&^*@-y&7={&d*E=K&u-o&T*c'u^I)N-n&(&~^,*@-v=i)9/7=c=t=C&P)[*)*J'v&b&E]j^,)){r}_>R#{&D&X&c=(&u^T*_=N*T*3&O&{&t=J9<&$-U*/*w*(&-;V-E*]&V->;K&p&c= )X&J&X*+*T&T*/!X&`*F=(&P*d*b*b$-;;&M=l**)F)~|K#!^]7q{6*A=Z&B=b*i&i&V<(,g*<*f)3*c'Q*a*i*I)R*!*y&X&X*f&+*d*Q*d*(&X&t=u&v&e^y=5'g)-&Z= *C&#=-),>N=Q&H=9/W&`@{$w/^a-)-'**s&d*5ad&h5+49$8&F&n'b&,&N-E=C&a*S=w=F&>>[{D^o>#uP<O[}=u^/&*){^F=D=O&P<W]^*a^V=~*,[e*T&/&w$|![&Z]k)`]*^Q&OaG#V=Z)**k=y=N*k=1^>;Z^p&%'b&V=)^7$k)e^]$^*A=f=a^H)]$K$d>;^q'|8g#M#a^8']7Y':/y~+&S/i8Y3h]-$F#`%(+9;j!$ut<c[M/|7$7Y)&[B&)^G#z=Z)!/H)p*Y) ;84",
"N!y=`<S=q;h&b&>&7$A=e/},&]%u:/j%9;O=|&w)q'a(1{y/`8z{J{y{y~1/x]e%o!.$s9J^d>a^9$t$&^{/(^4/'dg5p#s{&ud$O&4^*^t^J<)^{&5$D=O&*^z*1&M<o$c'n'V=W<E=k)^*V&p&b&l>W<B=B=R^D=X*T*l*h't*F*]&C&9=(=}&<&a^D&h'r*I&{&O&n&**f>l>p*!*9,|,#/e/S=*u/&2$R#K&}&u$N&[*7=d*_*o$y=K&v=d'o&p$v=^&e&T*!/L*r*p&)&X*o$(&k=T*Z&.*k*T*b&m&W&^>m&c&v=0=**v&;&R*=>:3!4w/D^5=($&aO&<*L=>&7=O&V=>3)^K&i=)>>;n&},A=7=v-a$!**&b$P*A=C*d*i=L&X*h'v*L=e&O&T*p*)*K&R*e[2$K&]}3*y=Z&t*T*{&k=c&=uc=c&-u[0d#4%>]b&w$$-w=)*n-@-B=l*b& *,>^&g&1*V*O0O&y===e&c=V&c*X]v-3&}&Y)D=b*/*)/F^/=/&O&i=1*i=:&@)92,)j#,3L| ^<&O&-&|$v-c=!& )}&1&|,C&-']&3&y&,&y=O&7*)*J-0*X<R*k=B=>;:,t=e&J=l>/;S=1=W&/=T*V&-'y&-&[,f&A=f&L&c=I~1&h't*X*,>d^B7/8V/15;uL*<*2'X&%'~;X]<&Z&|, *p*e-y=z&c&y&l*3&x&`-f&C&!*c&C&X&X&c*{&v*G&c=V*C&g>w=Z^r;_&!*)>~>i=]&+bV*z6:/q'$=>uB=w=e^F=_=,u~0J^1!f=h&'>Z^+*d'Z&V-{&B=X]T*N*%4Y^q{c(o&O&P)n&B=!*e&b$5$p&J=E*O&b$M^A<f&J[a$^=t$X&W<X*d'>&f$2$G#l>Q*Q^F^+^m&b$Z)t=d>@*1^*)D-<&R^O^z-k=i)/&a$A$D$n9[^o$P<u%19,/w/x^F#{7b%[^97F$Q/]7M#<{e]&#$7y)4!d#C&l>g$z$/8.4+sN*}*w)M#wa';d'K7k=**8/:&7{",
"onT*`<a*)*O=c=X*v=8=F)J&g{q'q',$0!D- *W9O&7!8]#8x)+]Y3v/+%y/h$i/.$y<1/]7.$d>8'm4N<D$T*U~'u##k{csn$k^Z^Z)<$J^[^R0W9E=R^m'F^2$D-n'-)V=X^R*a$e&q*==h*~*a$K&n&C'D-==P)w=)*!/F&e&w=N*R&c=H&1&d>1&.^S*,&K&e&i=|&k=y&F&p&E*y=}&<*W</&q;p&v=k)n&d^p&|!N&X*^>49e&E*p&D=I&h'E*O=2*D=c=V&t=9/2$r;L&!*V&2$<*(&_=X&R^@*h*t=P*w)C*K&k*X*(&X<,;x)6]*%l#60)uL-|rb&d*y&y=p&u^**|,4&v=>;H&-'v*>;1*O&t=c'<*z$(=5&a$5*p&e/z=,&c'V&V=h'*!J9C*t=#=(&5$G&X*O&}6|,o&-';&_=X&o$***&/*#$=>8[[$M)3}3,~*J-<q-)(,N*y=t=**I&7=k=p*R#K&O&p*Z]'=;&y=E*-&|*C&D=z===!&/&C&|$O&C*B*!&N&X&Z)n'[4|7g$b#NgN&*)-*t*b&D-Z&4&p&-'<*]&L*i=u^p*!&!&<*v&v&H&L&u$d'J'!&>;V&U*T*n& =p&n&K&5&D-s&T*z-_=t=;&*9L*>;]&1&-&li/&L*-*k=U=!uXeO#-72)(^d>0*t=w=Q*v*1&F&i=c*Q*]}Z&I&D=_=2*9^**(&/;,=@*N*R^B=L&y=!&<*t=X*Y*V-]&/;c*p$I-c&7=T&t*_*~)z-b&L%y^x]a-~&Z-d'9=n'|&/,=8=^:/r~#/C&v->;y=2$P*6*C&R*d[v-L{-#G{Ltp*w$^*i)c*a^{^e&w&5^&^]$9^[,R^L&P^-'Z^2$p$9/~$E'e&<*z-p&^*<&d'9,b*v=}=-'c'|,n&d'a&1$)$B=6^E=,>Z^v*9^a^5$R^j)2$]^r%o$**7$M#O#g$9$C/U${$O/H/W@%8%(o[)(.#A$~u7={*,>j)T*Q#x]B6y=F=I)S*<&W]Z^**b2|,>;{ucc",
".0d'O<N=(&b&>>,>T&9/(&(&$$Z0W/K/{->;V&l*c=]uV2h$Q#b{^u%$w/:/1!r%K/J^*/Q#)5g$f^7%j^'$[]o>M/9'Q^-#N&g^R*%'($/uT*E$ ^J'=^Z)F=D=t$0,d't=}6p&!&A=K&0,#=p$J'u^]}p&i= ^a$7=u^e*a$d':&N&<*)&k*v=c*$-0* )%)+)]}[*u^K&D=f&Z-D-O&X*R*R*2*)>Z)n&|,R*b&**(&Z^v&e&Q&<***n'X^N*J-b&P-p$b*&aP<(uE*X&****w=g>v=)*K&*)v&3*v*F)y&o&'&5'1'f&,>F-{!S=={)4y~b,_u !X&H*1*-;v*u-b&<**^2=2$e&T*)^E*O&p&P*X*I<|&F&O&l*W&l>^>z-Q&Z^**$-2$F&%'#=t=,>:,~*!&b&7=1&/*X*{&3*Z=3*z-C*^=v&>;+*D-7'`e&#H/s{:^;)w&.*x&v*|,[,f&D=F&u%H)v*q*l;V=:}Z]-;C*R^Z-|=:&z-{&4&Y)t*<*t={&V&u^R^-!/!v=3,3[o/z4c{s4Y)<*|,B=b&{&J'y=z&2$c'Z^7=p$p*)&*)k=p&!&|,i=X&{&Say=]&p$V*T*},K*D=t'&^6*~*l;`*C*k)B=^><&/*A=V&t*^*m& *:,2=H&~&]$e-X*$;Q/y~c%zn<6b*:*]&`*o&:uc*F&B=c=C*v=*=N&z*X&h*l*#b2*K&=&<u*)>;D*p&)&f&{&_*p&3*t=)*P--')&g);&A=p&!&7=S=%;L%q'9'H!5aT*N*v=P]:,2'<{x^ 9L~U=v&';9=6-/*c'#!E)u-W<L~ {E#v6Z}F);[h'7=<*}&L&l>z$J[]$m'z-J9v*t=d'V=@/e&Q&c'i=p*3&L&z-*)C&}6-'F&F=c=^>3*n&7=** !L&e^F<R*R#=^l9J[')Z)2$8%l#x^9/&$Y7Q^4^(/L/A$g^g^.#D^%%b)T@M)E#9]m]G8D$y~$~P*k=O&'*I)#/G'[(_&D=^*#=R^T*-')*c'<*L*!*S~",
".qw)1*O=]&A=m&=-';4&K&7=`@[8v*w/5&k*[ue&!*7a${D^,$P{c{{7M)4^|#v^Q#-#L#A$*/s%s^x^Z^Oap}S%E/n2ri#^Z)J~S*Z)1&R*n$Y9B$#=w)e*E=d'K&D=t=s$Z&,>p&l;%'P=T*#!h'0,F=k),>Z)5a*!|,Z^J-X*9=p$-'g&(&L&7=!&X<8t&^1&C*<*,&},u^A=F&,>v&*;d*o&K&A=-&{/b$W&7=**d'1&d*9^O=b*c'l;a*4^#bc&-'==C*e&>;}u<*[*{&V*D=(&F=T*%;V&X]l*k-:&N&]*B=r;v*E$+*c=P-^(c]](]7Xe<)v*v=d^d'v*q*Z^v*F)Q*N*o&C*(&d[E*7=d^P)<*m-<*J'd'd'D&N&H=)*p$*)Z)W=-&g&e&O)Z)*):&]&y=f&l>v=X*<*v*>;T*e&v*-&p&J'p&A=Y)+^t<C{!$w/B]b/(,|ut=,*}&E=y=1&d*7=*),>(&`*c*D=A*.=p*u->;I&K&H&a*~*3*|,y=V&<*+!C*#=t*F&#b*7|q$8D^m;,>*)!*d*f*v*2=e/-'n'I&r&E*z-t*O=(,V&C-1=c*S*J'5a],o&$0O=^>^>{&v=O<>=4*I&J-z&{&@=3&v=Y*i'2*O&O&,*N*C*-&1&}&p$a*y&L*e/V&]~@7Q#b)}] {_,0=+=V&&a2*E-d*6*a*~*z-L=4*4&V&p&o&V&K&~-r*N=z-]&O&P*G&c=4& *J&[*:,#=.^!&B'n=A=&>O&d*c'V*z&}]x/$/7|w-@= ^p*v&]&S-t{C^[/e&~)/-(>:,`*^>t*Z)C&+!W=>;m{g#o;%|v&X*2$r;X*/*h$<*F^&/y=R#v&l;1&&aD-F*/&v=-'d^a*!*F)#!E*F)},$-F)a$V=k=[*==l>O&}*>;>;D-K&J'A/A<-'R*t$f$D=[%R#M~]7//8'e&`^R#+^@8$$~^h$.$ %4%x]s%A4{]U{9$6$9%@~V&k=v-o=o&1u<^u}{*='~)d*&a%'e>x'R*[*V-r&@0",
"}!X^X<l*N=6*!&R***r&}&$;B6<^P]j2>=~=5&D-%;2u@{2{d2']>66$M)([|/o/:/O#(^[^K$C$&*p^[^t{wn([H/i&{%},w$u$Z^)^B&p*H<-)s$f$,&s9S^Z)K&F=k=O&Y9k))^V&h'O&e&7=X^e&K&F=k=P=9,#/l>9=a$p&k*+*T&V-P-o&/&*)Q&v*X*C&<*n'k=|&>;t=|&4^8bp&v&$0{&'&L&v=j'-'7&p$^*!/t=c'&*r&D=2$2$d'e/<&*^c=/&X&E=d'L*P*u)g*c*s&7={&d*d'X*F=v*u--'X#a*F&v&X^e/$*E=6eY5y/c)3u8%-'l*7=k=P=*)>;z$V=E*V&!*v=c=c*I&J&w&F=O&Y)e* ={&Q&==u&}*d^<=J&v=v=k)$-*a<*3&I&#=7=>;==!&p*t=C*v*b&!&{&t*C*-&z-V=F=i)4uv*]#o/$$0]o!J&R-<*p$J9J9]&<&},c=h&2'8/+*N&=&z-v=c=!*U=6*7={)r=_=K&C*N*;&==5ak=Z&Q&5u0*E2*7B^6u7u=*M<_92$p&v&J'/-E==*1&n&v&t=L=E*8u9u2*+*R^t=v=+*c*J&-'GrL)S=F&*-]&N*Z&,[r;#=)&d*/&y&K&L)q*7=1*A=H=D-n&v&R^e*T]@=|,P)-'d^>-0uy#Y'75i>)>3*k= **&C*O&K&]}V* -C*t^3&/!z=F&m-Y-v*<*v&t=B&'=p&P]+*==f&C&C*K&c*>;l>z&JbW*C*B=n'y&I)v*=%8%.$h!M=D=[*W&V=~=)&<{h/8'T=Y9.)Q&+*b&f&~=O&+*2$D-4![{-#v]aua$^*J'+*2**^<&b$c$#=A=}&d'j)^*c=e/a$t^>;I)P=D-v*J'p$g*!&1&o=F=@=q*[***d'2*2*a$W&u%i)w$C&k)D=y=M<d$r;Z^a$O&W]E=&%&/D=q'4^o!6$*^~eo^S<'79%5}*%x]H{|] }o/](<bc*9=V&C=c=97x^b()*R&&!t=7=T^V&n'+=m*&aM-92",
"bu =(&p*F)v*X&J&<*t=d*e/@7Hdcud7c!7=K=9)E*(~F{y<y<l{<4C/u72{!^D$q'.$S#t$&#n9O#.$Q&m[`5n!`@n~o$du1&2$)>e*9/b%q9n0M#c'<&<&X*u^B=b*,>e*i=p&)^/*f&Z^1*v<-'l;i)H)t=d't$dc1&J'v&Y)*)=!!&p&,>x*k',>m&n'F)euD=R^T&k=q*|,v='$!&Y)|&v=h'F=9,f&z&I~e&**2*N*X^/&O&|,**v&o$b&v=|&V=<*X*v*C'A=]&-!v*B=p&},<*(&,;i=#=>;P*)*9*z=c&|$d*W]1*9[1{fuM)-7,3**E$m>}&)*Z)J'E)N&2$k),;Q&p&>;X*w-c=C*2,@cd*V-{&,>P<)&B=)*J'v=p&d*b&Z^c't=I&z-C=L=Y-e&d*Jbe&d*!*z$X*K&u-X*`*E$F&r&1&v*N&<*o&guO3l#F#Z4c!f[@*}&A=J&v&W)J'e&>;P*Z& *N=C&5):&f&$0y=X*T&hu~^T&{&;!-&f&-&/%o*B=P*_=P{u{b#57iujuf&R*i= *e&k=c*^>6*c'V&/&4&^*c'K&r*X#`*:&H=T*O&^!)*]&^>w=2*1&T*z-k)F*s&>;b$v=1&D-Z&T-N=}&{&B=`<K)T*B**)*)U&/-H= ^n={&d*f&kuQtg$o!Y's3luL~F)k*B=J<O&p&C&d*A=R^Q*C*!&,><*C&7=7=6*/=X&*)f&Z&^>d*n&F*H&!*k=6*U=N*r*V&V&l;F&v=;&2$C-%]%/x]mu~*e-_= *)&z&A-<4N^b)y&e&';p&a*b&w&>;==v=w$B=f-06y/C<nu-'m&p*-'T*-'o&>;O<u)<*~*W<o$F^p$t^T*d*-)O&h'X*&%)/9/e&>;b&v*,&-'r=/*]$R*>;k=F* -t===<*)*o^%'I^f&&/2$]$Z^O<i)l#b$D^X6D$r$Z]I^a$'^x]K$]7|^5/{7j$@>T5N/M)3{ouP]J*<=B^m'L/g^g6>;L-<&y=^=k=r*R*v&r*|,:&cc",
"_~R*W&v*_*v*t=p$X&9=D=l)J#O^pu,3o'T&n;p&K&L'Y{o!b)i{E[g^n>z#.4!^E/t$D$6$J^.$h/~e*7Y3.]R/N&F/|&D-p$Z)4^m'},d'K&!/)^M<c'3^b^**u^e/O&A/t=X*(&d*q*]$8%q*]&)*)^0,~^P)e&m>D-(&D-K&p*C&X&~*@-2$z0O& /(&H&(&1&(&N&}&'&d*d*z-Y)l;I&d*v=p*C*C&F=a$k=O=,&v*i=^*9/-'J'|,P=F)-*A=v=X*^>V&V=^=2*8be&e^';K&o&J~5*O&V=^>F=/)3-V0#bp*k)w--&P=*{w%F$<(1gV={&L= =J'e&p$-&c=d^e^/&w-)*F=|,k=X*F=P=L&K&(&v&d*7=]&O*J-p&N*i=^*o&p$v*p&[*v&P=w&B=L&k=*)d*X&/=f&K^7=#=(&c*)*F&F&Q*V=<*K&D&0,o$]7z/N6a,A~*)!&y&u-&--&(&t*J[N*,><*'&^*p&/*C&v*c&y=|&C&m*)>e&k)k=!*O&g*]*c=T*|*tr,3{7Z%quU'c=`)r&c'5*o&F&m-1&},F)K&`*!*d*<*}6c=5*w&r-T*h&J&b$C*d*f&3*K=!&e&y=Z&v*J'R^^>%)Q*<*V&y=,>!&b*|,+!f&y&<=}&R^]&Y9m'k*2$N&d's$^gM5C/,3G{J<ruQ&j&F&{&y&O-p*J&m&{&}&V&W9(']}F=]&v=r;J-T*h*,;[&y=1&T*:,#-F*g&e&H*c=o&O&z&u&O&t=/*{&I&W$g$&#7-*!D-f*p&V*d*!==88%$7su}, =F&'/C*+)|&X*|&p&B=p*o{4%C<1e/&Saa$_=O&X^<*,>Z^y=|,e& =|&|&u=/*B=_/p&V=~*^*F=D-{&B=a$e/8%P]v=!& )Q&H)X*==)^X]F)p$V=P]a$D=E=';&4}&O&k=Q&E=K&J'T^^*w)6aD-f^!8A^i8X8C^$8u00^9^&{a][$.#,3u[c=-*(&I&L&J^.9tu*9x'X*f&l*<&t$f& *A=~*G=`~",
"Ac{!G&P&C&:'m*2*{&p&E*n&oih^&^n%v!d*7&V*f*pab{Q#;0>{|4w/p'Q/F$z4D^)#2{~tx^7%x]R^63)4!7e{~~//.$+bD- !Z^**R#%'ssZ^+^4^-c5$k=B=R^*)O&Z)O&w&<*%)(&h&)*c'd*p$q9$-==|$t^&[t*S*i)>;@=C&O=|&d'X]c=;&9,E*d'19|$-)z$a*Z)f&v*y=p&!*b&(&X*7=N*O=B=F=v<)*K&`]5a:&p$d^1&($D=z-u^;&p$L&p&-)d'uu^>K&X*Z)e&e*9^t=|&n'f&-&s~l*d'@=}=>;v=<*@).dt]b%1!>=H)z-!& ^A=i=d'7$,&O=O&e&{&M*l;X*]&W&w=t=u=vuK&2$I&^>J~>;!*:&v&:&k= !-'|$^=O&a*Q&r&O&e/c=**ecE*|&'&X*{&o&1&{&v*f&F)C*E*n&e&v=U*M^p<wux]j^=}|2#=i=},e/[}~*,&X#|,-'c$k=X*>;[,tsO)5$t=7=<$5$v&xu**+)**e&c'M<B=)^G&v6)],)p#hsA/Ngb&e/N*u-D-d'2=5$m'N=N*k=k=p*e&-&3&i=8,Z)},a$6*J-F&>;X&d*q*+^C*,>-'v=O&f&;&U'w-~*e&w)V=y&,a#={&V-+*z-D-f&(&u&J'7=3*K)V=k)C*c=;$O/6$I/G[;~E*K&a*z-E)L&W=|,>;c=yuT-|,ru)*`*;&r-W<0*z-E*d*{&+^t=i)'bS=@)p&N*)*UsZ&k=`]n'N=d*C*%)/!g5~$9'g~B=V&P*X*v&B=@*%(M#F#@-e/:&P*J'-*N*b&d*d^c=9,/*m{:/=8to}*f/q*K&c'c*@=Z8&%/&D->;h't=b&,&B=*)z-d'A=2$x^l>-'(&c'^*R*<*d'9,n;l;B$^>X*K&{^R*d'g8>;K&d^J-z50}o;7[R{){606]J)l{Z{K{_{C<a{*}e4c{#{t83}m37355G3H'g{S#D^D^e||eB=g*d'(&!^c$tuf&7=L&k*N*Q&^*F&K)z&~*N-cc",
"4)c=_=!*(>y&f&>;X&u-7,l>V%j^h/;'$*H&d*2*w=^fJ{$/}73023w/,)8[X%.739:/.$v$4^P<B$)*%}b,M5+>,>'/d'-)Z^9^+^5$)>D-b%O=f&9,/b}&D-v*i=v=<*e&k=V&}&p*T&~*e&)^I)|,d'==|&0,a$9/z$-)-&|&W&L=q*5$o$p&<*V&9^c'1&N*},y=(&J'Y)p$';R*H)u-C=N&{&P]1&!*K){/]&>;i=:,Q&g)_=F)}))*{&g&v*P]%;^=>>p&5&W&/-7*n&L*!&r-X*y&[*f)%;m;@*v-'&eqS-f)!'qoH/zu6$M)R;}e('b*y=c=R#'*2*p&T*9/e*T&p$P*|,d*E*f&w=l>R#R^;&#=)&F&v*A=/&)*g&G#v=k=D=T=v=D-p&:&C&H)x't===c&8&<*d^b&,*K&F&1*/;d*F&v=B=#=f&w)j'p*E$Auj/g$5}%{v!i;u!<-5~|;{'(~4-h~r!v!v9|;~rBu7!!;f)_-0[Pt9;],j&m;qoa;q)n*~-}~-//{x].#%$4&k=g>`*{&c'J'e&C*C*f& -d*x*2=|,]&y=1&F&^*Y-c'M&t*C'C&P<'-p&-)h'd*J'K&o=**D-(&`&v=p*Q*]&f>(&c*]&0,J&t*V&|&v=Ot]&I&c=!9C&l;!*m&<*m'Cu}(!^x7o5-4X=j&>=g)G=f'v97'6&$*|-7&:-5=/=4-$=Du0((&f'D=b&G*^>Z^T*R^>><*+*C&l)'&2&i&u&^>C&l*p&o&W&`%]^C/4!<&x&6*c'+!m;7*<{;/5/)*1*R-h*0,T&)*J=F=c*2$A=h*j6w/<{u[{^9/P<-&7$F&J'=&n&f&7=p&N&N&a*k)%'v&l;c']}p$Z]A=2$c'T*v*^,t=q*F&B&e&n&+^e/D=E*S)k)v=D=d';&.&Q{${k]1]e]S5a]w5w<c]ek-]Eug{z{g5P{u{m{-]Fui]$]e{26j]>45/D^}]GuC*e/A=N*)>HuGd<3C&X&l*=*P*^*&45*V*{&F&`*!]",
"IuD-1-9=G&!*/&m&p&+*p&X&<<o!]$n[Ju-&d*!&o=Hb {,/-730=}y#j/w/.4-#B^{$S#-#E#1^}/^>X{K/Ku{=*$J'=^z$R^n$)^G#]$ (v<)^,>t=e/:}i)L&u^k=,>|&o$*=X*)>w=p$o$<=X*T*S*e*T*^>i)W9}*f&c=v=p&';{^V&R&h'b&F^<*I)X*(&/&v*r&D=#/n&-&I)I~V*|&4^m&}&C*d'k=1&}&/*u~E2b3M4Q~3[E2[3G[H2r[F3r[={G[p2E;p2s[u2Y[<5E2G2E;q2p22>T[={LuG[s[MuY[.dE;>}j3F/Nug5OuI$C&-'1&[,J'c':[V&s$-'O&~*[*~&q*B=A=_=/*|$}&<*X*t=U*y&F=V&5&)*E=>&v*O=d*^>v*O&<*shS=X*>;i=O&&^X&<*9,y=C*R#_=e&2*m&e&d*d&e*V&N&3*Pum')=B^C^|7<>k2k2y2y26[f2(4p2(4Q~E2V[W~|3(4O]p}f2H2+5/4={p3P2E]6[E2q2N2P2Q2L4ba,8w/46Qut$P=:,2$V=I&p&,>n'$=F=)^c*a=-&r&J'e&#=6-/&V&o&7=b*W9I*)*7=l><=,>;&V&mi,;{&J<_=.!4&N*p&(&v=2$+*)*<*d&k)!&D=d* *y=@=t$C&(&C*>;B=g*+=[$V&g$(^970{T3[5t[J]m3h3A{B8 f`~8]V2H'!{$'8]V~~,6]3{$5)#>'J^h*e^V&l;o&p*b&t=`*t^y=E=T*)*{&E*W<p*#;v%N^C/+~0=I&c=S=O&2$%~%}Q#w/p)v&>;E*{&<=**c=f&F)v&t=@)![3930[7t=+)e&V$t=<=>;p$>;**~*^*e&2$i=&!}&D-E*|,/&`]D-i)-'h'Z^#=k=I&:&t-d^k)2*9,G&<*e/S=2%J^j)c*={I{>$30Z2!{W;g3 f<{ta20N4 0<{v6,f8]`~P~85:b701{:bd]q#:]^]C$b)z/s!E*y=[&k=j)L/[/5]z&k)B=)*p&_=r*y&os<*@*W&S~",
"(6d'y&,*m&~*/;C&F)-'F&3*T%D74^k]4-b*!*O&i=pa/3F#'!K{`~M/n8*7:/`#d#b%m^J^-#($.${$P{X2d]lbD$$-t^5$d>a^D=4^V=f$d^d'V&J~4$/bZ]D=c' ^2$R^T*i=H)%)<*e/q$V=p$Z^-'L&d'o$N&D-/&t=_/:,X*E*Q*e*|&k=6*-'F&V^v*}6N&c=c=A=w=Z)>;R^m*k=V&v=**J'X*W&K&!&,[h*z2Ruu5k]']P%W747@(c)k/~,18*%M5*7Q/nlq/.7k/j/n!<2([ 842D5@(R/p!*7M/F/|#K/p!,5w/*%S%W5f!$-g/@-5*|,d*V=)**)|&X***<*@-C*-)#=V=X*!*F=X&h'(&d*(&t*k)d'F)-&X&p&&*L&-'(&V=v=e/e*{&R#/*7=X*b*(&d'c*3*c*<*8%5*F&V&!&=&v&C*)*y=O[>;-;7=L=72S<Q#$/K/.7[/2{g$$^1/s%w/B^]7.#$$E#$/C^jsF#*%M).7Y'9$97[/o/:/4/x]C/]71!v$k/N<-)e&<&p*t=>;g*C*O&o$p&Z&f&p*v*<***t*N*P*{**=2=C*D=^>Q&c*E*)*C&d&k=c&==#=]$X])*^*c*X*T*v*<*!&9^O&B=z*(&K&<&v=K&d'!&]*g&l>D->;d^c*F&_=-'b$_7]$O#d>!^&*q'1/,^t$F)&^-^0){^c'P=|&i)z-X*C&<*O=<*S=-'(&}&l*p*d'7=v=-&Q*~*(&_=y&]&<&X&d*V&o&~-}](^C/hrH)Q*5^U=#=`*_[<4j^[/.)-&~*v*)**)kiu&X*i=,&X]@*a]g$70Sut=)^k)>;R^0,|&~)v=I&k=A=*^i)>;'/k=p$_/k)*!W=<*>;w)R*j'W=F)T*A=]&Q&p$2$,>N&Z^M^c'Z^,>7=V7Urn>(051Tud|Uu*|`}iuVu(svh*|&2W6WuXu+u{2y!+0YuZutde7`u-{N5L#F#8[;~B={&t&v*Z&:/3^:0S'';0,$-/**^Q&v&4&='N*m;R~",
";bb$r=t=!*u&g&v*i=c=Z&/*t%99P$H5!=,*:&J&u^pa1{9']7@>%&%8L%%$b%}7&#y/1^9$g^W9)^,#)!@(b{v-P<&^&%J-G#.$t=*^e/)^%'+^~^k^Sa]$Z^v=b$^*&^k)p&B='$^>p&/!y&l>t=C*e&u%c=9^E*!/X*t=V&m-J&6aD-wat=|&},T*W<f&b$-)t*~*t*a$(&d*P*k*,>@-F=~*k*>;H[-'>;D-k'R3G5k/'$9'b%U$}7D$~/)5D^L#U$[/g^r%g$p^z#x]&#y^+^P$.#f$3/b#r$p^q'.9&##8.$Gd9'9$]7O^n/M4o*n'F=K&(&>;O&)&|$2$<*,=T*<*7}|2_*`]C*<*V=>;F^K&|,f&-'<&t=<&f&d'(&p&>;<*v&Q=H)N&<*z$},P*k=t=B'.^E*T*{9>;v=K&g>k=i)S=D=@=e&e&N&T*'*},Ng%~<! v5/4/4/t$2$]$2^A<7$.^g$y/*/s^[$f^q'u%E=X8q9>'!/5$4^5^')$^<^2{G8%%6^.$D^k0t$20g>W)~=ua]&N*>;(&d*;&f&c&B=]&k)v*Z&]&:,g/o&J' -r&n&n'1&]&!&v*t=S=>;)*C*:&)>^>Y)w$i=[,3&N&>;`*Z&X&d^>;e&v-]&T=Z&a$D&{&e//*g*3&I&f[d*@3!=P2!r.vd#+v66G{o%%(o{L%+]<#,#@7*(T%@v4%1#a$n/M^9$8'&^v=*)kik[t-E=n'+*b*d*F=d*C*d*p*c*P*c=~)!*+*j*}^J^[$lb[}X*Q=n'Z^c*y* 3g$M)R</!t-!*waz-D-p&;&w)(&0,W&n2.$${u[~^f&d><*!*J&F=#!b^z-)*c=t=B=P=T^+!n'2^R#R^k^[*1&M#e*k=(&V&(&(&u$i=A=l>t=<$,9J'9,-*,cf2z~1!Z~#v0%y<-4o$%$1^x]Q/+&o5|#F$0$z#y#c%y/b5g$z/}^B/q#.7:b6]g#l#%7y&I)7,6*<*X]&$N/S%'-!&H*1&<*%;N&Q&c'c=G&P-V7",
"os*)]&(&N*D-i=+*d*4,t=z=x#o41^J#!',[k*{&{*{><!z<87n2G3o/*%|7|%]%.$r%Q#)^8/n$1&,{2]4%c)M$+^X^>;{/a$S*o^($t^2$Z^Sa9^|&)/%')^X*==3&X*J--*E*y=d'e&t=T*X^d'v=_/#=~^|&Z^,>o&2$E=4&k=,!7=2}V=l;>;)^H8o$h^w)V-W<V&5*E*V&I&A=P]t*!&5$9=t^A=t=I)>;}&Y4[/c%[^|0,fh5`e[0'050p4qi[0)050bc(8$v|0N%(to#(#+#w4P/E/50`3*3%vN%c#v%k#$$&v*vKu~9&#Z'z<~*m&J'3&9,g&(&(&X*m'~)t-#=7$C&O&]&T*b&2*d'd*v=v=X^t=c=o$p*]&F~*[v***n'r&^*T^~*z-*)]&h'd*h*N*9,!*t*dj(&d*X&>;<*|$;&C*d'1&;&W&p$u-.)d&q#p5F$&$<{{s=v-vpgDb#a;v>v{5K|*2,v,2Kr'v)v!v~vjgN8{v]v^v/v(v|g_v:v<v[vug{s}vD$L/5}17Sal*v&3&/*n&>;X&S*B=5aP)z-d*f&P*N*P=C&]&p&e&(&`*k^{& =p&l;v=d*p&Sa>;B=S=p&{&>;p&o&T&l)[,U*T&t=K&R*C&B$f&W)`*2=N**)|&6-v=E=Q&K&|&J[h/N{[$O#e>|vxgFg1v2v3vh74v^g@15v6v7vf58v9v0v>=av7~a;f8E-4&<&)*/*X*y=R^#=<&g/D-z=N&B=D=E*a$p&}=|=J&'8{/u#7!d*l*^>t=d*N*g'.{s^W/7=1=i=p&c&n&v=a*N*n&>;!*X&g{u/70bvf&+*v&a*<=t*b&u$E$!*d'w))^&%2*t=<*p$)^a$e/c'P)J~P<T*<*i=h'r;E*Z&c=*)y=8/O=~^H<h&m-`c@{/(n{cvo#+aM$!/i)Z]($t^!^j^&$G#&$O^d$g$($S#{$%%;^M/+%$$y~b{6{r#!%g$]~y&-'ws==b*{7:/QtW&,ah=J&1*}&e^7=P]R#p&L*#{",
"dv5$C=-!o=g*;&k=-&**v&;>464/)$t]X=r&N=!*4&BsK4K$1!C]I]o/E^1!n$D^E#s^A4.$&*-'b&s[b5|#*%h/f$H<Z)_})^T*e&g$d^z$Z]c'w$k)~$c=i)R*/&^*C&]$f&O<j)p&**p&<=e/-&p$2*l>R^F=X*v=t=}&T*Z&f$d[i)B&%' ^/&/&)>D=!&V&y=c=K&&4c'l*C&t=n&p&>;Z&N&l=C&O&J-`=J]j/r%D$qiev/,luu'w'`*D'V&*[t=Z&_*T-;!_6:,:*u^D=7$fvL^e*d$b^v&p$5^d0k=V-`aZ)k#X]*5'!E^p#X[z=<&7'V&c=}[z$-&b*O&v=2$J'c'~*/=i=n'Q&p&T&C*W]Z&t=/&b$-)>;>;>;:&d*K&9^C=b*<*-)4$w)b&E) =+^)&S*O&i=Z&{&<**)d'E*(&/*-&t=p&|$I&K&r;`a1,E2I^Z$r%Ntgvg%k$u$hv>%r/o$r#)9f$iv)^jvI$E$Otkv~$^ek#X$r$!$3$v#7,[${%*uf#L^lvS/j^,3S~4=i=~*<*+*k=9*D*C&E*O&5&4&<*w=9,)*]&(&F)H)J&v=N=i=V*k=)*p&I-p&d*d'i=X*#=T*p&P=(&<*t=p*Q*-)5$=&C&_=t=;!q*e/p&G#F=p&4&#=4*g&/&_)b*~;}5x/I^96mv%$k=m*L)$-/&k'l;[&h'~*O')*h&C&g>z-Z&P]i=.)7=>&Z=-'+c)&-'|&V=n-p&2*Sau&u%e-;&f&v*)&a;f=4!W5]^r%nvo&H&-&~>F)I&1'V2($}7P]`ae*>;L=;&#97=+)C*E-[uc&/#y<Z~ovH&Z&v=9,Q*%)2(z$v*C*e/o&0,p*0,,=~)d*9,c&l><*0,E$V&D&H&|,n&]}e&O&T*P]-'O0&*W=t$d*T~pv+%q#qvrv))J~(^+a&*Q#N<W]L#J'[^ju 9h^C(%$d>7%]7h$%$@(8'1^F$9tz{7$%%P%f;+)R^(&Q&vuF8x7;]5&c*B=m&I&)&O&K=o&!*u%{-&'",
"sv]&N&z!v&=*N&(&f0L*z=S=*3~/E#;'X=V&W&p*k=E41{[/x]`6o;}7$70$x]($h$x7C^!/')9^@*#{q5R/x0n$ ^q*($m'g*P#^*g$&^7$d>J'f$t^J'z$&^X^>^b*V=%)-'>;>;p&K&tvX*<&7= ^B&k)Z^J'h/K&J'!&Z^-'v&%)|&2%%'d*|$D->;R^o$P=)&2$T*v=v&tiD-u%k=s&v&z-C*T*(,}=c=J^uv{$Q#vvwvF=n'^*C&N&|&~;t^p$**f&e*)*|&Z)e&b*/=*)1&@-**b&Q*z=e*g&K&`=O=g*[*o&O&`=&uv4l#+&.]h5H*L~>;sh|rc=v=K&D-2$<*N&a$_=/bv=>;I=U=b*T*f&T*v=K&p$a*m'P]o&#rv*C*1&k*-!b&o&<*X^/*K& ^-)`*,=D->;|&f&p&A=!&u&D=p$#=A=c$c'***)-!3-m{q4x]$^o!!)p&1*l*L=C*O&{&a$G-c&b&^*(&,*J9&%H&*)p&U=O&-!w&u-Q*F&]&]*(,:,A= *H=x<o!h%R/s{:&c'/&Z^|,T*E)K&Q&^*8&K&:&f&z=+=u^U=C*|,X*K&c*;&[*C*p&z-K&)*X&U*(,]&s$C*(>x&p&p&V&i=a*@-d*{&X*O&7=q}f&:,O&C&3*(&'*2$(&f&>;(&t=P972EbJ^e-uaS=k)J- -]&z-r&Z&2*7=z-L*y&Z&f&O&(&p&|$<*F&e^p$**(&t=D=z-;&1&N*f&(&:-<*7&H*t*&^v=P]c*L&C&+>O#J/n7O=2,e^t=:}N*!-%d`7B^';E)F=R*,*g&F-V&d^r*p*9^a-^0z<m]`01&,=H&Z^v*B=y=#=F*T*k=H)%'*^{&0,D={&9^n'o$>;i)l;V=6-.$!&A=+=w)&*2$7$3^c'**X^-*[{T~p#!7~~]}X^ ^|&]}'/9^!///D$g^J^t$&*a$7%!/#/x^t$%/_8A^!^%%:/[/Ya-]r#F#}tA|W98&f&y=r&z<E#864,g&f&F&k^X*X*2$;&}&<=4!S~",
"=b**1=_,!&/*0-c&2=<=,&_*q#1/8%.]Gbw=k':&l=S!D]v$I^<{<!M/$5a/U$s/4/Q#)#a^G#-co**{v/D/=^5$D-&% ^e/e&o$h$b$K)4^|9}69^u%J'l>1$F=d*9^C*T*v*p&-&E$D-7}0,R^v&H)d$9,w)v=<*u-:,d$>;[}J9H)X*f&/%D-K&^*a$d'==<*{!7=j)c=l><*V&!*g&4&<&b&]}/*r;`)L*33p'$$F$/~t^)&w&';R^{&e&R#7=p&-'v*d'7=}&'&-'F){&U*+*9/z-d'c&e&**h/:}>&/&b*o&*)N&2$s$N)@(q/o/[{<*xvp&|!-&u-k=k)A=A=o&f>>;p*y=V=2$s-;&z-v=l>t=o&C*k=1&~*7=k=t-k)O&p&)*c=B=(&Z&F=u-p*p&X*D't=C*>;y=p&[*b*w)v&+^X*y=v=c&yvc*(&O[Z&p}%$'^^(zv~e|u+^**@*d[B=Mqp$e&1=|$e&v*K&b&#=-;A=d*l*A=~=d'}=v-%;;&e/*- *Y)l*D-Avu}o/$7V{h)+!D-V-_=F&3*V-V=d*Y)|=i*>;o<K&N&[*i=c=]&[&O&f><*@=c=U*}&R#('{&h'$-V-u&-&:,V-p&(&t=g*;&J',*R*l;I)B=V&f&>;,>C*P*!&A=>;Q*`*3&k&q3:/C^FsBv1&Y*d^y&e&^*t*d*,&%*,;;&{!v=T&-)b*F&>;7=l*|&=*P)4&f&(&>;r*g&M*H*Z*X]n;>;1=e/X*1&_&K&;&@*~-J#h$F/Ju+)5&4^ *P*C*u'|3&*r%kau%+=m*v*;&H&x*f&-'-'p*O&l#CvI/.>Dv('E)d^s&t-,>c=s*[*V&D-P<F&O&(&e/V=p$d'R#5$Z]a$p$ !|&t=c'`<^*5$d>E$|&]$F^d*g]i{D/$5P[<&v*EvZ^_rF=p$ ^ /7%M#.^p^4^u%J^g$H/9$h$$/.$;^:/6$o/0$1/m{<>;$Q/b5Fv#=H=1*==3*x0)5:]Q-m*F=-&O&+*H)d*X&**<*O'`4",
"Gv<=v*3-d*e&B'|$R& *-&z&z{2^K)q5R1B*{&T&J*&|T~87y<;]c3J#@(4%v$k$y~.$Q^s^t$!^;-Q{](m]X9 )M#'/Y9z$%'9^M^P<D=F^b$2$i)k=O===t^&%9,Y9R^d$v=p$t=m>f&d'a$A=L&d'%'Z)O<D->;W9o&u^7=t=Z^R#O&v=9^v*l92$A=a$<*o&,&f&>;/*(&Q&v&T&>;-'d'p$>;O&>;[*n!^{y~1!p44g|&<*d$]&i=`*u=7=X]m'L=T&V=*;^> a9=l*r-k=d*V=|&L=!&d&E*e&F) =g&y=X^0&5&z-<&7=)#O/$$T@o;Q-i)d*!$I&f&{&O&v=K&1&7=Z^i*`*L-:,9/v*}&K&N&7=,>:&1*C*}&:,!*M&c=9,k=X]f&9/2*|,i=N&/&Z)A-P=z$-'-'w)S*)*I=g&J&z&-&F=k=>;r*Z&r;44j/2{E^L&)^.)N*e&Q*O&)*%'_*<*r&|&r;O&/&D&(&{-R&>;g&c=a*r&1&/&]&s$u&f[-&k=N*E*#=t=N*6$E/v/j>2=X&p&>;1&d*I&u&0=X*v=d*n&/&t&@-v<D=:&c'2*X&B=v=;&]&-&H*-;9,V&q*f&N*(&p&p&Y)U*C&1*T*o$`*T&%'F=9,i&e&p&-'t*F=B=1&+*Z&'-J&u*o2)!x0$/l}E'k=z&p$>;)*7*!&F=/!X*%;o&)>X*k=A=i){&;&L&C&y&p$ -{*B=/&+*},]&Ng:'C&!=q*c&9,=>b&e&p*X*n&t$5*w<E#+&VtT*F)`*R*F=a*~-^08'H8J[!&A=W&f&F&w=_*X&c*;&S*i*Hvl5n>c{=&I)a$1*Z)5'<*]&D=2$i)-!5$k)c*B=n;h'R#U*E*T*i=c'D-v=|91&d^K&<*e^8&3^s$+^3*j/0{1#,37*t&^*Z)w)9/e/&*&4O^8%R^~^t$n9)9d>i)2$m8.$a$x^z^>^C^g#4/O#4/>{Atb%9'b)Iv:$d*l*G&n-y<a%@7v-h&v=b*l;[&t*&*D-g&Jv%;/{",
"''V$g&!&k=!&9/d'M=)&v*Z*g{g^&%%#XrT&Z&X]-&@;]{v^yae{  $$:/$$}7b5Q#&*0$R^D$3/g)T~](D5S)J=o$V=]$j)V=R^b$1^[^f$E)J'&/R^p$R^&%K&F=9/L)0,O&t={&a^V=V&X*/*Y)}&E*D=)^u^5$V=Q&y=J[L&X^e&9^J']}o$M^Z&O&e*.^|&F&2$P=c'dj[&k=l*8/K&E*T*)&{&s&t&K4)4d26$Kvx^d'P]d':'D'-'d^C&$-M<;[i=X*p*J'v*F&+;O&v-!*;&z-t=**C&-!q*d*r=,>K& =t-e&y=<*J'Lvc{U$O#b{'!~)m>K&&*v=t=2*w&p$>;d'i*J[/-^>a^!&h'-'v&;&l;(&R^w&K&k=>;<=C*l>m;Z^F=Q&e&D-A=&^E*+*y& *}&F^Z)I&y&V=C*'),aT&t*X*^>==Z&<*L*]94{y/$^[0[gv={&r*N*9=C&i)j&<=K&<*v*-&&*1-C*d*v*,&e&{*(>v=k*[,c'r&V-d'J'|2e&N*';OtMvNvv6O#v/l5Ov~*L&]&v=-&-&>;<*]=*)K&h[)*|,w)!&{&I&v&k=C'z-Q&^>;&p$p&d'D-Z&F&c&D=6*p&c'F& ^k)n'-'E*V*Z&C=5*Y){&d*w)c=-&>;f&n;e&9=k*R^`7N]I^/8*37;N*k=R*_=}[r=$-c=>;K&v=d'%)x-r&e&D=V&y=)^w$t^C&g&/)`&i='*k=F&{*)*v*N*K=<*)*/-'&+*p&,[d'(&&!:&g64/K$|~K&Y)c=e/T*p&e-u}[/l#A[1*)*^*d*k*d*8/V*>;+*N*x&u*R;]7j/3}h>-)C*!*c'<&-)/!N*)^2$h'}&c*h'-'k)F)2$>;'),>P<$-d^`<H)C&u$-'e*u^4&P<B$2{23!%~7o*$[&$c']$#^-'b%5(}6)/b$&/s^E##$,>;^[^a$O^J^A$B^9$q'{$B$%$]7%$%&g{E'o/;'y!c=W&X*O&/- 7;^762&e/N*F&o&N&k=3&(&b&p&B'X3",
"o6J&X&=&q*>>F&p&c=H*2*+*J#y<8'n[$>F&6-C*F&S[/3!(x/h{:4,3*%x^O/%$*%M#d2!9d>m^(&U~D/z6@8 (o^/[>'w)]$&[p$~$Z).^&*>/X^Z)&^J'Z)k^#/>;v=v*m*Z^J'-)k=T&SaD-v=>;/&<*n'i=)^|$,>H)|,p$O&#/b$t=w)Y92$P0>;l;|&J'5$e&k={*c=|,O<X&^>-)C&c&)*R*O&+]X'x]4/Q#W&7=R^)*y=-'a*O&k*e&t=@=t=P*o$/!Z&==Z);&u&u-,>c*@/o&p&S*@-^*2*m&Y)c&w):7T*l>T&k)'^V*G8U$1!92d)a$)*d*v=p$h'>;v=N&#=V&Y->;O&#=d'>;3&C*s$p&c'b&b&T*<=p&(>E*c*L&W&Z=D&e&d'u-g&F&qqd'7=y=^*>;N&-&{&f&b$d*l*b&<$5'L):}O&H*:3M/kl*%Xr8'e/c*G&N*D=b&,>,>z-{&h*<*'=9=Y-J',>(&c*g>/*l*,*t=;&Z&o&3&6*9*w$/;k=#=y=5$1$_;S%~e+7A2 ;|=5*N*_=<*)*<*I&c*<*v&/&#=d&<=s&'&2&O=_=V<g>c'9-n-e&N&b*,>l*_&N-/;v=5aC&!*g&Q*X*-&7*C&B=t-1&P*R#Z&c'R^!*:&w=c'=;s&;>X;X%E#<<Pv#/+;O&Z=V&i=V*Us6*J=p&O&r&c'**t=d'V&W&-&#=y&Ma[*y&F=j*`&+=[&v&^=E*c&l*W]T*3&5&C*c*>;P)4^/&Z&M'C{1^|#2!P)>;d*>;R-w&7*tugcB^S37~r*i=D=D-o&+*6*V*]&h&g*D=uqg]y/w56eh)f/f&O0o&O&2$E*u-t=Z^O=D-*)k=d'X*l>2*X*i^2$m*v=<*4^S*i)0^i=J'o&s&]^={S%X'k=a~R09,g$R^Z=d']9@/8'>^z-n^W]|/ ^8%;^&/7%[89$n^)5l#1^q'[/j/w/o!Z~a6B$I^1!1;F=Z^:,t^%=O#]$t7:&k=z-e&A=J'v=7=N*ki|&)&R~",
"D~p*E*9/~)<&@*B=I~m&v=V*Q%)^D$}^h!W&V&]&_)]ul].$b)h5=8o!v79%4/'!.4%%E#d$~$;^v*M{I/z5d'Qv#/ ^7$B$e^w)e&z$n$t=fv/ui=l>/&-'<$e^|$F^S=V-5*v*j)o$(&z$P)h'`)v=D-W=a$P#(&w$v&*^-'v=w)b&b$/&Z) /!&J'v*e^&4K&d*:&F&/*o&z-c*d'1(S=F=5$k^)-}&#}k0</80)vd^Rvv*v=F*Z*D-e&f&|&,[K&~^{&I)X]I)T*t=e&J&D-O&2*f&Z^Z)!*T&D-E*p$<*^>w)m>w)4^b$^*i=Svd]B7d#C{4{o)i)n'V&,=j)X*v*^>@*[*L)(a},q*A=7=~=@*o&p$-'V*d'H)T&e/T*7=v*)*X*#=k=L&|,P])*X*e&F=t=i=b*r*c=P)N*i=K&7=5*9,0,*)r*c=Z&T@[{U#.}`3Tv{&m-5au-p&s&B=N&_*f&V-O[d*I&-'^*l>]})*u$-&V*p*{&C*O&W&9/N*}&c*|&v=+*e*X&L&p&)~00O#M/jr/8W)E*!&4&-&/=m&h*Z^o&O=X*=&:,f&U*c'3&E*O&v*K&]*k*v=)*)&v*Z&D=b*p&C*v=/*K&p&X*A=c*O&D-1&V&J*p&V-p&7=r*<*L&(&v&I&F~O'I/z{}7.}9^Uv)/>;r$z0,>t*Sa;&F=d*>;3*a*M<L&p&P=:,c'1&-&a$p&+*p&},9=y&k=u-N*#=9/Z&L*~*p&#=/&N=>;Z&k=;[d'p$ki9#/9v/f!c'e-V*{&I&Y)g*I^.$Vv6]N<r=@*O&/-p&9=k)n&e*E*|&o&e&u%rd^%b{t39-<up*q9v=1&J'J'D=d'==-'|,B$w$F^F)F=3&D=m'w))^}&W]t=k=5^O=t=%)8'E][$1#'bmrR#0,K&g*7%P]6^O0F=<*0)b$0$R^#/a$&*Z]o/X^h/%$==8%!^C^h$)$!%b) %k{Wvn$]7X%]~7=L-T*K=V&#8D$m]W&,a/%]&z-C&X]}&.)e^y&l=U7",
"Xvk=Q&`*;*X*l*Z&F&!*]&c*86h/,^h%[-},!&-&_>*5@{U$3{g{F]r%|7o!)$s/h$O^q' 7D$j^=~a{$$D5S)w$)^Z)#/d>-)a*p$M^8'a$!^d^p$p$%'t$,>|$X^+^Y9j)5$e&,>D-@3+!k)<*)^2$k*/;o&e/D=2$5$O)v=d'T*f&R^O<5$|,W'e&v=,>7=]&>;^>F&@=<&b$v*e&X^5&b&[&N&&)B8|qu/F$'&Yv)^/u**y=F)F=%^V&L&6^v&U*y=J&9=v=J-y=<&{&m;Z^!&v=p&T*v=p&D-<&!*F&T&9,[& =e&t=E)O&A=&*H|W$x7'!_4T&(>3&{*'&b*Q&p&A=N*p&k)-'(&J'e/O&k=N&2*~*d*1&E='&V=y&+=5'1&*);&F=(&2$e&V<7&^>>&)*}&d')&%'c'o$<*F&p*A=T*T*9=V&t=:,z&O2ZvE#g6'2F<Y)=&}=X*F*n'j&g&7=c' ^c*:&L&v&/&c=^>)>;[#='&I&F*3*/&O&J'`*_=)&X&4=d^c=x&!&E=[$)g^$$$_8H4*~`vO<l*]&O&H)c'J&/&]&K&s-6&,;d*-;B=N&w=i)d*y=C&u&C&,;z${&t=T*c*(>d*i=Q&;&F&v*F)d'P*N&Q&[&E*T&V&2=v&d*R#@=K&i*|!I=x2K$x]v4j7A=d^{[6&=&v=b*/&Sa>;D-e>-')*u-T*Z&Q&e&R^{&y=d'2({*F^ *D-U*~=B*C=O&v*O&y=T&n&i=!&b$Q&*aK=;&K&P=R#Qt[/*%0!X#_=[*`=+*h&V)(-O/%%W@63D):'<*X&N*]&|tu&1*[*U&(&p&~1 w87u#c2#]Q)M<w)2$&^4&.$2$)^P]P#5^-)}*i=W92$9,]$a$V===J[D-V&-&}&H8,>f$Y[)4o!#b.w!^c'+4d*D=d'@/D=R^2$&*9$]&y^t$&%>[]^Q#[/a^t^]/t$K$q'E#x^+(&#y~y<o]T{.$E/1!6|X^ *V&1&W& sy~[({*k=y=;&)*/*a$@-K&';f[>=+{",
"-~c&T]O&/&.*h'Q*!&C*w={&~%+w>^>44!7=y=p&a*7!q{C/.4&{.&*%&#y<r%g^K$ %r%r$g^u$r*(3V%V%//[}E=v<c'a$)^d'm>_/.^p$^98%v=^*J'Y95$2$Z^k)X*|$/;**O& ^i=T&(&t=y=k)d'x'V& !E&)^o$<&**k=t$1(|&*^d'9)R*T*{&X^u^X]r*p&C*{&y=v*}&F=A=`*,*%^!&F)J]Z/o!p6Ys**t=,>r&V*w)d'D-1&D-e*N*6*J9F=!&k= -=-c=t*2*4^O&T*i=K&d*v=-*l;=>(&>[c= =^>b*G#d*l;B&B=>-tuC/t$K/o2@wO&T=k=e/d&n'&*F&K&N&-)9=z-1&f&V&f&J'c=k*(&!&%;1*-'k=u-1&v=d'B='/N*p&F=Q&N&2$+!c&p&b&P<o$)^]$`*c*/*e&Q*i&R*o&*-H%#wb)Q#2^-&E=z-!*t-0,s&M*R^J&D-)*-'!&<*]}J&c=`*y=N&s&p*I8,*W&1$p&q*p&l*X&Z]9/>&B&)*&=N*e=N&}ur/D#C%4]H{$wv=2*c'c=*)u&X*k=!&X&A=,[N*(&<*K&7*~)P=]&<=w=B=e/v*C*)>>;V&k=k={*t&u=V*I~C&!&i=O&v=t=]$B&a$R^I&d*9,b&c'O&*& *:3%uD$s^(~ !V& *C&F=I)p$m>d&b&u-}&y=)*y=!&ka<*+*c'<*E=E*g*V&E*X&l*(&@-z&o=p&c*%**)~;a*Z){&F&v*v*Q*X*H&v&t*N=h5|^~/L~'-%wu&[*z$#=:&7-c6U$M#*(&w/=f&d's&k*N*(*7-v*fa,;o&)*&gm[F$x]G4;/8tD&R^,>h&**O=p&F*>;^*u^V&J[n'X]k=p$X*%)p;u$-!e&d^-',=a$>}2{E#2$*wq'u^t^X#<$`].^N&==z$%'d$S)*)S*`]X]d$Q#a^_/3^9^~/o^~$>^g$]^!^M/D^<2D]z{~$!%w/(|v&F&l*e/'>|7d>|]w-!&t=C'o&V=g*&!X&d'q*A-y[",
"*'!*/&-&t^X*y&c=X6,*v&;>I%wh1^## ~X&`=V-I&9;<4o/:^[{<!l#J5.$z#P$9^8^A^u%W/X#/!@{}^y]n8p$P<7$S*.^d'^*|,5$d'k)H8E===9,t$5$!/K&+cM<Z)#$`]A/]$<*+^P=t=+* !v=`]^&Z)O&R*2*V&!&R^)*-'},@-p$e^c'n&<*R#/&m-R#^=c'>;v*{&f&**$-k)R#7=K&A~+5e].#nlY!9/U<F*P=v*p&e&)*<=d'=wT*S*v*O)V&k=B=N&/*p*]&c&o&>;]&e&z-p&>;Q&/&|&-!X*Z&]}:&d'^*c*e&t=<*,*:6`5K$b)Y~<^'-#=9*E=K&7=<*/=D-o=z-b*+*>;!&/&d'a*e/<*B=w=b&P]v*n'v*y=d*O&Jbe/o&ua9=O&I&,>v*Q&7=2*t=|,+*>;n'b$|,p$4&<*X]I)z=K43^C/<]|gd$c=D&p*~*x')*X*U=V&X]Q&+!y&F&o&X]!&{*F&B*S=u^H)}=Sa'&v*d's&3*7=F)t^F=n'!&t*v*T*Z^X]Iv!f[$y<j>mj`v>;z$V-D-r*V*F*v&E*T*q*d*V&(&9*e>O&3&d'X*i)]&X*A=v&>;>;V-/&k=e&9,p&>;a*k=)>b*N&d*y=*)a$(&f&g&c'C*/*~-`]T*!/r{C^O#Reg~w=5'{&O&r*]&i=f&k=-&c'^*C&2$5*0,L&2=e&y=a$c'}&p&<*|,l*`&K&X*@*_>a*;&9*K&7=F=u-*)O&u-S=y=!*+*B&6*n&L%q't$7&(,v&n'z$3*T&g/&%Y!)!r$.7t]t[vop&T**as-z=#=,;C*N&)*`*Z)-wn2M/A[43!*c=E$<$Z)Z^V&i)N&e/>;t=d'**t^N&p$X^e&|r^*9^A=v=o&y= 9H4w/18*^]~9/%'Z^G#R^2*d^v*~^b&h&R*9$*^x^5(H)m>5^E)M<s^%'I<g$8'y<P<s^d#W@,}B^B^R{V{E'B^[/$t$!X&u-!&d=j^O^t{D'/;v=V&a*P6O&k*F&!*{&I&5{",
"o6X*m-X*~;V&!*P*v*T&)*3*30~/p9n%Z6U=v*{&%*7!=6x7c%=8/3$$o/x]/9&#1^{$g$Q^3^6#G&.&*%b6Q#;wR^2%d'j^A=H)t$J=H819,=F^p$^*F=t=o$,=d*P#b*e/R#T*-'*^`]F)<*,=t=W&B=K&c'V=M<d'<&&4q*W9*^h'e/9/*^b&g&-'|&V&v=e&G&V&B&X]D-e*p&i&A=-!1*c&-0i{@($$`ctq^>T&c=a%l;f&g&,*d^<*d'H*N&e&F^p*^>3&<*)&7=t=)>f&w&i)v*>;d*;&e&M*F)c'd*C*Q*,>c=v=V-*)v*t*J'4&u/'!!%nl337*l>Y)k)~)k)e&u-+^1&e&v=Z)$0^**&T=P]d'X*T=d*F=E=(&z-K&Q&{&i=(&F)w)N*2$;&a*7=y={&T***p* ^a*`=h'l*v&t=d*k):$3=33D5x74/M#R*m&n&l;**L*|&v&f&/&:}E*>;i=d*/be&H)Rac=~*G*v*e*X&d*{&V-q=S=-'D-N&U*!*p&Z&|,{&-&e&2=V=p$B'#7;#)4W~>wM*0=u^A=v-)*F&>;N&C&3&D-,;i=V*]*)&v-c*y={&c*c={&d[n&+)o&>;f&|,@=T*Z^/*b*q*n'~=B*X]c& !b&C'd*p$J-1&n'}&#)T2M/:/Y/!uh%G&dcC&y&c=B=D=L&A=r;V&D-v=(&T*A=v*n'K&p$**w={&e^**V-<*D=V*@*X&y=U-K&t^Z&P=t*,&^>e&K&9=;&-&h'}&d*<&j%D^:/x~3*-&v=-&^>e/)&==x*<^]7}7Q#)]m37'B={&(&B=v<{&^>@-^>)&~;,=,wF/|^m]'w1*g*V&P=L*|,d'|,e&D-Z^p&A=z$8%/&2*Q^4^t=<&^*&)X*:/C[}^b).$gg>'Z)5$e^P=,[[^w$l>X*b&1^]^t^]$n^ ^5$o$8%8/u%M^c'd$&/9^;^F#9$]71!([b%A$M{'4a%Q#v7)wj'p&d''&,*i/M#d]<*o&E*t=k=D=>;D-#=*&c=_*cc",
"h-0,-!i*1=_>!*i=q*X&Q&J'J# 97$-(S-i=d&>;},hc*}M){7t{1{6$b5d#7%S<E#d#t$K$`]a^{&o>F/#7')ck>;2$5$**F=J'F*J'1^)^&^l>P<X^D=P#1&7$9^V&*^^*c*V<b&k^y=2$f[J&<$2*,&K&E)7=O&c'H=b$X*i)k=k)u%7=0,O&1&>;9,]&B&t*D=)*R#-;e*a*:&*)`]Y-;=A-I2X@$$;':va/P<6*k=4&~^J'v&y&F))^<*b&|&-']$p$T*t=o&_>+*/&l><*c$B=w=e*F&8&-&p*Z^d'v=e^E*V<^*Z]T*<*w$p$^>n'$&=81!s/y]s]!&K&P)d[t=t=<*d'P)t=u$b*u^~*C&Q&-&f&w=/*E*T&1&N*@=A=,&p&D-Z)|&V&f&p&L-F&n'X*J'g/}&*^u&O&2*v=p&Z&<*E*)/L*J'znp^y<76!wz-d*8,m&9/p*V=y&p&L*r*e^`*@-1&y=t=v=4^p*i=0,l*>;c=U*K&i)e/R^9/p&)*b*p$O&4&k=l*c&T*v=F&|& 4tux^)5g{h^W)/&O&W9w=d*d*v*h'b*c=n'{&d*e&R#_*L&J=;&J&{&E*J&E*J&w->;(,|&h''=<*9,)>]$o&R#C&n'd*v=T&!*k=Y-Z^O)a*~wQ*{wC{r%x]Oep-!&w=:=,=r;p&(&n'c*7=C*2*l*]&D=l*p$C&z-(&T*:&p$%'Z&H)@=!*0,(&O&4&t*y=b*v&v&T***[*&)k=L=N&m*u&)*W&(&p&{$/99$$=]wd*D-n*+*r&^>q*t=W|^w97M~R/w5B]3-V-X&H&K&V*O&k={)h[d'3;O-9%9'F#^{46&!'/6af&<*t=w$o$z$k)o$Z^u^<*7/Q&Z^S*X*J',>t=o^Y=R/y~18Cu($F^t=V=X^}*#b.^]$J']$v=V&M<M<**a^9^|&)^7$;/Z^Z]O<]$9^%'&$B^%$[$x7/w:/%%4{@>C$.#S%_-:})*v*1&v=d2M$<]/&5*c=j)c=Y)D-v=>;H&l*6-V2",
"roc=}&R^~)C&;[l>J-N*e&b&]%h2.$=%;~:,v=p*'->~Z{b,w/Y{a{o/Q/+&:^s^D^l#F$8%E#8'{&@>D/5}[/J9]}z-p$4^|&f$d>.^Z^z$V=1^5$)^d'2$A=M^G#F=v=e&'/**D=-;d&J[)>)>-'T*9=A=k=2*k=B=V&P]D-#/K&t=d$.^p$T&t$c*]}o&E)-'<&-)F)Z^7=L&{&>;y=t*f[(ws5m/|^d#-&p*l>:$v=,>(,k=t=v-u%e&-'J~d'e&==<*d^L*1&X&,&W=_=l*v*<*c=)&[&l*V&}*a$f&F&1&U&)&p*9/t=P)-'V&v&v=4$_wR/O#/(33@)O[v*t=d*B=,>f>p)N&5$V&`](&-'0=:7D=X*2*^*P)2&e&B=J&i=D-h'p&O&o$-&e&c&l*r*^*)>y=='Z*v&#=`&!&c*W]<&w=^*f*J4P%o/6$to;#d'UsX*O&|&O&h*9,a$X*1&2$a*JbD&|=C&J'{&JbX&)*==9=U&y&F)s$p&D-/&N*x'N&d*/*o&E*V&z-<*`ty=Z&l#%*0#7$<2<!T'2$D-#*7=h'-;B=-!b*v*T*j*B=t=N&9=<*b*a$M<}&2*H&-':}I&O&K&V&(,t=v=T&**t=;&-'-;)&{*$0Z&c=p$q*W&!&1$v&f*x21!E#/(:wM^-#O=|,f&(&<*p&p&v&9,/&c=!/`]i=E*p*b&:&t*Q&/&{&N&f&V&p&)^c&},1&q=-'N*u=o&T*_*-'T*0*(&)*U-v=}&'&r*K&L)9' 98'k4&-&4B=W&-&l*^*F&y=V#{2i$y~E8I/y]G]z&^!5*<*d*<*F)3&!*B*G&O-Lve3w/y4%{^>P#z-n&z-i=e&#^p*E)k=D=M<e%}6M#n'%'p$b*('<wP2h%x)a#XuQ#1$D={^@/H)z$ =Z)p$/&J'Q&b&^*l>%'w)x^t$}6g/o^g^)^Q^t^*^)^x^O#.$J^(^y<]7&#*}&{g$x]2{[wP)o&!&K&:&s/J^70{!w)A=X**)h&D=(&t=n;F)H=C[",
"}!N*t=Y<7=-&`&)=J&e>]&ki~%-4M^'!/=)&v*M*-&4-<!K/Y'a,${$7w/,34/4$8%E#t^R^d#c'/*/{z#P%M#P#Z]-)k=2}u8o&p$/!Z^u%t*n9M^V&M<~^8/q9==t^7$b$-'E=a$L&X*m'/&%)0,`]a*T*c&%'},K&a*t-E*F&*;H*#$~^9/d'M^^>'&e&f=R#'///o&V&p&D-m&-&2*v&r*.5b#o/H]C}2$E*)>P<a$y=w)A={*p&b&H=a$#=e&V=c&c'>;p$Y9h*O=e/|,T*w$p$v*<*Q&c'v*v*(&b$2$N&X*o&O&I)!&D=r*Z&d*u&A=a;$v]7y<o!u{'-,=Q*2*|,R*K&2&W9;[o$t=U*H&)*s&m&**K&R#v=@-D-|&p$#={&O<C&2*)&P)-&3*b*V&W9v*0=g*T*K&2$d*naF&D&E=%;{&m4vdo/Er/sZ-X]-'P)/&F=Z^]&)&.)F=[eX&E*D=]&}&d*c=b*X*]&(&>;r;1&<&F*M*N&c'F&H&r*<&/*y&L&2*I&t*J'}=v=k=V&-&j-x#klb)}w>4i*O&o&z=N*>;1&p&O&U*:&V&|=`*Q&V&X&h&E*E=;&y=d'b&~*r*^*e/e&e&p&E*p&v=]&^*a*c=R^v=k)w=#=z$ *a*L&P&_,  E5H/$71^E=g=**J~[*<*#=b*s&d'D-d^v=7}]&N&N&C*c'R&e&d*N*E)*)k=v&(>/!n'c*]&d*9,i=R*C&b*N&R#T*u-D-t&N*K&]&o=T*w)@*c$c*.7s/<4Y&d*-&T&f&/&'*B=5*@=Z)+=Z$Z/c%T/@{6]]6W<{[o&p&v=k=E*^>2*h*v<|wL%g$N5c{_)W9p$U*t$p$D=~*Q&d'O&f$|,5^<&)>w)o&w$h^15)!Y'`5*0.^*^D-)^K& =-'k=E=O<d^t^Z^Z^d'F)J'd$ =X^d'&^N<(^T*M#L&]^o$A^s^|^8%4/K$>^I/4/C[[{7$h$}7j~N-=>m;Z^]&m4!/c)p&p&19(-v&B=`*-'b*]*o&W&C[",
"1w0=V*g)<&k=I-3*H)[*U- *Q%#^8',3V@b&**^>C*~rc3{$y~o]4{&$d#.9]7I^0$5/.$c07%7$P*A{y6z6N^L^A^1$1$H)@3T*:[h'%'^*b%K&**t=a$Z^2$e*D= !l>N<A=2$^*p*<*>;D-**p&uab&a$i)P]a$P<1*<*9/{&(&c=>&i=K&J'!&D-L&(&e&p&V&!/|$},v*<&**H8E=@*F{j2X%x]Z-2wc$ )0,v*-'2$E*9= =7=O&O=D=A=**v&D-K&!&F=,>T&d*I&b$k)L&e&#=c'/=v&U=)*&4X*(>/&*!7=(*d*k=E*>; *e&c'{^-)Z6%#p#b,  ('T*o&B=(&V=R*X*g* ^>;d'2$2**)5^P)P<d'X*V&l;<&v=>;>;e*v=T&<&},n&J&>;f&k)0,z$#='&a$p&)>5$<*G#s&6-v&W)m3[$6$P%3wt^A=J'<=1&i=t=3&X])*f&B=2$T*J&d'7,b&<*{&v*N*n&u&v=)*)*]&='2$C*Z&N*C*+=1&X*l*r*U*J93*e&,=D-w$0,@c4w@()#u5j>c&s&X*Y)l*-)*^D=K&(,C&C*P)0*Q&I&+*K&t*H)7=M^O&<*>;c=t=^>l*o&c=t*c=k)4&3&F==&<*A^v=v=';^**)i===&[}uM3K$.45wyg}$k*C&7$(&V&m&W)(&-'f&d*3*F&v=t=w=_=;&2*B=e&V=z$/!F=>;L&F);&A=Z*X*R*)*k*J'F=V&Z&x&l*P]F=@=U&O=H&K&2$h*C&V<%7%7;],[=!]&J-Q&T*Z&b$Y*c'u-v-z&p{-#l#;'93@(G*d=d')&N&@)_*]&|&'=_=:=Z$z<9$A{Z! ^C*e/C*9/T&t-4^5^b$.^F)s$H)#=Z)k=u)s2E/S%6w#1+%R^a$y=F=}6u$Q&V=2$P=t^W=2$1&V=E$5$R^($}6X*]$)5s^!5'$u%a$Z^:8)^u$X8z#K$c%P$)5<!l52%r%$$@;o&!&<*}&'b]/8%C<N-I&*^==';i=A=,>P*F*9=6*C[",
"7wt*H&*;C*]&}&%=T]l**99=a#r^&*)48wy=~*B'M*V@<!q/y~:4=}n>y~F/,39$;^h$t^4^D$7%)&.&I/%7O^VrD=V=Z]d$E=D-a$c'V=E)9^-)D=^*-)]$p$b$F*1aD-d'T*v=R*e*f&l>)* ^T*d'/!|,Y9J~&/|,C*c=b&R*]}7=A=//~*t^m-L=b$J'p&W<>;^*2$}&v=p&L&-)Sa//pvj/M)`cR|-!9/m*g*p$Y)^=)*K&k=j)v&v=D-2*n'W<p*/&J*z=X]A=n&E*e/1&B=2$,>t=v&T*!*t^C&2$G#q}z-(&-&M^>;d'`*8%k)|$L&~*7&I/I6s/,)j3n*u)6&e&R*_>B&H)]&z*v=>;7$T*E=d^2$T*-' *d*t-B*w)w=T*;&b*<**>a[<&==y=p&D8K&t=~;F&)&v&D-b*D-#=e&E-D5x5l4c%80{uq=g*0,h*k=9,SaC&d'k=]&OtI)c'|&-&D&Jbc'v*=aX*d'L&E=l*u$2*d*A=]&n&]&D&N*!*)*D=F&S=>;},v&F=[*)=N*t^I&P$1/1/f]#{-;|&<=)&3*R*=&<*V&**k=>>w=C&)&b&K&-'>;J9k=[&e-]&K&F&r;v&'&L*d*>;E*N*Q&V-_=/*,*K&1&(&e/B*e&K&%*m3b5O#x69wk=^=39e*g^K&N*k*3&2$d'P*(&t=k):*T&c'B=//X*:&k=;&1*O=k*P]p$l*,&(&B=i=p&;&-'T*~*~;D-<*>;!*i)C&v*Z&y=k=O&i&)*_;H]]70'V4O'/;d*O&>;8,u&,*c*)>n'3&k7L%.#q/R/H~.4r-)&K&P)a*c*L=D&2=I=T&Iv<<6$q5y<d[X*E=D=b*d'v=J'b*Y8J'V&%)h*4^|&(=t[x)]7n20wd# /#!o$l>D=p*X*v=**g*e&;[J'-&e&X^R^4^G#-'b$R^m>5$5^ ^x]V=)^u%-'B4(^($Q#2{n!*%d>o;-]P$O#/8i;v&O&W*H&X#Za4/m]D&X*(&kiL&R*2*a*P=R&p&T6m!",
"Xvn&v&k)l*a*Q*w-ki^&F&c*aw996^j/<bW&p)f&d*d)%{u#D^%{*}1^K/O#J^%$L/f#d04/g^($W-8]x]p{bwe*)8&^e/J~c'2$T<'9P<%'R#E)==Oti)R^[^o&}*M<&^(&F^t=`]&*v===]&q9-'<*7$u=X*e&v=e/}&1&>;J'(&v&d'7=Z^-'f=e&P<t=#=V&h'**<*d'1&e&D=O*;&H2U9:/-(cwt$:$V&a*I&)^h&/&d'.*K&Q&d^;!k=K&-'X^K&<=F&+=Z^<*L&';JbO)R^|&e/X&E)f&@={&-'l>C*(&p&V&p&y&5&t*B=O&O#z$u-F)S-Q]064%[$L{R^=)B=W)(&b*v*5ak)p*J&|&!&>;f&X#E*c=d$]}==y=|$I<e/:*N&d'[&,;/*o&-*v=#;K&o&#=p&;&Z^t^,&d[9,^>)>B-Q~w%+8963v ! ^[}**|&N&c'v*:&T*T&L&2$U&p&s&H*[,d&f&e&V=J9q*r&7&k)k*O=+*:,a*q*h*v=H& *Q*b$v*V=T&Q&R*c*5*J'i=%):,dwS3g^n>[{W')=J9V=v=k=5^V-X&x&I&9-C&z&V=c=c*n'<*V-!&Q&l*c=6~R*c=V&!&8,d*c*b*@*(&(&n&k*-)`*X&V&]}<&t*8&ewU{+%o/D%fw)/9/-&^>D-P*p&Z^C-v*(&<*l9n'U-d')&l;V<>;t^O&/&**c=f&U-|,!*j)v*Z&o&p&)*Q)x&c=!*Y-v=v=v&Jbd*2$c*c=@*i=L*;[d*b'Zct${7s]o;gwj)z&N&J'l= *.)N*]&&){!]6M)H/hw##st,9Z&W&N=d'@*=*c=/;z-R&z=G)*%c%a{iwO&a$*^b&k*+^X*5$J~O&Oto&+^t=;&S20'2{-}jw[$7$X^p$8%ivJ&a$Z]***^P]R^P=D=h&p$p&%^o$*^|,****5$4^;^R^9^'/Z^f^4^`^8%O#8%C%:/.8x)T~o>9$v$T@+~:}<*o&W<Esx]5(*3Z&L&k)l*|& =i=`<**T^t*M&}{",
"F~W]{&@*F=d*-&g>{&b&ki{>F/A<(^k4~r:&r*:'I&h~T~M/&#[]=}[/]74%x]a^h$#$J=4^9^h$%;!]%%M/ysZ)2$k)d>w$P=Q<<*+^-'h/P]u$e/w$)^|,F^T*d$Z)D-t=m>f$Z^{&&%z-A=>[X*2$a$7=J'-'7/T&z$%)C&P)3*@=I)V&)*/&-'Sao&a$/&d*w)5$9,V&]&**T&%=$5e{,)d2n%d=0,f&X*]&!&L&(&>;L=d'F=C*O&|,r*]&]&d*D-@*y=P<D-D-z-^*c'D=^*H*F)>%{&w=N&c*}&p&F)c&d*7=2$d*)*B=l9H*]&/*p&)&Y)2% $o/,3p'w3rt;&V*-'N&/*O&t=t*V=Z^f>*)<*c'p&p&v=5ad*i=i=f&R*/&V&E*N&o$H&)*1*c={&V&&%d'<&R*c'J'K&-)')b${-44x5C^{7#bPul;u-<*Z& *t=T*f&u-*!F)d*-'1&P*D=h*1&b${&,&)*P]{!+*O&J'>;p&c= =d*-;b&)*>;v*9,V&N*C*>;g>]&f&>;t*uae*J-<*(&{fn/97b3j-V&}&v*V*c'N*E=C*i=V-V&]&1&b&X*y=B=Q*4&/&)*_*9=c&p&o&T*o&z-V&!*<*2=T*R#b&>;b$:&^*Z&z-B=z=#}L/n>z/+0I<*-o&>;~&5*f&s&d*<*c'X*O&h&X&1&p*y=m-#9D=v*(&n'2$I&O&/*(ae>n05*z*t=t=T&[&<=/&d'c&k)6a)>K&L=l*%;,[z=%)Q&w)d*l>kw}7{%p'lw|#mw#rX&g>o*Z&c*V&N*F=a*A-t*Y/o!&#)]25R<c*|,,>u-F&F&O&^>c&;&y&-7$$D4nwK)E=d'Z^2$V&k*>;0,m>i)~^e/Y<4>57#7/sEg)(.^K&8%*)V=E$e&R^a$m--&v=v*V=X^|&F=';P<d'V=E=Z^F=t=G#D^owT^d'J'u)E)S#9$.$y/6$w/{$o/|{m{x7b5x]pw~)P-;&)>(&,8>'00:*y&('@=B=r;(,2*p&v=y&~-qw",
"rw)8#;~=6-v*N&A=|&6-a$O=S@:^g^-(to5=B=M*,=k;%&;$*%%&#{c%{7D#Y^;^Q#L/8%8%7%[^H*1{O/swq'M<e/+^5*t-]$0,**#$t^t^u)P<l>d$X]-'w=W]u$N&<*O0D=k=*^F*l>5aq* ^Q*E=e/)*M^O&)^w=p$l*u$d'9,l;v*p&W<d*p$w)y=>;p*P]u$F=-*k=<*l>C)Z-Q~n!$$![/v}*E*T*O&t=-'p$p$t*y=<*v&c=Q*!&-&R-X*o&/*2$3&O&d*t-n&k=/&i=p&N&V&D-3*%^X&<*8&F&w)C*^>h'W&i)u$T&>;D&`*K&d*y=k={&<[twK/,3Z'C^>>e&X*N&:,e^O&>;2$^=E=N&Q&G9/&h&>;~*/&y=&[X*!*|,e&o&e/`=>;K&v&/&x&{&X*#=c&N=49y=/&!*1&O=k=z3+&U$p4)ve/p*<*k[o&]$R#!*p&0=u-<*<*k=e/V*d^[*C*<*Q*S=X&@=o&B=n*X&6&-;n&-'L)N*e/`*i=v&!*k=d*t-w)>;y=O&I&v&V=V&1&F=H7 f.4&#N5G5^;R*q*O<k=:,k=i=v*!*!&Z&/&y=V=d*9= *f&S=v=s$1&N*n&p$c'&)f&a=#=F&C*e&>;l*N&[*a$+*Z*,&~)|#x5y~;#![_,v-,&%),=J'd*v*V&l;k=;&c'b*C*J',=`*-&t*r;w-E*A=X*Ib-'0,R#f&,&O=<=I<d'3&!&1*}*)*(&@-N*3&t=7=M*T&)&t*F&c={^+aD-c&6*4%*%7$x]_4uw>->;7,v*c*|&[&Q&C&_=V=vwg%O#x]b5<]gsV'(,v=x&-&k=]&l>p&<*;~`5w7p!Pr!*u%)^2$j)*)E$0,A=*!x'~*:'A2s81!C<wwu/>^==t-%'L&{/%'-'e/Z^/&D-R^u$w)1$X*3/n9t^-/d'Z)P](&`].$d'o$G#t$Z^3^&^Z^f$*%$$9$X/s^y<J)g{3/1/M)]~V-M*e&-'(&x)]$>4:&n&b*p*;&b*]&S=D-K===e=`4",
"*'F-G=M*R#)*|$L*#=d*r;p*^${a7%z5a-v=_=+*6*i-J{F#6$!{1{x]v/8[O#[/J^A#M#E)8'~exwo{Z$q5>',!)^+^d'k)2$J'`-:/o$o$*^dsa$c$Z]5el>2$b&w)<*c&k=T*<*l><*X&-'4&e&D-2%k)h/^=R#^*D-e/F&`=/! =h'D-X*D-O&>;L-w^p&i)N&v*R^X*C'S=J&.>.]F/2{|,J'#=J'm'A=R*N*P]O&)*}&d* =y&v*Z&p*J'}&!*Q&v=B=J&>;c=Y)+*>;K&<*1&J&b&@-,*E=J&p*-')&i=y&c*G#B=X*C&#=p&w)Z)J':&<*e&D-@4x[y/6$z2K*!*h';&d'L&X*E*f&A=*^T*>;'/p&p*X*A=>;#=v=e&{&O&w&v=k**)y=|$T*s&T*R&l>u-V&d*)*T*)*#=9/ywN20'6$zwAw<$-',[X*<*M*T*Q*p&}&h/5$d*k=k^h&1&v=]}<&},F)g&O<Sa+*t=~*C*:&F=H&d*p&#=7=H&^>t=v=~*1&J&J=v=C*f[]&V&D=i=l*X*E*3tD54/3{B]<-*az=v=<*+=N*(&v&-&c&:&-&K&j&T*z-Q*2$c&v*z-t$C*Z&==i)A=p& *)>l*E*<*#!p$d*c'SaD-c'Z*BaW4o/{7I%cv2&(&J9_;c=:&**p*]&E*K&)&c'A=t^u&}&,>k=V&L&t=N*/&y&-)2*-'v*k),>{&N&**{&X^~;Vrf&p&2$2$~*{&2*p*Q**^b$(&3*t$r*K&,>[bz-G1BwO^>7,}0399k=@=k=<&W&e&d*N=e&R*|&L9)4&#o/j/P{.&CwD-]&F&a*X&K&&*c=}&4eo!,3Dw';d'F)E=t=O&#=p$p$E=+)Q&z2,3.7){Ew9s bW]S^d>w$Q<-&P=*^k=d^~$D=z-#/p&3&R^_^P]I^!/k)k)<=c'M#($P= =n^a^=^g^9^&*x^3/[/4%s/](VvA{G{'$o/D/k7>;6&3&|,#bC^g$]#@*J&Fw<*V&X*)*L&o&[*G#/-Gw",
"HwO&h'v*d*X&!*N&v&C*n&X*`5z<Z]e]L'**[*'=(>8-~{.7D/k6o;:/H/o/A$9$~$Q#o$7%M#t^(&8]Q/$5S)l>a$f$3^O&e&0,v=d'/%l>M^;^E)~^#/G#H<c'%'{/D=e&t=V=X]4^g&V=Z^3&N&P)d'==(&J'u^n'M<W<w&t=S*d'5$H)R*T***n';&8/V&d*,>h'E=w)<=J[=&23h8&#`ec(l95'c=p&(&v*R^g'y=X*I&v=-'1&/;|uu%c'c=_=(&}&2$X*-'~*b&)*n&X*E)/&p$t=y=^=!*X*P*z&7=E*b*{&v*X*)*c&e/n- -v*X*Q&h'd-i=5;tm`7b#B53{p&v=v*4&/&v*2*v&X*h&{&C*//v&L&D-l*2^U*p&2*D-Q&m'E*N&7=;&z0r&},5*R#E=5^u^l*n'C&v* [`*t$Iwz<O#S{Z6+*U'v=o&]& ^)*L&e/H=e/v*Q*v&1&4&p*_>v=I&3*|&K&k=p&d&#=v*J&e&{&f&b&[&>;K&l;d'-'w=A=B=7=v=/*/&N*ds;&&^k)-'g&>;{>96B^n8V%G]J&h*l*!&(&B=I&e/p*k=:,k*k=b&m&'/(&+*]& *e&/&V-h&k*;&O&d*~){!.)F&#=d*';/&T*x&,*>;[}I38{P%9$>;dcm*J'w&Z)R^M*~*X&v*F&E*E=<*f&V*]$O&>;L&+^<*i)d*F&N*e&E=;&K&X*<*-;d*p&1&Z)g&|&D-t=e*-!},F&i))&t=_=_=<&v=I*l*C*1&v)P**^Jw30;$KwH5'd#9N'5&L&E)K*>;c=y&L*Q*T&@240z#%$n!']N^R&,&7=Y){&F&r*'&n&>^p!l4LwJto&Y9T*e/F))*D->;v*m&|>;'a/0}Mw0^:7{/N<N&M#x^d'O=b^t^V=t^v=P<8/')-'k=N&t^]$-'e&)^y&)^d'a$**V=#/-#V=J'u%')7$]$t$M/9$%%$$%8R{4{'$x]o!NwE*b&k=e&Jby~$^*3t*R#t=s&~)(&u&T&[&,>`=MqR~",
"oo)*c&'&M*Y6h*l*@-l>M*O-ft5/s^M/u*P*X*]&V* ~D]r/9'k6){s/y4{$H/h/s^Z]l#y^#$7/j&S~p'X2 7*)t$<*f$a^a$#rJ'2$w$8%#/J'X^Z)e/*^P=t- ^K&e&F=**O&b$0,F&I)p& !9,t=a$v*+^u^<*&*|&<*/*n&F&P=p*/&|&!/S=!*k=)^f&{&Q&l*f&7=f$6*g{c)%%4%W}B^Ow9&O&,>O=b$4^<*k=7=b&2$(&N=]&T*P=2*o=K&2*z-!&O&N&p&N&e&N*c&V=t=/&l*-&z-L=p*y=,[n&m&T*^=!*4&I&h'V&'&J'5*v=]}-!J9Q&/bmaO3-7M/`4%~W=.*(,v='9B=|&l>!*c&c'F&E*k^E=p&D-v*y=N*Q&F&T*R*E*K&R^3&g&^*|&X*e&z$_=T*p*9^b&N*p;A2!rB7&#(|]}>;h&T&v=T*F&9=a*D-c*,>x*i*5=O&7=>;O)+){&d[>;t=H&;&u^,*O&V&)*0=e/K&|,!*c=[*0,u-}&D-:&e/|&c=w===v*C*K&o&j)5'p*>%&u,)K$x/70GaI&c*T*D&5*2=!*V&V*9,1=%;!&-&u)N*!&X*)*F=a*/*z&=*n'-&c=N=-'c&i=I&V=c=!*(&G&|,:&Ea_4b)*%q7=g2$>;J-+^4&a*-'!&e*`*d*W&{&*)C&_>*)T&H*3&V&+*y=w)T&z-Q*K)v*V-$-D=!*p*l*(&k)uaK&i=:,i=n&v*g&P=I=R^]&!*C-+*F&H)L)'*-;1=X&H9g|,(Q#M/q#D]-*lu9*y=L*f&Z)_=`*{=t*J9xgg{,3K$n[92m;6-I--&|,u^p*|&X&O&)!,3=8{rA=t=`];^N< /t*t^(- >m]](40Pw,$&*k)>^X^-/1&n&/*7/**}*t^9,&^/&k=`]w)w)'/4^^*v*J[l;E=V=u$)^V=m>V=%'a$^9L#g^P]x^J^J^[/]^&#,}c{b{M$]7<2$9)>T*c=<*~*(^,/[0v-/&@=y& !h*p&U&p*!*c'o=sr",
"Ha1&<*U&+=+*Z-)=k='&V&%;n%whM^n[]~**5*L*o&u'l]s/Z/u{b{.#b5O#r#s^]7x0a$4^#/S)9*}{T@##{^5^d'w)#/)^~^m't=*^D=Q^E*Z)u$V=Z^E$E)H8d>i)2$^*|&p$~*e&c=2$E)p*E=f>2*t=S*-/C*OtH<i=|&//*^5a=',>B=i=1&X]V=>;7$H&(,a*F)`^ *b$64D#M))0<;!b7=-!**o&i=T*N&T&h'A=<*o&(&c=},L=P*{-g/%)v&n't^n'd'S=T*a*p&Z)Q&O&';}&C&>;q*v&#=O&h'O=O&<;)*X#/&@-;&(&-'7=t=(&7=c'p$Z)6#'/o!6$n5J{lln&g*B=y=a$X*p*c=F*K&F=1&d'Ng)*I&K&3&u^w)(&n&t-a*e^e*_>1=a*q*)*k*W&t=v=[*H)3*P*G6A]x)G'a#2'v=7*{&+!6-)^t=N*s&v=>;^>@=X#d' *;&d'd'A=-&Ibv=4&<=~*{&I&{&@=S*O&C&J'|&T*D->;e/O&!&e&n'O&C&:&k=(,-'r&^*%)k=W]@=u&Qwh%(^b,<2Y=->5$(&l*C&>;o&1*K&^>P*{&D-^>e&;&N&X*W<-;f&(&(,a$0=>;L-S=7=N*4&<*(&,[1&o&]&u=f'r[n>K$a#:99$&!d'u^V*D=|&(&N*f&l*:,V&,>,&(&J'b*K&!&E=z&u-w)<*,!,>t*y=g&Y)t=y=t*V&A=p&^>v=[*k=N*t=V&d'g>X*n'E)1*Q*$-x&<*v&v=V=*!=&q*k=<*$*9'.4y/w]#{R&Y6C&6&b&t*a$-)E*f&c=N=b/j/C/g$|]L{RwJ[t**)c'P)n&U=Bs=}#7%{5-b$e&Z&l;%'';^*P-6[2]o/86Sw8%P]3^7%s^P<2$p^X^Sa-'3&k=H)D=d*1&2$i=f$Z]h'|,//O&k)e*P]a$Z]N<5^9^R^a^9^t^)^9^.$($Ebs%4^y<%807({v]2%w/|#S-Z&|*t-v=$!M)g$d69=l*K)l*V&`]u^J9}*h'K&H=tw",
"r'-)p&]&9=M*!*2*:,z-y=3*469^M#j]5-N*/*X*:,j-*}U$,3t{M{O#<2x7Q#x^E#f$M#9^1^0^X&$]x/D5=^f$F& ^5$W^u$+^w=J^u$2$-' ^X*.^P#b$p&L=Z^V=V&d'k)|&%;t=/&*)t^Z^2$G#v*d*R*~&F)1$2${*2*i=X*9,h'@/R^t=Z^N&},b&y=V&-'K&E=V&1&h4F/X%`%c|C=Z^)>UsD-i=Z^v= ! ^-'H)r;7=Y)^*l91&J=b*<*v&P=|,7=b$r*E*t^e&#*I<F&b*C*T*';K&S*i=A=t*e&e*c'z-p*K&J&J=g&F&2*r;*)T&c=v*V&V-:&Tr-3Y'Q/%(7=TwF=%)V*2$<&p&P*d'7=b$O[)^Q&p&/&Jb|,b*e&/&X#o&<*R*{&^>}&d*2*d*P)F=y=`=F&k=H&$=H~2{j^D/:vt=p&|&(>T*X&v=w&V&@=>;y=I&c*i=K&>;X*t=)&O&7=)*d*I)6*!*}&B=:'c'p&v=w=7*';y=d';=(,f&~)C&y=k)X*k=!&!*7=/&B'd'V&(&&):,O&$4m[[/|^v{~9@=F&H)1*}&p*+*}&u^!*3&:&)*O&B*0,c'n&{&w={&c*V&+*z*k=v=C&c=K&h&n*X<K)O&7=c*>'D{6$I^mt0*='V$|=J&U- =|&u-1=Z*f&a$J&=&L&~)d't=R#Q*K&<*l*N&y&a*T*N*B=0,-'X&b$b&N*l>O&-'2&T*c=S*N*p*!*T*L)c=o&<*/=<*p&(&f&(*)*p&k='/+^nag~P=y~B^'^$5S30[_=+=F&s&p&y&/*_=m&;&d-Y7x]Y's/#{h*6*k)a$F*V*t*9-h><3p#L{>8O&J-5$ =**i)(-32D{w/o[8g;^i92$t^f02^fvV=Z)J~:}i)A^V=o$V=&[V=H)5$@aR#'/i)O&k=c't^~$D=2$%'&*2$q^j)*^]$&[Z^S<S#a^=^E^o/x]n$l][{'$:/g$:-<*v-L&6//>0''!vs`*&4z-_/[&N&)*/*o&F&3&6*`4",
"4)Z^:*V&,;Y)F=7&I~1&}&u&76O^6$4}};B=<&L* -Uw:{d#!%b{I]o/$7%$n$;^.41/u$!^&/H)J&k6p'P9T^9, /-'v=E=9^e/p$E)z$8%F<c=P=9^,>^*E*!/e/7$c'P#R*D=-']}X*1$X#v*==E*7%R^k=S*-'H<!*^>R^<=W<X*c'k=|&2$n'W=S&V=R*c*F&-&y=c=v7Y~z#b)I8(&i=R&g&M<J't*1&(&v=f&t=p&i)-'i=E-1&f&d*%'t*p*/=>[<=z*t=-&l*|,o$K&g&v*|&X6/;d*)*p*V&E)X*0,/=l;B$h*Z&N&Y)^*(&#=<=h'p&H)==Vwh*r#Ww!4/(z/33Xwh'v*d*H9e/b${^_=1&p&v*]}r;~*t**)u=p&P*J&2$D-[*t^p*>%1&!&0=H)!*1=M*;&X*H&g>M{z5K$Q#/&fv#9+*3&y=C*5'2$e&/*v=!&F)T*[,~*>;@-e&p$7=N&S*i=p*)*w=,=N*==!*z-2&v&X*e&O&O&D=b&)=<*j)i=N&N*C*`*i=<*c=X*v*!*o&n'w)T*F)`*(,$8;#y4G3L'X*C&3*A=*&V-S-/*R<C&+*S=i&^*5aC&F&JbC&c'V*v&#= *9=]&C*(&F*-'2*O&d^K&`]4,U[,3x7]#Yww$)>,;b*4&(&<*O'O=h'{&1&z&d'M*9=>;h*n'(,]&~*1&2*X&Z)W)z-';v=k9Q&^*C&W9O=6/I~!&I8b&)*R*C*t*}&D=Z^**m;O&Q*)&j']}-&p&2*X]+)u-b&[,C=Zw:8`wE#&#x{h{b'v*F&2$M[t$_=%'Ktq;|2N}p4]7F#}]P<_=E)0*u&c=g&r;9=20,)b{ xz-|rR^]&Z^9=45-]w/V%[1)>R*R#m'4^%'Z^z$D-k=<=#=X*w=8'O&#/>;e&1&(&U=E=>;v*h'V&k=C&5^==Z]&*,>]$B$9^{/#/3^d$Z^Z]A^}6t^B$Q# sV2c4:$x]Y/a~_*j*R^]&T*4/&*30k*G&v*d'C=d&<*z$l*9=>;X&A{",
"ocs$r;~=F=S=c*f&d&n*6*K&J#x]*/z#~r2*e/u-X#|~.xF#i/7{T~Z$*%b#5/;^u%:/!/g$&$O</=a{,3([z<+xd^F=4^u%Z^R^<*-'c'&$l>t^k=t=E*2$t$W99^M$!/P)k)2$e*|,R^l*X*R#L&e&|&d'**X]T^D-D=}&p*c*e&F=7=v=-)**c'-'R^k=E=k)|&D-D=m&U3+&d#L%'rv=c'c*1&t=O=/&t=T*O&N&k=T*d'y=(&kaJ'';C&<*o$T*3&(&U*K&>;b$e&J-k^{&X*D-z-v&p$T*y&X]F&d*<*(&},b$v*B=T*f&8&|&g&V&**p&,>t*@-R*Q&c=6*80,)K$L{>'S*<,==F&n'wa/!o&<&e^[*D-E*>;asj'C*T*{^L*SaO&O&s&:&i=D=>;e&)*k=V-b*K&M*7=u$c4 %]7p4:|p&v=-&C'/&v*>;k=N*X*<*_=R^c=)*k=`*S=1&y=&/i=O&X&-'u^c=v&~)I&R*z-V=V&>;)*a*d*k)T*4&-&@=6*},V&<*&!N*U=D--&<&x&Z&R^(&B=D-d'S[20|^9%Hs*%Mvm-W)C*l*i=!*@xL*e*<*b;B=P)V-,>v&3&-&V&l>p&d*V<n&,=D-T&1*-)/&>;1*C*;&;'m].7 aN*NgP6m;O&9^%)W&0,l*,=C&t-A=0,;&]$b&c=v*P])&,>c=V&;!b*v*i=p&c'p&6*d^Z)|&/&T*d&D=p&C&2$v=p*u-T*y&T*>;v*)^V&Z--&>;v&y=#*c'3^;!]&u-p*b&d''1b%n!h$y$#xY'r=T*t=p&[*a$o&I&-&e*5a9*]7{%v/'4g'C'ecd'/*N=p&1**4Gd%(0t!/('O0E)K*22r{)!J#7!%>Q&a^~^W=o$N<S*h'd'w)X*}60^Z]q9o$E$g*b$**+^{/H)u^t=9/>;/&R^|&G#v=]$m^]$n^d>#^a$L#*/3^8'z$Z8B^D^E#A41{9{3^b,w/0[P)/'+!S*Otb5x^n2X&h&v*P=`*A=|&(&+*h',&%;K4",
"$xE*<=J<{&!&/;b*I&5*K&W&y{x0{/x/;~!*t^<**;g'c2u#s/6]1{z<.#N/Y':/9^o^n/]$7$p^p;M{=7@#~/i=(,Z)}*7$E)a$^>e&R^o$#^!3d'0,W9p$D-Z)D=Z^/&&^&^(&>;v=_9p$D=e/-'Z)t=h/K&f&c=p*k=-'Q&r*d>b&O=F)(&o&y=d'F)R^ ^P]9,9/h'c)<>9$8'H=2%T*B=X#^=+aD-p&T*O=t=,=!&e&=*d0e'b$Q*Z^9=P*|,d*n&-&w=m'd*p$D=%)b$K&3*D-N*C*/*p&Z&n**)N&!&c= ^w=b* *Q&D=V-n'c*C&^=Z-#=)*v=Z)e&^&c'Tu[0C/s/%x!-C&h[t-c=b*D-<*p&t*c'n=v*k=P=W=*aT*g)5$**L&C*d[;&v&V&f>-&o&C*&xv&c*x&n*:3`2E8#%@~d$2*^=-'V<F&7=R*-)[*/&==5*Z)c'd']&e&+*<=d*V&v&**p*V&C*Z^C-,>},#ra*b&{&K),>1(<=B=d'<*O&K&}&';U=h*o&c'v&v&V&F*3&>;C*>;h'7=V&|,*x1!)5M)G2_-V*Q&t&m&g&b*c*6&v-0*m&#=c&X&|=2*c&@*,;~;C&f&y&d*:,~;3&9*E*@*9*_=H[u&N]B^7$}(2v|,f&B=F^c=>&**L&R&@=3&#=F=V&v*(&c=*!L&J[C*5&#=p$v=t=F)O=X&r*k)V&E*X#{&9=@-f*M*^*|&^*v&l;J& ^/&F=X*Z&>;_=a*<*W9p&l*c=1&e*[&d^7&C&<=P]P#=xQ%+%!$H0X[p)e*+b&*V&H<L**;W0m;~*M|o{H/o/ ]:'d*d[>;C&c=Z&)*X~1!}(7;D=1&,>p&r]W{v$FrX]-xK&o&*^Z]c'k=F=4^I)h'<*d'o$h/V=[^k=e/Z^F=c'a^I<X^P]#^,[l>a$t=t$v=e&Z^:$W'}6u^Z]&*%'1^1^I^O^[/8%Q#[/s%Z~;]D$1!}^g!W)h'v=t=e*;x1^_0^=F)e&A=J~n&==*)>;'; *)[0{",
">x+^!*d*,>V&`&C&8=f&e&)*E%o^8%F/&|S= *!*`*!'@{)(1/~]  K/y#P%8'j^[^e/G#d$Z]X^F&c3k/T/R#I<4^]$%'19u%o$y=[^e&t^k)e*R^|&D=E)u$9,P^Z^2$b$D=L=6^T*V=dc]&M^X#R^d^H)9=V-,*-[t=S=3&/;V&_=h'O&J=O&y=b&/&h&|&E*y=c'R^Y[W@*7p4sg@--&p$J'e&%)T*3&J'u-I&V&%'>;2*C*y='/F)K&<*M<b$n&-*b$**o$e&t*[&l>1&N&/&!&X*/&l*N&m&z-}[7=a*y=a*W0N&^>@*9*y=T&~=|,d^-&/&!&W<u-d&,>e&d^V&[/.#e].&b6<2b5Z's/+&k4n{z6p!z6U{<<G5b6a#P{%4q#w<w<j2N5c]![[]U{$]']j2g5l5v{b(C[=}.$C/H%*1w=.)a$2$<*>;b*V&m&/&N*v&3&Y)9,!*i)X*v*R&e/p&T&Z]F<>;j'u&Z^W9_&h'c']$n'p&^>C*[&<*F=G&w8z-A=R#ec#=d'n'K&/&`*d*d[U*,=c*d'F)3-X]:-,xB^E#t5v3H;U2'xt;v2r[z2t;G[t;L;t;u2t;F;u2t;15t;M;G[t;2>p2M2M;453>p2G[p23>p2E;H51/D/U)ds7=]&N&6-p&4&d&V&^>X&R^v*W&p&t=Q&C*-;H)f&p&m&X&v=2*<&*)-'E*N*W&v=Q*N*<=o&E)U=k=-&a$ *a^m-D-O&-!2$T*^>a*e^^>v=N&';B=Z^p&K&|&b&X^)&P=W9R^d9qv@('^&#L5!]i&z-{&I){&(&`*d*k=T*n']%w/z#Z2U)I&e*k=t=P)q*y&/#5}P{(),[c'-&,xL]*%C/e&GsZ]t^c'M^n^j'^=t$D-%)K&0,2$D=u%]$Z]w&&*&*2$e&d'a$%)9/d^|,==V=^=l>4^d'8/F=G#V&8%I<[^B$[$($0^;/d>:/|/y~E^c{h{)xn>w/!;K&},0=c*Y)C7g${0Z&H=^>m&C*(&},q*Q&Q&2*u&or",
"!x:}P&6*!&G=!&n&T*T*B'!*76;0E#.76~Q&]&:&(&7~vr$$!r;]J{.4M)4%Z/{$8%F^Y98'==H)m;*}n%AdS^b$J'a$~^f$v*[^*/[^a$p$E)}&>;O&J'W].^-'2$-'{!*!g/o&]$49w)K&R^v*V&f$X]-)u^^*b$Jv6*Q*,;#/H8{*y&y=D-<*W<l>t=k^D-c'1&p&~x`%*%d2s!K$d':,k)h'p*V=w$P*_>~^O))*R*O&E*,*D=T*}&:}p$1&~)-)d'}=R&-'(&<*-&k=c'k=X*K&X*T*a$p&X*t=`*N*c't&>[]&5*p$b&n')&V&w$a*y&V&X]e//*-&^=d*#=G&*|70z<!()!V5{xP{}]p!q5`2=(u572J5M5`2@(k]B5^{j/}]T@V5V5a)k]t]e]J5z5j2t5z6q5%])]Z'W@y<Q%]x_%v&_&*)a$k)O&N*d*v&W9T*I)o&a*^><*:,p$|&q*v*N*0,v=i===<*v*]&<q|,,;z-!*{&7=p&K&|=>;F&&*_=y=C*1&|&v&9=l*K&<*V&k*)*p&f&Z-+*1&t*v*>%L|Q%W@&#@(T/+6.}x)p's/,)'7$$6$b,l/$5y)Q/&#y~y~b)z#I/]7H/w/M/W$)4R/o5X5|#+7*7o/F#E#Z~D1E=v*4&<&p$!*c=h*M*Q&y=Q*e&o&l;V=O&g&(&Sab&+)!&7=0,=*)>T*c'F&v*E*n;C'V*d^1&c*]&X^c'e&V&,>X*,>-'C&t=Y)},C*d'p&l;{&[*z06*k)N*%)(&w=E=^x)}i=m&T*UtM/9$X%k]/x(x~=Z&o&e&[eH=o&_=O=-'9$0$l{0t)&M*D=d0f*1&(&h5y4k/siX*<*J8:54%s/k^kgi)J'_x9^W9)^G9d$D-D=D=o$u^R^N&*^R^9^J'.^w)|$a$g^u^L&49Z)>;>&t^=^,[a^W]i)V$j)[/_/]$o$Z^d'g^]$&*]$4/4%H/D^C<:xx$O#s/<x:,r=/!3&a=9$x^%(B=w&]&4^A=O&I<B=k)q9I);!j>",
"Ah/!{&t*{*u'k=C&p&c=X]I&D#C7[$f](~V&/-Q*u-g~H36$o/b{<!z#T@4/]7x^o$s^q'P]&^8/W& {/(%7f^j'9$X*<=p$A=]7F)&*Z^a^&^9^)^W])^)^J9W9e^J~(&k)n&d'v*-'S*`]u$==9,w-O& = ^n's$K&O&1*==a*X]-;m&)*F)y=n'W]*^c=2/O&M#s&Y[*%c%[x>dv=%;R*v=R^p&J'T&e&A=^*K&a*E&b$J'G&S*i=)&l;m'R^c'(,b&1&t=k=d'N*%'i=2*B=w)y=X*^=b&2${&d'|&d&Z-b&e>k=J9~;s&u&F=D-t*c=_=r*B'(&k=7$N&g&)&x&#-=}g$x7y~+%o/x/$$-#](n$g$[$Q#[/I^*%d>]7!^]^y~I^D^s%A4D$)5[$g^Y'.$y<%%1/!%s%<<*74%{7c72tY-v&c=O&ast-v*n'T*C&M*A*X&}&-!V*<*~&p$,&7=(&-)c'w-D-**5aa$4$Y-X]R*-)>;v=2$t=1&c=>;e*c'P*l;P)kip*>;)*T* *C*P)y=f&P-/*V&M^u&)*C&(&~-*{n>1!A$_rC^]$P#&*o^.$[^[^($8'd>L#i^h$[^z$=^&*&*Q^^9*/U$(^F<g$;0]/*/t^5$B$*/x]v$h]n^v<#=jlO&d0p*B=9,E*v=1&l*A=v=!&D-(>!*C&3*p*Usy&/*O&v=1=Q&-;_=A=-!A=&^u$C=!&1&-)c=Y*X&Jb (;&-'|&;&t=e&y&-'o&O&F=h&C*t^<&c*2$Z)v=W9)*<*1*Z^P]%^}x u978'|x*}vtR&d*v*`*f&G&v&A=J9q;<<(^ {hcH)7&v=c'a*N*y&9t.#k]y!W<Y-#{A[F#I/]g!/d0G#*^(,n'D=l>a$^*V=J'T*t=@/D-J'M^a$A^t^d$t^19b$d'a$<*k=k=!^Z^`]>/q9h$d'%5%'*)|&**`]K^W=f^J^2^3/s/0'g$o^<{Y{{$v7|#;-+)C=C*q='>v/g$<>p*X&T&M&(&v=L*H)t$m&c=}&C[",
"1x5)d*X&-&S=4!s${=k=X*T]a#$8($j2$*T*Z&>&1*z!b4,8x]N{@{I^ %x7r%u%Q#4$T*9$>'X^I&#{Hda'W'1$J'k=B$z$n'7%!*M$o$t=4/R*Z^*^R^A/1&0,O&R^v=a$O&D=o$y=R^d'a;t=C*19{&'/2$2a9=]&0,K&l>v&T*/=e/<*R*/&Z&P]-' !E=n'P<c&o>x0W@%7J5v=o&u&c'5===L&i'L&b$!/y=R*k)X](&m'K&{&d^o&D=<*h']&P=/&n'W9N*w$d'-'P)Z^c'o&-&-;J'$0#=2=9,z*2$H)$;c'8&%'0=h'0&m-^>P<P]m&k=C*Q&p&)*e&e/ki;]%a:/9$o>t3Xe!,^0-}{0ZcZc<(R;d]/s(wd] 3v]2x3xp6_0T%4xtl:b5x3#J#!,OeUeD%~05xR{b,Y',8I/x{>;`*T*A=4^5'l* *Q&e^J'e&D-z--&l>J&v&e&X&c*9=:&X&O=0,D-+)K&O=g=/*W&7=B=y=+=|,)/A=]}l;N=v*X<p&v*~&t=]&^>y=F&e&d*d$|=0,o&p$8/H=O=e[L%7]>$y~_t8!k-r-7'1;}-d!a~{uS-9;j;X=@*]|f)d}H!F|4-}-7!d;}-[-tq};7!%|$>r65~d|4%.$$$b5H~>-O&M*i=#c#=D-f&u-d'f&U=J'c=f&T&D-<*9*D=4&X^2$h&(&z->[ *'=x&z-f[R*d&l*v&p$J-c=5&a%X^:,F&2${&(&|&,>(&d'[*F&]&^>i'C*&4]$h'D===W&Y)t=F&S=&=b*e&Z)a5p7A4O#>]=*W={*J&c&)*7=P]r&w-7*P{{$){6x<'Z&T*)*W9<*S*(wd2V/7xf=q=644%}t8xS%w)~^*/3^%'<*';5$Q&z$R^w)o$u8d'k=3^T*b$a$D=v*J'j)2$^*2$I<a$R^E$&*P]#/M#4^Z^C&V=Z^f^Z^.$a$[^h/ a./s^g$o!'^i/.{9xJ^,3s/'~)>z&!*X&u)0x;^-3;&}*K&K&K&t-O&2*O&<*^*M-ax",
"_~i=r*r*M*[&'=m&N&k=h*m&!}F<2/M)!-f&>;+*'&~-o2,3]^b{k{%8z4|#{%%%t$2${9D$-4^*:'twb,##h^p$[$!97%|$Z^[,/&%'D=&^|&W=d^K&.^d^=^e*b$/&*^-'X^Z^v*y=F)v=S*P$5$|,k)t=v&J-z-6*e&z-J'L***l;!&*)k=<*+ce&k=y=z-|,#=X]Q&o!x]b%22n&^>!*9=z-C*d*bxR^o$X]A=g*e*)>e&Z^t=O&e&V=Q*N&V&E)&4P=Q&!*S*5&t=w$D&3&2$%)v*Z&C&u^h't=|&1&X&C&(& =J'+=e&z-X6)>]&N*I&W)w&'&!&C*<*%;v*';F3O#L/]#cxcsK}J|*|M|gjM|0vdxYs7vkgexfxE}lgJ|gxhxz1]uix2!g~jx^fUt)wM|MswvumE4Trh047F$l#f2i-1^E*O&R&3*}&B=q=J-i&0=1&i=J'9,W<D-<*|&8=3&<*(&u-z-a*(>J'b&_/6*2$}&Z]b&R*X*>;c=L&c*<*^*`*t=Q&-)F&]&`*l;|,#=m&(&y=e&V&O&w)(&R#1=U3I/)!Z{kxH6q%*3,%;(lx=%(#NqmxW$+(e#1#8#x#nxt4ox|#Y@i#$#5%Q%4x$#Q%u#W@z%D#px'36]KwQ#D4V%-'m&]}+=e*5'7=d*t=>;a$V*/=E*>;n-9,9,d*3&B=T&:&p&k=:&o&|&n;@={&C*z&T&Z&b*k*h'1&T*qxc'**L&p&,=!&:&y=K&5*O&@*e*z&v=v*d'|&p*@*^>)&v=r&^*o=n&I&Y]bw:&6)w0[>rxc=|&n'Z-/!^>e&y&V-4'p]D$=}$&!*0=H&O&k)|&D=v]T@)4sx0,n^c4[$X/tx19s^)^E=u%X*w)]$w)J[T*^* ^<*+^G# ab$A/Z]&*`]Z)t$M<`]<*E=**^^t=>;k=a$8/[^#^D-&*{^P=8'!/.$>'y^4^)^g$D^{75/x]y~=}H%E'9$](Z3u$F&i=Q&<*@8Q#b{i=X*~*<**)Z)J'u&X]!*]&)&h4",
"}!v*V&2,d*!&K=f&-&fav=,;a#N<(^+8i-<*)*l*]*d!c{c%ux~]o{4%A$ 84/]^B^s^g$#/2$~$M&vx+%-(i/#!|&B$>;t^w=P#6/I<D-p$)^%'F)J=p$t=b$J'c'e^J=E*/&c'X^c=D-== ^c'E=e/h&^*C&^*i)v=6*p$/!6*%^B=h&1&i=';-'z-e&V&';S*R^D=Vt.&|^9'Q6@>l*}&i=#=k=k=k=I<e&@-z$t=d'B=P)T*v=J'K&~*2$|&M^t-M#<&>[B=k*Y7B=p&-&y=,>1&v=P](,R*/&-&9/F&D=(&X*)&D-**>;.)Z^'/Q*9*I)e/q*+*V=p*e/t=V*F4X'A$]7k!]$,;J' =v=X*X*d-2$)*`=u&shg*X&V0^>-5X*x'&47=I~'&}=O&2${&p;(&d*},Q*{&V&{'n2%$r9Y5T~]!5*_=/*U=w=!*X*<*B=`*Z^<*:&>;8&+=l>K=G&c*F)C*T'X]P=E)N=o&-&:,i=|,n&t=2*1*<=k*E)u&>;o&W<9/l*p*c*e&t=v*v*e&-&.))&D&P<<*v&7=U*<>U{)#g#wx<$W*Q&k=z-#=z-}&N*Z*/&2$(&z-W&g&e&y&t=^=,=-'&^^=f[]&z-c=I)d$>;)*:}';d'b*Y')#I^W~7~k)i=,;-&2$<*w=X^o&W9Z&v&(&9^T&7=/!;&~)l>v&l*V*!*d*d'R*!&D=X^7=C'H)-;;&d*n=>;A=_=T*//7=T&4&~;2$F&D-I&9,l*T*2*&)v*E)X*C&Z^{&2*{&!&]*W<R^}*`]v=p-u}F#lc[]`=(&v*v&v=V*T* -f>'&c]%%8]b/i)B=w&I&F=2$1&]#n8F{jcM<7%M5(^R;xxJ~}*($k=}&9/X^D=E)Q&b$d'T&t=2$')a$X*E)d0y=%'Q*==~^X*i).$d'%'D=B^==E*]$J^t$&^W]n///!^!%!/9,4/&*s^L#%']7{$|^O#<{>6b%4/F#f*9/o$}&-*F*$8n/l5G#8cA=Q<o<p&;&=='&w&/!6&yx",
"D~<*6&d[S=5aF&d'N&0,|&`=*3 9b%o/7;x&_*]&,;zx=6*%y~V{q{R/([.9K$S<!/!^7%N/d>Z8(=a{M/n[#>J9&44^5$W]*^5$I~Q^<*a%N&O=*^4^K^,>E$|&1&D-R^z$9^(&)>W9J={&D-/&F)|,>;-'N&:,n&^=)*D-p&D-L&e&a*0=Z&(&9,z-F&c='*p*v=-)&*+~=7X$4/h5sd)>L)-!D-V$v&O&>;t=f&==X*>;4^f&z-{^v*-)&^M#/&c'~*F=-)b*g&2*D-W9A=F)v=/*e&{/}&t=V={&(&z-#=X*(&J'u*@=C*u-k=z-N&v&9,f&A*#==^^>R*W) /0{s/[/ZcAxX*-&2$v=N&v&^*d'=^1$Q*|$z-2$|,P*L&V&d*^>-')*-'T*Z^V&2$P#]&T&c*C&t=d'S=A=ag8[|^Y'.&BxSa#!v=},X*%=q*v*J9C*P&]&u^1&Z)t*7=J'>;!*u$d*J'd*>;e&!&|,)[o&[*N&k*1=K&I&^>>;F=Z)]}=[|&*)h&3&E*>;u&F=/&O&O&O&e&n*R*v*c*P#u%N]Q/0'$vCxp&e/}=B=|&@--'F&)*{&{&t=A=J&<&L&<*P*P=c=d'*)g&x-#=X*/&Z^h'p*X&c=m&-'E)L'50B7h%,5{#7}p&c=p&e*!*;&t^B=d*V&O&,;O&Q&E*E*d*C*u-s&e&;& *>;v=N*<&K&O=)*7=)*<*+*J=-'|&A=N&C*}&1&v=D-p&+*]&Z&v=^>X&V&y=o&t=>&y=o&p*T*f&G#!&P*C&3&Z)%'<*#=T@C^y~'{|;O&p&O&!&<*I&g>~*T'q5D^C<%|a$>;l>t*D=Z&&^80-8']y}P)Y9@(z4#4nue/Z^E*{9==i)O&0/P=P]Z)e&D-j)D-9,J-F=W9}&X^J'm'[/2$2$u$o$w^N&9^R#J~$-t=M#b$&^/%>'f^Z]P<]$t^X^f$8%{$M#;/u%!$]/T~M{C$H/O//-v=w&u-c$y=~/<^I%(&X*d'H&O&/*X*7=h'e&[*Z<I]",
"Dxa$q*Z&v*n-M-'&;&#=C&l;<0x9M#o!Q8},>;6*v=a~U~)#1/$]Y3U$.7Z$O#j^]7*/{$-c]7n9Y*o]=7z5:>c$u%{$J[n9l>&^K&R^=^E$R^Z^:}l*1&e^|r/%**J'X^/%i)E$k=o$y=wab$|,u$<*P#|&C=N&X*,>v*V=v=v=X^//L&T&l;T&t*E*i)^**^D-c'@=e&3t{#G/Q/,5Q~G=k*J9I~p$t=X#B=(&y=n&>;D-**2$C*-'**K&-'z-E*-']$<*D=v*ExF&P)F=c'c=e/o&w)-!R#K&n&F)4(>;-&J[X*[&m&p*7=e&L&Z&{^7=*)>;-&|&H&V=B=[&v3X%w/-()~e/k=C*<*v=d^v*1&O=V&';w=P*u$t=e/J-X*d'^*p&Z^Z^~)v=<*i=b&y&R*<&O*v&[,-*<=.)(&)#y<6$w]+{-&t=},d*k)i=[*l;i=T&9/T*-)p&G#c'<&D=)^9)K&z--'u-1&K&h'V&.)-&W=n&D=T&f&i=A=U*t*E*K&-'d'^>X*T*1**^c'3&v*-&v*1&P*E*<*}=l*d=J]@(F#q57vf$**t=:&[eu$,&#=/&L&%)s&1&[*p$T*;&B=!*u^==|&)^N&D-D-z-L~~*L&R*R*w^L&I&<&tiIv<#j#([H'A-w=T*R*`*o&p&I&o&N&FxT*+=J'i=|&`*{&2=p*1&)*l;f&>;c=v*>;v*V=-&<*2$H*}=P<p&d*|&|,N&f&`<D=O&d'Z^b&-'>;;&>;>;g) *#=L&C&A=k)J[v*';_>S=f&K&m&T*d*X* =8%I^|{T7$-n&**1*r&i=z-!&9*V/t/30y}}&*))*N*R*/*X*+>n8k4d|K)z<Hdp'n{9||&u%g^p$H8Z^ ^F)W]J~d',>2$t^z-k=#=d't^-'>[l>^*D-b$!^,[)^5$8%}=!%*^F=d>D$(&F#[^8%a^O^7%U$t^t^&$8'2$8%Q#1!F#o^o2k6N/m/F#|;e*1&a^`*e&x0[/o{5&d&J9I-#=(&O&t=<*b&P]]&cc",
"D~c*C*i)7=Fx*;I)q)y={&N=L%z<')^w7&Q=(&|&h&$~A{C/d#<>a}o!I/I/9^m^J^h$O^&*2^x^Z-y[z#c)0^|,t^z$t^T^t$`*1$v=J[a$a^k=9,%^P=e*B$k^a$D=&/w)R^D=2$W&&*5'~*T^t$:,t=5$v*d')*c&f&E)Q&c=e&p$R#**J'**-*l;%'L&h'L&Z)V=r;t=epu}y/yaq{]/c=h)J9e&[,U-W]p*{&U=A=$-F=P=T&z$^>F===K&e&.)X*z$v*D-<&c=d^{&k=]&R*==<*|&}&v&D=X&g>i)t=N*I&K&]}7={&!*O&q*X*.)v*{&3*K&A=F=]*C6.{]7-4t#%~B=>;T*T&Q*H&/&o$o&f*i=R*B=<&m&l>2$3*>;a*d^F*v=~=p&%'**g&e&0&:,t=<*V&>;t=F=9,Gx%4d#z#-3`8F=i)z$>;~*A=v=D-O&P=y=<&I&K&v*>;f&Q&b*p*U=p;,&q*-';!y=H)F)v*-&v*,&<*o&v*';E*C*k)o&O&z&i)t-a*y&{&F&D-N*J'v=k=-'E)K&>;K$G4p'Y'Z$k~w-:,c'!&k=X***8/p*F&F=v*n'V*1&1&c'e&p*7=p&e&J-D=J-X*.)/&:&N&v=d'_>F&p$/-C*I&1#%$b)}^K~`*z-a*R#0*I=-*u^s&u&V*p$!&p*7,7=,>Y)(&B=y=f*Hxd*I&8t<*>;N*B=|&)*W<},h'+*~*~*E=]&|&p&<*e&Z^/&{&-'k*e&P*O&.)/;K=(&V=n-L&n'S*t=-53&f&O&,>}&i=**R^Osl#<!mlf&P<p&v*i=}&c'v&g>((u#IxJxO)V=|&F)o&7=d^2#3{`%Kxp&.4T@X5o>^|Lx8%a$e/b$_/O&R^C'w)h$ ^y=i)|&~^b$<=Z)%^*^&/&*u$J'7$)^5$C&*^|,&*A=N<u)t$Q<)^D-7%f/4/`0.$.^a$~^$^&$-4o/h$g$7%*{r{&$w/*7a-0,{&f>K^,[4/B^z~]&=^X*7=f>z-p&e/v=,&c*!*>{",
"Mx<*g&[*-&C-X&,*k=X&L&`&,#g^r#B5()`*os+=(&&|#{b)4/K{*44/y<O#x];^2{&*8%!/M#z$L*A{;c%6=^z-i=&*k=p$X*-))^o^t^X^i=9/k)E=>;==R^%'X*o$p$P<`^c'0,2$,ab&{&<*z$Z)i)#=V=m>X^>;*)k)a*Z^{*p$9/n&E*Z]b&.)(&E=Z&F=-!>&T*,>F*,>y<d#H0s[g>p&t=y&v=>;/&E)&*]&e&0,n&h'k^6*<*d'e&N&k=-'p&2$4&:&/&d*P<Z^d'<&o&J'xvd*2$Z&X*v=z-@*v*[*f&d'g&J<`*D=<&d'+*4^>;c=i)@=3*R*d*N2u5;/[#!uE#n'D=t-f&}&d^y=i=^*-'u-J'*)|,W9v*(*,;e&d*b$d'e&<*u$Q*Z^@3B=v=p*X&-!Q&e/+*<=|&OtE)5/)#n!o;L* =b*-'#=d*>;k=y=j) *,>V&)*x*]&4&V&J'0=E*D-Z)d'd*!*R*Y)-&1&s&t=z-a*k=d^Z=J'R^N&)*L){*X&c'm&p&c&n&J=~*_=(&-'A=p*d$[&i7J5G/m#Nx~$1*~)O&R*$-/&~*t*|&}&Q&(&B=K&|,l*y=E=o&}&N&R*i=-)v&v*e&g>-*b&|$1&|&o&B=f&t=%)Wr_0L/]7b{}&Mv-)>;}&X#[,#=>;,>==)*|,;&e'T&d'1&7=1&B=/=:&}=a*e^a*1*(&p$E=/&/*)^p&p&H=k=-&^*y&4&K&N*V=},{*<*;&7=^=p$-'7=/&g*g&v&J9n'w)X& =e/M^N&e/v=R^,>.4u5C/4{/}:,N&|$q*_=}&z-ua/)n{)#p4jcQ* =l;W<h*-&Y--3z486>8**{$b)b530Ox ^}6Z]F=**C'2$u^9,1$c'Y)/&d^d'E*C=v=Z]==R^d^]$d^^*7$d'3^2$d'1^i=)^ ^d'9^9^&*-'5^>[7%L#R^T^;$)^A^I^7%1^1^&$(^Q{D4PxY^*%_-Z&C*O&R#I)Qx>^x#c*I&#bQ&(&1&;&!*t=N<X*x&h4",
"ocM^-&b*X&l)E*:&f&m&q*l*`@Q^B$F58!w)u-]&d*V'Atb#,3q{1{:/z4m/{$U^d^d$&$3/pbs^[*!{o/E% 9H)c$ !;^x^&^z-o$t^d'&*#/J9T*p$T*E=^*e&9,<=f$T*t^/&<&b&F= !9/-$b*e/t=#=e/z-v=X^-)/*i'i)R^<*>;T*l;-'w&f&B=-)2$i=4&F=X*z$-'>gx#H/[/&(%4n*t^_'<*c=<*I)**|,a*y=D=i=Z]<&o$b&d^i=)^R*J'^*d't=m&(&e/(&T*c=d*Q&w)>;D-e*v=X*O&u-t=t=V=g&^>H*)&:&V&A=P$p&c=(&r=A=V-!*h52]]7.$]$T&g&,=J'Z)z-V&9,-)]$<*J-1&Z&o$o&n'I&l*A=Q*]$|&.)-!/&<*V=a*9=O=J'e/T*m&v&C*k=V&O&!&f1<4[/|#.]t$B=@-g&p&;&T*W&;&Q&R^O&-&/=-)c')&E=s$h['&W0v*e&A=z$]&a*T*{&(&p&`*!&L*}*p&K&v&-'p$(&n&e/,>|&p*N*`*)*O&-&)*m&#=2*p&x[~]M)y~d$O=u-+*$-I),&O&Z)c'n&X*{&T&(&+=}6u-m>+=K&l*l;~*V-V&2$y=V&(,z-v&C*S=k=#!RxP<v&v=j)<q;[1!b5@(b3Y&o&n't=O&-',&(&_&v=l*C*f&b&'$*&l*9=7=(,]&K&e&k=T*p*Z=<*/;ka#bH&W]d'P*c=SaB=W&d>|,e&^*-'2=^>$-}&%)w)X*2*)&+*~)d*F==&)*(&Fw}&2$**V-e/t^d'D=2$'!$7%&f1c&Sap&)/R#p**)O&O&c]O#o{WrE*V<d')*u$(&J'<]n!=(vhi=/8D7+%}^W|*^$-]&&^M^k)Jb =o$]$H)u$t=<&Z]v<w)t=&^&*,^/&t^P]t$E=z$E)<**^d'3^t$k)`^h/B$2$d>*^J~7$v=3/O^I^;^[/a$[^9%87x]1/|4l{8'Q/x]!e&*';#=H&D-y<0^!}N&<&C'b&!&F&>>b&f0l>V&';;{",
"Sxo&T*[,9*p&Z&w=)*Z)t=V-)4&8Z]%6I*/*t=p&9*0!=6)!y4:{){'^n>]%F#C^7%h^d>B$g^t^F~7{-(D/d>z$w)J'c$-'X^Z)-'o$]$V=e&F=w)0,Z]h',&O&Z]F^R*d'O&*&k=`]v*%)}&z$-'c'-'-'F^k=P]v=p*7=t=F=u%E=h'>;A=%'K&i)v=<*V&+^b&O&b$T*,&g^(~;'b%@(I3p;]!-'I~t=F&}&/&k^W&c=(&(&2$w)==|,w&O&e&w$**9=2$C&%'|&X] ),=v&]&<*,&<*O&v&F&&ae^v&!&y=/-]&5*p*2$V&d>O&5&b*t=w)m&X^K&)*T[o/:/S{$tL&e/R*/&*)9^i=O<V&@=v*d'O&d*y=h'-&T*Q&]}>;//<*J=l>n&e*-'T*!&>;]&b$_=)*&^E*;&J'5$3&r#TrT/{wM)V~(~*>N*Z=/&D=O&K&E*f&k=X*K&>;c'n&<*K&2$:,(&l;n&{&p&d'v*O&f&_=c'O&{&d'2*b$7=t=B=z-/*,>{*,*-)M*>;**k)'&6*F-b&~;cby&X3j/K/-3I0X^B=d*N*{&c&K&p&3*]}c'F)n';&!*v*z-|,-']*,&;&Z&},v*B=O&c=E=<&3&2$8%t=1*n&<*A=u-L)T*m}`cJ^*%`6{b0=-)e&9=d'o&**/&9,N&k)>;z$C&%'F-7=V&y=K&d*K&C&v=L&'/f&},:}X*`]n'b&t*b&O&<*D=/&J&'&o&B=F=e&A=n'c*]&5&$=W<==d'W&C*b&X*h't=)^v&<=6*n'r&X*.$S)!rF$~]a5;&c*J'k))*<==*C*ono[C/b{M|D=**Sae&2*n&s&t{j/{#Y!*)#7M)n!r]W}l>%'X^<*i)D=I<R#~*;9Z)D-T*H)|,D-Z^9/W]|&>[%;D-+^X9o$%'%'Z^F^B$J'n^&*,>o$/%Y9o$`^3^W]9$&[t^')u%8'#8(/)5]7,3l822q{W@&#[/S!e^T*v*X*f>{7D8*(J&x&o&p*t*%)v=-'9=d*7=z=;{",
"Tx|&f&{&g&|&L*{*5=p&v*3*$7<^4$|#3-_>z=-&@3lbH34%Q/V{M{%%w/K$M#0$@8`^6^)^Ux7$5& 3y<([M#T&M^7}p$B$*^M#E$^*t$}6a*J~e&G#V&//2(w)H)d'X^A=O[2*c'J[}*t^5$#=W9u^&*C8Y9<^c'J'r*-'9^g/R^,=W<>;t=*d,&7=.$b&Z^i=T&a$2*2$t=J-HbVe1!e%X'M{d*:}P=f$!&R^**h'X]V&f/:,d&W<)>i=J'<&9/A=P<,=Q&-)b&=&d*2*q*~=T*Q*1&^=J<c'd>)&X*Z)!*u-N&h'z*<*{&i=_=v&<&i)l*L*2*C&I*.{Vxo/!$1'p$n&y&2$-'2$h'Y-Q*g&N&#=`]#9p&R#]}V=C*d' *k=>;}&E=e&K&,!Q*X*@-K&V&e&/&t=q*z=w)L&=*E*d&Wx~f{7|%[>z{9*R#+!d'R*i'l>Q&d'l;c=1*<*-&A=7=k[Z&B=X*F&t$R#P=,;<*1*P]:&f&$-x&b*#=t=d*F&X&1&/&F&|&V=v=**O&>;N*** !l;T&e-'*j>m{3^M)R!Xxp*K&T&E)`^f&L=[*L& =z*m;y=`*Z)y=K&>&t=X*c'c=>;X&c'E=3&f&e&t=d*X*J->;w-'*0,^>L=[,P<4$d!d#y~,)Y=_-[,C'i=:}B=>;U*T*L&U*w=m&U*e&l;Z)_>z-T&J&Q&<*o&F)p$O&c'<=S*^*2*<-/&3&*^-'R<C&V&J'<*q*K&d*}&^>Z&p*n'h&L&J&<&v&F&C&m')&c'a$u-|&1=2*e&v=RaS*u7r$6]riG=O=-! ^k=F&T&4&c-g{c%~0tqg&P)4&-')*Z)==(wx]g6z1<&87%%r$`%)~O=X*R^D-F^2$l;v=I)R*}6~^.)z-J[-'`]&^d'^*E)a^P]R*O=d>R^i)K&V=T^*^e^p&//Z]~^v=d>>'M#s^J'Z]zag$t$m4,/4%.$%%,}J^]{S{M$g$$$>8p&f=F=Q&Yx%8h$X~ *k=E*J'p*w)d*-!D-2/D=C&>{",
"HwD=:=!&M&V*{*a*O&W&2$+*D/;0I^9%i-G&=*[&/;Jt  *7y~o{T~9$Os[$U$9$J^4^i)*^Q#M^c!M{Y/j/9$a%e&E$e%&*|&O=D=.$a^3^d>l>8/~*-'2*O) !-'-'2%-'Q^D-==7$p$c*(,e/g/E=R^(&X*,>1$5^*)|&l*|$e/N&e/R*Z^R^d'A=N&p$R*<*0,t=X*(&p&E=u/ZxV%j#S/vx07b*X*v=o$-)K&2$k*w&1&<*==+ak='/d'hk>;u$<&G#n&e&(&J'S*0,1*c'v&c'K=~===T*t*>;'*^>h'@-F))**^V=k=p*_=J&r;<*u&w)q)k=V=`xX/_8G)epk=u-i)X^<*t=D-Q&e/v&E)b&Q*V=v=E)Q&D-';F=D-%)z0<*^>a$v&X*J&J'D&C'J9N&o&b*9=E-#=-&c'k=|&5^>g%]x]F#I40;1&i=C*d'|$U-K&k)i)>;3*d^i=L&1&l*V&p$w)V&f&A=~=O&p&V&,[D-R^^*+!d*Y*k)q*y=v=|&)^e*B=as)^H&Z&#;7=[*z-P=ki&a*>F[e}w7{#[2p*>;o$Z)k= ^V&i)w)-'d&y=>;U=d'U=`*F=v=f&v&v*p&N&y=X]^>>;Y)>;t=C&C&F=*^!*-*-'N&O&X*T*)* yPe1/:^a'm{]*a*L&==R*t=D=,>]t-'k=d*^>t=P)e/E=b$**F&|,<&c=/*9,W=a$(,d'p&c&K&)=)&e*(&e&k^H&i=R&,>D=O)v*>;V=P)v*<&c*(&p*|&F=d&k=;&L=v=R*F=c*k*},C=Z^d';'z^%(+~V-}&P#I&t=)^N&T&j&c])#u}gg[*p&q*v=z-(,7=![w/=(v}^eU$Y'n!66~2O0~^l>e/1(d$X*o$#/R#R^V=_/h')^asR^|&R^==J~D=X*d>2$8%u%P<>[Y9l>5$D-t$d>o$&*B&I<i)a$x^x^|/2$j)a^E$x^$^n$.$j^!5Z2u{A$Y^x]8!0,H8+)c*O[{77%){g&Z&e&y=C&r*z&|,O&O&N&h>.y",
"+yL&8&C*c**^c*V*C&7=/*l>o5>/A^B6vw[*~;Z&*&)&C[;$$$%]]{9%[/C#Q#!^g^L#t$g^~^a^'=$]B6y4]^H) =J'&^W9!*!9R*==d^v*2(2$W9S*F&|,T*F*E$d*)^,>u^RaU=e*!*d^!/i)P=Q<O&P]~$c'^===-'-&T*K&J~v=w$<*X*V=G#J-O=!9a%d'd'k={^H*P<7=t=b-LsO#v7k/I4P-!&q*o$==v*c'p&1&<*5^z->;!&A=q9z$>;e&/&X]X*h'z-p&'bp&>;D=L)^><*T*S*f&d'O[a*e&o&z-X*J9#=g&N*d'|$1&7=t&4&@*R^9-I4@yy~b%#ya$b&K&y=D=J&d*p&v*K&!&R#l>B=k=F&t=o&i=&*@=V=c=w)(*v*V&J'b*J')*z-a*P*)*R#-'k=0,9=d*Z&t*F*R*A=8%n!w%q]T~/;,[P]C*a$z$X]k=E)&!d*e&g*d't=_*E=v&z$l*>;1&t=p*V&E*H*)*z$v=3&J-t0_>]$e*<&!*O&A=d*f&X&J-)&s&h'l;!*t=z-q}t{u5]7](e|x^Z)+b2$>;1&-&o&]*)*d'3*%)c't=D=#=F&y&2$@=v*2*F=+)v&t=p$(&-&i=F&2*c=N&B=C&B=i&V=f&p&D-R*o$E}o[v/M)U~/*l>Jbe&K&1*>;B&6*F&e&A=f&/;|,W&v=b&p&E)C*7=A=r;';c'X*/*v*R#o&V&C*d*(&>;o&`*N*N&|,e*r*p&p&u-C&R&)*N&d*X*p$b&'&4^v*)>p&h&V&-'~*2*v-o$2*g847Q#g6v!#=h'z-w)**[&3*J'(*uv-#{0jc#=F*z-l*z-(&-/E%,3g{&2a*y<*7b5E%Hbq^N&1&-'D-b$z$T^E*-'p$J^^>p&^>d>u%'/2$#/k=-'t$R*w$&/P]**a$Z^**%'w))^P<-/t^d$w)C'u%X9b$[^t^8%{$j9E#8%Z$4/:/d2 {Y{b%]7$$,~U*o&E*-*5'+/x^60Y6d*4&p&F=A*E)v= =K&)*k*$y",
"ohe&i=a=B&A&u&V*<*c&1*f&~,C7h/4/j;A=<&+=U*g!Y{]7}7M{W{,$&#8[&#F$w){/1^E#&%($7&t9a#D52^|,o$c'8'D=Z^.^,^u%e/e*D=Z^J'h/'b5$5$d'T*o&w$|,J=h']$N&V=l;$-t^waD=}*P)A=z-X^X]!/**H8H)!*[*t^V-i)k=X^d*==(&,&X*|&i)-'J'7%2$==d0r4g5x<K/2];{)&W&Z&c=2$p*J'i=~*l>d^v=D=o$D=w)q*-)v&2$&*m&1&!&7=c'D-J'L&)*J=O=A=v=p&)*S*_>e&p&p&7=';N*v=(&z-F=P*)^T&V<)&[/%{u#$^%yP!}&X]v=!&d'l*e&p&O&**X*e&d*a$/&p&d'c=**@*v*t*-)F=p&e&T&v&*^h&t=<*D-^=o&)^!*Usd*p&n&C*l*J&t**)[rC]v/.$Dt&y*yw8l*e&C*F*F)3&k=t-n&G#B&F=|$(&f&p&:&(&(&o$O&e&p$c*p&1& ^4&g&D-Saf&8'|&u^B&#/}&C*0,1&c']&b$C*{&X&c=F=f2:/,3:]n=L& *}6b&P)v&w)t=v=W)>;S*e&q*o&!* *P<|,3&N*2*E*G&|,3&V&-'>;3&B=uai= =#= *D-d*c=|&W=A=e*h't-v&~#u0D$v5`~'-T*d*X&E)6*v=I~)^D-F&#=D=)*|&b$Z&p$p&D=D=k)/!R*2$ *D-Q&S&c&>;+=_/C&>;Z^!&D-s&K&<*>;o=R*w&d=n&k)}&F&G={&/=1&-',>i=t=A=>;F&D-)/:*@*b*9^1!'^=y5tI&N*i=v*h'4&`^Z&u&g{F#`~Bu`]c=d*e&t=[&e/v4x]%(=1p&x]o/([']^f ^**J^')J'i)O=Ngl>R^u^O&D=X*c'R*^>z-u%k)V=9,L& !]$%'E=`]},9,Z^**W9h$**9/J'x^6#]$W<#/.$X^h'8%n9]/-#x79$'$1#B^J)H{M~d2<<e(p&1*<*==^>Y':/y{>;C&b&{&i=Z^P*N&2*|&p&_*qw",
"(69=e/c&J&N=l*P*h*w=f&:&L%G^g8,)-yF&j-q=J*4-h{=$]7n2){Y'&#y~4/u%($&*!^&*X^o^M!$]T@}] aI<b$o$Z)b$B=-'&^19)^e&~$L=B=R^R^F=>;Z^/&a$v*b$+^)^*^|,i=^*4^V&R*E*)>p&Z^e^<&z-R^E=(&a$N*Z^:-3*/&(>E)f&d*e&p$**d^e/`]Z^>;k)i=D-W&n'T@4%](B8qlj)**c'|,p$T*V&#=e/~$9,D=V&<*:&E=T*/&;yd'J~P)v*]&/&X^J'u^R*f&c=J'Z)e&t=Y- ^v=p&v=z-E*5*V=}6z-b&E=s&F=o$o=35$72{/('18/2$v=l>K)p*>;-'V&l*R^r;Q&b&r;$-==V*O&f>E=v=D--'m&|$7=u^2$2$i=t=~=I)v=9/X#C*%'R&Z)},X*s&J'L&!&#$:;w%l/8%p2)=h&,=yv7=p$0=(,)&h')*X*c=w)f&J'O=e&C*T*c't=0,u&T&H&g*A=V*c=A=b&F=>;|,k)1&R#3*}&l*k)(&t=c=1&J'';e*!&@0T@g$@7I0T$o&N*n&{!e/(,;&3*}6)&F&B=2*}&n-F)N*t=**%;R#k)k^(,Z)Z^K&-'<*Y)A=g&5a-'Z)Sa!&D=E*F=A=:&A=s&i=*^>yv{r#D^f2e>J9/&O&V&T*a*E)D-**R#c=!*F=7=l>(&m'b&V&W9`*L&L&D=(&C*!*F)O)e->[p&e/Z^g>e/{/<*u-e&X*k=~*>;f&(&e&I&p;k)c*u%+*(&7=k=,[v*9*#='$j'T*(&w)d>s0]^$]|~B=o&e&y=-'(,('(>[*r]L/=}wvZ^,;X&J&V=T*c*40,3^(/1E*-4.$p'<],ye*w)7%!/P<o&D=Z^9^K=v=Z^-&|&==E)h*i)i=2$!/#/N&D-o$e/o&~$&^5$e*d')^X^v=&*z$t=k=M#9^o$D$w)8'4/&%8%3/>'$$:/%%A4t{K]X$b),3*-niki@)y-b*v/H8~%p&*&}*/&X*D=v=g&Z)a$5*k*H~",
"_~C*1&~;k=L&u&n&y=r&Q*V&H%C^'),(ri{>K=**U&{>X3y/v/!{%(6$'yO#y<7$I^4$7%4^n/}6';$]j/R/&%,>t$Z)B&g$D=)^u%Z^O&-)d^A/V=2$X*]$/&o&0,k)V=R^e&v*V=u^v=T*a%<=k=~*J~N&,=K&q*[*V&B=c'X^&%#=~&2$D=0,e/%)/&v*v=},v= ^E*T*V-p$|e-'A$4|Bwj#1!*7*}/'b&o&F)/&e/A=w=F=e&H&,&W<t-o&/&W<k=b&t*V&Q&2*|!K&D-D=1&k)|&A=d*p&/&b&7=X&b&L*q*d'n;I~9=z-n&|&P*[}p&/-[0z{|#I^R^5&{^]&p&b*!*z$%'k)j*b$v*e/c*7=B=]&%'p$J9C*==E-/&==E*l>F^E*b*f^e&B=v*,>p&e&y=i=<*P)Otk)`*]&Z]v*/&d'$ck3F#57q])y#rG#W&$0v*w&X*u=R#dcC*F&R^s&^*p&9, *N*1&C&|&{&(&(&Z)Z)v*<&2$t=X#J'N&<&E=<&1&Q*,>/&B=>;v&a=c*f$A=)5m{ #.4O#c&~^W<Q*v=y=t=F=>;1&+;n&#=v&K&V-V-v=Z^H&t^`*b*i=b*|&g>h'v&t=+^v*y=w)Y*2=)*b&,>p&e/0,w)o&T*v&p&w=Q^r&6$[/a#3}3*i)2$l>c=/&:}(&Z&X*Z)u^b$e/l;H)a$h'r=X&K&h'p*K&+ca*v=,=;&1&k*}&K&w=d*w&$-p*v&K&<&[&y=B=W9q=f&%)y&v*<*V=c&k*5$l>E*b$w-v&G&+;:,9=e/&4*7+%<>-yS*e&)*<*V&Sat*<*j;V{C/${>y/*F*!*-)<&q*!y|0o!/#x11&A$97Y5`5 4b*2*t-'$ ^9,Z=d^0,D-Z)k=s^a$u%%'7$,>E=}&a$E$#!&^O=u$F)u$j)e/;^#^`^.^L)d'!/i^G#,>d$M^h'E#o$R^g^8%~$L/M#9$q/[^c7At9$)5($AwS=**Z&d^#=Y'<^+]9=g&C*O<J~K&l*J9D=~^X*s&~y",
"B~-']&)&c*)*u=c&!&9-=*N=J#gc!%raa;i=S*]&_=^aa{,3x)#]t9%$B^;^:/1$L#-#8'X^#$R*6bK{-(G6{/$02$Z)/&F^{/>;2$+!5$Z)~^-'.$t$**e&,>A=-'L=D-,>**T*c'F)%'/!9,+^}&==v=w-|&A=J'w$>;c'e&E=k)p$k)m>%'0,-*i=J'K&5$v=X^%)%'1&w$l*/&b$.^)#|},3w/W@$]P<m'e*E=w)E)]&t$#=-/>;p$T&r*d'J-C&I)p&D=W9E)F=/&t=^*v&|&t=S*{&(&e&l>C*~*p&q*9=2*u8t*d'-'<*B=!*c=(&<*1&D]v/9'6w%ro&|,<*Z)7=p*O&w-c'9,/&p&0,<*y=#=<*J'-&.^m&D=#=v=)^O&e/p&b$9,f&9^f&&^D=L#*)V&b*t*{&e/^*,&W]<&T*,>u-Ratqf])#<2V4~>b^==S=p&Q*T*~*==v=<*:&D=>;J~{/0=i=N*v=o&z-y&K&T*;&!&q***d'2$ ^w)t'd>B=F)7=/&^>k)L&c'L&z-p&k=r-P~,5C/;({y-'J'M<2*-'P]K&C*v&B*s&Y)T*Z^<*[&d^V=k=*^v*d'f&e&c=e'5a7=w)A=-)+*O&d'(,c*d*,*]&v=3&>;+*v*2$u-k=n'z$>~$%.#X%Y~s03*K&n&O&~&1$K&Z)k=o&W9Z&h*T*N*|$v=:&=~Z&O&L&R*a*'&R-I~p&O&w-G&{&)^X&:&5*g*Z)K&(&C*d'Q*N*W&n&9=,>V={&%'v&X*F=J~/*v=f&;&l*s&z-q*,*J')!q$<4S[#=T*c=o=`*i)(&~)+*70[/;]]y**|=e/-'k=e*H&%(H/$]wv )d2]7d#^y7xt=g^Z]T*X^R*d^h'9,o$Z]k)H&>;A=d^Z]k=:$D-m')>|,Z) ^t^9/#/W94^{/K&c'^*A^9^h$Z)2$R^T*!/A^r;4^S*m^q'r%d2M#%%g#,/B8a}b%l#b,F|*u(&3*5$U*Y'9'%4D&o&e&d'{&@-w$}&%^K&M&7=|{",
"0ch*X&l>r;2$v=J&v*a*c=])~%z7]$`%j~-)q;K&9* ~44,3;'&{#{4%b56$y~m^9^j8G#x] =-[5&%4~7##0^b$u%J[9^Z)d^t$W<&^-'9^D=*)p$z$a$M<a$0,|,P#p$c'Z^V&<*}6q*^**^|,W9K&E=Sa)^>;#^[,W9E)D=t=k=p&d'F=l;,*2*J&`<T*t= ^i)Z^d^p$l>},F=F=E=p$%~oi%%]%4}T2j-z&F)p$u^V-4&y=)^e/u^A=`*^*d*d*<*+*)^f&{^b*1&h&>;]$h'D=!/{&P)U-<*m>==9,Z) *W9t=T&0,|&-'<*6*0,T*1-#{c)1!,37!;^<=5bt=1& *D-4^p*w)7=V&R#C&v&e&o&f&-&g/p&O=n;b*p&D-d'<*f&5$&4>;t=W'S**^y=l>|&7=t=<*n&J'y=*)l*o&*)T*,>]6W$y~z4R9|]/ya*F&R#p*c'M*p$L&/&n*X]a^,&O&F&},!*},T*p&C&L=w=v=-'U=V===7=o$b&Q&e&<=X^Z^x*^=H=z$+*E=}&>;(y40z5F/%5&4f%3&b^z--& ^y&p$s&%)f&D-]&d'a*_y2*V&v=X#O&Q&w)n'H)c'o&o&Z^d'/*^*>;t=~)v=Oa<=3&K&C*O&D-7$!*:&V=c&`*td7$a[n>u#j/!f*>P)h'e*(=;&-&F=-'p&v*C&V-e/I&7=Z*@=-'h*<*K&m'o&1&^>]$V&h*|&d>!*v=N&>;b*z-N*f&#=J~C*v*4&-'i=c*^=J&e/2$A=#=t=d*d'K&|,v*!&!*/*D&H8u^)4yaV{k7V<9,y=M<)&i=Z)y=7'p]+&:b:y9=~&X*l*)*r=2$h5H/)7<yJ-M#p'C/g]~re&n$X^E)==#/R#2*Z)u$H)Q&9,t^w^,^2$,>k)==l>'$l>P<z$%'Z^#/*^*^ ^E$`^R^B$&*K&/&a$b$b$M^]$x^4^>'@8Z)h$J^b)D^9$9$t9&{g$.$I/}'I)z=X*}*P6U/t$`5O)!*3&d'F*t=2*,=e&^*$-(*a4",
"ro7=w=p&_*(&(*D=u&O-Q&7=^(1/I^!# ;V0^>P)C&2'o2F#Y'#]@{]7[/b,B^4^8'g^7%a%%'6^K[0]k/T@]$i)H8J-C$*^T^]$V=h/J[l>J'n9:7t=d^==a^f/]$1(F)4^%^t$u^i=^><*k=b$c=5$y=ju(&V=R#P]T&e/g&**>;]&1&}&O&a*D&~^L)0,d*0,g&u^Y9v=*)u^Y)R#d>t=u%ggB6K$s/g6z5E-R#+)}&&aX] [9,O&/*d'e/X]v=k)C'N&t*1&O&K&h&o$B=v=';2$c=8&X^:&P<**/*}=V&C&P*<&p&**d'v=g&2$m&Z&_/F3,3S#Q%[y<*n*1(g)2*p*'9/&a$k)b$N&e/T&|,-!,&';b*-&V&X#t=c'X*i=d&K&w){^D-OtC*F=D=k=R#v*i=R^W&c'd*<*p&|,!&W9a*,>;&9^Ivc]0$Q/3}roC*V<(&v=H8l*j'S=K&R^b&j',>I)N&c'l*b&y=T&(&-&|&k=I&9,F&w)>;)^-'o&Q*w)p&P)D-+ad&e&D=i=p&v<)&zn722{Re)1W<b&F)g/y=p$v=f&^>d'r*K&v*W]d*H))***Y)j'K&W9T&P)2*/&2$7=t=5^~)P]v=i)V&<&h']&7=d'/&k=@*|,g&C*&*-&<*c=E*h)>44%y/b(f]L=X&Usm'/%K&(&t*l*H&^*-'-'h'R*h'Z&>;u-v&@-7=e&v&(ae&{&h'{&!&h*v&J=N*R*-&n&n&1&!*p*~)K&e&{^3&A=J&'&k=$-B=d'e^z=e&b&T*f&y=K&<&-)0^5}F#h{@}i=X]]&@* =2$t*B=Z-D41!4{0vJ'0, =d'&^N*`]S{,3q{)w<*d$ 7+7m#>g,&>;-'F=#$k=/&l;.^a$u$&aw)Z]P#k=p$v=*^R#~$d'J[t^u^!/9^w=d^Z]R*c'D-X*l>i=>;(^ ^4^&*&/&*;^7^1^#^Y'j^&#*%6$47n8v6Y3A/9$b5h>jtk^,*E)sh9'#$Ls/*u-P=n',>p&A=K&u&>&[&[&U7",
"yr9=}yv*}&#=J<!*A=@3V=L=|y;/e%%#KdO&-*h&p&7&J{.}1y`6a{u#3{2{!%r#J^~$*^x^t^W=+*_{!#4%n^!/]$^*2$P<t=O&R#2%A^9^R^2$P<Z^D-z$v*v*u^I<k=e^)^u)D-,>e/b$o$2$Z]u$R^Z)E$p$C=X*V=u^!*h'd^/*I&w)w)E)**p$]}1&X^&^D=m>h't=E)R^%^!&<=,>-*f&ltc%K/%7J3>= !T*{/%'n&~*R#&*&*/!s&o$l;Q&^>H&>;5^(,v=J&C&N&3&0,v<5$ecf&p$2*7=Q*c*s&/*-&z-A=p&D&]&N*U*4&u-={I61!x[2yP#h'~*!*<*y=V&G&1$/!';^> ^<=U*k=<*n'T*d'F)F&n&e^)*g*<&b$|&9,<*]$O&y=u%w)z$O&-'p&1&X&]&H&p&D-c*X&t=E$v=V&)>d't^Ebd2}]E]i[V&R^3&(,-)c*R^V&/&B=<&T*2$2$c={&l*^>f&I&:&V0i=},F&>;[$S*h/w=,>@-h&E)u-v*%;D&t=7=F&,>'b23F/~,W@'10%K&<=,&/&R*T*~)v=w=r*D=d't=>;2$>;r*e*c=>;6*{&n&^*E)C*{&0=t=|$<*^*';O&,>/*c'v=e/>;n&y&w&!&v*t=M*Z)!*Z)h'`^!1T@E#D/j45'D-A=7= =Y)f&%)f&u^v=2$},-'V&W<5$y&D--'v*2$z-E*&)^>c*p&E=X*(&v*d*V&/*3*-&Sae*i)V&~)**[*L&O[3*o&p$O&'/F=u-9//&C&Z&i=P)V&E&(,e/d^,3[/w<j~b*e/.)^>w&c']&w=|=q{]7[(x|v*}=b&I&c*w-u)!}.#T{3yv=!/4yo!n{H!Z^u$_y{&o$1&o$d>l>n$#9o$u%(&w)g^J'|$Y9d'o$)^D=j)t^R^i)]$F)p&t^Z]n^v&k)!/L^e&p$u^9$7$1/J^z^8%m^@8u%h8y<L/g$9^[{u6|^4/z4$cz-K<c*a*>;.71/L%wa!&v&A=B=R*Y)p*W&V=|,!*5y",
"6yr;k*3&;&C&e-F=b*p*9=v*T%<^3^,3}'l>!*T]s$|;c4)#*7a]2)d#^#6$x]A^E#{$9^D=i)P<W&u{|#}^g89,7$2$i)>&q'D=M$D=&/o$_/u^t$V=6/D=W]e*V=e&)^<*Z^c'd'u%|&,>]$i)E)**J[|&-'P)o$V=/bd'W9*^d*~)r*k=T&j)|&&*R^T*]}t=F=k)p*t=R#**o$u^|rI)N&L^<[*41!4%j/a{W)W0p&g*e*,>I&<&>;K&Q&v=<*g&D->;e^F^p&e*c=X*/*|&>;p;d&^>';z-O&W=p*)&S*},-'U<J&Y)2*|&<&z$m-y4U{x7L/p#0*ka~*]&y&/&M&i=2,p&O&A=/&e/**t=]}u^P)O&F)W9-'I)N&v&v=Z*9*b&e^R*d'X*V=k=,=2$l>D=t=E$X&C=)^>;C&o$-&k)v=F);&D=O<n}e3Y'9'Y{Q<e*b&e[$-},d$T*/*D=R^o${&w-P=I)X&>;o&*))*v&-& *Z)==)/i=Z^f&c'p&d'T*1&/&w&7yz*#=X]o&l*l>s{x7F88y0*T*c=&*a*P)d'p*k)v=O&0*2$z--'d*c=!*O&+=p&f&3&w)p*o&!&n-f&*)c*k=C***<*e&#=|&k)'&O&R*v=p*O&b&p$i){&6*R#p*b&Z&,>t=y~g^+7M{X*w8d*,>t=p*<*0,V-#=O&X*(&m&D=#=^>*)b*)^<*~*v*0,0,v&Z&Z=c=T*-'*)I&i=r;H)g&p*<;:&'&T*h'Z)L&T&F&v&Z^a$N*R*(,<*i=+=A=#=<*m>^>**E=M)[/w<paN*9=2&v=R^9/F*D-M=%]1!U{p<C&o&L&/*r;v*B&/#b586d|l>s9s/H/q#F|9^O&'$b$')p$e&{^i=';&^49-')^u%~^8%4^1$t=9^c'a$H8L&n'>[b$)^v=P=E=/b+!|,F&1$a$+48/19E#8'[6B^E#*^|/g$o$b%#8h$:/`~*}./]7I/ ;:,|&b*X*Z*E^%8l{Z-I~/&I~^*v*m&|&P*9/w-G&>{",
"GcE*^>N*pnp&_>O&G&e/v*v&Q%I^d>0'$~r*)*^>)**5o2s/j/$]I]b5$$:/(^N^X^&*t$Z]o^n9S! {-(x/0/o$<$|,`]E$^>8%Z^5$M^y^t^<*R*9^w$9,%'-'d'u$d't=c'|,+^$-F^f/i=L&!/b$*^Z^i)f&]$K))/X^Z)u%**V&^=}&D-1$i)=&z-F=)^9^[,R#i)d'A=^*D-&/D-E={9z$R^Sp*6d#,)j>='d$)&b&T*C*k=c'}6n'|&f>V&R*|$c'p$L&w&(&W&/*}*k)v*/&<=z-%'p$V<)*N&<*>;w)H&'&v=X*7=>;t^^=I=s[Y'd#5]D}R^e&d*-'X*(&e&v=C*c=V&e&N&5$E*I&**N&)*J-w)]&X]W&^*p&Q&t^$-d'D=a*8u-'V=T&}&:}z$2$(>5'X*1&J=c'g*/&==1*p$7=v=Q&w)Ra@}%6z#}]H~~;t=d'p&^>)&n'R#k=D-R*y=V&k)y=D-X*c*Ng==Z*F=m-D-t=E=z-$-';y=e&|&t^F&},X*v=9,N-+*r;S-03n!0'H%l|(,~&>;e*V=+!9y9,^>P)t=O&y=(&p&h&`*z07&J~l*#=K&]&A=Z^m';&J=X*b*o&Z)V-k=(&h'D-T*>;u-K&<*U=E=d*-'T*X*v=L&+*(&D-t=F|_04/~6q{Q&J'3*e=h)A=2$.)/&-'^*f&0y^>5'k)v&,><*_/]&e*na;&1*n)3&T&R&Z^t=<;j)~&**%;D=N*4^{&2$v&e&C-V=_*2$y=ayL=D-N&T*7=D-1&R*d*(&X*0, ^Z]x]]73]k7#=c&X6!&:}e&z*miN=>4K/:b$c:[Iba*)*p&h'0,Mt!4*3k;l> sB^!%]#too$-'i=-'J[8&+^J'Jb7$1&&%u%)^**d'i=K&2$c'7%5$<*h'u$9/0,d^V=o$d$i)J'd>k=R^/&1${/E)2$o$f$z49$4^Z^M#3^~/b%y~*%D^C<=}l#4%@(m;-)N-)*t=L&i8<^%(f[k=T*P<C*c&D-r*{&/&c&`<{]",
"byy=*;_=P-v-1&]&}=k)~>n&`5[8~^`/}'z$|*b&U&a~%&$$#7u{<>]7y~I^[/>^l#*/7$ /_ao$~;o2/(z54^^*Z^[^d>t$($d^8'!/5$9^d^;^P=)^N&i)2*w)E$e&-'<*!/k=-'D=<=-'V^9^p&F*V=v=Z^u^t=u$r;l>d^P=D-(aM^^*-'d'&4v=o$P)-'v*v=9/i)E)D=-'|&i=}6L#{*A=SaO'$#s/O#F/A{_=o&*)w&t^l;J'-*W9=>F*2*i=1&p$k=%)(&)^)^A=/&K&f&p*a$)^{&p&k=)*^>g&p&K&!*>;e/;&i=b$i&d';]m]o!:/f=M<!*t&N*>;a$3&-'[*-'(&D=K&t-(&h'e^2$y=V&z-h)d*d*,>X*#=<=2$V=r&e&O=F&]&n&)*}*7=3&O<7%S*b$v=(&S*u$[*2$R*R*f& =X]D-4&z&}(Y'D$O{Q^O)Z)E*0,p&]&]$t=v*[*d'N*h'Z)g&^>==e*7=3*G&u^V=.)h'C*E*X&!*e&T*:,e&d'H)|&}*C*X*i*x[%a&$L#1(X*E$c&s&!&c't=d*{&c*o&-&1&l>u-e&N&c'c=X*v*o$%;{&e&<*+!N&R#p&-)X*W]V=F&d>F&A=C&9=R#C*)*/&c*v*P]A=N&'*C&K&h*!*N*9/)*P-M)w/;'43i[<=9^(&u&f&D=|, ^Z&$-p&p&7=X*b&>;**r*d*e&f&3&E&P*[*b&t=%'p&<*O&g*E*O=<&2$b^h*y=}=9=~*>&V&r;d'o&|&(&t=R^d'k*,*n&j'X6==m>m&`]M)n>a,a~H)<*b^K&O&>;n*P#b-F{9'h{E4v=cyc*p&O<K&B$3#b)y{sib$Z^dyG/@7jc^*&%P<b$p$5$eyM^A=d'h'a^{9y=9^A=2$k=^*W]t$t^a$5$F=Z^Z^/%d'+c7$},G#R^1/M#]$t^R^n^P#x^2%4^9$G#8'O#d2]71/.7v$v/`~%{)59$j/fy&)r*]&2*f&y~y<ral*X&5*E=P)},P]|&p*z-v='&S~",
"gy@/%;6*F&u-r*K*H=V&k=$*`%-/l#1!;~p*S='=v&hyc3+&I/c]${z#B4x7D$x^h/**u%o$u%C8J&iy@(}^g8u^)^o$G#D-c'9,s^l>U$d'4^r$1^D-J===a%*^t^-'D-o$N&l;Z].$J-n'a$*)Q&NgE*y=-'t=&%v*D&/&3&-'t=**/&SaD=p$a*o& ^<*b$R*e*/&i)2$d*t$t$<*Z^b*J9|&ejv=!u0}w/L/g{u7}u`]{&N*>;-&E= )b&|&E*:&u^O&1&b$v*K&2$R^7=|&_/b*<*V&R^Z)2*Z)2$Z)k=V===v*n&{^&4O&H)O[o;C/0$$'ep:7Y)+!X&O&)^k*X*D=0,O=~*D-Y-O&V=L&o$K&e&b&F&,>(&7}i)y=F=P=P<e/E)V&B=R^v*<&z-v*D=t=i&W]T&2$|&v&2$o$)*b$F&d*>;7=t=v*5^jyV%g$$7z2_=<*<*C89/7=c*,>-)F)d'<*T*^*R#d'c=,>t=J=c=*)F))^h'v&z$]&,>N&|&H)-'z$h&4^V&t=B=f*U4 }v/v4_g&/B===<*2$1&<&F&f&c=,&p&F^k*f&Q&E*D&a$-&+)!*D-7=v&L&u-T*c'c'V&O&E=#=k=Vr-!t^0,X*v&d*F&Z)L=!&C*`=1$D=2$k=]&f&C&/*$-$9]#1!:/|{]9,>p$f&c=o&d*R^b&X*v=C*p&k=)*z-N*==*) =X*==)*&^V&)*e&B=T&p$`*%'J~b&T*d*N&t=|,9/K&A=a*e&N*2*2$O&E$s&o&,>S*W'f&e&k=9*5(@--&&^#7!$$]e2<*H= =J'L*d&u-_=g>861!n2k~E)b*/&E=N*v=5$v4E#${R!R#L#b7I/V%Y!o&p&G#k=V=k=p$h/4^v<p&Sab$5^J'L=E$J=,=D-d>&^b$J'R*R^c'>^**U- ^1^D-J't^~$M^X^D=[^w)g^o$r#!/'^9$B7J^j^)5%8z# 8L{8]~e.4~7kyH)X*]&d*~*2{1/G{k==&=^asp*F&w)lyA=B=R^F)-{",
"myO&h'(a&4c&P*d=!*#=!*-;n{]^N^Z$X!(&y&_=-'(-94]7P%K]L{6$z487]7;09'p^t^;^2*;^Z-f]+%B5&[d$Z]X^Z^[$//a$*^+^bwu% !l;~^p$z-W9F&/&D=,>D=V=.^F&J'-)e/R*}*E$c$<*M$F=,^*^|,+^S*a*P<!&e^m'P*-!#=P=e*z-p&F&i=J'2/R*-'c'&/D=B&2$!/c=5$}&7$8%nym&R/,)S%zn$=c=*)(&R#t^r;J-!&P)!*9/)*v&w)#=V&7=Q&t-2$K&+*e*L&/*v*9/L&_/p&T&9/a*^>i=L=<*-&-&6*X~`2Gd](]u&^D-O'<qV=D-`<N*~)T*S*,>k=O&-'$-d'l>v=t=>;z-k=V- ^z-%)]&)&F=E*U=Z^]&u->;-&Z=I~d*l*c=i=>;v=7=!&2*2$d*D=Z^>;>;P=l*V-J~X*b*.#2{nlw<m]t*K&l*7=z-1&V&B=u&g&+=a*v=O&1&L&J9v&#/f&Z^E=(ar* *c=i&|$m>&4v*a$L&A=c=O&9/-;oyv56$g$py8'q=u-l*$-Z^ -E*<***^>b&d'F=!*l;5^u- *_>`*T&t=.-R^T*d*9,e&b*>;^>|&|$I&~*n&L)e/>;-!-)T*|&i=c=[e@=}=o$^=@=I~~*c'c'z=u%P)qy4}v/s/#}s']&&4f$c*P]C*^*L=J'V*i=g&_>d's-k=P]^> -V=X*R#y=r*p*c=K&c*w$y=b$T*v&**R#c*O='&m-C=F)[*D=X^|$g&T*d=E)L*p&O&t=X&b*)^R*N&E*5($5M)%]$tc'd'g>h'{&&41*C*.0&]K$<4ry!*3*G#L-f&d^4^D%6$v{syN&u7Y'1!v{tyS*Z^t$**e&F*<*)/O&X^t^R^:}k=O=)/e/d'D=#/^*&/e^a$k===]$C*M<!/w)&*O^{/.$4^D=W97$8%^*!/M<4/R^8%.-{7A<y~[$0$+%yt*4H3o$:/o/<b-!_*u=E=_/.4L#H%qqd&@-/&g*b&~*(&t=b$%)oss7",
"Rc-&#=H8g>:,e-]*}&9,=!X*%4[^@8EruyQ&^>n*v-:-*}c%j/K{c{.4z#.#9't$(^D$x^L#d>g^])o>n>([n^W9H)O=L^Z8R#9^s^t$H)f/]$//D-P]/&,>3&i)e&L=<$~^L&D-R#<*d^*)a^P<d^B=J'a$o$w--'u%R*-'F)#===H&F)V&d'$--'J'O&O&v=O&T*$-<&I&<&5^-&X^b&t=h'D-**l>/&^fvyo/o/72l5t&e^**T&!&v=%;h&L&t=k)|&t=Q*7=|&X]L&<qe&)*{&V&e&D&X*-'_=p*P<c'(&V&Q&f=2$d*I&9-Z^%&nly<wyc/b&c=/*2=**N&R*L&t=v=y=p*R*`**)z-<*-'^*j'{&d*T*p&Y))*V&F=e&2*Z^X*d$>;r;5't-v=d'V&h^F=C*T*k)e&X*E=U&W9g*D=R^q*D-p&>&p$|&d'^f<<)5D5J{1'E*e/y=Q*:,<*c=^*W<T&]}p&z-i=H=O&k=T*D=%)|&m-y=v*S*<*R*},f$v*9/^>K&3*p&,>}&G]27r%0>xyB*p$B=)*-'k)-'B=i)3*~)5a =>;T*K&a$9,&*w-a$Z^c'>;p*)*L&O&,[R^Z&n&t^c'5$:}I~C*!*N&=&F&t=U*L&n'O&<*i=l;A= =-&(&C*t*L&,[V&}[9$k%C^30g$v&l*V&c=@-D&z-K&)*}&F&U'c'h'w)o&P<v=>;|&#=p&5*5$*)(&u-P=u-F*v-O&}&O&2$c=F=!*K&(&>;i=>;.-a$_9t*k)G#f&H&$-N&(&c'm&W9f=!&r;_8:/9]$cp&L&5an'p$d&S=|uj;o]W@c37aZ^_>1&c'J9q*F*n2Q/R;>8'/s^{7n5G{Tuk)2$k=a$J9b$X*E*t=Z]u$2$o$)^G#d^D=**J^)^d'%'z$o$Z^d>|&*^5^V=2$^*d$')7%d>|,m^R^d'd$!/S#-#)^!^B^P=n/O#E#4/$7B^p6q{j^v$y<;~K&[eE***k^Y'4/<]V-r;p&X&9,5&<*!&v&X]v*m;!{",
"i0E)r=/!$*t=)&h*p&u&u-*;X2Gde%G6{-e&{&-'Q*w*Y3)#]7&{q{9$s^y~K$$$t$(/4^~$t^X89-<4|#18~93^w)1^4^J'A= !t^G#R^-).^Z)T*v=}*-'2^Z)t=)^**M##9e/T*&^b&J=2*19V=D=2*-)J-e&X*/&2*d'r*'/e&/& *|&P=/&e&|&5^L~C*X]t^t^R^f&N&c'`=p&A*)^b&0=t=T&g&a^Bu%6o/I/c32~e&D-J&-'1&b*F=y&,&]&R#|&K=($'*p$r*D=**T&X&1&0/d'K&I)Q*p$V=R*H&T*w&.)7=-'n$:&6[##P%P%csD-K&,[E*Q&!*a$p&)/;&-&E)]&X*f&t$f&F&>;%'g/{&a$d'J'D=c*e&f>)^^>L&P*i=F&i=C*O&*&J9d*-'T*v<#!2*},K&X^~)-&-&|,F&D=N&D-^>T*d';&H) *^#X$T/!{I&Z*v*-'E*>;X*^*:&(&p&|&i)m'p*)&Z^ ^7=X*k=W9F&d'c=d'!&b&X&K&)*J'Y)*^`](>A{x[M)v%yyk^;!e/d*B=7=)^N&k=#=;&}6**7=Z)d'n'7=P*-&<*I&T&t=-&J'V-c'z$T*V=k=v*d*{/D-(,v&v=`]#=X*=&q*u-(&F)(&%^1&!*X*^*k=X^B=Z&c=-&e&]&zy']p'A#%}X&N&e&2*s&n&p*%'@-a=},(&|,-&S=1&;&**O&v=f&+^p$ *t^9,**)*T&D-v*p&W-N&n&u=t-)^D-k)f&K&5&F&-)@*v=X*},Y)e/P=J'e&^*r~L-y&p&R^Q/39q{P[V&P<~^G&2=t*u-J9%;G5|^60^fk=c=)>T*K&e/k=d60'X~}'T&M#.4,3`5Ay a%^o$3&b$&^t=|&w&b&Y9)^-/o$d^4^-)<*c=4^t^!&2^X^//d'u^G#D=b$i=]$)^X^9$A/i^-'3^2^d^($k)h/'$m4Z)0^b,1/l#-74/n/X~X~S#}7.7o}k*p$,>d*(,m4t^<#-!-&`]7=,>O&5$-*;&C'^>Z-cc",
"*'^*>;})!*L*K&]&/&Q&<&^>E%*/ByY'}-c'p&y&a=CyJsM/1!!{o>b,R/g$o/'$B^D$9^t^1^O<y=c)F/b5)/y^z$*^f^*^k*^*J^a$a%5$ ^*^t=b$n$9^+^(&R^`aJ'2$%'Z^<*w)2$T&==H)|,d'0,F)R#L&X<l>5$K&i)t=]&/&v*:,';e&a$d'X*V=G&a$T*R*/&9^v=X^>;T&k=-'d'J'R#i=!/B=v-&$)$o/,)po}=7={&A=F)V&C*R*'bC*A=u-a*,=k*~;C*2$>;C*u^J-v&T*P]5'#9 =R*V=R#p*,&C*<*/&H&,>h4~eO#,%8,=>@3C*K&)*t=d'V*F=h'W=C*t*9/J'v*e^X*5*!*l;F)-'v*O&%^1&t= ^(,D=T*O&w)<*q=p* =V=^*o$t^JbE= =v&k=a*|,J~!&c'C*|,b&O=)*e/k=h&:,E)[10}y~z4o{;9+)`<i=P)'&1^#=T*A=F*t=t=o&1&k)X*v*B=C&)*!*P)k=X*y=h'>;l;P<c'c=N=)^5a =znt/:^Dy%*--p*&%7=b&<*(&**p*]}F^c*9=v&7}F=t=7=f&p&T&2*1&R*B${&E*X*e/i=d'~*|,k)&*q*R#9/B=L) ^-'d$l*(&e&]&:,e^-&v=R&(&T*c*{&<*r;<&g&t*{9P*{73^BtP{t*^5p&b*D-#=@3~&g&F&)>Z&!*d'E=z-k=<*K&y=:&*^7=;&a$E=f&g&I&2$d>|&)*I)9/|&/&%)W-k).)c=K&)>a$p&N*n-@-I&v*9,J&N*d*},z=2*V=x]1(b4Xr!&==/=E)}uF&Z&I)B)*]I/@vHbr;%)n&Z^V&@*O<j2@(=(4!]&(^y~4%4}R|)89,k)t$t^V=)^C*4^D=J~O&o$%'b$R^X*-'B$B^@rg^k=J't^R#/u)>O<H8e*&%o$P=c'&[*^m&2%o$f0D^5/f^S)I^D$.$]^y#y$y/Q#I^T~6]j^y~;'4=0,{^d^B=qqEy!^u}**='z-(&G#l*X]Z=o&<&g&{&Hs",
"Fyf&.)6*g&c&^>:&v*N&'=1&~,>'8%b56-+=e/d*C'2u*}F#O#0{]{v/j/-##$8']7C/u%#^}*d${-#{M/-(GyW=[^a$1^D=K&t**^t=D-O=9/4^E)F=k)8%'9*^3^c'-'V=v*{/R#3^**R*,>/&^* ^`]u^a$E*9^D=k)L*R*C*2*tiR*==e/(&N& ^X^l>e&f&0/d'~*n't=2^5*Z)7=**%'v=p$O&c'-)u^]g!}[/M)>{d>[,d'e&|,5$l*7}U=e&d*o&0=n'F)1=~*c'P)-'b^b$kab$>;~&Z^r&x*D-|,W)/!|,V&Hy^;z9D/K/=8#2~*~*n&t*T*V&X]<*i=<*r;e/O^2$K&h/-'u^D-V&R^w)k=v=N&b$2$e/`*d^e/X*R^i={&~*E*&a[*Q&W]d'N&D-C&E)u^D=C&e/H&]&E)/*)*P*Z]p&<*Z)<*i='&>;#~$$u#m2f24=c'-)J9qqB=P)d*F=IyF=|$d[o&O=e&:}0, ^J9|,J'o&E*)}T&Z)1$l>C*Z)]&2$=&3}([*%t{L|`]*^D-c=d^t=<***p&T*7=y&O<c*O&**d*E=T&,>p&P#v&wap&-!v*!*9/U*z-t*&*v=+^E*e^J-u^J'z-J-!&X#L&|&{&i=d*F)#=A=T&L&3*p*p&{&3&Z=u$;&R*Jy6wp'w/23u-,=<}K&c'P)X*`)y=K),>B=,>W)c'X]c'^*c'W=p&~&|,F=d'j'},D-X*t=[*0=&)j&8&l*N&D-v=;&p&g/v*L^X&D-t=k=2$y=F&/*y=O&k=J[}*c'B&M)g#s{};g*`*[,)&y=~=X&y=M=%]a/o>KyK&O<-'1&d'd'F=*3c%Z{p|Y)i8](M/v{/1u%#^7$k=]$ ^2$P<D=Z)2$P=d^k)*^D-p^@)o$c'W]4^t^a$w) =`^&*t=Y9P<(^^>Q^//.^&*u^79!/&*3^ [7%&*w)o/9'(^y^j^,35/97|{:{*$n>v/&|b$v*o&N&w-C^x^[{2=}*o&)*#=**6*+cO&Q&D-,*S3",
".01&t=Y-a;^*R^:,P-E-!*/*c6.$8/k4]~2$X*E->;a;|{r%_8Eu*}N/.#4/.$v7&*7%z$J^')($c![{w%M/%'LyX*N&4^b$W]p*d>B&*^-[&^M#X^p$B$m'*^^*9,D-Z^n'+^u^^*K&,=F=j' ^B$j'`]J'R^|,R#J'z-t=t=P=)*F&E*R^B=X*<&K&y=T&==K&y=v&>;F=w)5^|&^*1&/*p&/*W<F=U'p*v=V&`]57g$O/3[T7h>(~j;&-u&@*(*L'T'm;a*k!T';dv!S=]~H=e>n&S-#-R&`*My~-^,]&!'O-m;q;O'l*]^[4j^Y'T&F*[*y&g&i=t=K&b*A=/&C*f&+!,>V=z-c*p*]&D=5^~)T*J9<*(&/***^*q=b*|&{&2$O&*^W&K&*)X^l;v=P]-' ^K&%)e&F)R*E*Z)$0==^*R#e/6*b*k=^*X&)*/*~^C&-(g^u0U{c%7=M!Nyz=^6(-R<9*9-E!g>7=L*+*h&G=+*`=k-=;e>R&g>G=`=7&j&l*{&/-+*h*D^-{&#]^>;c=z-$0t-c=q*2$F&P]J'6*+*T'T*O&p*p&l*y&,>**5$t=R*J~Q&<*z-#=L&k=t=d'g&K&t=v=2*O=v=W]1&F=g&d'2*V=v&%)e/2$X^-!n&k=F&O=d'2$i=!*L&v=b&W9$='!j$u{f2 [#9P=I~1aX***3b=~I=z=g}K0R<h*~;'*OyM=g>z=w88cL&0=P]W&H&~;(&Z=N&@/p$V&%;F=t=/&^>^>b$p$o$d'd'w-V&1*-';&K&K&';-&'&k=P<F/39~]a~t=Q&J&k=N&b&-)O&7=`3F#h]PyP<u%c*D=y=c'>;![17Qyx1c'x7I6,3H%i20^d$R*A<a^X^`]X^';R*a^*^b$w)8%R^k*e&y&#/~^T^l>d'W^a$e&w&V=a$/%.^+^w)z$2$G#D=M#~^%'7$t$&*x^1$f^1/8'&#Y7z4 8D^J)Q{~/&#Idh~L^l;<&V=c={7&#<0<*u$t*V&f&!*)^X*N&49$-$=h{",
"Gvd^*&)&X*!*;>c=n&d&-&H*Ku^98%@(i;S*)&X*>;a-%{p#G/F{`~J/{$9'&#9^A^7%7$X8J^s^J&J{l#p!I/:,v=7=U$e^ /B=2$C^t^V=R#c'2*D-R^t=/&J9B$Z)/&e*J[d^c'e&e/w=e&==S#-)t=d$d'|,y=t=*)L&t=R^a$m'k=a*!*W]>;t=e/N*c=<&]}s&y=t=V&*^p&J'a$|,,[z-^*^*e&w)y=k=vg7[[/~7h{t[E;z2G[H2I2>}z2p24>3>y2E9>}v2<5r[ >4>4>z3 >|5r[I2z2E2N23[4><5I2>}(4N2E[z5]7n2a1i&;&k=d'/*X*m&D-,>t=c=d*c=]=C*i)l>D-L<O&7=J9O&e&^>,>=&Q*J~v=9/-*l;e/-',&K&B=e*b&-'>;Q<v=,;h'y=2*E*D&d*F&O&7=P=o$(&p$!&B=d*]$c=H)a*d$W}q5x]L/O{Q2:5I423B](4[3y9#}I2H~#d`~E]B]p}Y[Q~Y[#{(4G]E]o;j}3}s322M3H2_4[3_49%F$tuD0k)y=P*T&<*Jb-'2$B=C*f&b&k=C*-'<*0,q*3&K&K&X*A=V&!*<*l>d')*|&-'p*K&k)f&b*d'$-u^J'e*F&)*D-P)T*p&>;c*v=X&]&^*Q&d'F)J~>;o$<*v=k=y=B=,*Ry}(!^(^~3>{~3`2']B{j]e]q472M5n[T/n[M)0'B71/Id2{D7Syh^*^-[h^|& =|&N&n&v& =g&g&A=|&:&c'D)d'V&g&F=9/,&K)p&J&f[!&O&v*k=k)t= [t=i)A4A^]fTyT=Q0/&V&3&7=n&c=7'']}7Z{d|D&e-/=Uyc=d^&^30T@H](sv=%%M)$7![VyX^K&`]R#`^&%k^R^F=p$m'g^5$Z^}6i=w)C8t^!/|&6^u$B=}*t=f^R^E)P=R*//|,u%Z^2$4^%%P]>^G#|/7%%'{72^y/D$Q#z<s/$/9$o^so`6I$#8o!n=f*4*{&F*N*E^4/70*-V=},w=K&F)y&I&D-Q<k=:-/{",
"WyW<2*;&c*c=l*!*I&^=l*_,n24^1^9%!'s&X*J&>;@;%{*%v/$]a{x]z#&#8'@8($&^Z]W$<& ^v[#{^#z5]75^,>D=D=n&a$-&>;+[R^X^D-D=)^o$k)w$D-R^D-~^)^-'E*Z]<$&$9^J[b$P#e&u%t^J'u$~^l>v*e*r&/!t=2$>&-'k^D=F&kiN&D=Z)/&:,[*d')^v=**o$6/w&Z^a$c$d'v*d'T*X*Z)Y<Xy+2u7I$ #K/y~D^s/w/3{o/[$x]y~,3]7F$*%v7,)b5j/M/w/([p!,$$$o/I/,3X%y#T@K${7+($$2{/(*%.#/#}&X]>;c*T*c=},v=!*!&0,a*,><*v=*!Q&J'b$2$T*z$E*D-2$e&^><*t=w)J'**:s7=)^p$9,a$k=**2$i=j)';)^0,9=,=Z]{&E*D=a*<&i)E*c'a*!&k=p*P<7=D-v&/*X&)*l{{$z#u#67z/&#0'h8)#U$w/[/}^F#)#4%.#H/n%.#M/M/z#o/F/)4y/:/C/p#4%+8E<D/$$}^$$!$$$E*v=F&(&p&p&z-1&y&b$3&2*|,b&O[+*O=c'-'T&=&*)J&C&t=]&s&4&J=@[h'<*==d'F)+*k=v&-'i)==-)J'V&J'3&/&Q&{&U&_=(&v*F&y&*)D=c=*)1&2*d'R-K)K=3&G&d6}7$$F#m$%5'$(^J^6^z$9,o$D^9^7%t$T*b^n'}25^&)u%E*i=j'&^D=b$C=kiO&o&M*-&L<o&y=o$X^J9o=_*F)|&X*3&p*c'X**):&g&)*|,/*h'f&>;*;F)v/B^[>YyF=R#P=]$^*p&v&<=u~5]D#;]+3y&R*|&X*X^**g&5],){#U)|$v/]^*7'8ggP=-'M<M#]$R*-'E)M<*^#$R^b&R^C8E),>H<I<]$P<~^0,k=l>!$-'4^//&*A^8%R^H)Z)W]~^Z^**X^ ^1$C8`];^a^D$1/t^~7:/([D$n/V{n2.$A$C/_-V)w=3&a$mim48'g{0*7=B=N&O&u-1$'&L=k=<*<*84",
"(9F=<*U<x&i=%;n&J'B=r*v-D/C7[^k/i;==z=^>|=j;~[9$u0U{-3z/b%b)F#-#O^U$J^1^8%:/{=[{D/K/z6c'-'5$x^C8k)2$-)V&u/Z<w$&*E)p$[^2$R^F=P<Z^F)E$c'd*+^h/w8<*<&R*r;F=e&2$-'o$i=F=k=y=v=^=E=~*F=Z)l;Q&0,^*`=c'a$ ^R*g&W<';u-d'z-Z^,aT&_/-'u=P)o&J'|&1&5&V7M).$x7r%O#1/]%C/%%]%,$h%]72{$$y~~,c%%%,3o/9%*#h%*#2#9%L%W@=7=7)4)#S/D/`%z5k/U$M/X%`~b&>;';]&D=O&J'W9D-`<,;;&1&,;Z)J'T*e&|&*)i=u^)/T&e&J[-'b$c'J'b$W]|&J[2*>;k=;&c'z-v=T*Z^c=D-R*B&z$k)O&E)F*O<#=d>J')>g*<*B=s&W]O&t=P)p$H8O^`6[/D^8[p'W$}7~#9':/nla#q#V%P{>4E/V%g]9%`5<<k4D/-(]#,3F#~%a#o5)4w<E<Q%@#}71!yt,5'/+!N&C*t$v&t=p&v&v=t*C&}&)>O&V&e&d'a$^*O=';2*-)Z)-[t=<*(&|,9,&!k=p*V&l>b*k=3*z-p$S=,&X*V&p&t^2$R*v=!&A=|&F&&*L&@*3&&4K&W&p$E=J-h'u-'!Irp']7y6Y@LsQ$u}z%46~%E%5%8$]%^#r%+$k%F$u%za5^~^ZyD=_)4$+)g&V&R#N*w&s&W&c=<*O&X*t=('V&A=K&N&d^f&<*]&6*j*K&5*F)f&;&R#X*Y9v*C'G/0$q{U)<*p*q}J-9*f&$0-'Z-N5g$mta~b&t- =k=A=m&P=|0;'v{-d*)]^3{l4`5y!J~A^)^D=}6t^,^Z^==Z^O<b$p$`]d'Z)v=J-{^>[o$//Q#**M#T*o$o&7$6(h/&*!/8/-)J'a$R^M^^9*/x^e^8/O=C7~$y~J^&%H/I/p^9$4{H{($.#F#@~C*/*d*Z^U=,}+4*3V&o&3&#/,=n&p&L&+^1&y=e>%&",
"4)C&m*:&P=F&p&J-n&k*`*`*/#2^D^)!Aui=y=e/v=m;4{S%Y'c{c{,$$7g$u%D8n>+^a${/t=^*z=.&S@M5%(dc**U<&*F)M#|$9^e&^*u%.^*)N*o$X&e/~^]$<=0,+^k)')e/*)-)Q*{^E)s$O=y^|&t=D=W9)>f&o$J'd'Z)c=>;W9D-**Q&C=v=d^^*e&p&,&k=L=f&<*/*&/c'c'h&d'^=D=';<&V&}*l;)&S31!x750U>z:d `y z.zv.+z@zU.A('sE,#z$z#z%zy.cx&z*zt,=z~.H+-z;zk #,,+$,>z,.v+~+y{*7]7D/73*xO&e&d' =T*v*V-&^F*O=(&c=v&{/^*J'|,E*:}I&w$O=b*%;]}D-c' *d'C*1*v=i=N&)*%'/&}&p&J~V&D-a*p$j)(&!*d*c'/*h'|,Q*p${&D-t=2$<*V&n'v=)}t'g>Q{w/Y'a##.,z'zF.)z!zw,~zb {z]zm@^z/zP.H+(zp $<~ _z:z<zu.!+[zs.}zU k(t,H@|zPxM)!7B^75:=B=b*a^{)C*T*H),;X*dc,[l>/*-'K&U*a$V&p&-!d*D=#;<*v&d*k=O&M^V&J'V&^*(&e&1&(&l;]&|,#=+*O&&$#= =Z&B=n'N*|,Y-p&Z)k)O&v=-!X*A=Z^X*,>=&H2*%w/.$`]P)4$Qvn$1z($2%($D85$R^K$cki)S%[%|(b#X$h$b%{$($2$+^Z)<&u$9^]$-)]&#=b*D=)*-!c=T**&d*p$p&3*l>`=)^|,v&R*X& *v=%)+*;[b^e&2ze$~07aI~p&&%+;:&f&~*e&3-e{g$=8k7C*z-W<:&F*a*t=@7,)80zx9^%$=7.#v{|-,9v=+^V=O#&^Z^D--)Z)a$w$Z^P]&^-'t^t=7%J'e/2$Q#o&w$Z^4%^*7%b${$9/|$/ux^u$+^&/3^D-a$`]f$4^==9$:/x^3/t$p'3z1/:/%}b{=$%$y~LrB$e*X*H&7,h$;^L{z=C'yvp&f&|$X*c&<*|,/&J&84",
":aa$+=M-a*b&{&y=V&Q*>;)*o[J^C^;'v!K&%)T*V*8-X3C/9$d4&{-4z#E#{77$O^c'8%~$D$-/N'YcF#,)V~wsR#x^V=z$I8]&!/]$Z)Q<.^8%H)u$9/f$b$2$/&t=V=k=D=e&4^m*2$O&c$l;d'|,%^2$e/V&d>t=<*N&E=F=F)!*7%T^z-e*X*a$ !#=-'J[[*~*O&-'t=#=)^L&>%d*='k=K&Z)<&d'-'7=344z %_8%-**|$O=-*m>t-f=n&j)D=X^d't-R^g*F*(&F)T*X*>[F^$-T^X^Z^v=O&w)z-t=4^b&b^tv@g%497n!1{[6V-]&P=2$t=D-O<T*v=v-T&N&F^g*D=T*v*d*u^c's&s&v=D-i)1&/&F=V&E)v=-&)>d'b&F)k=#=e/k)F)T*<*d'4&d0d*`*2$w)F=J~n&J-p$s$c&$-(&K&e&h*P=h']7%]Y'1!Z$5z+*F&2$[*_aZ)2/-/n'u$c=z-k*Z)v*'bk=)/'&d*Q&#=;&|&n&g)e*o$&^Aa*^;/6z^(*%.$m]Y'&!<&v=<&d&|,y=>;'*o&5*b&]&@;1&Z=B=Y-X*u-+!p&/&*)J'V&V&V=o&F=p$*)C*k)9/K&Jbc'W=R*v*w)X*},N&P=t=V=-'v=c*p$2=(&y&0,9/y=H)1&[*|,B=<]18*%{fHt7z!/V&,e<&c'N*>;:,W))/k=Z^P]7=~*i)X^7=L&jt-;d***P=';p&2*<*c'T*o&X*+!V=2ax'#r!*/*X*^*>;E=c&%;6-I){&i)J'f*w=p$P=n&e&O&t^n!4%h{Y!k)[*d'I~V&,&v*V-M[h]]7e47!d'R*)&H)X^V&`<;]u7R;Gu^=-4.7I/o5+~7/9^p$**A<9,&$>;Z^R^g^O=z$x^i=-)e&g^v*w)Z]E=D=F^g/F=X]2^*!')5$&^ 9`]9/($%'V=7%J'g/E)<*0^d>#8d>O#s^n!Q#u7[/:/c{{{8zb)b)9z-)h'O<y=@=E^y/U{i=Z=k)J'x'E*#=#bJ9V&`=`&pr",
"d5`*]&m;b&,;O&7=l*2*K&;&t{!5D$n[X=t=a$,;1=Bsu6d#.7k{  y#$79'#/h$L#4/%${/H<A/,3a#4%F$|]$8t^5aP<|&a$$-O^9^ ^@=F=^*T*>;($J'==R*b$C&V=o&L&F=R^v*F* ^,[Z)Ra**i)i=8/^*v&D-)^(,a$d'V=l>c'd$&*$-5(O&Z)i=p$5$N*t=0,JbB&d*/*~^ aw=)*-'L&I<Z&<*)>t$54:/u00z+0d^Q*P)o&p$v&A=}*v=**9/{^$-,&|&v<)*/&J'P]/*E=u~9=~*l*Us^*-'K&z-w$t=e^0/d>V&y~K$.7U[=>b&A=*^k=T& *<*L&N&<&2$W&w-y=D-A=g* =e/&4k)SaR^4&0,v&t^/&z$J'k)O&(,A=P*==J'7=K&ka(&2*J~P<q*,>a*k=c*]}9^<*X]/*h's^v*E*i=Z]D=e&(-I4C/ %az;sw$j'z-V=f>e/t=k)V&&*+!yv0,`]i=2*-'X]w)J~l*Q&t*t*l;z-+!W&L-t&O&dce>-^7%'!D^[/92.=f&p$K&[}F&p&a$l>8&b*T&R#T*f&+)v=i)**<*o&*^@-c'(&u$o$J'^*e^w&o&q*p& * *R*n'D-)*k=|$B=c=F=<*N*T*v*K&L&f&e&T*7$/*)*f&(&D-a$-&g&Q~$$1/F#{~H8h[C=@cd*z0C*P)X^^!L*o&v=,=X]t-e/K&q9f&/&c=<*k=j'>;Q&o&f&D-,>n-w=D=1&l>a*]&K&c*v*L)r;b*k= -n&<*c'v*h*^=*)P<f&b&p;v*<&v/|^M{bzP]h&k=h&>;J'L=Z&[*6]x]c7@tC'.b)*I&;&+*E)+]6$M{D1V=,}B^b5H%czZ^A=&*%'Z]Z^E)z$:}w$Z^W<1&t^b^A=9/>;E$E#w)H)a^V=l>==J'd>1/k$R##/t^E)d^z-V=t$s^B^F=B$s^8/`]M^Q#B$z#g^m/k4R#y~Zc8]I${7d#e-b^{*f&**]& 8&$o%/*X*|&P]W9<*;&v=X^o&n'(>=c",
"WyJ'c=3*(&d*d*W&G9-)m&c&H%1/&%$$k;f&E*(&X*j=`6x7d#>{~{.}w/-#.4v^C^D$f^&*0)9^O^t)o!{%f]<5e>z$J'i=b$P*G#B$o&l>Z]b$2*z$t^o$e&{/~$:,9,+^J'i=X*O=t$ ^('i=V=e& ^l;D=V=A0g* =1&E=p& =p*G#f&1&I&r&~^4*Z^b$:&r$***)n'T*(&E)Z=Q^l>Z)<*1&*aq*^*V&m34}4%4/2=T&-c@-g&)^2$<*`*$-D=*/K&v=,;v*e&0,>;,;1*V&:&Z^v=k=T^z-d&F&)*Q&S=|&e/|&:[V&P[dzy~4/o5Id3***},4*~*_=T*R#D-**K&a$3&b$i=p$19Z)F=v*J9/&o$v*1=F=R^2$J9K& *9,F=X*$-%)&a(&^*|&V&e&{&~^e^@-b&X*-'Z)e/^>|2Z^)*|&^*>;n&,&w)4&Y/e]:/y^M<9'P=e/v=c=p&t=d^>&t*d^b&t=R^z$a$c&J't=F*Z)z=*^V&R*@-p&N& =d'M*Z)<*)*v*IvtaF#o/z5*4ez<&e^T*//o& !z=^*b*V&F= [V=P]N&p*n;v=B=N*v=K&d'$0&^z-B=i=T&;&&[O&)&c'W]L&T*C*D-e/2$X*7=t$v*k=i=O&k)%)p*p$C&}&**>[n&e&b*v&  baZ$U^*3,|t=}*)*p&l*,*]&n&'&|&<&N&,[,;},9&}=T***7=^*V*/&Q&|&n*z$d*E=V&(&]&k)V&n&d*]}Z)0=T*|&O&L&e*n$k)Z]p*~;U*n&D=h&K&>;P)h'R*_/*7:/~]&-E=m&<*o&)*u&p&u-f)*]B7=}j!-'c'Q&UsD-m*`<u}F/p{Guk=C^c)y~VefzO=2$a$`]O<a$d'8%L#T8}6t^F=r;7$R^~*)^^*]$W^f$4^0,P<//.$t=-c#/~$a$e&1^9^d^-)!^r^+c-$I^N<g$O#n/v$;^]^v/.4!5c%]7T~u{g$l#*7d;d'h&Z&<=i'Y'[/v]^>t=e&V=|&(& !k=5ab$K&b->{",
"Nc$-,;Z&c*2*v-a=c'7*/*1=<{]^F#{7g~~*W&Q&B*7-Y{q/%82)%}O#H/l#b%1$D^S#[^X9A^F)&*->v]M#3{D{D[0=O<L#i)f==/^*m*Z)o&O=v$5$M<c'-'p$2$p$Z))>*^O&';P=2$|&e//%9,H)&*d*|,F^L&|&t^**S*f&X* ^'; ^5$3&o&W]P=O&R#1&b*y=-'&^!&k=n'P]R^d^i)}=}&L=p*tsZ9D],3T@{8F0J~dcz-K&z-e&X*e*{^L&p&3&*^m&/&-'t*|&d'L&-'R*e/)*b*-)w)F&2$#=n&i=a*p$B=f&e&7$gz}])#4%V2_=d$p*niA=**2$i) =c=z-N&z-p&n'9,K&i=c'X*H)c&K&9/**';l;v*T&v=`]!*V&Z^:}t=V&N*(&}&:&c'2$R#y=[*D=X*f&T*I)1&0=c&J'f&n'1*5*4^T*[&+5ya%$o%hzI~w-]&K&X***9/}=H8O=v=t=*&(&w)=&b$J9F=e/y=q*I&J[d'0,>;w$r*9,w=7=-&t*Oa|$A)%7x]^w<4mkVr%)v**)k=n'2$g)w)t=h'Q&{&K&K&P=d*<*/*,>~^v=O&V=k=w)9=)>K=cpX^`]Z=/b%;T*^=~*B=*)k=(&*=v=d'v&=&-'F&v*t-v=D-y=E*b*g*)^[,h/@{y//8q#s4k={&^*d*9/z$2=w)p*f&p*/*P*d*2$X^z-)>G#t*e&p$W9J[N&C8V<L*~*}&H&V=B=<*A=n&~;e&**|&`*B=O=R^O&#=^>K&A=i)z-/=C&D-v<T*z$!*2aZ]1!A^40n~ki bd'T]/&B= *1&+*f]y^!}jc'&0,^=P]'&z$E)+>.#~x&u==1!C7Y'n{iz~eP=p$R^o&G#{/==X^-/N/ /H)X6d'T*#!b&c'Z]0,[^D=6^5^o$<*u$$0z$e/a$w$-/D-9^k)9^#/i^A<J^*^;^a^$$B71^g^)5A$C/l#&*.&!]b#O#[/8-(&-&X9<&/=-4u/86v&T*E)F&v=-'r;K='*+**& ->{",
"jzt=E-e&s&P-7=&av=Y6'*{-u}kzz^w/P-b&y=C*`*k!;{6$v/;]~{F$&#y<[$8'x99$A^S<[$&*&^}67%3{0$EdC[b)b2v=&*n&>[z$O&Z^P=p$~*u%v*t^m>==,>J'Z^9^}&a$|&l;e&L&n^e&t^e/]$t=c=uar$B=v=t=v*|$**X*O&d'<*K&2*Z)d'i)#/R^}&.^9,$0u^e&J'u-k)N&F)Z)&^5=p$.=15u5x];'Vt~eR#-'X*~)R*z-!*]&'$p& !d'2$/*i)9^O&r;},R*b$O&}*t=t^^*)*p$<&m'e&g/X&0*t^v&O&h*~-t%%%g^|7#{!&e&k*K&g&!*F=b*X*z$t=u$m&v=R^}=^*~^l*O=v=d*==(&O&n'v***]}h*>&f$S=9^N&d*w=c=t=y=v&K&V*e&X*2$)>e&e/e&R*(&V={&-'v&E=<*S*ot#{72%%kc'-#$T*t=v=y=3&d'P<v=F=X^>;C*w-|,<*c=E)Z)Z]1&/&t-v=*),&f&S=t=F&L=v=3&!&^>D&9,f;U{[/[/,3}5y&>;d'>;{&D=-&N*e&L&/&>;l>p&V=p$|&V&F&}&N&>&-'X^u-J']}t=y=k=^*d'2*T&=&D=K&O&+*p&C*r*<*Z&V&I&V&';o&p&h'>;c=.)e&z-u%-&%;j3o!z4M/`2x!**W9c=>;%^E*9/b&p$g&k*T*E=m&k)T*t^z-z$N&D=2$E=R*b$R*c'd^f^F&V&c'y=9/,[e/t=)^[&X*N*X*}*]&0,@-O&n&C8m>k)t=)^X&v*v=l>**g&==17Vv@>(~>;k=>;I&p&Mq`a;&@*Xc%%;]U)r*0=o$^*{^S*%'2#P%1{p|0,i)o/n>%ylz**v*l>X*~^'/r$l>t^2$p$P]P=.^v=@/T=5(Q^&*o$V=%'**k=4^%'D-#/e&Q#**V=Y7*^e&Z88%X^(^)^5$f^!^9'%88%I^(/)^:/n>D^0/R3@{&%0$n!d!p$#=V-(,5'-4y<y{o&*-'&I~p&K&C*l*W0Y9V&P&t9",
"/7z$r=N*B*4&K=9=g>c'2*v-,#s^-^)!d!d',>-&;!(-Y3y~D^|{C]P$j/X%Q#&#%%;^Z^D^~$a^h/a^kgn{{$j/~,/4-4T&%')*[^R*Q&0,#/>[N<>;-'|&h'==z-R^a$1$d$e&)^**/&T&y^M<V=-)v=^*E)u-,=K&d't=}&l>X*e&k)b$h'p&>>D=T**)-)<*a$X*V&V&R^Z)<=t^<&J<e/p&2$!/f&x/1]5}'^j%y*X^7=P<d*1& =J'/&Z&]}v*R^,>9/a$}*X*7=C*8/},:}K&i&k= =v*d'`]Q*R*b^*)&*t=~)**p*9/J^mzo%*%M)Y3}*F=1&^*:&T*k*,>Z^I&E)|,v*u^z-;&}&v*k=D-c'|,k=(&7=9/X]:,k=1^R*v&e^}&==-!O&O&b&D-k=E*|&V=X*k)^*p&L&t=W<p&c'v*Q* /F&o$,=uaU~T@:/Zc0g[^k)-'d'+*g&k=C'~*c=w)**p$<*f$h'5ae&l>i;C*u)F&/*e&f&b&(&f&1&-'Q*>;t=E*>;p$Z]E|+]{$b7![.u)>-' ^A=/*C*1^)&D=**v=2$T*t=Q0P)oaB=<*v*t*p&-)l*c'>;/&H)]$D-#=w&^*%'D-%)2$'&N*<*c=m'd^X*Z^a*|,b$V={&K&o&n'F=D-r*R#C7%aW@Hd+#||M<1=v=J'}&a%W9B=k=J'B=J'e&D-2*d'/&t=E*r;>=U*p$)&($v=>;v=k=@-<*C*d*X*|$z-4&;&-*e&|,~=1&j'<&c=t*i)F&O&:&c'{*'&Q&k)v=v***==D&M)j^X{)~/&p&)*q*O&F)'&Z&+*']g$O3W}i=v=_=[*E)-':[=8u5@vN15^F#[/Q/![a50,J'D=d'u$&$t$X^x^2$>;<*&/R#Z^t=t$e/*^^>7${9w$H)d'**$-k=o$F<v=V=r#.$h/t$f^6/0,Z]X^B^i)8%]^d>!/t^)58'y<&$y<D$M{o];$g$U$#|I)C*0=J'V&C7v/x#!*I&k=O&`*v=F&H&L~/&o&_=pv",
"Xv9,C&`=y&{&`*p&z=O&C=J&+]=/!^~,X!v*5*3*t*j!~{*%'^s{{{D^y4F#v7-#g^.$t^w$($P=H8o&!%2!](y~|#37F3.--)R^|&%)d$&^e&E$k)S#!/p$>[X^>;+^S*f$&[d'{^2$R^e&9/a^p&u%X*r;B$i=>;c=w$o$(&Q&^*A=R#8/R^ !E=(&I&X<W&W<|,F)L*k=e&[*C*b$i=X^&*f&,>u-*-p}O/S@p#nz0,@-b&5$%'>;u))>v=O&E*e&t*d*<*`]%)z$N&(&e/l*)^9,d*X]c'K&p$v=n&>;w)e&p&v&%'B=w)F=-'7=f$|xS@r5%}z*e&Ot|&p*w=]*d[(&F)i=d*v*R*W9(&o&,&I)=&k=}&-'y=h*t=c'v=V&K=*^-*P=d'R*-*(&')e^<&O&L&c=D=_>W&O&6*l;p&p&}6p&&4v=R#b*(,M].7]79%c/I$,[2*i= =T*E*z-w=:,&4R*V&V&**f&X9C*p$L=Q&%^t=e&F&n'l;!*-'S=g&C&1&k=R^T&X*==-)c=g%B^o!F/p2r-z-#!**f&u$w^d'k=l*o&P=E*H=]&O&O&p*L&h'-)r;-;R*7=c')^7$)*B&e&l>i=(,e/%;w&b&|,k=;&Z^v=c**)i)I)B=A=2$X*J=,;e&J~v&)=:5*7M)j^J<+)8(Q*T&o&|&J<r*w-k=n&]$,*e&,>k=0=W'j'S*';O=S=(&c&X&3&t=z-i=X^V=)*v=]&d'P=C*V&<&b*g&3*u$/!<*E$-']&D=T*^>7/t=J-<&**p$h&w)#!#/uiL/F{b/**Q^<*l*9=E$c=w$W&u{S#*]>8Z)H&p&P]F&2}t=G{w/Z~oz>;{787y],#x1k)|&u%e/o$[^a^k)z$G#p$z$d'E)SaD=p$-'P<Z],>a$s^a$}6O<H)]$//i)W]'/2^]$t-|&a$b$~^h$O^u%u%)^J[.$$8O#&*[/o/s^)!1/.{@>8%-7](}-<=q*d'g&,*{7J^g]C*'*(&B&$-2$W&X*n-%)E*82qa",
"C~ki7=p&>;pz^>z-e&I&D&`*d6;^L/j2UwZ&J=C*6&qz>6+&6$D4@>b51!9$U$Q#s^n>4^u%D=t^;^P={/k)@-%%x<.78$Z4[*b^L&D-|,7%v&R*F=E$2$^*R^l><$-'R^n^l>c'v=$-1&X^p&t-)^c'&^V=m-X#D-2$N&'&v*T*w$X*z-d'q*d^F*^*2$|&V=B=t^:,k=L&s&g&v*D-k*D=D-K&F))&D[D4$$g^Q^n'**a$^*d'v*d*R^h'V&!*m'h&-'/&T*t-V=)*0,d*t=e&)^N&i=f&D=n'b$e^F&(ap&z-c'E=X*F)X*-)i=O&e2/sY/y~=8H9B*9up*w$^*c'7=/&q* **^5'k=l;B=+!i=p$e'p&F=@-w)i=R#K&t=w$8%v=;!z-<=*)L&H)l>X*v=T*,>|&Y))^]&-&|&n&{&A/^>p*H=p*4&w-9%%ab5n/<0v-&*d'J')}P#C*/*V&[^(&Ngp)b&d'/&a$2$0,E$0=O&T&E=p&e&T&M*L=w)]$Z^p*p$u-<*d'R#v&e^d^rz>(.$W@m5D7O&R*F=-)8&:}v=>;w)J&c'z-O&v=t^p&.)k=|=n&p&l>+*A=<&X*J&e*/*V&p*v*p&^*<*t=!&0=0,>;7=|&1&b&n&^=)*T&a$(,L&c'(&J[V&a'~3y~}7,0kgk)k^E)O0~*k=b$a*X*k=|&C*W&W9z-i=f&/&b*J<>;d't-K=*)>;T^N*l>F=v=t=z-v*F)K&y&J<C->;-'k=E=|&n'k=V=^*p&c=q*>;F&)=v=1&)*w&A=<*A=.^x)B^j]v!b&W-@cv=y=k=e&U=k*k]3z-3szI&A=v=]&X*`<2*%(w/']Y}D-F#z<D#v]e90,|, ^<&d't^;^B&D-X*T*e&i=Z]J'R#~^2$Z)l#d$y^z-b$A/F)t$E=*^a${/p$t^!/J't=o^h$9^6^g/)^9$h/3^x^!^b$Y'O^&#]7{7!^*4){d#G/,3Uw9^y=;[z=t$t$;0o[#*|&U=)*%=d^^>-)h*<&Q&a;#{",
"Act^d*1&(&0=H=,>1*:,d*!**3O^g^C{sih'-!p*-&6-/3S%'!K]${#8|#X%g$D$,^+^I^n$!/#>d^.}L)/8<)^$1!.}snx[F3>>^*D=}6d0d't=n'Z)B$.)>&m'D-&*|,SaL&]$o$a*Q^^*b&&*]$7/e&9,]}@cD=C&/&D-2$Z)}6T^}&*^v*(a1&V*F&X**^P=L&Z^1&v=Q&t^***!f$v=c*p$(&**l]o!r%tzuza$E=+az-_=v=p&J^d'!&%;h'D=$0A=r;>;X]k)v=]&a$X*&4T*e&A=(&/=e&n&k*i)*)V=d*-/{^d*Q&i=V=*!g&g&5/5}T@W2$=ti4*9^k=!*L&-)**dc|&D=T&k=p&#9X&o&(&**('K=w)D-h^.-0,p$X*7=1&c'f&o$d'o$2*v*kiX*!&w)**n&p&D=I&v=L=p*]}F&J~**i) *p2x[1/*%fwP^~)l>P=U=y=e/b&ssR*v*n'^*D=V=t=t=&^^*~*,=D-T*u-*)O&V=7=L= =i=X&<*2$7=w&u^3*v=2/C*}*2=uwo/u5'wv[u)X*t-&*E*-'/!h'g*J'E$O&1&R*]$z-2*)^*)e^$-S*V&2$-'d'/&p*t-c'^>]&!*t=O&>;c&0,X*a$k)y=2$@-g/w$//v&t^w)R#I~v=R&33n!9'%/vzk0s-D=A=c'0,2$o$W91=d*l;,>V=F)v=D&t=g&3&c':&)/R*Sa]&/;o&R*e/9,p&v=**I)/&O&!&N&F=t=n'X*'&q*c=l;,[2$[*<*9,(&4^F&@^a$#b7&#r/*c*%^ 8K$T~>8A=X*i=c'g&p$v=c'P*R{.$w<wzN&/*/&N&z-J'-'G{B7n2<bi^8'.#I/V%:- [,>Z]V=+^t^%%J'M<p&T*F)2$*^0,X*)^6^j)X^x^e&d'p$.$K7H)n0R^K&J'a$G#4$%'J^x^w^u%s^`^x^9^[^8/!^[$e%s^-#u#]7y<|7`~863/E#6$4!/>D-z=5^Z).4%$b(i'v*^>-'l;e&,a^*E-h'd*G=;{",
"xcw$X#|=P]L*1*N*d'C&D=N=5]O^bw1]Y!p&D=#=E*j~m5r/Gda6a]n$2%F#!70$[/n9M#H)5$6^t^t$G#s^r#`|K#Y'r%nl']15;&O&D-+^_//b2^u%-'<=]$.^+^R#t=>;Z^Z)w^p$q*k=2*OaZ^w)d'{&`=e&k=<&F&B=|&O&';X9d*n;|&Y9#^k)P<v===+aW9@=b^2$D-v=N&f$y=I<G#>;!&N3N54%97frzae&/&i)b$;>b$6/V&V=a$w)N&h$D=E)xz7=d*J=-;f&<*t=2$F*F)A=<&D=F&I&w&t=t^!&R*h/V=R*/&`=V=s&|,ogR{ %p/h{.7}xX*|2u)F*t=^>F&n'e/g&k)X*y&l;b&c$X*P)R#T*}[o&)>$-|,<=E=L&B=C&u^e&A=Z)V& *2*d*y=B=E=t=E*-&v&)*e&o&P]B=V*r;I&-3yz=$C/ 7E*~*F*W]v<<*e/V=|,c&c&},^>1&u^i=**-&==O&,>19S=J~y=C*<&o&e&F=>;/!,>d'{&<*2$i)-'V&J=k=@=zz){-#:/']p'8}o$<*=^&aq=e&X*V=)&p&|,i=f&|,X*U=(,>;-'|,4&E*a*m>m'|$g&9,;&19v&N&`<]&T*-'o$$-y=1&]&y=9,e&E=t=v&*)}*-)k=*&D%`2+%D8P3dxBaF&d*Z&^>Z]P]d'}&c=Z^I~9/Z^X^O=)*r;}6<*g&w&q=V&J'D=n&]&/!w&8/g&>;K&L&I&c'{&b&z-&%R#f&z$P]v=X&-'Q*c&p&!*R*~^a*1&(&&^L&N*c*e&R*1!y^o;Az}&4&n;b&n'd*9/S=U'n2o^m{lbk)K&F&(&Z),>/&){~6![Y!5aW7;',)`3ixz$%'_/c=Z89/E$Z]`]%^t=E=g/]$e&d^:}W9S^M#Z]E$q9)^X^Z)0^&$w)m>l>t$^*`^M#Q^5$]$4^,[[^E']$Z]8'[^u%')E/x0y^o/,3Kw@{8]8'y<C/d!]*J&W9-&BzI^Q#y{9&L)c&R#t*C'^>8&(,]&V-h*Cz",
"Vce^r=X*V&p&)*O&k=C&^*J&,#N<A^1!Dzk*e&c*z&f)/3|%Y':{k{]#;]a]|8G#:/a%+^b,d^J'&#B$8%.^#/|^K}*#!44%x/[>r[L~<*J'D=P=%^V=9^Z^D-5^&* ^c'o$b&P#F))*u$P<s$9,c'Z^T*W]T*P]v=J~F=W9F={/J=~*D=0,P<<*S*X^B=k=-'d'g&}&y^P<l;(&d^t=A=L&-^S=Z99{;'&8v6hck=E)';X*-'F=i)y=T*d'O&@=v=t-O&p&G#:7$-;!t=7%J'<*c'P=F)[,|&d'R#~*2*o&C&A=`*i=Z^i=b&Z)w)a$P]R* ~<<o/S/Q{6-J9L&r*k=R*J9M<O=w)K&v&Q*L)R*K&{&d*)&K&b^/&2$t=d'0,I&<&V=V&NyF):$9/,*^*7=R*O=D=T*#/V&E*d*d*z$t=-'b&w)&[R^C&Ezy$)5$]kxR^d'&^{&t=Z)D-p*B=>&D=b$F=m'k)`]9,v=k=O= =R*c*a$T*o&Z))*]&D-==B=>;3&X*p&x&<*%)#/1&d*u^&$j7S/*%Y'V~4!+^5^d^)*}*1&k=w$&4e&{&9,X*-'~;z$-'K&|,L&|&2*k*D-B=P)-'V=W&>;/*]&*)(&p*^>F=~;z-K&c'7=5*K&9,{)l;T*f&l;a*I<Q~97M/%$9gE$z-D-h*k=v=T*L&u%==J-[,T&1&D-p&%)W9F=F=N*/&7=)^E*T*/&;&V->;X*(,-!p&e*v*k)X*Q&l>k*E=$-=*F&]$T&F&>;D-k=~*R*-[F=X^;&r;F=*)V=%'d'#!M)b)q7g!N*g&T*=&5$[*w)>;q;r]g$[{w}`]i*k=X*(&e&R^3#n5FzGzv&.#n!d#V%HzW]Z)9^i)a$u$^>D=Q^d$J'X*z$9/19#/R*h'7=D=w$P$!/&*l>7$F)-/d'V=#$c$t^a^[^J'a^^=D=A^)^f^P<J'7%*/f^G#{$]7S%:/1/h2j>I]K$b)|#e!5^y&w-1&#=u7~$[(3*Y)J'S*<*<*(&#=N*<&3*IzA{",
"02z$c&d'v*v*c*m&;&U&G=C*![ }F$%7$97,+*C&e-l-[{{%1!I]8]F#*7c]*}E;,)e^D$f$u$S##^ /i)a%Z)]^g#'rw4*7^w+(G54>3*4^k^1^Z)s^Z^/%R#k)J=w$ =**t^<=H)k=l>D-&*%)W<w)B$O&u^F=O&p*{^p$X^=^s^b*a$}6c=b$0,D-_/|u`]d$L&e&{^i=D$F&z-Z^<&d'<*h*H23{Y'}re2'$;[l>~^v=E*#!}&>;@3^*<*n'v=!&J'O=!*b*p$-)b&#=d'v&]}l>g/},X***-'O<a$X*R^F=2$t^z$v&b$v=**b$)*{&%*3xo/|#y{t9;&Z)';X^W<+^N&]&X*I)Q&t=-&u$2$P]t*%)==b*[^R*d'o$t*h*k=p&z-c=y=^>p*P<c'g*d']&i=i=!*^>I)p$X*X&!*>;v*3*)8{&L]c]$$z#~-o$**,>**R*p& ^T*d'v=b&==T*O=J9F=L^J'O)T&a$!*w$b*Z&,>o&{*%)2$Z^X&9,f&D=V&D-v&T*k=2*f/e*K&Z)-;6#2{d#J5n24&z-C*C*k=|,|&l>^>p)f&z$';X^I)o&d*N&d'z--&#=p$F&a*m&f&v==&F*T&d*3&^*9,t=M<b$F)l>i)J'<&T*%)l;2$(&i)F=A~Y=<]z#[/Ue~=e&v=T&h&t=p&0,p$f&f&7=-'L&D-)*M^S*{&@ak)p&L&F&N*L&v&%'k)X]K&X]v=b&X&k)K&J-e&]&v*G#>;m>]&O&Z^z-B=F)y=0,{&l><*D=)*,>X*v=7&V&<*N*t^2{:/*{X=9^v*n'z-e*O&0=9,';o[]7%(P[';/&D=^>n&e&D-%4y~ztd|2}4/Y'd#`5Aw19D=A/)^B=-/a$|,J'L&H&)^l>V=N&F^>[V&a$>^k=o$)^u^D=u%D=[^u%-'b$e&4^p$Z]#^Z]2/C/==2$')4/J^]$N/g^g$6$<^4/*%]72/<48]k0x]O#o*T*/&K=[eJ-M#&$l{na:}d*V=X*b&i=+;A=h&7=H=R3",
"oci=)>b^<*f&v*b*)&<*O&/%*3N^@8C{VtV&ua[&b&au:{b55}/]^{,3@(}^F/j/9{G2^>t$[^g^G#+^h'G#t^S*q'G#f1v%'!.}I/<]U[P*H<A=<$t=d$**9,J-&*|$O&Z^%)f$K&d'b$O=R^^*f=p$V=z$E*l;e/ ^**n&=^n'R^k)$-c'7=l>e/K&h'J-v*V=9^k)2*t=w$p&z$D-b&v*>;6]L{n!o!,$*&H9I<2$9, ^c'*^Z^d^h'W9l;z$R^a$,>L&c'<&5$D-J'D-D-^>,&T*p$K&5$K&7=-'`]]9e/c'k=D-7=!&**},1&T*|$c'|9NsG{'^n!%&|-C*R*:,O&e/a$t*v=R^g*D=Z]Z)~*|,X*g&f&^es&O&E)F)Z^d'v&F&2=v-P=J~a$`^#=!*V&+^R#!&}&}&X]D-J'p*)&2$b&g>D=;[K48[y#t3N1R^^*n&p&w)w)5^b&o&t^Z]R^T*W<F=[^ ^ /g&h't^p*e/Z)Z)7=L&*&>;c'p&F&)^v&t={*l>b&L^e&|,i)}6,>t=.$JzL%I/.#03,[`*Z^D-l*|&D-v*h^M<c=L=**D-V&*)d*P]I8O&v=P=y&v=(&^>X*d'l>|&v*^*T*<;,&p*J'/&>;K&<*M<e/o&D=)^X*A=3*P*n/]4;'1/`@)gi)a*E=-)+*e/O&f&e/)*M^X*e&P=c=8/^>v*b&e*ki(&a$O&F)p$/*~*d*D-t=1&w&u&a$-'c*K&D=z$z-1&}&[*K&*^T]-'E)3*w=g/A=A=/&/& -c=/&p*}=`]^=v=4^y/F#H{%~t*j*J'X* ^n&A=|&G=l5$^`5p<n&Y-n&6*K&o$~&S3*7@#e9t=%$[/V5a'B0+^t$1$J=&*J^z-==},*^L&i=W]v=^*6^O=t^w)9/&*i)o$*^a$w$>;d^R^E)E)E#K&!/X8B$a^#/^*d^u/S*)5o/;0X^z#<^-#9$Q#+8x]]^V~R3~e$$x7o=e&p*p$>&>;.}>',#/*L&p&g*R^p*h'O&;&N&C*m&Kz",
"L65$5*a;-'_=S-<*p*P*]&+*v]~9I^}^p-d'/&=&+*]~_4P%M)${Y{&7}^'!e],3I/x[6[ /@/q^2{R^)/*^o$;^-&X^O^LzI%y~c%X%6]U3R&N<V=J'Z]G#W9v=S*#=u^D-N&c=5$~^>;g>F=,>C$%'F^k=D'W)(&8%E=*^1^O=o$D->;J[d^R*F*u^w=e&y=k=w)},t=h'49Q*F)<*[^X^g&|5,)|x`{lv==b$)^&a-']&h'+^O&y=)^/&J'l;7=Z^i={^f&i=>;9,a$v&P=W9D-^*t=(&i=X]E*D===c'**p$y=p$r;d'O&5)E='bQ&J'}&p&r$]7I/z6X~v*D=,&e&c'V&X#T*v=B=-&T*F=e/+*n'r=c=q=c&w$-'d'>;J'0,v*T*d'&^tvb2p*a$T*!*u%E=V&)*F&)^(&R^-',&P<='u^{&t[189%x]A|59Jb/!)*J'o&R*D-E=<*)^A=O&2$R^j'Z^X*W9!*{&V<F=9,L&7=X*T*e*B='=k)o$D-!&b&** ^.^,>7/F=e/G#**X^d'Z];[Q#*%A[:5'&E$I)B=K&p$a*)^X#**i=R#E*W9>;1&R*-'R*/&V=F= u';p&j)k=(&|&r*e&b&p$k^#=<*W92$V&F=6^v&(&D-,&V=t=T*l)E2@8F#g$6s<u/&<=E=Y-S*f&Z^p&Q&d*e&>;g$V&y&'/!&C82$Z&]$e&O&k=L--'8%v&|&p*N&E)K&;&b&<*I& *c=S*I&F=V<c=<*y=]}a^b&,>8&^>o&9,)&W]C'm>P]2$t=o&w)b$7$MzF#$]Vs|*}6U*X^K&p&u-~*],q5m8vs$~X&D=+*^=R^a$O<n2<296NzI&y~J^o/H%P1#r4^O&t^S*Z^,>H)t-k=D-2$/&e%9^u^{/ki0,]$a^N&4^%'R^Z^9^9^D=E#f/f$E$e&)^~^0,Z]8/{/)^R^==1(w$D^~$J^&#x/1/7$X%]7M{%{[/1!%$h;@3Q&V&,&t*F8y<;].*F&d*x&k=Y)e&!&g>)^t*X&y[",
"h-1&b&_=m&p*i=K&X&{&F&)*70x9]7^%!-p*)*[eC*1;w{K/.#M{*}N#S/H%J5x7([T/q5p2&4]$8%q94^I<b%|,j)d$w$w$OzXex]n!b5@>V3Pz]$>;7/D-)*p$')k^O&p$Q*E)9/e&d'c'M#G#^*Z)^>H)E$K&J'^*u)D=,=z-e&E*n^E$-'J'R#w)X*d'J'F=T*Sa|&==p$7=L&a$W0!&w3t]z5]7#9S*R^o&D-H)k)R^>;A=t=V&**k=-&`&a*c=0,5*E$N*|$J'P)x^d*f[E=i=c'V&,>/*>;A=)&'&i)m>>;R#e/**p$N*c=V=/&-&Q&|,9g20w/H/h{.)D-v=9,A=V=W]7=S=d*T*&*==o$O&t^K&d>c'&/c'%'F^E)9,F=e*!*T*p&_>P<k=.^L&^=e/(,n'>;y&Z)5*!&t-e&!*m>c&g$X3,3##${i[R^u=2$Qz1^T*b$c'v*&^)^[,o$q*X*7=%'k=y=k)$-,;O&e^Oa;&C8T*p&n&v*D=L&e&2*f&l>3*w)u%2$R^<*}&R*O0F)5aT7;(,)C/i{a$d0n'D-e&E*b*v*p${^z=R#X*O&k)Z^F&djZ*F=X*n'F&J-D-^=3&^>g*a$,>^>f$/>^*R*T*p$7=#=A/)^V=]&L&!*R*c={$h{J/y)8#:9Z)h'+be&v-t*,[>;2$t=P<)*b&^=F=c'f&d'e&t=g/7%)*b$(&{&P*e&l*F=^*3&s&X*OaO&,=&4r;=&/*|&L==^x'b&c'e/<=v=X*F)p$z-2$R*<*p*Z]w):}I~V'!*K&>[3{1^v{AwT*F*X]F)l>R^-' !O*l5n/70}-#bE*d*u-t=Z)/&h5j/30!ec'x^n!y4Q%F|L^D-h't$*/Z]]$7%5$a$S*l><qw&R#[^0,v=Z^o^9^v=<&D=&^+^z$Z]')|,w)')o$9$>;#^b$N/+^P]j8G#cp&*7$o^/%]75/m^g$o/{$l#|{70Rz[/s/3!Szp$///&B= 8]7v{Q&d*#=-'Z^n'v=V=l>F^9=C&V2",
"6yN*Z=4,w=y&v=)*B=-'d[,*>(g^n$g5j=c'O&K&~)]6[4p'1/8]|{!#9%!%7|`%2{([I/q5>}[b8%,/G#o$!^z$!^k)f&f$W@Tzp6,3]7z#Z{925*B$u%Z)E#L&w)e&J& ^H89^r;i)9/!*e^&* ^D=E)2$D=X]]$X#<*_/z$c&,>y=f&d'P===|,*!C*n&)^<*D-N&2*Q***V&%'!/b*'b930'1!R{%|<&D=l*d'==u^p&c*X*u^a;[^P]D-2*2$d'l><&K&d'&*$-d*R^K&!*F)F&h'R#3*:*)^,[)*O0d'P=>&*)B$t=N&V^p$|,e***8=t=6^>=G/F/w5W2)&8t7=i=y=}=t=v*^>/&o&|,b&c&)>n&+*N&|, !d$E*<*O&/&T*-&.^v*^*&[D-%'w=|&e&X*(&n&z-O&W9J'c*w&T*~&c!t[,3y#&(vhF)7%X^z=%)=a{^t=m*X*t^V=v=B&T*7=L&t=F=>;)*>;F=>;)^4^r*7=V*2$D-C&F='/e^/!t=|&,>-'V&i=/&X&D-|&>;a$C&j5_[D/[/+7E2>=b*f$b&d^T*%'O0<$/*'&t=0,}=r*K&d'C&Z)#=&^Jb<*Jbp$X*d*|&i=>;L*y&>;w&3&!*|$d'**},T*L=l>K&#=c't~Y4j/.}`^h>B=L=p$5&-'W=)&z-J'd*&^X^v&2$&*,[X*c'E*E$D-R*e&<*==q*7=E*5=v&b&d*F)w-^>]&)>`*q*<=y=Z&1&p&8&@-0^e&t=X*H)O&u$N&>;X^e*-&&^T&y=-!p;$-P=*!d'Uz)#-]7!=>-'z-k)|&V&^*J*f&.]x]Q%#~z=)>`=p$)*t=-'-3j/(wVzH)E#%7,38yO6k8V=0,v<2$r*8%-'c'V&Z]l>T*V=D-M^R^A^i)Q&C*x^|&8/|,]$b$D-%'{/X^0,*/.$3//&t=_/%']$a^V=f^f$d>n^c^&#y/K$y^I^4/B^E[@{-#o!F$5~J9**Y-O&c=o4B^[0_'!&]&y=c=6*7=&^'* =b&^>84",
"Wzn'@-j'|='=f&{&{&+*&^Z&K8o4M#V/&|k=O*X*)>e(${,)x/@{M{,dD/_8$$cgh$y<j$p'z~>}<*a$A^V=]$t^`]Z]D-7%kaZ$Xzv4%%D^;'=8G{X*Z]z$%)F=P=(/`]p$o&e&K&M<T*O&e&//Z^O^t=V=Yzt=/[C8~*d$P]k)V&u^w$O<<*3&9,B$B=J'X*&*/&P<h'!*X*)^F)t^=*k2Fdn!o/&|!$N&d'd'5$d*Q&k=K&h^w)/&l; =D-b&9,K&0,R*)*d$v=w)|,E*A=<*e&*)l;v=,&z-]}t*g>4^E)|$7=7=/*R^t=f^e&i=|,t=m- ^|&k~x#d#%%`5!rY9r*E)dj+bv*J'}&E$1&L&2*<&!*-'J'X^l;>[J'~&v*c'p$&)c*c&F&H)d*F&|,2$W<p&J&#=d't=k)2$1&(&E=|,s&5}Bt0$y/$5w=I~H)F=w=5$-*z-<&M<X]E*)^k=e*%'7=F=/&t^t^i*@-(&E*X^N*~*[*o$H=^*Q*w)A=-'G#J'L)J--'V&k),&d$h']&R*B=8}O[7~*#x]|#U{5}$0d&**J'p*o&Z)X*t- ^X^u-N*R#3&2$)*d>c'!&>;V&k^&4m&O&v*q9T*/&f&w)E=)>W9u-==(,p$_=]$v=t=0,==D/9{.7Q#}(auI={&d* )y=#=!*^>&4b$C&y=h'o&C*k=o&e^O)>;<*Z^q;)^}&(&J'1*q*T*X*F)z0)*9,b*m&O&{&J9x*2$s&F=<&t^w)5ak)H)-&-'(&~/d^>[$-h']$.)y=(&!&$0t=Z&A^9$[$o>i-5'y&,=c*T*y=B=*)@*v{l4`%h7{&==c'|,E=i)|&<{x]g6Zza$,3k4@(^(kr =P=%)I~d^6^w)/& ^b$P=u^1&E)~^<&<*l>p&t=s^E*n9-'R^_/P#($t^H8o$)^5$R^f^5^)^6^X*E=P=u%7$Z]]/!^C^4^K$E#x]p'%$A^q{%&r#y~M/ ;g/F*^=|&/*x]9^<]C&K&-'d^>&3*p*F),*l*~*7'Y~",
"ro},]&p&r*2=h)y=j&z-C&3*B%s^M#m#}-]}u~T*z&7'[{]7n>%{h{9%H/E/n/,)n}8^x]0'a#4]>}4&==**Z]t$5$****)^~^l>M/`z1{y4y~EbI]w]f&K&]}c'k=z&D=T^9^shH8A=<*P=V-[,sho$.^e*4^k=V='&P=N<';X^p&O[>;9^==t$e&D-B=T*u-9=>;A=)*N*O&o&==[,C7}{y~Q# ]Kd)^/*n$/&')o&a%e&N&2$c=i=E=D-#/4&<*;&>;D= ^y=k)x&^>A=J'v=W<K&r;P]Z]c'k=L^U&~*]}d^+*d*l>v*D-o$ ^Z)v=<*k=e&<*Z^o7}wD#6$K~U)b$~)9=[,o$o&b$F=g&P#==v*k=|&,>)/v=E*5aT*t=o$I~_=e*0, *R*t=g>X&k=y=c*F&I<]&4^e&v*W&i={!*^|*S4b5O#vs4wt$/*R*$-}&X*J=)^e/2$==b*~^/%e/-)F=T*f&<*z-t=F^d*O[)>|&v&k=O&9,k=k=Z)<&3*<=k=>;C*>;7=%;X*c=t=,&d'h&9,w)P$d|.]b#E#z3 -k)O=:7r;==/*,&F&K&9,^>'-N&J-B=o$i)v=t^v**)p$9/J'|&<*N*Q<-'C*d'//d'A=N&X*k))*F)Z)K&**E*K=L4v0o/{$e9#$t=[*#9f[D=p$T&S=v=t=}&R*-'7=ExB=F&d*:&t=b&e&e&B=I)W&9/(a,[)//&X]^>8&k=C&t=Z&g&A=)*M*S*>;O&J~==(&o&w$e^k=z-f/z-u^Z^]&v*~*1&^=y= ^z$T&d>*7L#9{rtP)V=c=8&l;W0m'w$V&j/9$x#$cq=V&R*K&{*5^<*5{x7Zc A<&-4Uzx[![L}S*!$-[g^d>h/J'd^3&Y)J=F=t$~^t$~$1& /'$Z)]$n^4^<*b^D=F=#/ ^RaC$u$)^;^]$x^M#s^w)')R^D$R^8%5$(/d>O#9$l^&#g$[/:/B8  l#x]*%@;H&X&`]&^T*]/Q#J#='k)O=%;y=1*D--&9*n;t*1=@{",
"'ek=@-s& ;D=v=';u-c&C'3&5]N^t$o[~-c&-'(&`];~:4y<F#%&  *%M/V6:/[/O#Xa-(V%B^@(-(E;g>-',>Ray=`]9^t=<$D=9/U$`y<3Erw7x[R{;/k)S*7/b&-)*^b$G#c${!p&k^C&<& aT*D-E)P<)^~*i=d'2$d'C8V=P#J~/&K&d^B=<&p*d'd'8%>;t-z-K&T&e*{&N*X!W~z6.4F/P[0%}&J'(&e/F&+^V&A=b&d^h',&h'a$v=z-2$O&)^|&7$A=i)e&^*M<p&h'u)3&!&3*},X&|,X^n&P=k)3*&*-'J'Z)9^,>:,N*-'2$k=,>m&>;C& ty~h$x[Yc{&g*e^(&]&c'D-V&c$n&d*p*p$!*Z^O&D-V=h//&H)w)d*l;=*f&D-Q*O&H)A=/!!*k=v=w)v*;&>&e=e/e*X]t=$6b(@(.AN<P#$-d't->;V&i=<&#=K&l; =p$**-)[*#!==},X*t=c'k)Z]a^Q&e^2$V&Z)1&^*t=E*(aL=:,c=F)a*e&X*O&d'5^`]a*e*t=)*5^p&T*F&;^*7c%$5<!R&D=J9~*W<P*v=c&n'-!K&,>)&1&f&/*m&+^^>n'-'9/]}o&h&-'c'X*X*R*~^b*l;c'T&(&|&v=R^U=k=y'M*']^]Y'&#3#4=_*I){&C*v=/*/&)*y=v&**i)t=c*X^f&>;]$l>d*n'o&,>7=v=v*x&7=|,**+^**e&v*a$_/w=z-**p*6*)^o&M*F=j)>;5$p*e&#=w)c&i)P= ^e^k)w8!&v*q9Jb/&<*@-D=i)nlC%<{Sup$|&Z&d'T*(&V-}&q{3{9$^%,;=&5$p$p*0,#/d^92.#E{7'e*4/j/;'&ve2%)w)W^w).^D= /J'V^4^n0e&<$%'2aE)d$P=W9i)E$o$ =*/9^d'o$u$Z)b$<$)^x^%'~^D=[^&*]&&*A^D-!/.$3^^^!$p^g$K/q6n>%%6$){&{,3x];'c!&*A=)>j)r&x]y~B6S=)*==,*s&,[#bO&G&g&s&k*$y",
"Ybt=E*5*k=9-7=e^!*r&g>y&y{x^.$n[W8r=Bxv&F&S[T{K$E#t{U{j^.#Q#b,;^{$&##2*(,3~t|#E%G[v=e%k=o$^*1(e&F*J'Z)t*+%4s301/d#G63[7%z$**J'A<T*R*K&9^Y9P=]$<*Z^+^J9R^D-b^~*T*O&H&P* ^_>[^W<o&d'X*2$P#O&b$t=<*b*e*k=T*F)B$(&JbL*N5i]([:8![;&X*9,,&q*]&R^p&k)V&d^=&F*-)E=a$D=f&R**)d$<*b$$-|&]&t=F=O&9,-'D=,&^*S*Z^p&Z^3&t=O&D-c&K&E*o&{&}6G#u^d$X^D=t={^'/b%1|<0U$m2*{n&I)R^Z)f=H)t=J'y=>&|,V=C*V=(&p*)^b$h'$-z-X^Z)e*p&)*X&L&y=X^)*o&d^c=m&w-%)v*2$:,m&]&2*Ngp}.#y~p4+Ae&i=I~K&^>Q&yv)*]$D-V&v*k=(&J=P]>;Z&C&&*>;D=E*h')*t-t=J[b*f&K&y=l;I)c=a$P<|&b^i=k=R^-*X^';D=|,i=-'v=K&R#o&K)-dh{0$4%T~g&n'7=B=-'u^G#;&T&y=w={&-'m'R^$-Z)t-**t=';)*f&c'v=p*2$<*!&d'D-p&!**)o$p*V=[*S*P) //&!*#{([x]/(@A**,=M#b&f&X*B=D=5*p*t*h'2*{&F)C&R^h*'9t=p&**|&v<v*u-a$^*X***(&T*R^9,q*X*%'c=k=#=R#l;J&o&h'd*9,2$l>N&C'-'-*z-E$d'^>i)/&/*b$D=F)c&**1&<&t-Y94/($>{]|Z)('U=-'r;2$)^{~L2M)7$8//*N&K&t=W9X*>&B=3)r%m{<=Z^`%T/u570Tr#/%'c'n9Y7lt[$]$+^a$g$e&X^q=R^D-o$a$a$*^r$^*;^p$u%o$-'a^k^z$D=i)1/9^J'v^J^e&<&&*N/>^1^G#l>s^u%.$x^Y7c0:/$$&#4{Y3v/.}w/X!J'|&(&i=!*G/$/a#C&F)T&v&V&T*7=7=3*Z&N*e>84",
"h-X*1*+*c*]*v=e&V=u&#;C*=(/8Q#-(#A=*}&z-z=S!q{y/v/V{@>I/X%-7D/.#S#p^*%$AZ2%74/j/n{L4>&|$D=o$V=A/2$N&//m':[d#V}%A$$9$~3#{u*N&q-9$,>n&D=2$-'[*W=},N&E$9,5)P<T*d'Z^X*r;&%b&F^**2$}6F=F)P=V=e/6*k=M^o$w$t=Z&A^)^W')*h0&Ab6}7n{z1F^J[2(Z^M-Z^H&n'c=u^k=~)p&'&w&O&}&W]4*w$Y-==p)o&l*J'p&T*U=3&y=R*-;D-<&n'v=L*I&D-R#d*I<-'r;k=0,z-q9$-,>H)-'V=M<)*N*d'{&#7.#q5V~>-},K&/! =v&]&D=o&t=5$i=C*';N&X&S*F)$0>;N&Z^O&n'|&F=**p&F)Z)u-1&H)d*F)l>P]K&==k=_/!&h{R/4%x/8~f#';e&**>;M<,>R*D=t=J'D-X*(&b*N<h^_&B=w)i)i=k=+*oaW9T*D=d*z-X*X*K&D=x&&[K=c'B&U=D=z->;O&O&O&F=o&V=G#{!*)R^/&&^/%>-u5o/([J]%*L&z-y=N&<*>;<*/&L-waa*t=e/uaX*T*7$#=P<e&j)2$e-F*n&8&k=E*-'w)/&)*{&k=i=^*p&K&d')*.&xdB^[/F#-;7=2$k=3&2*-'t=j'p&,=c=p*{&J-'&-&6*F=Z* !/&l*]&^***[*T*7=[,a*,>>&a*c'B=%^h'N*B&z-n&V&C&O&r* ^o&d'k=-'Z&m;I~N&M#L&d*!*F)D-|&v=b$|&h&d'2*K&)^B7yaJ{f;{&e/d&o&J'c=z=s{.7H/0#fjp*k='bd>I~[^k^%%}][/p8)^>;WvH/a#R;&|A/P=~$dsJ'd^<&w)k)T&5^q9u%w)V=b$k=T*V=f$o$&/H8l>5$D=(/d$w^&*`^E='/P<+^:/==o^&*^*]$>[o$J^7%J^O^a^)^y/>'g$2{i/Y3@{d#n86$S[n; =E*H=m&9'Q#6]~*2$v&>>=&F*^= =<*I&W&y&Dt",
"iqT&e^r*k*p&M*J&u-b&d*)*u}=/:/u5K[v->;V&Q&|;{{8[,3Y3T{)!n>0$)#h/z<:/j#60*A20Q/Id1#~,#}2$o$D=G#~^<*~^@3%^V&l>p'=A1#Y'p^-A&];At$^*O&&*w)m&**K&z-V&1&*^E$d'w&**,>o&b^e*#!|&Z^D-0,a$&*^*F=[}!&T*|&J'7^>;]}+^w&9)|&tno]&{|#3zJ^>A0&e/R#c*R*^*k=e&R^L=d*,>A=R^2&T*$-J99=^*B=p*a$},p&&^d'-'{/e&F*:}/&X*F&S=w&}&Q&X])*c'f&t=A=d*K&i===Z)a$D-/&!&},t=b$X]r4,A]7Z/u{'Ag=i=M*^*V=k)F^^>O&Z)e/_*-'v=m*p$k=f&p$p$I&C'-'>;f&<*R*:&2*t*D=K&}&v*v*)^d*2&e&O<t^~[I/'!6] ~v*T*2$^*O&:,T*R*i=w)B=<*X^w$2$-'R^o&/&n;N&Z)v*D-L&e&!*==)>c'f&]$g*o&D-b*U-E)9//&h'B&2*o&(&d*E=w$D-l>p*d'[*L&k=+*f;d]6$J5R{fb,=N&c'|,:&o$y=)*-'-'e/V&a$*^k=t=R#1&o&2$o&i=E*>;%^d*V&a$^>B=]$ ^d^[*^*==E*e&5e)*/{)4Q/Z@)A#/w=V=T*T&D-(&N*}&F)+*,&T*I&B=b$,>F)#=!/Q*v=<*i=v=+=#=7=w={9S=L&e/>;V<X*P<l*t=X*-')/k***<*(&R^>;~*t*S=^><*t^J-R*n&k=c'Z^^*N&F=^>t*<*[*k=k)X6m/{$K{{~c',>,&i'J-k=a$!{W@C%T]}*9/3&p$X^F)L^@*i696p#|[i)F==8Z/47H%E0Z^{/h/}6D-u$H)>;9^R^Z^**V=!/t=9/T^Z^^*2$*^-*I<u$R#R*L^u^2$0,n9~/2^0,_/R^t=e/x^!^1^f$k[>;@/8%g$!^h$)5$/F#x]9$1{ {:/%%y4]~E)9=B=t=k=!AD^`%/*y=6-)^*)y=X&)*j)m'v=[&s7",
";bL&R&{&F&X&3*)*q;(&O&)&![q6:/40v!k=l*H&|$n7a6W@1!e{f{%u'7)#o![$o/.$[$g^Y/~AP39'+(K/E{Y[#;Z^O=&*8%t^^9a^!9u-x')>2^8[,3K/a3X^d^d'0^Q&v=2$l;D=t^Q&m>t*]$Z]p$D=u))^F)b$V=V=B='/w=-'v=R#!/X]5'L&P=C&k=D=-)b*X^k=9='$G]4/+(E%R|0,e&c'9^c*t^C*|&Z8>;B=t-e&G#o&u81&R#-'<&%'`]G&Z)[e^>R#2$>;:&.*/*e*Z^i)X&e*>;v=,*V-D-T*d0Usv&1&)^p&_/2$i=Z^{&e&Q*W<R#~={A[g`/z#y~V~(~e&*)p&e*2$!*]&o&z*w&k={!I)-'I&>; ^T*v=C*a$=*@=^>F=o&*^R^9)!*D=<=d'Oa^>t=m&L& *Y=q5@y|#]A/%1&v={*W0C*T*c*==(&k)F=(&z-p&X*O&-'**I&F=R^c*f$t=T*Jb.)V<Q&c=e/m>{&!*t*-&r*e&y&R*H&2*u$/>m*c'**v&>;l;A=K&/!z$c=5^<&^A-(b55}z9w*D-G#3^,&2$-!==L&n'a$v=w=B=7=w$J'==|&0,`]';d'V&,>k)7=v=,&0,L&&a';c'k)l;(&P=u-A3##6$x]nw+%+aJb**y&l><*@=L&@[t=t=N&}*v*A=2*V&D-w-X*N&3&c=(,9,}=F)g&-'>&O*e&0=i=w)h&d*Z&#=c=U*R#[*//D=d*%)&^<*T*}=e&R*b&W9f&R#/*D=F)W=O&^>Z^z- =E=[*z$b&Id:/R{7!t=D-D-Q&p$w~P2$$I/<0Hr-'<qP=F)^*O&l;;]p]P%96c}b&=bG4_8p'<#u-2^&$7=O&d'($R^0^f$*^F=2$`]R^O=d$V=S*d$%)l*X^z$e/z$Z^7$o$k=-'+^o$Z^Z^7%{/d^w)0^`]4$8%i)Q^6$1/L#:/Q#>^C/`#-#v/C<z{#%*7###*,=/&T*&*D-Cv'^9#O&/&3&l>V-u&c*t^>;//Q&T]yx",
"(9O&X*O&p&+*o&<*|&d*r&8((0G#]^Qt$*v*l>W&:&_-@{v/-4!]k{([w/C/(^;$]^%%9$1^B^vvB>/A1!K/)!<>=}b*d$J-!/|&9,#^8/(/|&}=X1 fO#}7o5J{~>k^k=g/2*Z^19R^d>w)E$D-Z]S*w)t=},p*e/e&i=2$X*'/^*o$]}R*N&l;-'k=F^#!/&u%^*p*Z)(&^=84H0S%$7j'1(*^(AGrv&)^Y)*^O&R^h'5$_/[*_/T*w)p* =k=R*R^n&T*v*N*e*O=E*N*t=&*e/t=+^9,o$p$[*_>Z^6^h*v=|&l*o&D-=&V&R*I&S=>;T*B=4&-'t=|&J[m;vs*7>$']q#FxV=j'i&O=)*T*^*O&w&^*9,:&O&F&F)1&h&o&s$~*<*t-2*b*C*a$P)D-&4~*i=m>'/V&|&E=c=&/I]u#9$[/ezt=*)|,^*<*2$F)[*:}**T*1&Z)E*]}V=J'e&k^5$Ot9/f$1&c*==o&@->;D=Y7k=)*e&>;!*i=|&7=X*v=V&v=m'X*&%**D=d'R^q*w)^*-'C&t$J[)^!*Qt_AE^']-4*)T&.)#=*)&*(&B=)*d*N&9,d0V=(&O&e*7$W9J=,*B&b$O&S=O&F=/*>&i)e*V=S=D=!&|&}=Z^E{$7W@Z~c/**Zs~^|,l;Z^B&3*p&n'P=s&h'P=t=W-X*^=9&d*e&O&g&d'<*%)9,**R*d'C&==O&e/A=t=P]F=v&q*e/e^R* =a*O&h'w)v*!&,^f& =O0c*R*E)W](&v*e&e^Z^%)E=^*|&*)**d*Z]C%:/~]:Ae&i=>;#ra-T2;'x7nl]u2$Z]9,X*F=+^v=S^I]o/4/[&^*z-u-H{*#F/H%O</[i)a$J~.^0,2$t=2$%)-'w)1$-'@cP=c'F=8'^>k)i)k^Z^w$==e&s^k^69X^V=7%)^^*E)d0')2$a^X^x^t=h$u$x^a^s^h/z#F#6$C/x]d]@>=$}7z#7!5$l*C& =:&]7g$@7$-v&P=e&)*m>F*-!^=%)2$o*~]",
"I']$:&S=Z)JbU-9*h*u&K)6*+]-/Q#`/H!D-#=C*c=6-8]1#,3Eu70O#4/y/g$7$g$i/{$g$7%t^_0<AC3x)|#Y5h5+>c*!/b$P$I<2$a^p$M#J~i#C}N6j/n5%]p!O=Y)Z^e*0,B=z$<&F==^-'t=1*~$R#E=s-|&p&d0K&Ngc'Ib3&v&D-]$F)D=e*t*-)7=p*A=V=|&t=)5[A/(v7|0e(B=F&]$C&|&t=t^M*<=b&|&M<Y9#=~$V&Q&X^ ^F=>;k=k=v*O&|&k[L=Z^D-c'e*o&V&X*-'T*'&N&1&g><*c=r;n&>&H*V=v*v&:}p$N&J-@=4^l*d'r;Z)^>.^}A`5>$K/(42tZ&c=Z^|&D--&[*b$R<N*O<c=T*V& =<='*|=J't$%'n'Q^K&a$b&L&v=@*|,(&(&**v=|$C*k-z2z##%%(~2(e3&N&|$&4z-1&-&T*>;a$-)c=-)z0N&o&|$(&p*B=>;`*O<-'B=X*o$v=q*k=N&|&c&Q&T*R^l; =[*y=`]l*B=F=^>&4e&**c=t=i=P=&*v*Z)G#k=`]E$|Au{u/o!|5T'L&D=e&J'-'Z^L&)^w$R#|&F=C*u^v=>;F)p&~*j't=O&!&)*X*V&9/2$<qM<:&+^';e/m'-&>},8B^1A2Ai)==(&k=e/d't-)*p&p$d'Sa*^O&p&b&k=,>!&o$N&**t*k)W9/&p$9/p&+*V-e/2$)*v=O<[*b*//Sap&X*Q*k=D=B=#=)&(&r-^>5&T*Q&O&m'K)ki [e/W]H&K&C'v=>;p&9^F&=&h'!/w/8'vyk;-!u$[*{&*{>]s^,3|/7a@^F=d't=w)k=';B]n>4%V%|14^L)j^;'K/Q#t='$*^{/X*a$V=E=e&B$:,O^)^c'2$M^D-E$%^-)/%Z]7%X*]$G#r;7%O&a$x^d^i=4^m'y^7$!/b$r$0)*/f/M^0^Z^x^I^9'#^[/]$]7|#,3x<J{a,U$Y5$$sxa$K&-5R^c=1!|^;]Ng^>v&_9c*d'k)%;t=V=O&[&$]",
"~c('/-u)o& *='X*@-a*!*p&Q%1/m4f]h>D--&i=v=!=M{o/97u{A{F/H/C/M)Q#3^o/s^!^{7zam^h{!+63$$K/Y/V772*)F)`^($2$8%P#.$Z^N&<=j#u59'%7O3z=t=f$&^N&<*c'u$X^i=f$L&7%e*b$1&c*|&b&t=G#C'd'T*e*d'<q>;R^P)c'R*h&V=v=X*o&z0j-T2`2($z#->e%7%,&C'/bg*M<V-w&}&t=d^L&P)C*X*H)k=D&R^@=F)T*h'h/|&D-k)-)S**)|&(&D=F)E=E=b&7=/&t=d'i))^z*a$k)e&i=D-k=t=4&G&a$[^c'<*r&<&|&X<v==wdbC(U$$6N{d*7%,><&F&o&B=c'P<d'**X*6*Z)v=9,w$X*D=m*T&t^I)F=d^o&B=(&v*J'T*V&0,x^W'C*j#6]z/,7_*F^-)D&9^(&y&F=D=^*V--'B=.^d'J'5$K&-)Q&2$s&D-B=O&-)B=p$D=$0T*i=<*v=/&t=E*K&f[V*m*R^c=v&D=<&e/A=Y)_>.^#=>;e&e&i=e*,=-'|&/&E=4(&$*7y~c)']/&e/3A^>k=S*7$i)N*},/*-)F=7/P=F=N&I&w)*!-*y=h/k=-*G#L=T*;*/&//9/Q&e&|r|%4AF#$7I%1&C*>;e&e/U*|&~*H8R*^*#=>;y=<=S*d*y=z-R*<&#=b&V=g&f&t^T&)*-'F&g/V&/&r;>;V=b&-'d'R#p*D--&J']&-'G&t=>>p$<*P)-)==u)7%R0p$#^c'k[p&7$2$k=-*E${&&%+bY)a^n8h$=8]~9/|,1&D$A{/8o^F#Z,8'2$%'H8d^'/;&p2n!6$1!Uth8(ag)'wHdw/j/5Av<]/&*t^a^R^t^V=2$|,D=C$-'C^7%%'w)OtF)o&R^J'E$d'}6o&D->;l>a$M<X^-')9t^]$[^&*#/q03^h/e/M^_/!^[$~/z^w/!$x]Q/K/M#44l]l#|^*7-~}*-&O<M#B*O^y~%48&S*(,N&i=K=k)f&z$V-r*{&C[",
"vqL=d*>;!&A=1* [y=v&)*t=c6=/5(q#a~.*l*e&y={>T{.}+8C][{D/c%:/&#j^B^D$[/J^4^;^M#'$VeK@-fb)'^P%[3=/i9b^-'N<&*g*X*]$*^2$%|+>R/6$6]6A8%F&i^R^J<e^D=|,X9w)>;*^v=+^E)I=^>4&k)m'(,|&a$V=X*F=D&%'Z)Z^)>z-n&p&!&E*!&b6&{w7S9n{{-r;,>9,p&U=|,,>==e&>;t=E*n;R^@*i)C*-'p*(,V=J<Z^d'a$N& )-&>;J=X*9,e&{&-)|,e&c*f&**D=7=C*v=U*e&}***V-v*t=X&p& =f&t*t=R^F=V&J~n'D=Z)sl<4D$H/W~h&p$G&B*x&J&I&T*R*p&f&i=X]|&=&C&e&-!O&F&g&(&l9w-c={&9/g*-&L*^>sh-&^>l*J<Q2Dy.4%yMsJ'-)K&a$b&X^l;c'<*R^e&c'O&o&>;J'-)e/g>>;d'**J9J'$-[e|,/&$-!*Oao$V=D=;&/&**n&5^^**)v=(&==Z*S*== [,>P*l*a$!&&4X*w)z-h'X^/&Jbc'0gb}#/5/c{>;m;g)@*<-)&4-*~T'2'g}7As'$~h;6-3-m;)&4'7;S!I-f*a~~;l&B){~S!m;e|S[x!f'#d67K$t{4s/*-'t=0,|&N*F=a$V&d'J&b*/*e&v*>;d'D-D-,>d'c'd*@-5az-p$K&X*J~O=0,<*X&|&W9<*p&2*|&h&t=V=P]P]^><*|$Z^V-5&^*V&z-k)X*>;A=-*2*O&t=(,D=<*y&}&h/u^ ^}& [S*j/[^*{;~V&c'Ny={z/w/##8Aw$3&|&u^o^)/z*N2)!o/d#k=(&V=]&R*a66$m/L%_;7%)^R#;^w)S*P=T*&/ =9/J^e*X^d^ !D=F=t^R^%'2*a$a$Z^k=T&&%&*v=R^8/39R^r$m'M^x^E#4^,^t^n9F=O^g^9$X8$7S<.$g$g$1!y/c{4{P^b5=7M=i=W9-!J'V&4/%/`@p&-'c'v=p&+*3*|&>;)^K=8&#{",
"tdc'9,l)%^*ad*f&w=c=)*`*9AC^f#c]a;*9X*2$@=9;a,)(4/b{u{S/,3Y'_85/x]4%(^8%($E$D$m>E$0AaAbA%%o/$$z29ad$l>e/_/*^O^u%R#w)w$F)n>d#b5D]3bJ'X*m>w)`]d't$R^b$e/J'/&m^D=c'O&o&O&Z]%'n'4*d'd'e&p$]&k=z$D&I)**|$b^i=/;P2!7/8G{[1)^H)t=V<w)#bi=5$a*d'b&i=4^]&9,}===T*O&l;v=2*T*Z^R*%)e&X^D=O&(&O=i)X*t$5a==>;a$O&}&9/]&d*/&R*D-w)^=S=T*9,J=Z&c'k=O&V-K&i=K)c=k=Z^#=cAZw,)+%$$,{.ds;<3U3P~f2V4N34>t[z2dAs3z2u9%dP2V4H2G2[345[3'xz2z3X;45s[D9C;C2>0$aV4)]=$g5cz8%t=T&t$c'O&P];&T*y=L-b$t=b$x^-!,>I)n'o&v&19R*e&*)D-|,A=[*p$q**)>;u-m*,>1&A=&^W)W<-'e&e/y=k)g*O=t^(&|$d>K&z-J'W9R#==X*5^]&P]k=0,;-x/Q#g]j4E;:2K2j}v2t;4[t;I;M;|5G[4>G[3> >>}3>H;y2H2|>4>G[z2E;L245E;G[p2t;G[M;j2F#[/P<S=**P*J-)*_=(&F=(&')+*k)c'A=`]<*<=c=p*e^/*X*V=4&n'c&<*&4v*~*}&[*//|&H)E=V&t=2*#=N&|&7=/!4&B=E=p*d'=>K&V&3&-'~^<&R^w)k)k=m&X9m>D-5$g/2$L&V=b&>&n&c'E=A[I^|{>~c&>[g&eAY'w/fA-$l>7=G#D=R#L*z9w5d2F$b$$c{9[e_>V~,)*%%7^bn$@/W]:78%F<&$S*u$l>R^b$a%#/e*X^t=X^ ^`]R^b$G#2$&^E$d'p$w$<=Z)!/t=b%o$t^t$%'Z^a$a^!/.$n9#/2^~/7%b59$X${$E#,3+$u#*{%(gA$$|#%~o&N&C*)^c=#^.$70H*Q&e/(&V&E*,*('0*e>#bh&f4",
"ocX#p*Y-g&]&2/P)6*p&~))*%(:/.$j%k-k=)*O&X&hAo{Y%-7V{b{D/)!87d#;^]^:/&$>[a^&*u%#$|&#>p4(zR{b%M){w55]&9,Q^)^2$n&J'7%P]K&$c_0]7o/Z22^**c'*^b$X**^i=k=t$7=z$=^a$t^D=L)P)i=P=**p$H<W=X*P=X*e&i)C&Y9o&Y-H*(&!&l5<<O/.7&$v=^>e05*p$iA>;T*f%D*e&W&D-D-JbV=u$k=<*R#O&==o&t-i=B=b*!*i=F=b*k*W9!&2$N*R*s$T&Z)N&z-t=Z] )D=#=a$L*1$a$N*p*t=p&e&W<Z^<*P=+*/& ^<*W]s&z-n*>#j/c%*%R9D5k]j/r5*6k]@yj/!4%7u5;';'@yk];'k/@6w/b53{([n!3{~6D5f];',)D5p!#7x)V%|7K/c)jAa$X*H)f&(&E$d*X*%)e*<*K&<*p&n&D-i=E)a$c'p&0=Z)%)2$(&u=V)X^k=k)p*9/W&B$<*1*Z-**d'!&ckP]Z^1&Z&J'|ub28tr;*^i)^*v*P]J'/*k)X*c=#=R^b*8-H]F$v/!%K/b50$b,4%B6$7,)([b5d#z#~7y<x<R/k/b,0$m]n!p'([l#D/5}k]1!Y'.7K/z#D#[$H/b%8[IvE*%;o&|r5'(&!&e&a$Z^f&Z&c'c'z-)*-'O<,;u^}=+*N*,>l;V=<*d't-5^>;c=V&d'v*v*#=Y9X^)^i=(&ds==^=}*c'C*-&q9O&@-^*C*b$y=t=e/1&K=-;X$V=2$o$9/v=Q&|,R#/&J<B$x^C(U$M{Uw&^:,,3C6#8>[U*-'K&'/X^}*+=T~H{w/x7m^vh}7R*B=x/a]=7j/D/<9d>Z^d'i)P]F^*^c'D-{^G#t$W9Q^1^D$R*h'l>T*o$7$7=M^L&]$o$S#|,Z^2a8%&*+^]$E=#/!/ [u$d>P#/%u%!/1/Z]&#+^S%7%u#[/|#y<L#:b!{F#.#Z$Zb,>j)9,V-i=1/l#p7~))*VrV=C*}&F)P)]&**E*F&E]",
"RcV&p&>;!*-;7=d[d*j*p&x&L{D^1^.>kAd'8/R&~&lA`6z#L/M{!}$73{:/1!D8E#7$8'Q#u^#/d$O^g8d$ /<0mAY5z#y4h]<]shR^Y9<&z--'O=^*l;F^B$Z$]7n[u}e&u$c'P<'$X^w$e/2$>;c'4^E=Q*J'm&d^==`05$#/T*'&k^T&9&1&R*-'|&<&P)9/P)[*nA*%!4'^X*n'c=7=w&!&#/D-*^O&X*C&Z^(&X*|&k=A=)*g&y=o&N*]&1&2$!*F=(&M<c*t^v=T&a%G&e&C*X^2*h'v=W9v*d&v*,>e&/!oAe&e&o&O=i=a*lyl>>;<*I~f&-'p$=&+^/&Y-V*23g#B^b#8%n/M^8'b%5(t^]$W/7^.96sd>,^<^d>!^+cx^x^O=o9b$&*u%h/~/E#pA:/4^.^o$I^)$]7{7U{{,9,$-n&:,c&I&e*c***W=5^N&,[V&,>kaW9O&E=F=<=o$O&9,J'B=>;>;';z-q*a^o$!/d*(&X*#=,*p*9,P<X*J'N*K&D-T&g&t=f$d'/&J'v=w&n'p&d'T^k)e&//j'c*J{1/M^4/h$Z/)5x^*/i^*uB^E$ew!$9$//{/8'{9%$/w]7[/.70$&#z#+&%8v^n/B$H8f$s/.41^b)n/$7}7r&qAN&f&T^P)D-k=y=,a(&b*O&V=v=/&v=R*V&X*A=l;z*<&V=o&V-k=(&-&D-d^!*(&F=D-L&6*d*^*e&J'V&'/./R*Z&T&k)A=U*d^v=h'^=2$R*F)V&L&_/%)g*o$%'n&N&b$F={&9,`]R^F)u58'qiX=w=C'o[.7k4Oqu8*^*^~^@-9,>4Y~O#b5y^$2D^-*[*p;E[h][/j/('X*k=g^7/]$(/]$t^F^E)k=X^e/=^D=4^C*&*h&k=4^n$4^7%u$^*Z^g*J^-'D$0,e&B$F)d^J'd'a$[^B^9^h/n$8't$[^d>R^O#H/8%1^3/p'{7lch{T{j$m/)!a~1$M*p$<&+!C7B^d]}&/&N*{&R*B&|&{**&E)e/5&/{",
".[k=C&V&>;!&}&p&A=p&v*p*5]d2&/x[k;|,{&7=`&{*N5W@Y'{{:]v$$$4/|^3/Q#2^]7P<M#-#i)X^d>.$'/m>#/($z#y~I/${rA==J^b$-ce&8%t=7$~^m&)!O/$/H~[&,*O=X*h$!/n'R*b$D=0,P<d'~^@=2$z-f&D-c'Z^**X*l>d$a*)*i) =Z)R^R*&*Z)T*n&o!6$Z$V~4!7,w)|&)*L&;&D-H=D-n'<&e&E)c=]&d'o$)*e/a$t=2*d'W=R^X*e/e&T*Z&e&.)e/V=M^w-*^X*(&R*X*v=v=>;-&]&R#2$<=2$#/c&k=5a|&]&|&k)2$)*v*o&P=3&b&T=V%C]4%[$S%M|sAtAxx!s xuA#2vA>vM}wAxAgjU8wvyA]xfgzA|1a1AAIvTuU85|fgBACAX1DAwgEAFA!%q/f]I2.!2a`aK-v=X]5&1&D-p*b$**p&F=z-w-e&C*D-e/d'{^S*V<E=*^v=/&0,^*>&E***t= =1&/&S=i)1&g>H)H8v&N&m'<*K&L&w$P]i===f&#=K&V<a$y&**&^^=K&E-V=_{$7w/f=GAHAIAY|JAKA7zLA=5EgGAMA5 NAOAz:<|PAQARASAdkTAUAVAWAXAYAZA`A Bq|.Bd>4/&$w7Y[9;G&5'X*d'z-O=}&z-}=t*E)t=b&<*h'm&8&i=D=F)C*v=a^y=)& ^/&n'z$+B5&c=O&J'^>o&&*c=N&Q&X^u^='p$';s&A=K&t*|&p&b&-'R^&^2*k=E*3/T*')M<p$q^R<F=n&[^,>A=|&T*u%A[v/g{[&>;k=E%d216S[k8g&V=d'(&<*/{,)4%A^*1A^w)-'s!X[Wvb)v/Q%@BQ#e&h$VrV=*^e/]$i)R*u%v=9,~^O#~^*^)^J[M<_/t=B$t$R#&$C&4^Z)b$(&{/[^o$#/9^2$G##/#$d>*^#B(^a$t$~^Z]8%4^97y/4/4/>7o/q'C[$Bf^Z]%B%~-&S*)*r;X]]^')|]H&R#V&(&p$^>W9t^X&l^L&W&/4",
"K<'&a*Q&W&v=z-y':&l*a*6*%(8'4^.>&B+!L*e&i*n**]n!G/6]~{y<w/d#y~a^*/8%%$]$$8`^Z]p$a$E#&*w)o^08%}C/F#p!m3-&H)a^]$Y7E=o&W]o${&,#~6;$'5Q#l;c'-'2$5$+^l>b&Z)-'F=z-<*|,L&1&K&/%Z^J[v=G#)^D=R^O&l;J[]}<q^*;&/&X^S[~fb)~6R/#{I&e^t=K&k=V&X*Z^u^J&*B|,e^ [J'c'k=t=-'=B ^0,t=v*p&,><&L=L&d'v*7=1&|,t=Q&k=i=e^O&<&2$N&c=>;R^t=p*D-|&v=f&o&|&/&d'2$9/>;W9`*>;X*#/E)z!P2s%g$%y-BU#30px%#)#,x;B+v4xJ%Z%>(h#+$,#&#}^W$t%B%T%F/awZ$>B^%Y%1#r%8#,BX/@$3x)|Z'H#@('B*/-&e-n'N&F=V=t-g/d'a$$-D=h/Z^T*,>d'b$+)-'R^~)c'u$k=,=*!`<b*$-L&[*7%(&|&+))*P=0,x^{-O&}*U=T*R#K&p$e&**J-D- ^)/|&(&F=2$o&**X^P=)B03J5y<vyO6~%!$p^=7{$f#[/-$;^=79$h$<$yt{A8'L#b#)#X$5$,8{$@$k%1^b% ^r#b#C$g#T84;16k4]^a]^w_}M*ua&aw)R#V&A=a$|,:&R^p*n'o&D-z-L=7=p*V=-&c*K&9^~*e&&)d'F)p*N*v=J'T*Z);&R^v*/&|&D=C'>;u)f&v*N*d'^*P)2$>;g^I)}& [W=,[19G#>;h)K&D=]}R*p&D-e&k)b&p&*%]75]!Bz0=&S/.780!&t=j)c=K=,*F3o!Y^~B{BC^-'b$v-_4&]8[M/96Z|s%-^G#='-'g^P=Z]R^>;O=o&p$E#I^a$5$i)O&E)C'f& ag^+a(/N<<$q04^{/($w)P<]Ba$3/P<2^#^T^f=g^F^m^')~^d>J^4/4^9^6$($,33^x]D$@{1{O^5&x9.3)***J-R*B=:8/8;]0=e/{&;&9,Z^]&o&!/D-|,I~^B",
"(9,;B=K&=&F&2,4&]&b&L*{&%vC^!^z5$cC*D&^>H)T7j]3{%8b{ {y/M/E/v7m^Y7y<u%O#O^G#R^:$Z]u%-'t^i)~erzP%b5B^60-/(&}*9/%'K)g8a$>;Y9N*.67$M5t30=w$)^V&B&7yD=J['$]$o^P)d^*^D-Ot+)D&&*-)V=-'!/<*(&X*/&5$P<e&J'E)f$c'a^Ut~,o/1!V{2^U=E*{& -E$0,i=C&%)e/v===2$e&;^F=V=O&/&e/f&7$<*,><*T*^*|$K&'/v&v=d'R^<*&4e/N&<*v*1&N&!*J=l;(&F)O&|,e&i=S*D-X*D-t=O&N*k=J~e^c'L*'&k]N5W@5}'/O=';:,P*U-:,<*<&|,W&e^,>R*|&1&&a|,d'X]W]}&p$L&<*D=%'l*//#=:&R^z-}&T*;& ~W@:8l#R923Y&k^c'>;P=1&K&/!1&p&/!L)V&b&-)n&*^#=M<-'(^E*c'F=B$-'{/o&D-X***)^)*z$T*%^ka{&A=y=D=e/I&p$2$y=7=F&i=L&B=V=c&J'**X*c=ssL&k=R^2*7$m]H/1!)&y^P]V<(' [/%**k=9=|&W<^*`]]&F)l>T*f&!&F*~*D=1&^*P),>5^J-e&/&J-U*p*C&k){>0'z4$8W4L*}&F)w)d*Z*e&T*^*~=P=<*b&C*i)n'}&D=v=e*`=w-,>R^X&==7=)>k=2$v*p$!***1$J~^=^*c'3*h&k)H)p*j'y&O&f&Z^p*P]n& ^L&h'//2$O=O#<*)^|,,=^>2$ ^X*t=**v&W9^*w).9I^n2d!n'T'$#n>,# -O=v=k)D=;9U~]^$$'2h$2$5$t-V~a]X5Q#I/!;t*o$,[i)n$-/&^e&%'7%>^>;G#V=Q^')E$*^t=P=&^t^R#H)i)8%**5$D=&*1(X^%')^Z^*^-#}62$x^>'o$V=|9i/Z)8%d'9^,9D$@8%$R^{/*%g$5/%%30%{P^`]1^5&Sa<&{&]} !x09'+]{&`=*&h/A0M-v*)*d'kaA=g>|4",
">e!*Z&)*p&+*V&n-9-)&k)O&(8&#!^E%P!Q*!&}&_,2!>61!,)70A{1!.#O^|#D^B4Q#E#8'9^g$w)3/u%d'g^19a$u$M&Z{/(,3~7H~9=Jb ^X^[^V=Z^k=2*!':]x7E<f2~-k)b$c'o$u$i)V=a$O&==A=N&d^+*X&D=&/9,a^D&J'd'*^F)*^m*w$=^R#y=+b&%B=p$^~=(4%O#q5Y=|=>;C*Z^%)C*Z))^T*p&E$|&1^o$b*|,E*~^v-b*N*B=e*v*1&,>P*R^-'-'**<*Z^)>r;B&>;|&-)-'|,-'w$)^|$N&p$)>d'v*Z)i)F=(&K&f=%^t^i=1&O=X* =-/gs~7m/9t/B,>T*l;)>D=)*a*Z&1&H)D-|&Y)k)p$^>`]v&n'&)A=(&d&i=v&|&d']&D-e^!**)/&**/*G#=g%('^6$o[s^-&<*v=_&r*u-w$c'u%)*|!:$<*O&t^O=>;e/9,c= ^v=v&%'a$1&<*f& =+*R^d*,>==Q&v&Z)0,+^D-h'o&<&k=d'z-&^$-E&R^v=k)>;z-7$!&m*7=u$J&k*z2m]s%(Bn}W=J')^>[<*,>!*i=**0,c*^>t=v*+)R^v&7=R#D-o&n'k);!~)g/t=J9D=n'],^*q*|&]&hy$fE#I^l5H{Ngj'B=d'v=N*J&Sao&d>a$d'/!|,_>c'P)H&j)F&B=d'<*Z)T*}&},b$U*~*}&P#D=S*a$>;J-1&E=0,m't^2$**,>T&a*<=O&o&X*p&t=i)%'D=-']}e^G#+aH87=1&m'h'+!I)*!>;d*%^.#8'P{fyf&{&H]+%G{Q&/*Otv=[%jbI]b,^#wAd^<&v&3)|4D#%%M)//}~&*')]$W9`uu%>;p$e&o$N*v=4^&*M#4^<=]$a$o$u$}*W=J[`]a$)^9^i)Z^V=B$Z^o$8/h/a^u%w)Z)7(I<g$W]!/g#@/F*8%q'd>.$7%d$4/$^9$b58';{@{9$I/w/<b#=F&M<1&k)5}!^q#z&X6B*a$p&W]Z^v=v=Q&B&M&-{",
"L6V=p&f&v*)*Q**=N&>;B=>;_BC^c%q5w*4&-&c'6*)'%{)#o!R{@{$7n[*%.$X%2bs^Q#;^E)`^s^4^u)~^l>n$a$&*/8[yF/]7y~H~F~-'v=m'')&^P=g^Z^-&~fo!.#:BP<5a9^<Bv=l;o$k=4$m*2$!/s&o$/bJ-e^v=2*A=|&P<c')^q*]$5(z$+^V&5^+^v=K&e/|,[Bc)C/w/p]@%D&O0K)5*-&|9F=c'T*t=]$Z=D=R^X^^*l>I)z-Q&|,|&c=v&2*P#y=c'{^N&*)O=v&z-J'>[y=p*|,**<=J'&[K&5$X&R*&^/&p*z-J'D-+^**U$w&N&h& [:&-&444]@y_8!=k#P]u-c*o&Z)F=i=o&-'<*R*B=d'V^2*==i)>;H)<*t*b&F&O=v=R*T*]&F)D-|,5aX*z-p*p$w$/=I6d#%6*{3-N*L&5^V&^>c=t=z$p*V=M<J'd'V=X*Z&1$X*l>f&E=R*D-/&,=-*i=L&c&c=J'h)0,**!^c')^Q^N&w&t$d>!&Z)O=)8;=)^1&V=o&v=^*d'+^^>'bp&'bq{|qy/]7r-u/|,J~v=K&*)9,A=u%]}';H*9/~^a^#=a$)*K&R#M<=-p$t=Z^C*|&F)f&)*w$*)l>H&F=R#D=gg$55}j^j>_=v&w)//p&)^0,f&y=|,Z*N&]}O=K&W-Q&y=/&9/V&a$e&X][*k=p$<*f&[*D=i))>^***|&E*a$ki3&c'e/i=l> =1&N*P]K&i),>f&)^t=D-Q^R*C&(&Z^{/F)%'9/X#v*a$K&J~R*F&%'U^r$}B7!e^y=d].7g6O&y=_&&*v=!*1{4%((|B.)]&U[>{72K$x)c%Nt_%9^*^4^M#m> ^%'N<M#8%~$*)9$V=Z]Z)k)4^e/8']$7$v*+^M#K$2$)^O<O^t^'/t$W]Z^u%^^Z^=/}69^u%+^{/u$}6.^J9y^f$F)0^i)M#2{.$*/c%E^T~@{5$.#1B;-T*.)W<,&}[x)[/](d' =O&7=f&Z^t=%'e&q;IbY)'{",
"2Bz-H*k)d*c=p*k=l*N&r&l;66OsM#']/=T&r;y&>;y!|{p'~7:bq{K$R/E/$7&$]^&$x]s^!^8%D=;^R^8/&$X^W]J~&*Z-n{1u4%72Q5b*R^e*Z^^*R*E*I~d^j^1!F#76@8o$!/:$A=!9T*E=E)W9w)c=-'z-c'_&|,k===R*e&e*O=|&2$5^T^f&e&K&F=N&3&X*d^p$^>5)z/1!l/65g>w){^J[y=~*bwl>d^3BR^k=a$D=e/|,8/W]e/Q&v=p&V&v*X*p*&%V&n&w&D=q*^>S=C'y=k)e&F=J9k={&=^b&(&P=e&<*D=^*(&N&7=>;J-7%|$p*v&t*v)W'T4{%074B}gQ0m&V&E*q}W<l;;&C8p$v*5$F=p$c=/&v=J~>;1&v&F&G#D-i=F=P](&B=>;^*O=7=b$I)F='bK&W}v6,}$79]<]t-q*]&d$T*&*V&>[l>R*Z^`]5^B=O&Z)e*R^c'V=F=<$<&**H&K)/&9,|$L&~*F)X*k=I=/&-)b&i=>;#=-'},Z&~*t=D-e/v=t^c'*^F=9,l>V=p&p*n& 5I/~7'4~~{/y=== ^r=J'!*N-r;W<W9O<N* /*^e&d'g>2$e&j'w)p$b$d']$)*D-k)d'F*z=w)N&X^V&O&!*s%nl.#5B@06BT0v*t=*)W=D=>;Q&C*>;k)-'|,p&$-P)p&N*(&]&q*(&0*N*c*C&#=V=)/>*v=m*[*^*<*j'D-|,n&w)V<J'Z^d'I&'/O&R*}=X*F=^*;&R^A=N&*^';w)v=o&i=r*b&e&;&m) ^!$a$B^U$}B8-X*)>=(.7T%l;n'%' ak)b&A3{$h]A-]}!/9{u#f]D$w<7BP$1&K&*^*^Z^t^z-r$9^B$d$-&z$H) a`]u%-^)^}6m>4^a$I~o$]$P<~$)^[ew^.^t$M^K&V=9$8%Z^w$k)Y70,9$-#V=B$Q^1^t$d>&$4^J^0$u%s%[/o/z#c{K]l#0$Q/6-X<r*o&e&;&x)L#467=v=e/]$v=d'O&|&O&h'9, -Q{",
"p8n'd*O&E)S=d*]&t=3&A=b*<0Q^M^D{|=T&='^>+)8B]{,$c%!{c{$$46J^K/2%E#4/#$o$]$]$~^ a%'R*o$u%&^7%'/+^n/V%Z/*%z;+*K)A=f&-'B$A=[%y=A'Hdy#D/,)-'[^d*k=t^[^&*v=,&q'Oad^v=R# =$-D'P<h&b$2$v*v^d'h&Z^c'a$b$D=D-i)t=P]v&9,9B~fV6M)4]L{V-i=c=R*A=c=U=D=T*k)d$(,K&t^E$l>p&)&L&u%O[:}v&E)0,.*F&t=k^-&jl7=]$V=F=a$i=|&V&}&**)>k=p$F)<*T*T*]&X*+^h'*)O&F)#bd'0BV&i&H~K5:/~7aB&^Z*[*D-^>^=v*V&Z^^*/*R#A=Z)e/R*o&e&F)J~';O&R#P#f&k=k=R*/&(&u^Z^h'6*F)k)k=f&q*S#bBCdv$M)F]|=(}e*R#T&v=Z^v=2$(&l;|$5^c=o$p&W92*y=2$w)J'-&2$R^,*E=h'-'J'3&//m*v*|,7=V=<*[*t=e^O&c=E=D-7=D-V**;]}J9-&e&2$T*X*b&1=03C{K/v/Hz($>;>;c= =v*T&h'|&t=X*e&$->;c'O&r$T&b&K&Q&9,O=X^F&)*b$R^>;*)l>F&R*2$ /P<**)*a$cBw<v/C(l]7%dcv*t=`=C*R#z$]&9,d'<**^J'c*o&]&F)v-)*t=i*)&t*O&n'T*t=Z^v=k=r;V=d^x'^>/%!*7=';u%t=t-`^u-w)Z]p$l>(&R#7$V=f&R^R^[*t^|ri)W=3&t^R^J'K=|&t=v=t=S^G/[^^(vwE*m&b{.#661&t=Z)h^c'X&Z2*%<]1ez$l{w/0$-4<#dBs%M#%'a^w)k=J'B$ ^P<t^Z^J'}*|$.$^*4^!$p&B$u$ aZ^X^!^]$D8R^a$R^E$u$o$*)V=D$W]g$r#o$*^d'M^T*.$';')z$R^l>D$J^Q^s^[$Q^A$8'N/b%x)@>W{[/v/*7I*.^d^V<O&a=Q/l#~%g&V=<&O&*)t=!&V=R*>;o&{&h4",
"P&K&K&t={*}&o&/!a*K&-'!*u}0))$l5Zu{&7=c=$;4!]{s%eB${k{T/1/b,}71/d>z#9^9'fB{$;^[$*^>^(&W</!~^L& /|~s5x/y#o2J-a$V&v*D= /O&R^o$ u86]7]7<>/*<&O[>;t-i)^*X*t=o&O&C*V&I8f&V=D-t^1$%^2$9,V&V=Z^9/p$e&*)b&E*k=D-&4/&v&f^d!z6I/,3E[h)}&e*r;J9==F&!*2$E=t=t^F)<=-'},P<J9e&T*z-V&~&p$f&R*l>k=N&%'z&(&p&!*(,D=K&|9h'e&K&e&e/R^h'B=d'&^^*g><&%^p$}&Z)2$d']$h&5(/{&7'y_06;p&J[P<l>2$O&v=A=t=D-N*B= =O&w)c'**d'i=V&=={&/&>;v&d'|&5'l*V=|&|&2*!&E*d*Q&L&a*<*A==%M/=7q4&{|um*3*=^==D-/%X6u$*)W<`]Z)Q&2$N*I)7$p&k^k=>;t^|et=**V&w)t=0=X*k=L&X*e/ =<*v=i)n'p&P<v*X*}&p&(&l>e&V=e&v=_/c'>;-*z#l]E/d2gB|}e'Wxp$d*b$(&J9d*Q<n97}T&`*c=1&T*:7s&u^)*9,k=d*Saj)!*y=K&o&e&G&c'R^t=1&:,>&2$)&u%s&L#](D/&}hBT*t=k=h/a*l;>;A=p&t={&-)Z^Z)F&U*O&t-A=]&Y)f&u$#=:[E*A=r;e&!&2/V^a$f&B=e&%'K&N&R^a$F=e&e&|&p$X&i=!*l>G#J'I<F=V=j'm>//}&v*o$T&@*<*D=F)y=1*}&~/{$<0]6-&o&70%%qio&X^k=(&9/n&73q/{0#~&*%}Q/%7_#iB^%%'R*(&R#S#')t=a$.$.^u$i)d>f$d'!*E=r$d'R^19t$I<p95$k)9^t^E)K^a$`]Z)H8R^P=X^.^.$8'!/&*m9#/d>Z]k)W<~^t$3^1^D#[$.#M#q'($o^E^[$:/!{`6A$Jd#7l&5*}*Q*U-w)B^X8`@;&9=X*y=W]Y)N&Z^d*m*-)/tE[",
"byd':&*)y=2$/*f&e-_*i=n-$6Y72/Lsd!v=P*w){&{r04>#'!&{1{*7C/]7o/.$K$C^Y79$7%&$Q#!/B^w$]7R<}6Z)d>e&N=R;1!w/F] =b*t-2$|&p$l>b$t=*-g3z43{2)g'B&==//a$t^%'/&*^C*@cP=%)k=p$J&1^**S*e&^*d'V=q9d'}6u%8%a$t=T*S#I<V=Q&D=c'M[J#M)$$f]A29-e* ^w)>;l>i=;^c'X*e&D-7=w^D-V=@/K&R*#=F=W92$2$&^/!X*v=R^w)>&I8f&-)d'L&c'c'k=-'y&X^X* ai)R^1&F=w$i)+^K&p&T*Z)z-v*e=={x)]79%!vP<(,$-4^1*,>c=<*V&F&#=O&**J~^=I~O&]$S=-'T*y=b& =_=<*^*(&A=<q*)C=Q^-*{&*^'/a$R*Z]J[2}jBL{M/b5,{e>B=g^d^v=i)O&k)P]T*F=k)d'K&~^A=Q&b*V=#b>;t=J'E*-'N&h&19-'p&p&o$3&Z^N&p$.)c'^=F&7=v=^***(&e*W]Z)>;7=(&o$T*R*E*O*Y=H%R/k4/1#/n0/*N&T=(&P<d>f&d' ^k=|&v=i=i)k)l>E*-;L&h'>;N&t=+=p$e/f&F&^&<&>;2*o&*^e^N&k)t=n'T7-}*%j^H{kBJ&m>[,O=d*v=Z)#*X*$-c'K&u$y=B=v=@-^><*k=T&]&E=*)(&^=z$T*X*F&>;R*P#//k=@*(&0,l>Z)v=T*C*Z^n'`]Q&A='/c'd'z$#/F=d'%'J<|&c*t= =Y9o&p*`*~^z-N&-'07]7}^Auc&W&70b)%4C&F=P]O=1$6,P~X/6]V*z$)0d#*(+23e]9Z^[^x^M#L&&$B$9$e*d'P#i=p*8%d'**D=)^~$o$3&e^2$t^%'(/'$>[w)(^x^R^a$2$d'9^d>&/z$#>h$W]7$P=o$-'($($&*#/J'1/1^E#a^i/D^4/:/j^X$[6R;c4f#6$*%{=5^w^(aV=f=x0$/o%k=k)b&}&R*f&v=N&lBt^`]v*/4",
"d5v&h&~*-&3*V&E*w=;&H=&4g]C^P$+]]~)*9=z-&)mBK]#%n8%{K{J69%u0&#87)54^d#q'.#b$~$Z)g^ ^l>&*F)-)M^a*Q&^%F#b5Y5h^K^nB|&4^k)H)0,O=c&z3X/#7K8k~j)c'd'z-M^o&e&D=F)E)Q&>;D-l;%'|&h&d9Z]V=P]0,-'p$b&t=Z&0,9/R^I)o&/&k)X^t=c'*1S{z#H/N5z7!&J~t=/&9,&*|&9^R*v=k#,>&!I~p$t=k=V=H)9=h'y=0,>;7=k)>;R*b*t=d*(&D-/*l;&^X&-'X*J'X&F)<*O<X&V&c'E$n'%)X*-'v=,>0=v*W@oB+%$$ #*[!/^*q*e/F&!*E*R#Z)t=e/(,r*M^Z)g&g/+*V&v*P=)*}&i)[*<*N*-&T*)/'$(&t*O& =F)c'SaQ&Z&<*)/1$R^A$U$j/#}H=a$jlk=D=J[>;+^b*|&M<l;<*V&R^d'**K&J&d'v=]&%'e&P]F)*!p& [D-O&D-c&o$,=k=E*2^a$d'>;p$#=O&-'<* =-*t=J*e^B=1&R#b5pBnl{7v/h$2$u^5aI=*)V=U=r;q9%)5*X*V&T*R^<*D&k)o$**A=Q&N*b*~*7=T*b*>;d*<*;^l;H&]&2$X*_$b*F&P-;^g>@(C/07Y=<-Y-qBT-a$)&T*u%A=/!y=8/>;b*D=X*{&n&*)*)Q^y&b&x&D=V=t=E=i)R#k=p$*^X*e&2$7=T*z-d'e/k)dbe^h'O&y=^>D=Sa<*e&P=^=(&~*C&2$o&X&F^**<&d'W=x&**l*i)%8'^w5[-J~)*5]4/-(F&Z8#=F)as[*`~F#%(}-49v4.7@7};;^~^}62$k)o$R^D={/9^T*z$e^i)A/(/>;j)~$h'Z^>[e&M^~^d^u%b$W9`])^8%_ra$f$8&f$Z^Z)(/f^`^E#l>X^d$')M^.$m*Q^L#[$~^[^N<b):/($#8:/P$y#hw70@{h/c%8[7&rBh'L&X*R*C7@8l5;&O&e&**d'v&e/**>;R^T*3-W3",
"sB-' bG*V=a$k=L&X&c&O&V&@#o/{9%#k~u$Y*)&6&c-/3k4|7H{o{O#Y5w/M/]$l^*%r%x^[$@8%8C7]$*/]$z$c'p$P]a$]$<&.#]%D/G/$-k)8'u$o$($Z^b$p&tBb%y$T~l*e&2$O& ^.$o&i)2$o$T*|r2a5$Y)';>;F)Z^a*k=e/Z^|&Z]Z^d'X*t=J'F&w)P#T*!89/J<u%[}S#%7](0'J]'-'$p$e//&1&l>]*9^d>u^-&*^<&2$ [oaa$_/l*<*E*m>V&<*1&e&v*<$3*R*4^t=P<==|&,a2*t=d'|$z$O&D->;!/d^d'h&F*F&v*<*O&F*W&H2w/p'v]uB>^D-F^3b7=c=1$K&}*==S*k=F)]$w$-'d* =Z^I)t=t=<*k)c=1&Z]*)&^Z)Q&k)|&R#-'0,ua<*/&+*Z^n'b&~$%r`c<2b,L{GaVw';$-b*!**^J':&>;B*h&A=V=e/e&(&E*2$D-A=0=oai=o$,&V=b$c={^==|&J-t-K&>;v=#;B=*^k=2*F=B=c=**p&b$2$i=n'E)-))/M3E</(86sg ^n^~)<*J&w)v*)&&*^!k*c'7=l>t-T*3*p$i=m>t=t=e&]*3-T*`]m&h'X&kit^'&(&p&k)<=o&]&O->*B=';j~Qeg^Z/<]16`*v&d[~9k=c*R^)*O&W]/*<;V=V&p&H&0=w-V*)*f&/&R*`]k=)*e&<&-*4^X*N&k=k=<&t*~^,[7/g/D=}*D-q9z-}&d'{/2*V=Z^e/R#W=A=R^O&F)e&N&A=r;N&)&';}&l>Z^y/3(a]n~A==&R;E#y$Y)@-E*,^*&S*C<$$<0o' =,fs/<]hrn!D=x^8%&*&*{/g8P#%'H8V=*^2$i)d>)^k=<*k)o$&*J'%'p$#/p$f$#>M^S*4^ ^o$x^ [*^1^k)R^{$($49<^1^g^o$z<d'2^u%!/[/3/#/E#Z8;^A$y<9$:/97:/~5`~8%$$##|;19k=F*d'~*42D^>4!&&4k=R^f/o&V-')f&}&m*P&K~",
"D~k[p&V-V&d*v*g>X<e=v*-'u}O^5/%yVuz&P]V&z&!'h{b#x)&{Y{8[~7o/0$)5u%y^9%L#s^a$A^u$g^a$7$t->;,>.^/&F*Hzc6.#O#&{X]m*D-x^&/-'A=9^Q&J]%%3z]{t'S^P)-'z-E*D=T*<*D=z-D-p$Z)D=2$g/o&2$K0H<|,D-K)g*v=c'Q&^*F*2$^*r*;/e/:7r;b$V=L9j>K/$$h]6t>;e/9,7$k=5aH)c'C=d0e&V-Ng!&F)<*e&o$i=w&'&k)h'K&5^I<L=u)t=P]B&d^a*d'Q&J-k=Z^2$@=t=c'k)qqi)e&J'd'J'Z^d*==Y)v=-}E5=747r;u$z-p*@- $#/e&Q&5$p&X*V=o$S*k=R*c'v*t=F=A=,=2$<&**7=v=-'>;)*t=';|&2*!*c'd'h'F^z-k)b$-'!*t=L^!'[6+$L5p2vBJ9V&T*f&<&`]|&|$e& =2$A=o&d'|$E*1&c=E)Z^N&i)O&)>O&{*T*<&Z]b$!/)*l>{&i=V=a$R^**J')>Z^]*v=2$R*T*T*l>e&)&<4V/`5n!&[pta$X* ^ =d^v&N&V=k=k=)*e/9,d']}f&}6 ^k)w)F*V&.)7=C&z$|& [i=i)D=0,e/w)K&},c'|&C*}6n'q*n&z$2!$5D/y<+9A=VrH)b$L=k)b&T*2$v&k=9=V<X]X*t^y&B=>;T*3*X*&*E=K&}&d^m*I&P]O&d>,>v*e&}&k)**k=k)L-T*9^)/N* =#/v*z-H)b$D-y=b$k=u&L&.)9/2*O&t=K&~*X*E=)^**=/n/%]Lr$-d*=}x]H%n=P]E*w)k=^*U[%#wBW8H8]a&#46P[&/E$:rd>R*R^r$E*D-{/s^o$g/)^z$u^0,p$$0u%E)X^R#i)}6~$Z^t=`]&*F^%'Q^p$R^h'D=%'a$t^m'%'n94/'$h^7%t^#^4^7%)^d>f^D$3^.9D^1^d>{$c%H/yth5I] %y$-(k-|&@*)*!&3**/n^![(*9=,>e^H&K&Z^**v&X&K&m;!6",
"D~Z))*f&F&C*a$]&0,)*/*C&~,5/.$w<8Bv&z-b&V*D)m{+%%%<>=}S%K6a^s/E'{7h$[/4/&*g$,^{7{/P<;^c'}*h$t=|&R^A-P{]79%P{,=V=+^*^2$d'w$D-v*xBq/T@4{/=g>K&>;**a$;&d'l>2$7/d'-!C*p$Z]T*)*R*)^B&%'>;|,v*[^P*3^[*p*t=t=b*R^*^_/v=1$k)b^qyp]z/,)C[i&i=*^Z^i)Z)d$v&|&O&R*>;R#)*p$p&Q*X^b&9,L*P]E*k=|&K&d'k)P=a$L)c'N&K&*/'&V=o&d$d^R^e&*)C*T*t=,>|2c'p&H)v*|,w)i4,$*%TeK'F=t=z->;m-F)^>I)e&B=R^d'K&/bc'3*B=d'v=g^d'|&|,[*N&X*<&')==1&|&^*c'u^>;<*J'D-3&1&+*L&[*o&!&a$]uyB9'n>S/6)zBF&A=e&{&F^b&1&n':$z-|&E)T*z-(& ^W&,[&4F^R^X^p&)^/&(&%'w$F)K&Q*/*}2e&p&i=R*{&Z^t=k)C8c=^*k=f$p&V=o&T^o;P%b5AB[gF<:&V&0,*^H&e/<*c'<*P<<*Z^D-l>5$K&a*d'F=c'!*t=}*o&u-V=V=D=R^z-J'**F)b&z-A=t=';p&Z^Z]N&X*X*5& #-7{$O/C<8,W=N*A0m''>A=c=V=4&3&U=N&dcm'K&n'A=v=P*+^z$l*1*R^v*=&p&e^Z)d'F&g*J[D-|,9,c'B=e&d'B=)^r$<*v=h&J'-'j'v=z-1&W]v={&V=N&<*{&**l>%;#=@-#=7%L/G8#4]|y&^6@>1!t%9^R*a$R#W]<&P~c%y{u[V=+f,5I%dxP$1&d$t$M^#9H)A=//5$v=E)w)h&Z^D=d'*^[^d'3/R#!/Z)}6V=X^V^E=Z]d2&*//h/[^d^7$7$E#g$m^J^a^E$b$4^[^%'t$E=d>Z]x^S#[^1/>[b%-#1!#8.$*%F#o{%{I$,3s/J&W9S*)^-'Sa]7B$g]7*r*]&[})^Sa!*L&>;Q&K& =/{",
"BBB=~w)=z=b&-'**{&a$|&m&`@h$!$QtR|v&f&)*N&i0m{+(v/i{/3o/L/O/n>-$398%P<9'o$7$&*4^*^o$R^v=`]8&0,$-p&v-o%,3z4H%/&v=b&D=z$**-cJ-L&P~$$;'/sV<1&J-F=x^k)D8l>9,e/L&S*P]-)%)<&p&F)l;]&^>D=5$7=V=d$F&$=#rl>D-z-}&F)|&O<f^K&d'E=CBqi*7}^+(fku*P<X]o&J[V=t^2$R*~*m'k)o&v&^=^>$-v& ^2*o&O=>;O&o$p$N&z-v=1&4^k=/&i)}6w)>;<$(&D-V&d^/&q9}===)>V=V&9,p&DB4[ft*%([csz$F=,>>;b$J'[*==J't*k===w)i=v=R*|&a*v=l>v=c=(&(&b&~*e&9,D-V&Z)d'>;(&D-v=o$+^|&/&<*==w=j']}e*D=2$EB~,]%B5b3c;u$^*E$';-'J9t=X#>;b*v=C*C*%)~^^*d'^*i)l*T*T***!*N&2$V=k=o&t=-'/*F);&)*K&J[L&J'2$J-/&v=p*k*w^o&|&M*Y4@(M/,)k7|9}6W95^n'z-P<z-o&V&2$v=3&**V&L=X* !9,c'i)v=n'd'c*v=X*p$2$v*P]k)-'p$q*1&D-2$<*B===[*}&c&|,*^Z^#s26x]$7K{ga>;h'c'/&b*V=-)<*e/**b*4^T& ^c',&C'R#|,Q<~;c'F)v*#=e/v=w&FB]$V=|&W]<*n'k*O&(&w)@--'u%T&8%]&J'K&J'*^D=L&*;g$v=3*a*,>K&{&X*e/S*p&}&^*#^G/#/ vi;X*b&%]n>*3>;I~e/Z^Z^FwV4{%n{w*)>R{0'_(sx7%&^v=o$d>^*9^h/J'[^19E)*^H<C8M#/b)5/&*^c'J'+^Z^.$J'c'<&X8|$K$s^a^b%//|&&*w$t^P$E$`^GBV=)^{$//x^~^.$5^*^[$8%9$:7r%Q#B^)5)#z^[/.$R{$]zw.#x)k-/%d*o$Z^I)]^]/c]u&b$-!y&R#l>E*/&d'k=X*W-HB",
"02J'Z&l*o&H*r-v=D-y*d&p&`3]^4/k/d!g)1&2$)&{}k6k%IdV{){ %42M/O#K$I^`^u%2^-4L#8%b$s^`^%'7$d$W9a$W]1$k!t{,)0'G{!a|,%'(^d^h'E) /}&t[59o!&{C&v= /<=O^-'%)%'D-e/T*u%O&5$==*)X*)/t-Z^#=o&k=*^/&d*V=(&M<2$D=>;&[==8%k)^>Z)Y]/&f#ggLs$$|^G{5b=aB&l;K&B=v=F*P=c'<*#/d*V&`]o&C'b&F^t=X*k=}&(,x^9,a$Q&K&~^N&**V=*^E$|&)*O=;&,;b^h'R^7=r;9/Q&H&D&v*p&K/IBN#G'JBS-%'e*<*0,n&J'I&e&L*Z&c=J'~^v=L&)^/*T*V=V&|,';|,-&@=E)Z-d[D-n&v=T*7=^>2*e*^=r*>;z-F&!&h&p&C&l>F=E=[&<(1!P%$6f{:sk=e*c'i)f&w$p$|&D=9,c=a$c'P=|$R*<*(&Q&J~==^>|&`*z-|&o&e/n'P<k=^=d'9/O&Z]F&-'7/D=D=t^k=,>A0p$+ab)~{B6)#46KBh/%)E*>;0,O=/&t=($K&p&p$f^.)X*#=e/9/t=D=/&>;z-C*w=s$)^,[A=d'}&V&V=t=F)c'd*z-L=(&X*c'F=|&H8';)/-)D='!j#,7N2bsC&X*Z&t=E$c=n'/&d>T&o&,;c'N&r;}&f&t=m*e&O&]&a$X*i)A=|&Q^z-T*z-E=c$v&o$K&c'T*~^F=^*D=Y)n'R*~^G#e&!*O=e&(&K&7$Z)3&y&d*[*R*d*e&e^D-F)O#)^C{$>V&t=}(Gda#e&Jbp&a^R^y&Fsy/c{E0R*20.7(8$c($t^(^&*R*d$==&[D-b$+^R#o$!^o$b$ ^<&B$>;O=E)4/t^==%'w)t^c'o$&*h';^+^~/K^a$0^'$Z]&*|,a^&#f$[^}6&*#/2$M^I^o$1/f^:/J^%%-#:/[^1!o/|/7{Y3.$-7n!9-E$J'},8/l;]^)5t7FxX6}*e&t-M^t^/;Z*f=`^{&qw",
"1wo&7=Sap-n&<*(&T&v=v*e/R;)5-#G5<--'v=g&#[N!W{w/Qx;].&)#.#4%-7.$.#N/9'Z]W/h$^^S#E$a$]$l>d>H) *R#J')==6n>v/v{p&e&E*C8&4D- ^%));J]$7,3x3]&p$e*y&)>)&'/e/D=(,z-p*J-^*U-1$-/)&u^T^u%]$&*t^]$t=';I~h^A=Q^8/kiw)**b$t=u~F)C'V=@*X^17c0[>T2|t:}u^!&E$X*R^4^h&y=X*|&w)A=V&k=z$}&v*X]B=n'M^/*Z^Sa%'c'v*-'R*Z&Z^O&e/D-d*D=1&,=E*/&[/*-*^P=v*,>&4g)3}c%p!JBWrZ^^=d'L)V=o&v&r;<*h^V=v*S=n'm* =|$X*]}{^ [2$c&W&g&-'Q&]&2$b&J'<*f&v=F^Z)D=y===k=/&p$F=i),>v*R*J<a*LBu1'4z#$$J{MBt^P<9,}&M<O&n'^>2$5*i===W9D=t=$-M#e&2$O&z$X]}=,&|,<*E$m*P)l*!&/&p&|, *^*2$o$|,V=o$R#J'P=L=O<p-P;z5I/L%NB)9t=J'p9<=z-*)2*-'N&%'i)E)*)Z)Z):}T*t=a$X*t=b&#=I<q91&E*#^e//%W<c'k=r*)*D=P<t=v=e&9,r*F=~*Sa1$k=z-Z}-}F#F#v{b6/*^>J'D-N&o$^*P]L=w)1&y=E)-)O&B=+^p&t=]$d*e*/&t=D=2$P<l>i^2$k)p&D-f&v*P]7=1&2*2$i=<*z$h&:[e^R^a$F&%'<&*)V=e&c'n&**%)F)C&V&S*G#o$9/8%&%`%k~>;5'*3b)<]V& !Z^ /F=s*h3P%8]OB*^10c%Y/B|v/K) a5$%'s^V=a^Z)2$2^&*V=>[9^f$0^t$z$D=1^E=|&i)R^P=./Exo$i)J~ /g^>[&*9^u% ^u%f$Q#X9-cX^M<~^8';^@c49x^7%g^8%q'8'd#h^($v^d#8%=7%8W~@{F#C/&#X=>;F&t*w)B=Ua&#o>g)%'k)F)J'c*b$E=J=k=-;U'I]",
".[F*{&n*C&K&k*7=G&=>a*C*,(r^&/%4PBo&Z-L&I~P!T{ %-7b{a{K/H/D#'!B^O#g^&*.$B^f^a^($t$b$D=*^4^t^R^b*J~p-o>;#{7QBO&h'P<Z^9^-&9^Z^L&L]67I/d]D&v=t--4s&-'a$K&|,i)V&T*n'X^k=`]sh|&o$]}k=%^H8R*Q&==[*P<n'N&2$**|, ^<*E$g&u^H)g&j'c':9x3o!W@x[w/t=b&|&J'%)D-Y)<&v=E=X*t=F=k=k)T*pnd'-'j)c=E$A=e%&^c$u^|&b*Z)O=E=$-9/e&I~a$1&d't=J'E=,;d'|&^>J')&r][{|#B^3&f$2*t=== =t=d^+*A=a$1&T*l>t=@-f^p$d'i=#r!*Z)5$2$W&2$X&X*Z]P]E=&*V=D--'2$f&(& =v*e&<*(&**b&_=g&~*P<E$~*Vr;^n!y#k//4(-y=H)Z^K&F)-)v&E*c'e&1&c'V=A=i)t=D=}*{& ^n&c';&]&C=|&R#@=K&$-&*(&v=l;t=T*k)%)|&4^O^l>2$O&L&$$s].7%8j#L*%)|,>&W9J']}k^<*e&z-+^J'(a)***J= ^*^c&v=7$k=p&)*K&b*^>)>J'V&|$P]a$-'J->;b$ =X*b* =**H)<*w)Z^K&b^$-:^i[e]j^>7p}A-^*X6e&>;l>t*A=-'c'H8V&Z^T*f& ^-'T^v=]&v*-',;^*d^X*D=c=k=9^k)X*C&<qd'v&k=i=a*-' =[^R*u-@--/w-k=~$g*p$t=d'P*@=k=W]c*7=)^F=N&u^K&<**74/+>};T*d'(w{7/#9,D&U-t=F=u&!f*7o>L'R^d]I6[(Au}6-/7%3^W^y/h'V=H)x^t^#^d$G#,=!9Z)R#d'R^d^a$Q^*^)^V=19t$&*P<k^7%{/A^`^f^x^0$'$a$7$f$d$M#Z]%'d^x^+^H<4^>[&^7%7%W]I^X88%W/4%q'=7%%h{;{_%H/]7S!T&b&,;9,~){7i/66I&2*5ao$e&/&$-/&1& =R^y&`x",
"$x^>L&O=<*)*b$u&D=[*U*2$E%o4$^_{BuT&b*p&|=g>m]I/v/c{22k4x).4k/C/T$O#.$,/Q#E$n/:/a$&*R*d')^//t$H)X]Z-V2y<M)'4<$F)`]**p&W]b$>; - 0p'3{*4k*F=u%K&u%F^ ^/&W9w)&aW<B$%)p&l*J[V&a$E=i=l>|&a$L&*^g/<*|,v=a^R^Z)F)Z^/&~*^>Z)a$**]}m^riy{y#4}j3:-O&d'1&%)a$T*p*X^(&{^+)p*w$F)X*D=D=w=v*/&<*)>d'z- =E$-'i=(&D=-'U-v=F=h'l;d'9^2$l;P]l>d'0,'/8}O&N22],3v6RBF=z-<=f&<*F=h'0,+=e/X*e&F&O&w->;f&e/V&d'D=a$Q&#!}&t=e/9,v*t^.^k)t=z-B=i=g&0,d*T*t=D=B=A=Q&|,&^J=L&c't^J9krM{T@+&g{8%D& !z-V=(&Z)<&T*g&E=w)v=v=L&m'C=C*;&p$a$d*i=K&C&2$d*x'e&v*]$p&>;y=c=1& ^i)l;v=c*/*w)C8(/o=&A}^d#@7-uc0^>u%w)2$-'(&d'p&<*<*Q^k)2$A=v=J=r&l>e&k=**@/D-Z^t=/&e*(&S=c'Jbq*o$E*v=-'d*ssO&^>b&E){&*)*^i)R^F)l;y&}-{0-4 %0]H{3&{&@3t^~*1$F=d*S*k=V=h&o&a$4&k)D-!/X*)*f&v*-'`*y&<&J' =h'/&K&K&u%-!)}T*A=I&-'b$^>k=|,o$P=%'1&X**)f&z$p&d'(,t=/*#={&v=**,&U=A=b$h$x^`31;Y)>;30M)`%>;8'c=W9D=p;P~j/X2|~J^'fs/l{e27%a^X^t=kiA0($Z^m>&$.$.$t^-'J'&*e&n^G#9^4^{^8%&^2$w)|$&%2$h/7$t^ ^E#m>h^J~2%f$u%n$9^1^L#M#k)o$//t^a^a$8%1^6$.$%'1^4%K$1/jsM/o^L/@{h{Q#[/$7U!+^d*d'e&-)D^1/<>m;n&<*3&L&T*p&2$|,L*-'#;'t",
"(9,&]&Z^I&x&v=1=N&`*I&}=d7g8.^l{v-C&(>1&=>I*T{d#1!n2S{^#,3-#x7 %]7+%E#N/x^G#:/v^a^&*K&s^t^%$b$7$a^#~S{K/'^F{w=P<J'O&E=o&R^L#t-J]}7j/){|*'*G#]$&aD=1&7%D-h&P<8/49D-S*G#c=Z^v=D-v&z-#9%'N<R^^*=a**)*<*Z]w)M^V&G#Z)a$X*9,P*)/7=]|SBy~*#F5H]<&L=O&t=K)p$u%<*(&n'<$k=q*D=1&>;C*t*D'|&X*9,.^[*v&,[1&Z^w)=^:7p*J't=d'R*($b&~^)*a$!*//L&1&_=U~z5.#[/=1J'9,0=W-e&7=d*k=J[,=v*9,J~**@/Z]f$|&!&w&2$%'d^R^K&!&]$3& *&4l;w),>d't*c=2$R#)^v<O&h'k=o$r;p&|,t^#=Z)Z)f&B=T${>,$S9q5b3a~l*>;c=o&a$d'Z^p*i)X&B$v**^#/Z^C&P*b*<*c=f&**y=/&R^p&d*T*{&<*J~~*c=p*k)p$$0/&J<k)o$X*3&<{g{,3I/o=b%%'C'z-G9E*z=-'2$R^X*C*_=A=W9A*P]<*)^<=-/;&x'e/ ^9/ ^t=w)O&c'c$A=!*t=d**)X*Z)f&R*1&==L~b^|&i)p$d'&^u^@/%)TB~,:/s%c7h>E*7=C*w)o&P=t=X*F=Z^c=T&-'2$v=P<D=g*O&C*==}*E&d'{^==-'D=[*P<v&/&D=P<L=D=C&L=a$p*4^o$t=E=>;O=i=u)}&2*)*]} =^*0,z-C&N&'&T=t=N*<&{7)^;7<bT*&[z5]^<#|,>&F=u%X*P*75n>60UB/&X~x]$6|~)52/D-M^`]5(N&]$>'-'==o$H8Z].^z$8%k)s^s^2^&/X^<$==s^b$V=~^~^~^M^Z^$^9^R^5$&[C^i^ ^&/V=}61$>^J'#/e*!/9^]$G#d'Z]9$o/J^y/%%1/*7b5{7c{J{&$b50'M&V&P]>;<$W&07]/%4|=D=v=n'S*p*k=P]7=F&L&x&yx",
"VBc'V&K=]&/;<*g&|&V&`*==5]g^:^c](~H)v&2,e&^;e{z#;$){p4T@$$o/x)J^]$6$D=4/n^f$g^1^L#w))/)>~^R^w)K^d^WBL{1! 8L%&)!/1&X^4^D=H)c',>V4l#2{m{r)e/^&p$L&7$J=Z^'/E)e&{^w&}=*^v& ^d'J9d'k=2$8/D-P=o$>;2*F=d$^*z-u%t=D-X*>;.--)E)R#J=e/]$XBo>##}7c3m&X]E=e/F=R^%'{&N&<*}[V-t-v=B=h'T*|,c'P*u$[^d>a$R^T*L&D-a$N&X*v&{^k=V&m'e/-'c'`*|&|,i)~*i=X8YBT@1!,#/=**V&N&E$|&Raz-0,z-O&;!sso&u-5$}&|,u^>^z-6/)^T*9,S=9,^*<=X*e&T*S***Z^o&X*R#5*V&!*c'd>2$O&|,L& ^&*|,d'1&!^O&|eZB_0a/a#M{f]`Bt^p&e/A=z$f&l>v&R#(&E*J[e&k)F*X*e/X^**t=F=N*==1-b&'bk=~/X&E)b&>;L&-;Q*^>w$b$N&c*!&]&03D#B^<4 Ce&C*P#9^,>F=>;i=o$R*J'**V=q***V=1&P<t=P*O&t=X*v&W]697=<*f/<&<&i).)D=2$2*d'v*/&P<V&q*E*0,p*>;u-/&R*e&-&-&K)*wD#y~K/F5y2`*9/V=Z&-'X]c*T*z-m&D-k=E=>;R&b&X*d^e/D'-&B=D=W<h&F=l;L&Z&2*))(&=&p&D=c'F)x^F&t=v=,>^*p$/&e/#^8%F)p*)&Z),>J&v=.)-'L&z-w&8/l*|&C/;^B6v9D=m>,#E^g{]}O0K&Q*Z^^>L4Y^E%M|a$e3Y5+]>=m4.^E#w$=/R*J^o$d>J'2^+^t=t^D=G#7%>^u%g^f0u%3^q9O#<&w)#^u$ ^e/a^4^A/>[t^]78%>;A^2$M#~^[^7$t^P<h^o$J'#/)^h/.$[^d'Z^%$d>t^F#C%-7C7M{%&&$%%*7|;c'N&K&p*g>I^|/66@)D-w)!&^>B=|rr;T^T*[,U'&'",
"mjJ-V-C-5*y=l*b*l*(>~*>;46g^:/J5 yc*d*|&)&]~N5T/z7Hs.C,3.#b,I/|x%%6^B$9$&%a^y^9^M#&$m4g$P=9^&^X^)^h;|{$$,3H]<*X9e/0,1$Z)9/~*z0$'K/w7W{'&-'0,^*M<,^e&E)k=R*//P*J''/==p$*^m'D=v*s&j)&*e&)/J=W97=-'J[0,%'M<9,^=D-~*k=k)D=d'y=Z)i=t=k)G/0$`%p2/=G#F=J9T*9/c=a$t=B&!*A=k)h'V=1&]&H&c'7=Z^c=>;J<n'P]i=**d'd'**r$C&D=&*X*X*T*u$p*T*-'19[&={+6T@R/i5D$t^;9c'1&9,V&k)~)A=c&V=9/)*D->;-)V*e*}=p&t=H)t*V=e&v*R*i=d'e&e^&^d'g&%)K=k=p&e&e/t=v=j'Sak)e&y&u$d'-*N& !|,l9u^'1']](W5$'e-e^e&d';[ ^V&(&d'(&D-{^V&2$a$c'v=+=e&X*]&d'~*Y*(&(&-)k=n&1&^*D=B$7=jlh' ^u)]$+[|,(&W2`%Q/@7f19^5eX&E$e&F=v=J'B=>;-'J'O&/*X*t=:,D-{&~*u^v=)^x'==n&c=l>>;#=z-/&p&(&`]X]A= !A={&2$P*J[d'd^N*D=(&c&<*<*T*F)Oai=un%v2{$$]{+CZ*I&i=|&R#&*E*Z&f&>;P)**c'/*{&r-O===q=+bK&<=L&-&]&&!d')^k)t^k)q9w) ^e*T*<*1&n&c''&w-~*)^2$#/)^-')^i)$-2(5$F^R*V&,[X&e&%'==W<$$($p!f*PuP<~31!c%D-Jbz-u8T^i&`ep'*]}-G#e3y<o>})a^<&F^S*Q&4^u%a^C*d^5$K&H8M#v<pnO^=^P=V=$0]}^*<* ^{^A^Z)p$'9.sJ^t^h/7to^v=~$R^7$o$1^<*^*v=)5R=.$x^e%g8.^8%i/4^4^z<s9l#z4&$%%$$1/`~@{z#.9w%q;$00,k=H=-)=/.4v{=*O&v*M^k^T*F=V=X*r;D8u-V2",
"Eat=c=I)V*k=D-{&k)j*|$5$,#<^P8Z'-yV$)*C&d*6!   %Y'{{o2)#W@S%g$C^!^C/9^>[A^C^8%Z]a^4^R*R^9$ ^%'r$s$a-M{C/ 8:b2$R*3/w)2$G#ss'/>;Q;4/n>1{y*d'e* =J~Z^t^Z]e*7$P=X^l;J'L&2$R^h'**z0W]P=t=R#g^`=z$1&J[%'F=w&D-~^wa**N&/&2$9,o&5$<&k=**pap3|#4%>40^9,f=n'O&U=Q#p&F&p&g*t=t===O&<*l*r;O&u^c'1&<*a$D=<*>;v*2$X^t^V&//e&2$|&d*J't=@-2$2*w8W7$]$$B^.7:,h&o&p&-'%)H)Q&==~=W9v*0,e/l>f& ^K)T&y&F^k=d'!$p&V=H)k)d^u$W9e&Z^k=a$v&N&E*D-,>J~%'v=c=f&^*>;Z^|&I)v=V&>;d'X*O<Ra7=1%;'D#C{[{1=5*M<{/+!P]&*b&e/)*N&p$t=X^t=c'//(&w&(&`]{//&i=w&t=p&2$ =e&A=},F).^e^2$0/M<<&l>h$rrn!b,v4d&N&d'-'+*V=F^D-A=W<~*t=R^|,t=<*t=T*D- ^]&f&i=~;R^X*^>k=O&9,<&*^A=d*9^L=(aO=d[i=T*k)0,S)Z=c'C*f&e&a%1&==c'T*Y-P]p$-'2{o/E532.wy&-'O&b&E)f=T*d*J'D-P]#=#=@-Z)R*C*$-k)|&R**^a*w)(&=-d*u-v***E)e*D=v***d&)*^*J'R*X< [L=R#0,m',&D&**<*F&^>E=>;p&f& /m&F*m'E=.$6^1/9[l;a^^( 8S//&@ac'X*T*c&4>+&<]<)a$|0`#w<u!a^R^W9k=|&2$-)y& /v**u+41^P==^g{f2G)U7-3c{:b|{.&168]Z~;] 3o{[{.]e{t{:bo>:b {c{*}o>F{!}B8Y3z#7=y=9$`]I$J^G#h/o$S#x^*7k^F#4/p'*7.$M{Y3y/H/Q/s~X*!*`]-/Z*M)x^80L*/*p$Y9U=t=_&c&[*e^t=*&yx",
"yr^**)L~*&X&{&.)v=#=O&l;30]^5/Z'/;)*C*m&I~fq{{Y5A[A{@{,3;#F#~6r%%8{$F#D$]$Z]>^!5+^]$z$4^s^t^2$;^2%%~*}y4&#v{Y)a^u$)^J'd'C8P=k= fI/o!a{h*|&,>q*<q>;t=X&Z^,[/&0,X9t^9,t=T*t^,=|&)*!*X*0,e&v=0,/&<={^-'=&u$>^c'|rC*L)Z)1&P<c'e&d'D-.^k;z5$$<]y2^;G#i)^>.^H)V=m**^D=V=F)8=z$d'(&c=N&v*>;k=T=**H)l>a^-'L&e&R*~^T*i)/*v*V=e/7/**P=j'/=m3K/|#l{@CQ^k)r;N&>&^*2$)^-'e&e^J[b&|&f&t=k=y=V&T**)Z^R^E=d'w)#='9v=E*/&O<=>>;k)X*k)/!e/N&+^|,e&F)E*t=v=O&|, =Z)w)|9w)d'N*b$,>#CQe<2b5J{`*qq//Z)F=p&R#e&)*c'Q&|&k=g/(&A=t^d';&';>;v&P]w&c'b&F&c$z-k=v*~*a$2$2$V=<*R*D=tdv3M/3{b($CH8 =r;Y)#9S*w&S*v&t=**z-A=M^e&h'u%C*d$c'k)p$P]i=R^F=Z^y=+^)>$-u&E*I<p*N&Z)(&v=v=o&.^3&;[r*W<K&c$-***f&/&]&b&7%)/v<*1o;*%Cd8]%Ci=-'I~:7!/I<e&c&|&O&Q^9)>;C*#=<* ^7=V&i=R^~&!&>&I)~***//p&R#}&>;d*$-k=g*L&Q^2(l;k=b&o$o&E)a$9/3&K&<*X*w)E=Ush'b*<$4^c*S*&[G/w$'86&h'!&ra>7n2X*0)u$l>p$N&.{x7:]i-^*Z25BH% ;M<!/n9t$e^<^-'#/*^Z]X^e/(&J)M3vm#{D]F3V[/{V~W~D]E[W~E[q3H'm!|4T4'{X[c{_4#{V[D]I]N]H'H3c4_4E[#}S*u^J^w^|/1^=^N/m4z$i8[$x]E#b5x7B^7{b{[/n>o!Q8X<m*(&E=o&x]`^366-0,)*<&z*^>-'K&e&a$P]R&*}",
"VBo&<&.)J*c=V&d[/&r;!&#=a#]/@8H%k;&^^*7&-&5&>4o55}o{Y3*7p^]^1/+%{7@8>^9^1^.$3^d>4^~$3^0^-'d^#/@8/!}-/#U$%%,#(&D-z-M<u$*/J'X*`<s3&#p'S{c*]9//^*{/t=&%W<-'W=F=&[W]-'7%**==k=2$R#D-d'p$V=)//&S*J^^*V&>;b$M^h&y=9^n'y=W]V=i)F^O=w)y&>;|;@7d#k/b(K5P)p$f[=&l;e&c'e^2$@-X]b$D-c$<*W<t=2$L&**f&a$Z)b*N*W<p&v=p*y&R*!/J&X*R#t=1$p&g&D= 3R/;cz4Z)1^Z*J8w),>(&<*>;m&v=E=O&d')^o&P]F^A=k=T*,&d')*c=~&v*#9X*F=k=d^E*|,l;m>^*>;u^T*d^%^R^`]d'k)v=b$d*5eD=J[|&Z)|$Z^O=Z^3&-)%'>=2{y~k/M3U*O^Z&R*c'T&V=R^=-F=|&A='$F=F)^>*^W9D-I)S= =O&Z&d[{^h'2*k=v=t=O&|,1&|,D-%)p&`5a6b6/(>'F=d><*v*2$b*V&v=R*v=V&,>d0d'O&R*L){^k)k=t=R*Q&)^B=H)>;/&N*O&N&D-v*{&V=f&V=y& ={&a$v=D=>;/&c'|,O=]}P=X*E)D-C*o$K&b*c'1^xa`5z#R/#}n*,=t=F)(&w$g&5^<*R^K&Y-Q&p$p$@ce&v&C=R*i)e&R#q9O&(&F&y=N&v&b$0* ^c'v*-)e'K&}6a$Q&,=t^(a2$@=>;T*t^<*N&1&M*<*I&k)<&@=E=&/R&U/M^%77-9)Ba.]x)<0c$#bW9v=/&!*43;$V/]*`])0 8+]&CA$J'M<!5g*^*D-B$X^A=a%)^1/W~4}H5|#[>u7K#O/}]]%;'Q/$$k4k/^#R/w%J5I/T@##%7C6M/O/y4c%j/18+6m]c]u{p3F&#>,/E#*^;^K$g${7!$x^v/[/z#z4D^=8>{b%M)v/H=/&!/O)W'N*s/Q#%(p*]t**z-v=<*<*|,i=g&t=>>*{",
"!x]};&_9p&o&>>O&S*T*-&e&L%7%>^H]r}m&n*/&|,!'T{9%3{{{Y{p'M)n!j^~$,3n^;/[^,^!$d>t$9^9/g^I$4^@cM^a^f&>=`5I/y~U{p&J~q^d'Z^*^k)v=U'6[x72{|{/>X*(&-)='**F^R*d*t=Z^o$X]W]S*Z^,=.$J'|,O&#/T*d'M^E)k)E$T&F=^*d'w)V=#/Z^p$X*e*g>o$(&d^u$(,~;]}W|7[o/Q/H~sv8/Z)**O*d$/*p&&*:[>;9/Z^*)<*a*u$ ^J<v=Z<R^K&o&Z^<& ^-'L&&^OaB=A=e/ki2$k)/&l>';J{x)4%.f*Ck=jlF)p$E='&k=c=e&,>^*P)T*T*l; !C*<*I^<*y=w)&4o&w&k=>;E*c=m&X&F&)&b&t=^>m>*=T*w)d'R^W<A=7=g&G#Z^/&+!H&#=V&b*V===v=D=V=L&*1=CI/%#c7//-/d'P=m>F=^*H)a$i)O&^*v=e^&^R^Z^b&v*y&L&g&O&B&'$q*u-k=^*T*J'T&b&**(&C&c$v*3}4}%7<3:!>;*^/&{^R#}&&*Z^7/1&t=J'R*c'p*F=R*g*|&/&b$2$V=3&y&#=|&k)6*D-Z^#bZ^C*~*P=Z^O&C&~*O&<*>;v=)^Two&d[9/v*2$F=-'T*b$O&^>Ba^>%*y{9'M)K~f^O<O&o$>;,[`*B=2$O&k=**|$p&d^3*N& [*)O&D8_>%'}=G#b&e/e&O&u-v&V&e&)*#=V=t=I&8/3&[*d^ ^K&O&e*L~d*Q&c'[eR*^*t=>;>;d*z-';u$z$[/{$([0(|&_/H%y~:]J<F=l>)^y=--43W@46M[Y9`cb)`33-m>b^y^D=u%u)]$&/l>.$e&2%H{07<<x]L%o/*7#7o5$7#7;'z/_8nlb6M)R/'!*%o/y<!#[/L%$7-(k4,3<<#7}75}y]$5h]7/a^{/X8.^L/M#>')#B^b%E#8'D/y< 8J) {I$x7,3T64&<&(&C$o&2{O^66(>,[b***J-R*/*>;9*a$O&Y)-{",
"6yF*t&g*L)c&p&#!]&s&%'l*46]/.$j27-A={&c=>;->L{+&Y'4{<!1!S%F/:/;^g#:/&$}6A^8%]$I^o${/d>f$J^2a|& ^Z)l&<>9%!$%y !*^k)5$b$>[F=19'; 0T@;'=8A-I~J-<&>[w)]9R^B=-'T*B$D-o&j'-*z$E=-'P=2$X^.)P<L&L&h'R*n9^>R*i)e*%'p*>[V&B*V=}*p$|&}6e&D-.$>>B&}63{b,!7a{]*E**^v*r&<$k^,>Ra)*D-v*F)-'h'>&-'-'o&N*R*g8W]R*u% !o$q*u^J'V&y=[*<*E)S*s&[*Q{`/,3]%GsEvk^k)z-19V=K&a$F=-&P)i=t*4&>;z-e/D-m'F)0,>;>;k)Z),=J'~^y&X^O&y=^=$-c'O[h'/&N&D=V=V=p$V=<*X*K&t^y=t=u8T&F=E)v=U=V=2$X^R*p*X%-Cc)$$@(2>(~-)V&V=w)v=E)P)5^p*-))^)>w)e&K&%'*)t=<=%'^*c'V&E$/*k=%'z-z-}*d'>;}6Sa;&z3}]|#K/@;|(*^z$>&!/K)4^v=J~y&t=R*O&a^K&$-O&R^T*e/B=V=e&<*Z]-&c'^*>;D=t=F&|,X*;C7=t^N&k)X^T*c'z- !e&v*O=F^P)|,V=X^-'-'d'p&c=(&R*=&x^Yyc)y$97q2:-e/==A-e/t=K&e*>;v=c=V=2$/&n&|&W]E=T*K&c*t^^*2$^*t=L&p$o&v*T&y=>;K&D= u0,B=o$Q&b&e&X*==q*)*W9**k)v=d***f&*&L&L=#!}&u%X^2{[/+&2',>p*D/Y'$6X]R*w)$-{9Ny,{S/[{a~T=v6w/g5j;e/e/d't=s^~^.$Z])^i) 9Ga6047K/ 8>Cr]z<([D#w/$$y~n[([9%([[/|#S/,3o!@#p'9%6$Y/z#t5o!w<%uH/b5|#0'F{*!{au% 98/6^x^a$)5y<)5Q#K$P%l#u/c{T~d#1!|#grz$-',>{/('1!C^u}:&.)<*Z^Z^-'|&p&7%Wz#=M*'{",
"Rc[*'&<*c=/&d&(&}=y={&V*60m44^%(|;m;(&(&X&n*&]0$A[H{M{W@T@'!]/O#*/9^8'E^k$8%t^7$x^0^t$t^b$k)%'M$i)%>+><2$$t{E*k=4(&ab$9,u$c'|&y3]7E/.{+*E=c'D-'/:}J'5^Z)!/**e/X*d'P<N&e&d'e&W9^*-'d'b$D-h'E$2$J~j)F=^>a$D=R^F&I)k=v=2$p&e/Z^J'X*L&l>#r,CF]y/M5 {J8/&V=T&i=A=Y*3&>;Z^]& ^{^ka)>J'K)+^T*o$E)|,-*y=,>d'>[9=F)d'%;L*F)V=<*7$U*f=54s%l/+]8w9/)/-&.)I)R*A=J'C=Z]2$s&i=E)w^F)+^J=V&t=0,c'o$t=^>d'9^%^K&E$%)W=X*C't$F)-'/& =v&G#S*J'p$c&G&D=Z)7=_/p$n'N&(&k)W]N*2/i)t^T&R^l*4x %$796Q9F&,>f&z*Z^-'2$>;J'<&(&l*!&(&k^t=Z^-'e>f&^*X]#=D&[^X*0^=&k=D-l>O&w){!)^W~1!Y'e3Hb^*>;'/Q<r*1&t=o&n'J'E)|,-'d^19K&k=!&d*o$^>g*Z^5^^>v*<*t*>&/*k)H<9,&*v*e^|&(&^*i=>;N&c'7=V=v*3&h'qtQ&~*i)o&X^<*:,z-v*T*P]B=z&O#j/b%V{;'T&L&Z):,2*L=.$}&X*>;d'!&{^D-w&i=|&**y=]&-'Q*t= =N&L&d'T&v=C*#=F^X*N&X*<*O&T&)*#$M^'/%'v*u%v= =>;W]]}[ev*,=O&|&d$<&V&2(Q#v7P%Q!tiI~-(M)y]Qw>[i=Y7v&H) 3w/[(@tV=W2s/H]j!p;J=^>e/x^J'0^w)C^O#k^.$M#y#v$T/y!@;*-1,g>U'xh7&/->=z=@*+*i&6*Y)~-E![*P-h0(*=&{&k=>=.0gab5y$.7P=F^{/L#=^2$@aa$#/f^8%g$1!J^&#]7A$:bG{;$*%*%C~!&'C'&P=d*1!#8U{a*p$<&t=D-V= *w)k)S*w=m&S~",
"odb&/=I~I&X&N*w))&[&<=/;${4/s^:] ~k=X*!*+*:-H{F/n!@{=}1!6$y<z<F#h$9^1^[/%%*/y^`^3^3^V=8%M^t^R^B$k^})U{I^w/b(n'X^t=w$)^d'W= ^k=&}=7CdZ{f*X*1$k=Z]+aW97%H)z$#=2$%'== [R#)^b$X*f&k)Y9t=F*e/c=E)m'0,7=u~`^E)|,k=F),[]}<&<=[%Y-O=~*uak=o&k*L^AzU{|#*7B35' =E&Q*Z^T*C'a$w=X]///!{*T&(,e&|&4^t=J'V=**t=F=b&E=P=b*t=N&^>==&*.^>;)&>}n5j#l{)Cu$Z&~*k)D-/!>;9,**g&C*p$X^v=D=<$v=D-<*C'L&9,X*2*J'v&**Z^V=F=<*X*z-[^N=-)F)^=n&h'D-p$e*o$R^t=J'C*5$c=R^v*uaqq2$k=-'F^-&p&Q&J~p$c'0vv{=7@(S4;88'd'T*]&p&D-1&7/o&D- ))>-'6^9/A=,>u$v*X*/&`]P=/&V&W<<*n$<*<*Sa>&+*R]!C([5]3'Xyhke*W]**==<*~$X^R^d*k=t^==K&/% [|!<&[%K&c=s$d*X*W9]}>;z$|,-'$-c=c'';|&|$D=q*D=-'B*h'<**)e&}*d*!*X9V=!&z-c'e&e*7^F=d'k=<*B&Ngryw5g$6)N3];V=B=.)k=/&y=t=)/n^D=L=Q*(,5$e^<&#/>;R*k*8%@3[^P<P]X**)-''/b$d*T*e&r;O&}&N* ^^*A=)/,^+*X***z$!/c'>[Sap*L&u~|&!/k=Z)P=1/O#M9H=A=D-z5J^>4q*>&A=*^w)A-)fO#30^a9/Zc2{n{_*79D=0,k=C8M^1&V=N<Z]w^X^/vz3T@/9l#67v7G/B7}7J^w/H/%%&#E#F#-4E^977$'y&$g$y4[/b)&6`/&6p!M5w/R/<0Rs8%n^b$n$e%)#>^g^]7~/F#9$*%l#o!A4/4j6F#.7j/ ;I)r*D-d^d*j^')86C&I~T*K0N&>;{&k=';e&g*L8cc",
"~CT*C*p&S=F&)*_=f&xwD-)*80(^'^[(e27=M&s$9*f~a]1%x]r{K{n>s/v^ytz<1/*^8'O^m^;^s^u%g$t^F=4^F)t$b$w)[$f)e])!K/l{Z^Z]L=3^2$+^i)i)e/!,n>b,<4v-k)//2$|,L&%'t^v=w)2$$-o&E*z$X*-)z$C8b*E)p&F^O&N&p&M<M<O*k=2$e&^*l>z*T*p$t=}&d^p&==m>v*y=w)a$ ^O0/;B%1!!$E{P{y4]7F/{CR/>[n^M~d>;/9$Sy;/g^99[a[8[6y<[aq6;^!^`p!^;^($)5Ua)5G#2^x0V=P%@>x]-4w-0,e>d*]&p$E=p$w$l><&f&[*E*d'y=V=-'/&w)t=a$b$J9d'N*|&`^|&/&k=m>v=2$D-p$c'N&t=A=3*u^R^u^)^T*D=D=';t=&^^* ^d*o&q*)^Z)X^>;D-n&Z^t=2&X68/a#1!{$;]X~@(O^o!]%v5P%}^)7<]P{e{&(e]W$%#%]j/e]2]o5%(z6g{j%j/-7B5q4C{]Ca'<<F{m])#%8/(N=P=a9J-t=m>Z)D-O&w)d* ^d'';l>n^d'D=l*e&+!D-Sao$F)N&5aX^-'';i=k)h&w$T*X*%)-'A=}&B=)^O&F=e^d'h&M^Z)A=/%k*y= *D=p&d^~^-'R#J'K&O=T*n'D$;']7a]44o%l5~,Z'>4,)j/0']7C/s/O/Y/O#M~d2I^x]*%3{%#o!]76$j^y~N/7$p^59+^F=J-h*)*i)o&!*P]d^w)_/J'|&|&B=>;_*w)F&E$*&d*O&J~L&b$l>z71/*7Iul;N&W@97.>>;w)G&F)q*[&j>'!m]{>R#^C07,#v9t^s^o$v*2$v=**9^t^Z^O#V=F$/C-f!4-(a#@(}7@7c%X%D/@%K/*%T@k/*7|#j/@(y~^%%#w].#r%([/(n!W@o!`/.{|w`#r^u%G#n^($9'z<[^L#9'%$h$D$W@]7-#j>${x7M/p!(&/!9,t'i))*,33^m{ *%'<*/*|&t=t^C=B=9/!/v*-{",
"(CL-l>'&b&e&p&m&N=f&`*N*@72{W/s5[&+*r;D&H=7'E{M/x]I]J),3,(-#r%J^87s^8'g^7$]9o$o$u%4^//Z)#/p$-'4^,>v!16K/B^D5>;Z]v=v=1^l>Z)2$C*!f$$y~v6o&J~+^%;l;i^|&9^e&k)v=L&X]T&>;A=c'Z&19e&L&Y7z$V&b$e&D=<&/*|&D===v=L&E*-&t*l;o$a$K&9^c*R*M<s&z$H)F=k^NBg{N/v/q5b{3]H{_Cwn3]^{P{b{e{a,6]wna]|]1]G58{ekN5c]%]_]6{a,H{C{-]u{H]&]f{%a%]p]M)Q/+]7~V&9,('8&p&H<K&C=k=}&p&S&//D=/&D=c=)*e&o&Z^a$>; =D-V&P=>;F=b$:}v=o$k*h'2$|,M<{)_/&%D&*)`]2$|&';e/n&<*o&W<Z)B=A=!&l>H)d'M^X*2$c= =K0c':CZ{u#u5p'Cdt]w]']|]pBP{w5j]a)y4D{&0)]q5}^j]j]Q686e]t]C{J54]4]E{y]D{p]p]}]m]s/p'^(^gy^P*y&e^o$E*3&**^><*W]v*J-o&F)F=|&V=K&F){^t===c'p$l;p$-'3*t^I~v=G#F=T*5^%'F=z-K&D-#/o&T*w$<*J'O&l>p*f&T&5'k=i)/&$-D-D-b&d'K)v=i=g&f;1]A#1!b6Q/%6C(.6D^3{G/@yV6x)i8/8Q#x](^1/=^M# /A^:7R*R#m*8/[,z-D-V<L&z-{^>;z-n'D=f[*^c'M^]$Z^g&u%8%O&M#>;i=v=p&&/R^T*8/@-,>k=9$P#.76&o&+*=(97-(~)/*^*k=|&p;H'%%u}5&`^c{3{S{a~w)&^v=L&4^e*W]d$X^B$A=Z)W] }0g<C[CY.}C|C#. g1CO r,o,4s2C;s3C^z||r,KA^s4CDbYA*t+15C6CXA7C8C%1u#=^Z^u$=/Z]{$g^!/'/{$Y'~eY'4%u%n!o^>{m{O#$$k/Z-s$y&@-Z]P)4/;^w<9=F=*^t^r;<*S*c'u%}&*^b&0{",
"o6J'm-B=C&z->;6-o&G&e&^>{#N^A$C][&p&X&p&!&I=G5$$2{qa*]^%ya%%p^o$*%N/C^;^%8w^u%Z)9^k)R^f/e&>[%'r$F^{>.>g$ya16J*&%*^h/0,o&|&}6)/$' 8p!0}x&},X^#/M<4^t^D=D-R^k)1&@=m>C*X]-'i)q*W9F&a$8%>;E=7$d*)*V=)^|$%^d*,&q*X*-)>;)*5*^*y&S=l*M<<*G#R*p$B=l>t{,/z#F#/(x)g$y<&#b)B^w/o/M).7.#O#x]E#,3O#o!Z/,3{$-#4/y<L/o/D/9$z44/v7%$d2v/T@n!*7}]B&#=r*&^O&|,p&d'|&D-F&|!!*w$d'0,Z)Z^<*F)H&i)9/ ^h'9,%'~$|&Z^N&-'c*y=Z^:,N&d*)*d*I~<&e&K&(&k=s^*)n&#!z$t=|,D=2$d'-'t=A==^e&e&-'O&P]y=^*)/4{.}!79'%%m4h$%%8'{7%8U$1!%$[$w/w/9C,3]7K/x<G/9%E^b)]%&#x$J^Z$|#y#[/b5O#:/0$v/x/d)h^/&k)==3&^*J^{^&^|&2$9^x*-')^L=*^E)b*D=*^R^w)a$v*k)K&K&d'/*c'I&C*u%N&3*E$N&J~7=z$R^O&E$h'*^n'|,{&9/t=)*t=`*>[T*]$E)J-F))&D-p&A=g$`]V{]7I/,3{7$^Y'h$K$;^D$[^n$D$M^!5o$A^7%)^B$F=u$!^f/&^<*B$(&c')*D-c=X*c&%'d*u%Z^P<A/u-D-O&w)p$.)H)^*P]&[z$D=h'>;-/s&e/d'F=M^**G/d$*%f*/&F*)4Y')4Y9V=g*>;l>f&}3y#86L*v=V7;xX/l-M<e&%/7$<*a^x^Q^9^<=p$~$d^Q&b%X@B%0C7#aC%y[$~%%#X/9%n%9%ftN#0$V%<#,(-(+%b%bCY/%#3#I%F/F#1!4^a^*^*^4^O=O^d>E#8%r#6$-4^%1!g^.#4% 9  o>A#H/b5`=T*!*-!]}!*9'9$+]'&-*t=`]F=d']$w)<*S*<&;!R~",
"ock=T&N*H&X]e&v=m&B=f*2$8$C7b,w%.~'&;-L&o<F!|]$$Y'c{-{k/*%y<:/Q#s^]7;$4^1^d>d>a^l^{$]$($|,e^)^}61$a;6]1/y~6]W)k)&*%)E$==O=-'d'@d;'z7o>K*b&7%p$<*s$9,^*)^o$*^2$K&h'V={&P<q94,2*H)%'V&-'^*n'a$L&C*_/K&1^S=E*F^d><*G#p&^*C*E)';J'&^,>r*l;<*D&H{cC.}H/W$F$'^o/9%$$X%w/Q/k/b5O/L%j%4xD/9%46T@Y$V%a#V/1#@&t%;c+%V%raF/W$c)X%([Y^y~y#6{<&z$X*k*1^T*k)c=kjQ&4$*)J&R*P<d$G&e/^*z0o&O&e^v=e/[,^*>;M^b*D=*)<=%)t^J'y=U<v=>;0,iAp&S*H<c'R#l;T*&*W<E*v&I<v*9,d$7%-'A=`]|et=v=7/:}w&J]@(}tu/c)dC2063q[=8Z2R;|y~f$f50^0QeeCfCvvfC<3v4FAPe,#;c1{P~!0!,20_090F]Oeo!6$o/m3p)Z^X*-)E*/&t=v=b$^>D-F)p&>;l>X&u$9*V&E=l>m-H8d*[ev*`]0,@=V-v*&4/&<*v*o&e&p&v*t=D-o&!&z0Z^C8|&2$X*^*B=d*Q*w=J'c'k=V& =z-l>J't$2*H)_=H~!r4%ui)0W;)fR;)fa>!,-fo%qid]Vea,96@7w%Y/t%*(W$K/4%U#.$C$[^t$V=B=d'F)[eE*t^~$z$a*~^==%'~^t=E=d'v*Z)r;F=/&0,d'p$t-H8g>K&/&V=d'9$V=l#@*,[F&w<b)=7Q&.)n'>;r*!*o;n!]f9-2*Z~v/.>d-e^&/J[d'<=S*#/]$)^v=h/**w$2$O^<=B$ivJ~b$D-7$o&d'J'-''/)/ ^e/-'a$d0n^t=D$.$d'D8D=~$g^*^M^Z]cA==:/59a$B$H8!/7$E#y^%$:/;^;^.#y~9$t$I3V{&#z4c%!~%)c'|&I~n'B7g^y{c&*^-'-/t*z-'&Z)y&w)v*S*X3",
"Mx<=*-<*M*J'R*!*4&1&]$@-!}-4E^){!'g&p&>;1=c!c]Q#n!r{_C1#I/O#y~1!!/gCo$-44/t^7%ivt^S#m>^9Z)k^i8Z)u^j&l{4% 8C{^*J'^*B$f^7%.^z0i=h3|#4%G]p&&**^o$X*f$n9u%5$l>u8-'u%2$P]L&k)|&X*D-b&2$k=-'**r*(&d>W9**L&,^W9w^Z) =d^V&(&u%u%~^t=J-B=O)B&,*I&`]L]k4p^`%hC' +giCjC..kClCmCa<nCoCV d.[.j(4.pCV d<r,qCW.rC2C8@sC.BtCOzuC-.^ 6.P_Zc6$*%([Q~2=q*D-F*d*D-t=**K&t=B=%'#=E)z-c=I)%)P]d*J~7%f&C&A=<&+*c'K&X^~&)^9/v&e&i)e^D&d'c'.)a$O&i)Z^t=p$p&&*p$c*N&Q*v*Z)e&d*F=A=w)T*d'W9%'c=v*Y=)4H/##V(vCwCq|V.xCz}yCzCAg-2i1z(|vb1ACPABC=tCCYADCO}E,p1<vECY,o,X}FCV,GCHCy~Z/f]#}],d$=^k=F)V=^=L&(/Z) ^W]%)|&9^L&L&h'l;G#^*c'T*J'*)O&p*W9N&}6P#w)/*)>V&!&|,e&V&H8*^X*T*i)>;c'L*<*2^o&b&^>-'d*N&J'z$F&f^e^Z)**9^J'Q^9x;#y/c{ICz-^!@$|(g#U#_%@%6(u/C8E/e#2w[%U$T$*$H)F$u/U#r/L/r#M^($,>jl2$V&o&u$y=m'v=N*6a|&d$~*<*X*)^^*k)m- =c'T*7==^7=>;g*8'T*W<[^M^%%j&J'-'~,')n{)^d^7=#^h/y&6[=7w<>~.$=8{7y{E0a^Z]z$V=t=D=V=N&)^%$k)4^l>Q#9^9/ ^o$P#7%*^1^ ^#/($z$l>d^k=F)J=~^r;]$c'%)`]N^E)t^g^8%V=V=W]2$M^h/(^9^D-a^P=8%8%[/)5s^E#&*F#,3;$g^#{[{z4x]`#$=p$N&e&w&d[]7s^+>dc ^k)e/Z=#=}6a$/b9,e&{=-{",
"HwW=4&H*B=e&+*O&J'U*O&L*[(%$JCKCa~l*y=]&s&j!{{y/y<%{4{z/O/.7o/d2:/*^d>d$1^a^{$(^B$*^]7.^a$^*!9Z^Z)qo%(9%%%%(X#a*2$2%v=a$//Z^^>e3u/,3#3$;p$R*p$`^OaF=]$W9<$b$(,P<W9d'9/%)E=t=Z)c'[&B$6*)^B&2a:}w$V=,&3&<*,&N&z$R#e/9,kiL&j)v-d'|&d*q*B=i=!{z6p'C7a$:,K&f&A=~;[,*)Y9v*Otj'w)g/[*l>w).)o$p$.^c'8%^*e&l;kaz-X]9,v=F=R*]&v=^*}Ag6]73zP{Zp(&-)5$R*d'T*v=**J'H<v=O=**s&^*F=d'Z^J'O=F=A={&O&S*H&-'u$X*R*p$,[R^k=d't=>;G#d'd*2${&d'o$e&3&5^V&F=P]E=<*{/<*d'd>>;A=w)o$t=A//&R&c{66p#,8E#{[H8N&b&e^P=t=T*P]P]t=z-Bar;m-u)O=`]^>t=v='/**L&J~a$%;v*-!a$F= =<$B|v{y/x]@>A<5^w)k=P=O&b$k=M<P#K&t=F=M<**w)R^/&C8c'p$V='/g&W^X*K&D=m>B=B=t=f&^>K&R*K^,;c=T*l;)/^*b&&*L&u$O&Q&O&R*v*)*2*d'}&c=K&i=>;Z]k=c'<bX;T@2{E#=&Y9Z<^=(&>;d*C=t=2$u-t=Z)*=0,('2$Q*T*D=t-@-z-#9E= ^,[c&{/I) ^ /S*a$p$**F=9^+!F=2$(&M<k)|&E=&^p$p$d'v&P*V<1&o&F=,>r;|,x&d2Ex9%L~~^Z))!b)D/v=T^v=#/v&n&03$$66>=P=0}9'Y@k;8'V=_ra$d'W]a^h/H)9^|9Z^5${^e&2*%')^(^{&F=O&.^u$D=]$Z]a$P#J^`])^m^4^D-R^w)^*o$Z^k=4^X^D=9^d$e*g#a^j)u$u%M$a^2^2^9$9$:/x]b,y<E^@8X~M{b#!4b6T!c'B&p)%'c'D^[^H]6*=&^>k=l;A=-'I<X&LCL&:'0{",
"XvT*/*v*{&o&v=[*p&d* -e/vs>'!%V/f!O&b&)&O[3-u{!rY':{o>w7Q/x]q'z/B^p^7${$j)8%u%&*%'F*`]9^d$w$Z^}62$1*`5y~.#h5<&Z^*^p$)^R#j)R*A=h3*7c%44v-c'V&|,-[i)E$v=)^1^&^//9^w)d'1^/&R^^>|&f&/!N&V=n'`]d'2$A= ^.^**($>;O=9/d'i=2$a$k=a$2$v=,&|,==u$M#p}X$x]I32g'&H)-!R*^>e/MCa$|&c=>&e/D=>;v=djz-G#O&V=/*L&<*==J-^=1&q=k=]}F=k)O<y=_)[,P$&#F#,76[P-)*V=D-a*w)t^p&H)X^2*K&f&;^F)]$z$W9Z]p$D=2$2$~*v*)&<*e*S*`]J9-&P]]$2$F*d^*)D-s-d^V=|&N*m>J'l9+^D-O&Z^]$P#J'#/dcl;+^V=b&k=2$c*Q^N]-(c%!}NC!/I<0,d$^5u^z-E=f&l;O=k===**&*y=>[2$i'c'F=E)z-r;I<9/&*O&A={&{*[&:&D-f#:/+%W7z2t&;&P])*9/P01&Z)`]O0i)b$y=O&k==-Z)N&Q&w)e&S=h^o&O&p&-'O&+ad'D-C*B=n'X&C'O=.)V=<*e&'*D-N&1&e&V&==<*]*0y3&d'~^V=D=_/+*9,F*A^e&<8zuI/[$~0ug2bt^B=+)D=z*X*<$Y)C*z-l>F)]&l*C*+*#=>;ka7=R*R#v=r;*^<*u-k=E*c*f>f$l;h'F=v*,[k=t=T*J[V=J~M^V&~;2$J'F=d'/&,>v=J[T*X*e&)*;^F^;'Lr)^<&V/G8q#O<>&|&D-V=/;u3W@=}mussZ~!4o%;=P<R^L#49e&,>t^<$p$u%/%Z^P<|e!/8'/%e/D8G#t^6^k=**{^1/`^~^)57$t^]$($|/G#g^9^ ^S)t$($4^9^!%2/.49^OCVri)G#-'r$//~/L/1/o/O#%$y~D^.#9$A{$]a/!%p!*-R*t=!*P<3&C7~$803*[*^*|&)^9=d'|&f=3&~^s&h4",
"PC==/&n&t=)&!&w-F=2*-'p&+>z<l#E6g~~)R*+*/!u*ek;#G/Y3n2M/D/ %v7z/.$g$9^&*t^z$D$I^]$u%)^k=~$a$t$}6b$/,|]z#F$b(#r+a*^g^Q&E)d^k=2&={1!~7o>n*E=d*R#19==J'Z^Z]Q&{/&*e&e/7$G#E*e/H)D=]&q*M#P#9^Q<a$D-l>%'v=h'M<d'd^z$-'D-d'n^V= =X^m*%'`]M^C&G3V5K$([TB|,t^~*9^kie&F)U'R*dsZ)G9')*)P]H),>n'^=R*^>f&K).)E$<&i)/&b&/&I~b$-)U=-*k=v<<y+f.}&#_]'4l>~^V=O&:7 ^c=%']$/&-'W<e*==e^-'2$D=e**^!&k=C'1&b^9,2*v=#=R=b& =P<k=C&%'V&>&)^t=/&E)t=**d'9/k=f&l*D-S=p&e/K={^n$ -5$Z^E)u-)*<4~3w/}7';p$U'2*3&t=+^ [e^-*>[/&l>b$g8L)z-!5e/e/e^V&a$e/w)}&k=s$a$d***.^R*O&k=t=rgf2Q#;'<>1/b*n'9,+at=>;X^==T*Z&f&D-X*D-L&O&c=H)e&S#R^W]B$Z^D=t=9^O[A=-'N&N&V&k)p$O=k)V=R*A=&*p*p&X*X&F)z-<&2*w&J&W9S*+^|,~^^>)^I~F*8&T[E/j^,36=:$N&W]Z^X&K^%'5$,>p$(&w&D=v=,> !h'l9O0{&2$L=0,H)T*v=c=J't=Z^|,p$J=e/c'2$u$J'm>J=%)O&&*B= a**l>[^i)<&=^**b***>;d*%'*^J'm&g$M<#7'-p&;&,)77%uJ'2aa*R*i=*>636$*38-N&0CM5,#{~C^a%J~u%v<e&}6n$[*1^a$h/o$z$d^#>u%I^o$.^J~:7R#)^L#_/)^2$~/-/8/%'!9`]e&Z]x^h/!/g^[^h/w^]99^D=s^2^1$Z^[^I^]$[^.^9$x]s^7%b#4^%84/L/R{  [/x7](O*E)O&(& =Esg$1^v]6-e>N&e&C*-'K&>;G# =>;}&V2",
">a^=t&)*!*O&R*l*c'ka)^7=U{x7O#~]a;J&l>H=9=v!N{*%b,*{I{b,M)4/o/&*Q#{$i/:7m^4^n^+^&$*^`]<$&%l>1(D-C8r!~,d#o/n%V=l> /c'`]9,;^e&';+f*7n!c{c=9^y&v=v=!/ ^ ^u)Z]-)%'e/P]2*e&<&<&i=I&}6w)c'F=O0v=&4p&3&E)D=2^L&^*O&3^-)o&J't=,&7=o$m>/*>;Z&j/V{P%x/+]_&A= /&/A=b$p*m'3&v=P=t^w)~*D-m>>;c&l>$-=-=aE*v*v*L&t^R*$-P]O&b$z-**J'd'>;k)Y7P-%$+%@(N]s'R*l>P]I)L&)*K&K&5$2*|&O=F=Z=o$l>**n'p&,[v=Z^|,a$g&w)19C*<&2$J9d^e&^=e&P]X*==N&b*i=L&2$w)(&l>f&<*E)O&9=A=y&W9d*w)X*a$u=L=Q^sos/b576QCW-f/V&d*W'v=D-K&t=p$t=[*A=9^*^K&D=E*R#=&****F)^*V=o$<*J'-'9/F)$-e/W]C&r/7-s/ %x[Z4e-)*^*w)d*I)V=i)F=(&k=v*V=O&(&7=O&k=N&a$>&]&**D-^*h)m>J'p&]$#=o&k=d'H)b&A=N&%^J'X#a$k)R*A=9^}=Q&0,^>X^O&w)]}**9=O=J~,>r*&{o5*%X%L]Y!k)i)5a-[E)P=t=)*i=R^9/a$ =2$T&O&T*`]<*K&&*i)J'>;,>B$,=P]^= =Z^A=|&S*shh'0,R^e^S*z$^*Z^2$K&b&R^C&X^b&t=e^F)h'I)n&|,|&p$4^,3Z^x7!;O=C=-(E#c%[,.)c*a^W]e*={K/P{+3K0B3B^l{f*o$w)`^l>P<9^0^D--/h$2^H)3^N&$/|$*^o$19;^&*-^}6//&*a$Z^[$q9!/ckg^($D$m^1^d$!/]$J']$z<@8N&)^9$Z]]$W^6^N&[%7%*%t$t^1^K/*%]7w/2{o/.4H'o>r#0'M/ ;t=E)p*}&|,L/C^9tN*`=I)|&p*_/p&k)W&E=A=h*D]",
"F~1*p*e*a*^>p&3*X*p*5*0,n{q'1^]#a-v=V&O& )=>)]S%c%!]8]|%2{*%y/~eE^g^b#{C&#Z)Q#D$2$a^u/5^_///Z^<${/q;*]D^n>%4Ev7eD=)}&/o$o$9^y=J]27+%d]0*w&2$<&X9u-2$A^)^P=)^k)d'>[Z)p&9/&/(&d'J~|&)^T*Z)i)l>9=u^F&Q^e&a^]&L=F&n'e*}&z-|,E*2$X*J'p$W&j>y<{$u}#uOaO&k)p$==p$<*Z^Z)2*)/L&)*>; ^d'X^E=V&T*9^Y7l;v=x^R^**<&F&}6c'V=D-1&n&9,;9+^h/k;`3%7O#A[c{i&a$E*C8{&*)d$b*V=S*-'#!E=2$v=i=V=]$m>D-R*^>5'*!`]#=R#|ed'o$X*v*e^f&Z^O&a$K&c=O&N&e^m&B=o$)^T*R^T*&*G#T*S*R^h'4^!*}=v*#-[3n[j/F#f;|$j)p$t=%)^*R*L)%)n;d0M#z-k)n'1/k[,=T*)*z-^>N&**l>**e*T*O= ^B=c$u-c'>;b^N&k~RCj/p'lr$]Z)^*T*z*)/O&7%h'Z^(&d'U*d'*)u-f&t^R*1&3&N&u^W9d'!&%)b$N* =>;Z^C*h/d'I)g&W&J~Q&W]k)v=F)^=f&)*<&V&d'd'C*-'R#R*v=&aJ<T&V0A{-7@(H6%sP^N& aL&)/W^y=Z)^*b&)^1*B&k=w)P*b$H))*)>==o$K&1&}6k=C&F={& ^P*l;|&/*i)+^V&~$J'{&/&g&Z)v*B$t-d*Z^P]t^V&|,1&s&!*J'p*w)&*2*l>.$!^%#4'`] =@7B^M/ ^*)q9z-|&;[15M/t{k5t=J)]7`3zx-'2*h/9^Z] ^z$~^a%E$Q^~^G#1^N<t$8/5$*^./t^R^<=*^4^%'d>W9z$t^a^{/3/M#a^V=&*I^}6R^4^9^x^($s9Z)l>e>Z^P<h$#>&$[$~$[$j^4^s^S##8z<C/[8l]b{Q#z<%7n~|&b&>&T^|21^B7`5o*F)v&-'h*k=-5#=d'p&pn)*1[",
"=4X]d&l;c*v&7=1*6*n'8&`*H%n8x]+>1e*)C=)*Y9<6lw1#M)%&q{6$6AQ/(^8%{7Q^D^B$Z]k^($8%Q#u% ^:/B$J'|&a$*^q;m{M/G/o{Q&t=`]H<+^X^Z^k)P] fV6*%.{a;D$z$t^J~!/n'K&J'`]a$-'{/9,E$=^}6v=R^V=>[l>r*4^,&2$ ^D=F=O<f&==t^9,T*u^UsX]v=d'k=W<a$-'/**-G{U{l/M/T^R^R0*)==k^a$^>d' ^l>Uae/t=v&~$y&-'Ra9/-')>-)G&R*/&L&';d't^e&E=^*e&!*.)+^h'9^R^J-}6v8)4I/I/q{i0w$|&i=V=J~y=b&P<-'2$T&9/ ^F&9,n'Q<e&>;2$w${^D->;F=V=:}b$w)c'<*/&Z)e&A=k=d'P<E*/&F=`]v*V&w-k=E*)>k)**e/R*M<l>5^]&V<y&kc${,3y<<(H=,[H9^*n&D-E=P]5$ ^R#k)==4&~^.^t^f0A=e^w=a%Z)*)<*W]D=o$g&u^,>k)7=Q&>;p$Sa0,-#)~$5nl)!$a**,>X*<& !P)R^Z=)*c'k=f&I&X^N*/&v*p&e/**t=i=W]t*~^O&b&i=V=B=h'#=k=0,Q&b&h'**a*t=v=k=-)c'-'+*$-{^#/D=R#v&L&d'X&p*},F=U~R/o!o^*^u-D-u-y^a$)&|&-'o&>;J'F&i=t^N&e&e/k=c'.)R#t^f$d$9/F)e/E#C*b&y=d*,*V=L&V=`=&4d***O[k=h&P]^=O&7$n'E=M<V&**v=L&J<V=W*D-R*|,b&<&;/($l#7=o$O=x[b5-(E*R**)(&h/('s31!@>`sQ^(81!E%s!Z]9^7/X^a$2$R^P=e-r^F=`^-'P=&*o$'$9^**!9 ^R#+^7%D=%'C8M$D==^j)g$a$1^a$t^(^H)S#|^D-t$($9^h^&*Z])#P<%')/.8.$S^($8%4^y~($4/%$Y/u/q6.{_0;$2{J5|-Z^4^T*^>8t.4s^SC*>O&t=<*F=*^-'s&X*8&5a=&s{",
"yr7=l*{&X*<*E*`*>;v*p&<&<0>/&*<]g~v*l*p-1=kAN5*%s/i{G{E/TC[$!7)54^.^b%O^r%N/]7Z]')0^%'#/V=J=F)a$h'(&D4Q/x]G{s^R^0/R^a$R^-'Z^2*c{n>Q/1{i&N<c&z0&*D=2$r;5$T*D-o$9,,&!*]}e&M#C*b$/&'/==R^e/e&u&**-)y=uak=z$y&c'-!t^)**^p$-'%'<=v=k[O<H'T@eB~5Py%'z-Z]F=D=**J</%1$X*D-~*l;e/-'F)i)v=O=2$E*-'N<F)K&P<Q*#$G#u-E=e^ =F=G#z$P=/&q*lBI~=>z#.}a/V5/5/,k)c=k=O&z-9,D=p*`<0,7=z$5'<*-))^v&v=G#O&D-z$9/P]5$X*'&1&e*<&&*y=-'k=p&O&W<N&v={/T*t=Z^d'o$t=H&v&f&m>X*J'O&p*5$ck=^'d`/*%B%1g%8F=t=4&R^z-****q=z$~*B=k=p$H)**S*z&**0,V=v=Q&**F)%)A=v=t=V-J'g*t=d'p&F=Q&t^$-m&c7n!|#ydU[v&V=9,0=}&9,~^%)o&i=Z^J'>;T*/*-'b&J'V=#/v*E$L&`0X#a&A^2*X*1&2*X^i=e&z-2$/&o&<&a$E=^>v=T*b&*^A=X^z$a$h'D-V&h&]&z$!/o2$7y4Z2xAw)<*z=d^s&t^'/v=p*!*e&}&c' ^F&2$`*B=f&N*n&t=T*h)O&V&F=,>,&X^}**^<*F&c'z$n&w)n&-'%)k)O&H)^>'/o$<*X*0,T*h'h'1&l;'9A=D=u%`]!*d*>'M#)!<;K&R*=(|^*#D-g*9=.^D$3-03#7'4=Am' 3G/S{a~!/Z^)^R^t^M#E=<&7$#$ a== ^i)n^8/S*#9R#]*|$N=^>d&P]d'/*~)7=,[<*'&b&<*r;<*C&m*T^x'-')/K&&/h/';[^8%.$1^P<X^l#n0;#O^s^x]&/*%!%%%|#4/.&|{U$d2$5`*/*m*s$*^c=D^8'o>v-)^u%D=r&J'<*9,<&Q&v&5*N]",
"m~f&X*naq*B=E*;&v&t-v*e&3#B^%870_;F&^>}&(&Z-z{-(jsb{~{ #;'U${7)5g^:/l#<^Z]&/0$[^!/Z^7%a$t^2au%o$l;m-1{M/U$g5*^UC//l;e*L#z-]$Q&gkM/57=8X&L&l;2*t=J<e/.^d*J'^*//O=w)a^D=J'.^*)E&e^P=J-z-^>$-e/w&)*.)X^L=k)7={&b&l;E*R^k=u^g&R^{^%-3}z5*%x/&u[% ^W=k)d't^>;F=}6R*T&D-V=]$~*R^K&-'X*d'K&Q&,>)*d'u)|,W]>;Z)p$(&g/p& ^y=L&t=o$n^k=&/1/+A-fw/)!E{H9w$Us5a^*S*^*V&A=b&)^-'L&^*(,/&F=V=l>d*T*m>v*v=:/N&c=)^}&5$Z]9,)*l>l;z-z-y=O=O<2$h'e^c'#/g^F=2*2$k=+aK&T*<*P<bq8*VC8{p!D^v$L&)*i=k=!9}&%)D-p$k)D=B&b$<&D=|,//f[Z^SaK&J'Z)&^**D=z-(&p*5$e*{^O&e&1&X^R^/&|&J-D=$&75J5=(k6e^e&|&u^R#)*O=2$t='/V&R^f&X*m>J'Z]R*K&4^(&:7e*t=W]P<e&O&_>%^e&O&z-(&V&l>A=A=:}~^c'(>K&%^k)}*2$#/9/d'{& [t=c'p*m&P23{I/,3{}G8,>X*e/E*P]k)+!e&K&|&$-&4L&*^Z)t=$-C&*)R#b*c']&E$p&v*-'t-A/X*w)k)r;w)<qr&a$/*:,D-X^Z^:, =`<&^T*i=w$)*]&Q&T*v*g*u^^*|&<*<&1^R#q6Z]Idg)M^<&-(c%O/|,W9V=V=`]{&43nl@7bsR#%(v/*3W&-c@/a$T*k=t^J'D-X^V=K)c'2$WC<5%dT2>}r[a>Y[N2L4<5E2N2t[Y4C2k2j}}36[s[P2#d(4z2E2N3L2U[<5Q~={[3;^==G#1^g$y^1^@8G#.$]79^#$9$o!E8T@*/U~[{y<I/p!{~5$`]*){^=^Q#J^K{7=S*c'O=r*9,v=w^**d>d'#=}{",
"I'e&g)d*,>7=x't*H&;&C&c=[(:8!%;({-v*B&w=g>k;`6*%.7l]q{1!$7](n>]7:/j^-4;^[^J^&/h$4%A/`]D-l>z$d>P#D$$*@{$$H/30cpt^K&J~w)e/**A=v=u3D/z5I3L*d$o&1&X^o$w)e&d'V=R*a$2$J'R#5$t=V='/y=k)2$K&F^-')>v=D-L&z-e*k)v&P<z-Y9p$L&l;J[8&G#P=F&XCB8|#q/[(C-F)Q&k) ^^*T* ^F&,[x^l>Q^d'p*c'o$[,h^F)w)z$O&u^G#m>J'D-M^w)d^d'`]0,D=R*k=R*|,>&.^*!R*R*f$:&w/O/)4U4i&|&)*B=Q*/&i)T*F)/*2$;^>;~es$G#)8t-k)T*)^P=r;F=},-)Z)9^i=(&F=Z)k=o&z-:}'/i)q=** a'=`]m'**/*v=D=!*{/T*c$n-$-*^t^o2{wY'@vl|5^)^>;C*V=z$YC<*%'k)D=V=R*P=9/O&|,i=b&o& ^{&D=d*==-'T&2$m>b&R*F=!*R#L=v=X]T*#!D=9/(^)9W7,3;'m3'&o$O&,[b$L&)*t^R#W9^>{/-'P]e^|,t=v=F^D=p$K&N<V&)>D-A=E*P]<*#/w){!T*c=19Q&N&e^e&T*n0**k)v*R*1&D=i)b&<*v*d'3&ZC[]'!C/$'TrE'r=2$=&-)>;k=C*p&v=W9w)!&y=V&T*$-W]>&t=K&V=|&~^L^t^#=z-X*7=t=V&{^^=';*){^p$o$:7-'>;O&%)A=|$i)n'<&^>|&P]5$m>L&t=a$L=-&|&H9(^-'>' /,3g)9,R**3S#q5'-J~*/6^w$p*03*%5]AwE=^02{>4>~M<b$`^t$v=/&E)2$Z^V=W]N&$8[3G{h58]>{7{Mrm{eA%{Y3b{o>T{%{F{L{<{YpY~]{Y34{%{c{|{  |{Y{4{1{>{]{6[duu%~$g^8%u%4^o^#^;^!^g$&${7j^I^A^1{%},}I^H5d;J'R<&!F=:&[$9$'4@)t=)>{&k)P]y=v=-)1&T*c*`4",
"NdV=9/m;~)|&Q&{/1&B=v*%)[0z^>^6]Xrv=}&-&B=o'0]p'G/s{{{S@074%Y'v$8'$/m4y<(^7%X^Q^[^t^ aF)1^p$D=B$w)Z-S{|#z#g6-)%'d'D-t=o$|&`^^*Re$$#7x35&j)C***p*R#<*Z]d^i'v=X*|&Z^-'9,X^C*h&k=A=i)t=l>E*)*R*}&K&4^y=5$J'&*2*@-4^|,/&w&Q*S*R^a*O26)6)g5Nta^p&]9[,{^w)~^D$F*2**^,=Z]h'I&+^v=E$X*c&z-5ab$K&7=b&==<=&^O&b$p$Z)e/~^A=:,X*D-J[ =e***:$ *`Ch5)#;cy{N5C*Q&Y)i)7=7=k)/!D-j)k=,>T*H8O&X]v=b$R*(/%'t=T&|&,[a9Z)-)l;E=e&==#^Q&D=S*d'5^F&/&w)&*D=o&a$&4w)a$Z&z-O=X^h/<-V4B5E/]%l&5^G&/&k[]$a$F=&4w)]9X^Z&P]B$p*7$E=}&P<^*t=b&J'&*Z^|$a$>[R^b$V=9/c'd^R#]&8%$-<*P=D-O&7%08-fZ$`2j]u72$a$^>]$N--'%'<*S*x^K&Z)n'9/K&-',[ ^Z)}*y=P]F=D=R#k)a$D-t=2$^*i=e*t^>&Z)w)a$d*&*N&=={&Z=^=&*c=,[o&|&*)**]&j33{M)+&)g1^&4J[Z^V&g/N&i)p&P<K&==6^v=y&T&|$t=T&k*X])^#=d>v=R#o&J-Z^R#>;<*L&N&Z)`*v=^*V&F=G#D=//`]p&Z)-&0,c'X^w$X^b$k=k)==|&l*T* ^-&P<!&S*q'.$#74;d^M=J{n>b2Y9.)R#i=:uk*`6z#E%^-,>){ D8$=&e&E=D=w)/%i)a^R^t^{$>[#rH{&]D/p!M/,)m2$7n!C6p'j/%7I/p'V6V5n!lrb5j/<]@(,)=7U5n!f]E6;'V%R/D5y]C{@{V=1uY9q']$E^j^I^%$@8S<f^y~6^O#&/h{k6.Dx]y~[&-'#/,*b$C*]/0^d]^,**p*2$d[k=2*v=k=E)F=R<W3",
"VBh''&w)d*C*`]z=v&L&Y*l*D%;0E#o%r}N&[,+*v&q8u6n>w/d4o;&#$$E8o/B4O#2{g#k^u%:$m4O^,^b$g$o$d$P=(&V$d>g&v{M5w/70K&^9a$~^~$Z^')e*i)B8+%j$v4J&_/E*P<>^P=&*h'k)D=D=d'l>V=u$t=F=')o&**d'V=L)A=d'|&T*E)w)**asO&u^d*i=7%v&D-z-D=Q&%'(}@{u{M)]%u%R^c*,[//:72$<*o$b$k=`*1$T*V=e&d*-'v&L)a*c'9/sh)^a${/d'D=U=t^z$W]Z^1&}6e& )e/J-s$v=K=N&&^}6G#u^+DI[w/0$V~=>a^*)p&p&e&p$k=o&F&e&{&}&==|&e/'/P=!*S*/bd>d'.^d'>;V=u^i=D-o&d^S*p*~*Z]>;V&,>n&v=R^<&F=D=>;^*d'>[d^9^F=L&<2%{kc0'_0e(<&5^,>%)m*$-e&@=e&a$&*b$%'^*v*A=T*Z^i'T*9/~$t=p$q*o$2*|&r$W]:&O&5$c'i=R^k=**R&J[)^`*O=b$@D,7n!}]j}9*O[P)e^b$h'C*<&N&Q&YvH)X*2$t-J'i)~^2^<*F^e*-)P*W9D=%;a$v*<*<=E=<*l>t=i)^*P<t=L&9/I~o&9^F=-'-&**R#}&F&{*Q%i]F$F#p'#D^>+*ytR*O=X&<*F=t^R^>&D-{/+^r;v*T*S*/*!/Z)*)Z^D-X^9/t='bu$V=T^k*X#-*X^g&%'L&w)D-v=2*+=9,2$j)*^-'~*p$F=z$}*d'*^}&b$Sa,>>;R#p&K&t=u0d'([4!T]|qW7,$cg')c'K&d>)*S)5}p^86Ut&^FA1!H%k'V=>/#$J=3/==t=)^1^A^j5|&tuc%([0$p'Y'$D)4M)~6s/E^k4y<V6y~4%K/%$H/X%.6+%$$<<*%q#y#*%M5.#I/5}m]`%.&5b(/[^D$n$*^4^1/%%D8O#8'd#'#D/n>23Y{7tw/n!/-v*^*w)_/Z^[/3/[04&D=^*w)W=K&Z^}=i=N&W&P]H4",
"AhV&x&)&V&T&<=e/y&F&l*B=tm[6d$L%o'5&l*'&Q&(~%DP%}7q{u}E/kcE8U$[/B^Y7]$)$D^&*Q^d'~/3/b$*^Z]R^5$d^Y9(-l{M/s/Tp*)]$z$l><$19W'h'D=*{0'*%Z{{}-*u^P<u%p*O&J'%'m&0,W9w-F=.)Z]^>R*-&-'T*V<~^%)E*)*3&K&z$k=O0X^p&U=t=|&K&D=E$r*%',[c'<!nl;'&Dggp$e/}6i)k=k)==i)v*y=e^|&v&)^^*^*T*]}A=-'(&|&z-$-D=Z]W]E)f&R#D-/!v&h'f&V&n'Q*2$P=e&l>J'v=^*p*kau-7s([I/|]T~ =t=/&R&Z^b&t=l>J'd'v=6* *7$]&b$(&m'>;8%}6,>a*B=t=~*C' !5$c'D-v=^*L&G#<*R^k=a$k=}&R#r;p$ /R^+=H)c'P<t=}=Y[D<p'g{gjO#R^Z&**T*&^w)`^T&{^i=R#W9V=5$F*~)u$<*D=C&v*K&B&X]8'd'P<&^&4]$-',>R*t=N&e& ^y=,&y=)/f&|,P]o=`cC7i$8{u}`*P=X#!/X&9^+aZ^7=Z^T*D=o&c&D-e*P]V- ^~*2$|,H&c'K&}&N&e*9,0=Z^e&R*(&**z$R^ =l*(&d'p&d'(&p$>;R#v=a$B=w~R]n!H/R;*D)^V-l>v*F=E*F)F)o$k=q9i=<&<*|&k*g&k)F) ^v&e^f&p$Z&nre/b*(,@)E*V&W]o$S*B$R#F^T*u$:&P<t=o$w)^*R*:7S*V=_/k='/N&R#v=b&p$W'K&t=P<]$+^i)q07$Bt_**7D{M#A^3*4^Q#l>V0{=g2~/4^`5=D<&X~j/Va ;k^l9//P]M#v=o$>[`^|r&%t-J)d2~6K$2{4}k%W@!rX%E#,387+8D^)5]^m2n>O#v$K$W$c%b,b)o/y49$T@^%`#K/O/b5I32$u)>[8%I^d$/[a$.$>^g^l#D^x0|^.$1{2)p^1/b5q;e&)*M<>;,>C^:/g{n*F=R*d*f[r;2$/*e&f=b&S*K~",
"0aF^b&p*N=#=!&V- =]&v**>*3o4A^5]a~5^)*@=n&6*G5z#x)q{q{~,o!F#&#l#9'D$E/j^C(J^Z^8zc']$&$k=R#k)V&T*R^'&b{O/.#![/& ^w)n9C***F=-)[*C3y~E5_0c*|,{/D=F=k)p$/&E=D=f&,&J8)^7,[*D-_=c')^c&^*d0'/v*r;|&N&e^e/k^b$7$`]3&9/A0g&k= =|$<*m3B5-D96f*;DI=-*X*v=V^R^ =k)H)C=l>z$z-)/d'}&M^e/~*2$o&1&9/-'l>/&}67=J'p$t=i=J<f&{/p&|&&*O&k=E$d$R^)*<*+^X^s^C}r]*#o!+>`=t=h'h'#/a$d>~^0,*^9,L=(&g^u^R*0,V=,>k=a$d'R#D-b$d'k=Z^R*<$O&Z)^>d'a$J9D-*^-'e&t=C&R*k=N&i=u$n9Q&)/1&.]>D~%F/.}J&^>^*Z)k=3/b&2$*^ua}6&*t=J'T*l>A=<*-'T*F)W=b&l>{&E$n&z$D&c&[ek)p*<*E*1^19D-f&,>O&~^F=R*,=O=b%,DV/b5%7N]g>e*f&Z)$0{)%'==Q*v*t^4^m'Q<K&X]~^n'w$3&R#K&T&[^i=p&D=l*-'b&+^o&-'i)w)c'%'2$2$d*%'c&r*5av=K&k=e&X^],c{Cd1!9'+*P$@*K&d'k=D-K)|&N&J'u-d'f&F=X^w$Z^p&V&O&8t<&w)d'X*k=T*X**^g8R*2*JbD=K&O&W^f&K)==L&/&u%}&p$3/7=Z)J'&*O&}&!/P]W<b$~*~^9/Z^p*W9e&p&&*t^q'%%+4[^'Dy4)D!D.^ =L&`]B&I{j/#8P9u-M<t=y9m4g6q;2aP<^*z$-'F^l>*^^*%'D=&*p!x]T/a'~DA%b#9$4%$$($h$K/%8u#D/F/q5n!*%T@p'-(P%n>4%s%+%9$,$S%y4,3M)1/Z]{D2bm^J^T^8%x^1/E#*/%$y<x7Y'F#,}`~4{}%I/-7d)O0p&J-X*t$m/]^<{:&>;H&F<w$X&e^3&o&E)w)p*+{",
"!d^*v*T&Q*e*!*t=f*Z&f&j*d6]^y~V/A)P)^>T*[&H-a6n!Q/k{a{S<]7$$47B^B4[/O^&#498%-4>[d>d>k=Z^>[a^~^_rw)]tn2x]v7n{.^c^k^4/!*t$z$h&I~j>M)M/ ]_,t=d'-)v=R^o$Q&-'>;J'F)c'c')^D=z-V={&S*K&49/&2$&^k=2$E=a$T*P=.^R#i=k)H)(&p&e*)^f&9$/{i$o/00}'V=d^&^c'K&k)P<X^/&t=p$t=9=D=F&b$D=**]&>;X*y=,>o&Z)**q9%)I8u=a$|&@-e&N&';B=w-v=w)%;-'D-X*E*i)4^,&i)yt';`%.7*7F3Z-c'w$D-D=c=5^S*v=R#~^|&W9h&d'#^V=X*Z^!&p$k=-&2*Z^2$T*w)w)2*E$)^E*D-T&w8%'e&J'-'D-6^t^J'E$)^#!~^3*-*33`5`5x3]Dh/^>-'J[p$t=e/&aR^G#D-a$($e*D=U*]$w)-'d'**~^o*J'J'd^V&K&t^D=R^L&2*8/v*P]F&j'{^v=/&>;,*-'k)u%#=k^$$s/y6A5G3^Du$n'/&K)&4b$a$1^X*F=k=k=|&>;F^F=*^t=;&<*k=}*z-*)D-Z^c'<*==Z^W9z$'/'/i)I)P]A0Z^A=[^2$p&t=%'f&a$}/23T@[/qiep^*I8a$g&';F)';&*R^)^@cH)D-5$v*S=L=v* [t$d'z-X^>;L=R^L&c=c'R^V=j*p$1&<*,>w)F=%)t=*!X*k) /{/'*X^`]E*e*i)//%'/&5$R#j'q*d'v=%)v*>;I^m*R#:/x<>[)7>44%/D!$x'&/M<N&g{u{~7|#9^=|%%F=R;B7803!a$e&^*/&E$J't^&*M<V=S<#!9zd6:8o^M#1/0^]/*^x^J^B^q';/$8G^C7z<(^M#E#9$1/$^;/y~D7I8O#n8;^b)%87%Xe}g`]4^o$&*[^!^%%B^D$.$Q^%8F#O#.$Z/q{c3o^M)c)!~]$e&m-0/:}]/1u60h*N&*^>;h'F*E=p$u%n^**,*H'",
"!xp&D=(&'*p&f&B*k=l*{&v&%(-4L#D5!''&R&[&E*j;:B|#0'H3>6itk4]7z#j^B^Q#l#o$9^79O^7$2$Z^;^D=&*]$w^}63^N&e];$z7L{5eK0')F*&*v=]}k)k)P3D#*7p6,*&4Vr==,[k=**]}(&k=<=R*B$&/T*k)w&19l>e/^*|&J=K&>;Q&l>f^h-w)=&R*w)j))^P<V=!&<&&/=&15p'<2~,jca%Q<d'h'A=k)^*|$X^[^^*>;p$G#D-|&p$}&`]Yzv=c=i=V=1^)*t=-)l>M<M^5eO&k=/&)>u^o&w&T*<&^*c't=O=i)O0X^l*J'3^}-f3A[*%g6(D#rD=//V&(&l>|,-'h'l;<*jld'l>d&t=5$&^p$i=C&P=D=c'A=}&u$8te&V&h'2$m* ^J9W]L&h^w&W9e&<*R#D-Z^l*p$v&X~w5!7*%8c_D<&~*qq'bR^t-($z-Z^t=F)V=J'T*J'H)i&T*^*~$v*C$z$y=4^k=>;D--'a$v*k){^T*O&D=-'==k)T*7=N&k=X*&^Z^d$I&F|20}7)4:DY]I)O0X*H)X*C&v*>;<*h$E*n'e&R^t^k=l>]$F=3&^>F=(,e*g&<*v=F=X*E=F)a$P]%'-'.^d'A=d$2$/&|&J'Z^T*n'L~,{J5E/+$'1ytA=P=W9W]c'T*d'v=L&h'-'`]&*=&Z^';N&9,i=Z]T&i)e/y& *|&L&Q&z-K&-)i)|&5$V=V&K&N&L&%;i)e/X*$-A=%'Z^**T*/!X9-!&^m'a$%' ^e/a$r*w))^D=`0t-5$0'$^h]%79$A}q9/&w&*/l;44&]B7o/r$Zfs^o$]$R{@yt4GsH9($+^1^e//%e&d'5^H)a$X^t=<DW@[D^({#-(L%-(g]4%D/@#c6_t~,!#.>y{L%]#M/V/=8UeE%y{u}(w86t4R;l{S)<|x#q6*^{^[/g^1^&^D^g$E#v/9$+&o/c%B^-3b{}DM/b,@}a$D-J=i)-'H/u%[(`*L&7=w)c'2*e&S*==d^,[Q*84",
"=4e^a*0=y&u-+=f*A=y&C&P*C]977%n{X=)&e>.)x&;~[{-(x]b{u}K/&7.7x]&$.4&*[/j^f#!/]$Z^9^#/J^U$&*o$G##^h/z&D4r%Y^n{J92$@-==d'D-V=)^m>Mu,3x/Z~_=T*Z^a$V=o$>;f=w)9/***^d'V&o& =y&e*2$R#Z)L&c'p$N&d>z$h&#ru% [e/y={&c=h'R^P<Z^!&g{|Dd#Y')#M$9/R#K&M^K)V&v=X^T*D-K&k=X^;&t-}*o$o$Q*<*d'c't^d'**g*b&Z)d'^>e/`]2a**F)**<&**3*d'L&^*!*r*>;}&a$c=e&[*w=3$Kdt]}^v/}5{-R^2$J-e&,>K& ^D&t^e&,>-'v=K&d'O&Z)J=-'2$C***K&w),=2$w)[^3&&*|&t=t=f&a$2$},J[0,F=o&>;GrS*<*^*]^#{E/*%&d#uq6F*F)e/5$B=Z^-'5^o&O&h&|,O&O&u^p*F&b*F*n-V=-)e&psz-X*X^X&h/>;c'd>A=Z)l>2$v*L&==v&O=c'S=m'X^X*I~e&7$G=s/y4&0H~6*e%F&1&>;y=-'-'k=/ua^<&k=(&C&J'R#G#N=D=-'k)D=K&L&t=]&p$1&)^|,e^Q&G#+^d*V=l>B=v=i)u$F=t=e&>;G8pvh$4/<]g'W&H)4^//|&t= =}&-'1&A=8%==d'd$,[**e/-)o&>;]&b^t^R*Q<0,t^a$c=Z=G#K&7=**T*d'**O&Oa';**F&w)X*Z^X*k)H)l>z$K&P],[ =g8#^ =h&:79^*)X&_>f&R#t=y~i/Z'66fsA#r;F*l>Y)j>Q6%%[$J'CA]%a$E*j)v6b)%(7&8^e/X^19k)ka1^Z^C8P]a$o$Q^%$c*1D*02Dw}+23Dct@s4D0gF05DE}]>d|LtNBx|/B6D@t7DF|{g~17v7vqy)we2qo5]P<l>&/a^s^/[&*x)y<g$b)!^C/h$s%[/b)S3q{+&6$Q/*-T*f&p&%'A=;xC%70=-C't=R#<&n&**F&p$e&R*W00{",
"N!-'X*#=I&~*#=3&!*a*d'5&>(#8J^*3-Cu^2*N*y&G=m{*%s/i{@{P%n!]%1!K$.$E$-#s^g$//h$.$($]$9^D-Z^z$M<Z8R=+*){a#K/l{,^**D-d'J'uaW9c'Z=&}](,)O3s-Z^t=J~C8B=19**X*b$B$i=)^^>n'R^T*W])8F&k=-)3&P=Z^w$-)|&e&e*K&u$-)2$/&c=N&t=p*L=U3z442qi8D[^w&<=0^T*Z^1&'/d*c'D='/^*-)X*&*p$v=p$R*R#^>@*.*//f&V&Z^D-k)K&n0D=^===`*p$X^1&P=D=v=E=(&>;)^<*F=e&2$1&3&R^T'80m/w/k]a,i=D=p* ^0,>;v=E)2$t-E*A=R^~^R#D=0,V=D=%'O&u$9/]$k)v=>;Q*5$e&c'i=l>D-1^W<l>t=k)e&%)R^.$*^0,L&3[j/k]<<e2h/9^^>Z)b*i)t^J-E)+bi=T*z$v=E=jlk)O=9,4$e/t=e&Jbu$7=k)},&/W9Q&R*S*[*s$E*D-t=k='/F=R*d*3&p&J-B=e^u^t=!&S--3m/)#s{x](x7$j)k=V&k=~*v&-!~*k=E)2$V=%)R*c'F=-'v= ^k=N&J'T&d'R^c=c'e/X^v=d>>;l>o$d'v=#$*!t=/&d'i=y=_4([|#[D8A`]T$s&**V&K&R**)9,O&==E=W9,&R*Jb /&*p&9/r*u&N&#/t-)/N&g*t=p$Q&N&B=1&b& ^>[2*F=T*c=>^X9kaw)w&k)Z]A=c'V&P=y&X^C&Z^T*~*X*.)a^2$w) =!/F)t^w8z7]7swqv8s**F*U=8&:5y4o!M)*^9DfBM#|&R*x^B8{7*]H- ^d^P#ki4^]$W=a$Z^R#)^~/ ^Z^2~**//`^<$d*-'X9I~N*&*V==[p)4^P=%)L8P<=^^>w)*^P<h^-'P<)^m>)5#/K)X64^t^b%o$A^H8Z^D^f$0$9'[/g$d#$7:/&%%&W{y/0'y~`'k=V=<*q*:,1/~^_04,b&0,4^O&D-R#%^** =K&b&r<",
"0Dk[k*=!(&]*B=f>e/K={&L[v6.4`^w<!'!&d*#=b$w*m5$72{i{n2J6D/]^%%J^@8:/!^9'4^s^8/6$t=X^5$Q^h/;^{^&*e/~;[(g$&#r]i=~^%)R#@-D=X*E*U]O3$5!7H]6&=>u-Y9,>E)D-|,Z^SaV=Z^<*0,R^~^k)N&H*g&J9t=a$v=,>t^d'RaZ){^%'q*:}p$P]-'R^Z^N=o2z6!!r#EaO<7=X]t$<*i)X^E)^>N&|&R#B=8/>&O&V=W9t=O&>;_/c'y=E*h'N*N&A=)8O&f=L=Z^ =R^%'&4@-V=t=T^W]E&n'D=$-R#d0Z)T*p$o&)*T*Uu<>E/,)_4os1^w)Z)N*w$v*c'|,V=F=R^5^**<*W=p$==p&@-V&v&k)i)P<G#l;p$D-P){/F)K&d*M<d'X^r;d'V=f/O&+a|$D-o/Y3M)Y'v67*pnj'&/O=D=k)R#]}{^p$**v*`]},1^v=R^c'`]<*N&**|,N&<=X*H<d***v=-'>;p&v=0,2$D'X#F*J-g#t=S*a$b$n&p&F=|,<&O&b##Ay]s/G/ >.0y&}*%^D-G#O&c'L&)^-)2$v*t^==X^K&;&h'/&p&W9X*<*X& ^S*R^p*<***V=V-D-P=b$wa//R*b$|&h'd'p&2{i{Q#b)9^l>B=B=7/Y7P=a*F=J<Jbw)k)b$e&F&R^v* )-'D= *D=~*#!<&P=(&9,ejn'O&f>t^S=j)-'u^t=(aM<0)@-2$// =p&'/a$+*m'-'v=!/^='/Y-Z^R^K& ^w)l>l>p$O&R#ka*)=']7x7-]=v7^**<&->W4)!C/Q#{/(v)(H)o$D=R^j)p4Y'`%[&w)P<o&t=!/2$i)X^k^p&B$.}g*0^F=M#9^8/v=~^t=&^z$k=z$!^>[1^d$E=v=]$:}D=^*d'b$R#Z)~9H<}*P]7$P]`^m47$}6o$o$M^2^6^1^2^O#@8h/x]l#9%F#L/c{{{#$w/;cH!|9v=(&D-&bG/,3<0c*u~0,Y)7/7=d*<=,>|&o&X&`4",
">xS*|&;&e&K&:&W)p&d'+*F=v]u%9^%4h;7^b*9***a;s]|#n>b{:by~<2576$O#,$&$')S#s^g$%$Z^*/M#J']$^*.$i)Z]K^b!-3Kuy<@>H*W]*^e&u$p*a*==v-k2+%n!X~k-<&<=h'F=t=,> /d'[,}6u^D-#/Q^1$i=O=u-S*e*S*Z^M^2*9,-'w&~^3*w)D=p$J=O&2$t=k=7%aD/(W7@fgg~^p$;&==:7c'%)<&t=5^d*d'$-h/F=e/|&F&t^D=A=V=~*w)4&r*X^A=m*>;tv&*},e&R***X6==-'^*u%1&T&-'$-/&z0|&p&N*{/R^|&e/o&9/d>w/w/L5,{L[^*2*w)E)J'p&R^-&w)2$p$~$p$w=5$7%@3`]-'q9i=9/>;D=,*;[/&^>c'X^d'8/w)V=l;&^_,H)#=#$//X*m)Y[I/F/,x=s`#//-!&^o$F^A=Z^d'c=V=}&+!m'D-a*k)2$c't^ka==**v=E)F=[,5ac'/&K&v=c&K&R*F&)*e*P=i'`t#9<*X*n&d'/&z$v=u$L=:,n&-;g{3^$5>4a)}$E$Z)N*e&-']}~^<*A=O0A*/&F&]&W<d'Z^c=L&e&e/X^ ^^*//L&R*M^Sa2$d^1&)>a$k=H)^*v=c=kiJ9/*6ey#Q/<06vo$Y9Z&T&w)F=Z)-'w)V=Y)F=%)3&2$3^v=b$R*,=oau)v*5bk=e&-'A=J&D-,>b^E=d*J-V=2$Z^O<**N&H)~^k=T*z-/&R^X*z-Z^v=e/d'>&Z)T*t=E='&m*-'a^b*}6T***h'/&97 %#]G=X6o$E)U598,8M)S!bDA/-/7%e&1^I<19K{d2v{A-X^7%O0>;l>////D='/f$]}M^Z]X^J^d'**g^R*M<u)-^!/=^*^C8>&T*%^L/P<%'t$cD')*/E)a$a$J^&*&/2$2*s^;/d>2/7$D$($P<)50^8%7$/%g$B^O#z#F/8':/a{$BS#6$R/_-1&N&1&_/t-y~D^l5P*V=d'7^w^w)W=~^K&&*0*q;yx",
"Nc,=!*3*v*:&7=a*u)a$^>y&Z{0^q'P{j=/&G&c=I)W&m5o/x]|{|{P%77klK/N/g^7%4/s^Z].$a^{$Z]a$t^+^t$a^V=&^4$:-u{$$o!]#i=X^A=}=V=e&I8d*6*dD,7j/I3,*F)B=X^)>J'^*X*u%w)k=k=d'8%|$V=>;P<J->;&4w&F=G#J'b*R#p**)X*U=d'Q^%'Qz**k^ *znw/}7.7eD)#c'<*p$R#e/Z^K&<$k=~*d'p$>;<=}=D=W9!*l>9^d$2$M<R^w)i)|&c=&*n&<*a$k)Z^A=D-K&E)!9|&W0e^O0O&E=i)t=`]{/g&l>o$u^N*a$b$yA_0,3z#:]-/qql9V&V&5a2$J'D=p*P=o&t^O0a$^>E)k=k^2$X*E)X<|,&*w$9^Z^t=`]k)c=2$e^v=)^k)c')^p*|$J~n&:]fDM)-70$-&T*t=(a&*w)o&*^7$*!{^X^D=F)a$p$//p&K&Z)X^v=*))^-'E*n&O<e&i=!/X*L&^>u-V=,[`*!*2*<*Z^d'X]k)v*t=k=f&z-u^c'7$d'&$$tH]o/x)53f*Z)Y9e*Z]+^W9<*t^)^P<v=2$E*R^M<2$p$w^k=%'A/F=5az-p&A^p$K&^>R^Sa9,-&F=g^&*2$R*K&4(#=I[.]+88%qzD#7$R*J~l>;&v=Z)(&},B=^*_&v*F=a*W9m>K&Z^k=g&X93&P*e&z-(&J'D=m&B&*^]}-'}&<=R#X*b&2$e&t^|,W9Q^+a{&%)./T&F)O&y=N&*!^>]&v===N&I&c&T^i)|aK&d'U=!/[/U$U{'2 =d*+^$]'!)#`~21U^j)19X*L#Z]O&H8R;@yY/t!1^V=R* =}6P]7%a$w)7$d^V=G#w)F=a$&*)^D-A=Q#Z]&* =J^H)4^';D-b%|&o$Z^h/W]&/a$9^t^M#19&$ ^6^d^.^D^4^;/O#[$#%+^r%:/8%`^x0p^x)F#%%x77%%&  ($)5k4e>J-r*f&%$K&z7y<d][&}&L=-'t=v*z-&*)&F<D-[&S~",
".0K)_=+;w)u-W)M<#=p&g&O&v]0^g^r]j;C*y=y=d&8-D4o/0'l]C]w/I/1!g$.$F#Q#!^!/x^4/M#(^Z^J^;^l#Z)~/*^Q&==$=U{+%1!n{K&'/j)g^Q&J'<=I<~-gDb5w/=69&V=2$F=e/5$w)*^E*5^V=2*G#N&8/b&p$2*v=y=]&A=k=>;p&&4i=.$D-L&S*A=k)V=F=t=y'[{4{S@47tmp&y=E*O&K&P<a$L&w$#$Z)P]R#W<#=R#B=W9X*c'p&a^(&>;l>-'0^5^5ae&X*p$T*e/t=P]n'{&<=-/f=K)N<V=7=Z)R*z-X*v=u)8%R&/&**,;199^#$a-n!T@m/k2/-d*p$8'p***t^V&w)/&f>2$h'X*J'A=g**^<&W]2$E*p$J'i=H)<*;^e^**)^Z]z-#=c'f&O&c=l;X^c'/&hD2{x[*4u4~9u^d'*^>;]$K)^*8&w)k)v=*^R*(&p&Z^k)p&w-X*V=>;%) ^Z^4^k=D-@=z$p$Y)X^l;Z^V=|&5$6-E$b$X]t=D-E)t=#r-&F=t^Z))^v*P<W<y^x)m/w5B8t*%'!*R^;^R^k=)^d'u$R**)T&t^/*F=i)v*W&X*w)p$n&w)d$V=v=D=X^|&W9m'P#J-2$J'R*z0m>p&V=W~$$z#P3csR**^c*R#R# ^**2$%)a$H)^*,[C*d*d^,*E=t=D-T&2$m>a*e*R*2$K&D=I~*^>;N*D-c'-!Z=D-N&:}R#(&>;(&A=A=^>P]J-Z]J'T*a$v=O&<*2$R#`]|,R^t=N&w$R^//P]0,2$Z]M)6$9]vhc'J'k=_0K/Q#c{v=a$X^d'8%m^c'k)**<3C/t%4!A/k=!/n$~$*^s^o$o$!/v=o$sh%'=^.$o$u% ^v$W]J')^t=e^P]**D^9^**t^-'2$)^D-P]&[d'a^X^8%4^!/B$e/9^x^n^Z^g^I$E#a^7%7$:/I^4^d#.4z/b,n>F#*4|{8'4/y#V't=r;d*a$v*y<J^b{3*2(7})=O&t^F)A^>;== //;iD",
"Txn&C*`&<*Z*f&p&P]e&!*+*y{u0|^.]7'u-v=-'<*6-Ur+%-7m{G{w/.#k/w/4^C/7$n>*/:/h$h$o^S)x^!/M#'/a^Q#t^o$HaG{p'%%<>w&h$R^D-~*Y96*Z^b&jD1#@y;]9-E===4^P=a$e/O&v*c=^*==p&~*w)E=>;D=#^/%*)Y9$--'t^p*)^o$b&n'T*z$D-Q^x^>;0=N]kDQ/G{[1G#R<@co$-)^*T*>^R*e/%'9^n'I<B=X*d'R^k)X*f>R^b&4^S**^+^V=|&t=R*b&d^R#**v=d*8%^>9/~*]^b*^>u)-&-'D=4^2*|&9/**K&t^m>c')*r#w}<{lD|#&(O/A=,[d'V=M<)^t^d'-&b$d'*)|&a*~^f$,>v=&*V&M#~^n^e&*)==T*d'/!F=L&<&)8Z)==}&i=dc{9>=Y=E56$K$Uw;$Z]T&o&^*d'C*D=l;')H)~*|$Z)d*N<(&<*F=O=|&R*O&v*-)i)^*d*d'E)G#E*|,t=a$);O&2$k=I&a$!*P*#/P=R#)^c=E)e&V=v*Z^t=t-e&Z^<9V7D/=7/{L8p$O0T*w)a$Z^D-2$F=i)R#J'b$P=I~a$W]F=V&T&}&w^V&>;a$+a$-N&w)(&t^o$7%L&t=E$t=/&+=X~)!}7@(<ya%:&X&@-!$n&&^t=9^K&m'R*9^t=E$+^>;l> =D-T*e^B&p$<&J[d'P<P<^>E*O=P<2$E=>;=&-'e/Z^9^:}N&v*b&}6)^W]@-t=m>-'>;D-r;[*t=t=u^v=d',[t=Z=Q<R^W&z-q*m^f=4/#/o[H!w)>;X*S3;$97~xJ^k)E)d'9/]^2*t^k)d3,33#R<t^]$7%O&P<Z^0^d$d>G#u%`]**x^f^c'*^E)~$c'J^-'>[k=&$u%Z]t$P<p$9/u%X^M#.$8/o$t^m>9^f^u^&*9$7$h$m4t^u%J^1^&*Q#39S<]74^s/K$v/6$+&]7I^T~7{K$|#K/v9},K&V=o=p$mD9'<(:'_*O&d'j'-'2$R*-'~^w&N=nD",
"Ac>;P=v=X*v*e/!&V&!*R^^,{0%$}6%(2-3*';)*C&oD_{6$9$%{o{*7!7h$$79$*^.^h$&*&*3^]^w)!^3^o$g^t$q'A<t$<*I*;]/(Zp$62$~*F=o$z=D&b$~*c&Z;,3$7{0_*k)e/)/^*c'*^^*~*!*X^-'H)J'/&v*F=|&P#-'A<&***e&J'v=** =D-A=O&q*i)F=e&)*#{M5v/M)$-Z)}6a&K&V=D=<*Z^|,p$P=0=[^X*-)J':$9,F=O=&^.$f&|&M^e^!*n&g*D=u$B&i=p*~^~^<&*!K&V&c$c&t^W9P]w$A=b$k=Z)6*n0F=e&7=R#,>q=/&f=#%/1m]o!)!$'pDcp5ai=D't^F^Z^1&X*P-J'0,!&-',[Y)F=C*($Z^z$d*F)D-d'7%t=o$Z)v=T*~*k)e&X^^*2$.*:/%{]%n!qDE0<&p$X^u$q0;^d^Z=t^)^==O<<*X*t$e&d'J'h'n0!/==L#K&k)<&R^|,<&9//&z$k=k=)*<*F=C'2*2$Z^e&p$Q*>;u$-'X]D-L&B$9^,>-'== =t^l#Ry|74%M55{_*k^D=Z^v*T*i)v=R^Y-v*2$R*P=I<c'|&a$|&K&p*D-u-l;<*&*w&+)E)v=V&t^>;1*^^F&')l;I81[r%s/*3t&R*a$w^D-w),>`]b$**v=*^O=p*k)S*p*y=<*';-'9^p&)/i={&R#l>s&-'e/Z^|&q*^>h/>;u-'/9,]}B=o$F=!& ^l>F)R^J-}6>; at=>;9/|&g&O=V&d'G#7%V=V=*^D=y&|, *L)Ex47,^-]Q]N&Z=L&w3.4,370d^r01^5^1$p$8%R#W]c{<2`5=>k)&^G#o$P<4/4^x^;^8%z-d>***/Z^K&&^u$w)9^D=2$&*%'a^&^1^E=D=kif0R#%'*^J-J^D=k=h/9= ^]$O=Z] ^g^Z]a$o^0^)54^7$&*y<8%9$D$y<]7Y'}7v/l#*{~{Zy.#&#!~t^5(e&]}E=9's9'4|*5$e*B&Saw)Y9{^j'9/M</=[s",
"rDd'L&:,'&)^7=:&)*|&%;Z&n2B73/&(k~[*O&R*'=Y}z{K$47V{;{I/,3W@m/g$1/I^u%g^J^D$n/2^O#x^!/V=J';^v=!/+^2'=}E/d#l{Q&N<H<@-d*|9Z^t=N&,{,3}^%(3*O^^*=^X^V=z$]}-'o$D-X^l>C&E=E)Z^H)c=d'L=Z^D=i=D-,a2$R^p&|&F^9/m>D-O&sDtD]%m2]aRB`]=&u)e/Z)T**^P<b$S*|,p$R*e&R*b*-'*^J<Z)~=wa!/*^_/R#r;k=c'o$n$@-<&p&k):7l>F)P=3*%^R^2$L&<***|&&*d^o$AaX^D=&*t=>;`at^d^t=X^r&lxB7Q/~,Y=|= =**O&'$)^d'd'o&P<k=s^V= =W9M#|$A<l8b$d[D-^*Q&i=R#O=%'p$'/O0B=<*+^=-X^9,U*P2@(x[6{og-#F=V&k=D=F=O&D=*^Q^l9F=d>z$^*K&C*2$F=D-G#T*|&5*9,v=*)t=H)Z^B&v=L*<*d$7=B&O=v*(&V&k=v=F=d'o$<&F)r;1&c'X^Z]uav=t=F<N&^>~*44#7M/&]&[p$^*O&J'z-9/^=7%K&>;3&J'-'|& ^<***w),[z0-'|&J't^]9u^5$S*f&k)t=2$Y)h'd*`*E-&An!b)L%8AP^S*A=R#t==^^>/&Z)m*k=d'O&Z^c'r;X^u)X^N&T*==^*b&n9v=n&D-v=N&e&H<e&d'p$-^X^w)v&O=|&Z^|$,[&*e/#=N&v=Z)p&/&}6|,Z)D=V&//o&D-F=k)P<u-Z^%)I<w)v&R#1&Y)2{%%8{R|F)a$p&,{I6'7x[e&}6q9F)|&u)O&|,k)V~07I[i&R^R^Z^')5$;^z$5$%$`]a%P=R#k^Q&P<G#d^w$^*D$P<,/S#O<t^*^8'0^x^D=i^x^a$C8&*+^o$)5*^G#s^D=,^!/8%C^7$2%x^y/t$h$J=h$N^4^:/:/`9:/t$x):/@{Y{S#n!Y'5&z$2*N&R#H)$$C/![w&2$3*a*K&Q^v=g87=<=n0Y]W3",
"02c'O&-&v=O&@*z-P-,*9=c'<{5/J^h5;>Wz)&d'F^m>N5F/o!=}!{b,]()5)#g$#8X8s^9$~/*^B$4^%'z$m^R^ ^a$e%8%R^r~y{*%,3h]1&B$l;E=T7D=<*e^>;q[9%B6|0u&^93^A^9,-)R^v*|$z$e&D=F=Z]S*-'z$G#q*Z)A={^J'2$o&9,e&R^v=f&1&m&P*l>g*#}uDz59%Y!Z^V&|&D-:,8///%)d$**,>#/}6Z]c'2$/&o$b*p*t=='Z^N&e&f&N&D=)}p&o$H8J<E*g*R^K&o&c'X*P]1&e*B&p$>;t=o$J-';0,O&T*}6]*#/}&w)N&B&l;i)I$$sb{z4b5m{ZqJ'Q^d'>;0,V<,&E)**b$X]l>E)A=~*u%c=e&o$Z^9/8'm&5^t= ^<&Z=L)>;i))8t^l>e/P)`5)7T@itp'9-e&e/a$c'O&^*y=p&H)Q&&^2$e&e*w)e&n&b*W<$-d>Z)k=^=V&p*z-X*d^>;o$p*9$`]F=X*|&G#L&(&R#i=2${&h'e*k=T*R^|&19k=R#F&M#V=m*d'T*a^U)+7W@l/D9z!u$-)P)@- [f&v=t=V=*)J']$u^O)b^C&i)B=1&$-9,O&E=V$h$c'';z-~^k)+^M^a$p*c'n[q]$7]7^[/~>[<BV&i=c'z$-''/F=^*d'=^X^-'h&!/w)8%Z^^=X^M${&w$L&&*O=^*s-O&>;h'P<k)X^u^.)|&N&(&+aD=J<L=|&^>R^P<B=z$7$N&+^e&2$~*t^N&l>p*2$l>F)H8 ^e^P*:7T*L&+!<*8[8'vDwDd'r;-/,{d#Y'xDv=**F)O&2*9^b%j'0^e3v/b(T'!9|rC^G#`]~^F=t$8%*^*^t^$-W9(/&*%)%5t=d>X^V=+^p$m*7$V=*^*^`]{/Q^W]q'V=cAt$&*3^u%w^x^*^d>o$o^y~f$}6=^($N<]7g^.#8'9$s^s/y~b5L/0'R/Z~J)P^H/p'v!0,k=k=7=-&n8x]v4c*f&d'2$(&F=o&t=2$Z],>k*[s",
"yDq9e* *F)B=_*F*+*T*C*t&){ 96^>4zDA=X&;!d*|;esW@@y1{o{$$M/F$B^F#]7$$5/[/G#r${$J'`]P<x^5/F)Z)9^ aD=3-O3W@,}r]{^**d$D^t$^=w)n$E!#d([u7q{M*r*Q^t=a$o$t=i)t=X6-'($e^B=W]F=2*H89^e/u%O<n'A=Z),&l;==d'p$**E$//l;1!_{'D97+>@)j)v=o&J= *`aX9b%-*X&6^**19**b$<*z-E)a$R#==A=b*^*^*d^R*|&d'|&9/*)~^)/)*Y95e<&K&.)9,P=K&k)R^e>c'<*j'p$jlX*[,X*V=N&B=F=e^e&e^H8t=#$p&n!x)O/g2M-X*m4e^=^Z^R#F=R*b$w)2*K^w)X0 ^b$Z^t^d'/&v&1&P<O^f$c'd$p$X*.^P=d*k)O=^>U3](M/gk!sk#F)l>*^t-B=7%<* ^a^6^}*X^-'d'1&t=P=o&(,F=O&J~4^w)1&l>k={/X*P=0,v=d'n^2*V=v*W99/>;>;{^R#Z*b&i=b&T*a$t=D=R*2${/|,c'P=Q<,&u^k=r%z<$$a,j2r&t=l>5$'$#!z$M<t^-)S*m>a$^*|,N*F),*k=-)E=|,2$e&u^5az$d'=w>;e/Q&M<|,xwY=y<</@7|1==4^2$&[P<J[*^>;(,S*R^N&|&k=K&D-Z]>;k)H8,>*)h''/Z&i)R^e&k)//D=Z^^*Z]J'd*2$R*N&t=X^i)~^A=/&v*J-=&l>v=c'|&2$e^{^v=X^p*<&a$F<N&0,^***|&%'S#h&J~N&c'a*1!1!>4$>^>V*<=ADx)H/{]d'!/**d*H8W'r$*^9/y3/8H%t&a^i))^P<^*Z) //%7%|,S#^*J'M^)^u$*!w^4^g^N/9^I<z<)^9$Z]&%t^O^E#u$')/%t$h/E)-$9^4^7$9$5$f$1$g$b%u%z$4^9^O^Z)I^s^Q^J^b%!^x<d#b50$X%c{LwX$A7%#xh=$V=4^2$K&C(Z/03{&2*+!i)^eb&D=d't^R#C8!*V2",
"BDV=W95*<*!&C=g*v*2${&b&t{.4T$^{v~r&v*Z<*&T'CDi$x)b{O3y$2{J^d#:/9$D$U$g^4^g$g^q9g^x^B=&/e*(&q'V=J=q;30y~E^86D=V^2$i)Ua2$>%d^t-u9p'v/-3z=T^R*h/F=e&-)5$t^%')*{9b$e&z$e/D=7=0,P<0,|&<*7=/&=={/{&7/0*Ngr;S*W&>}D(o!4}$&k=S*_/<&-&b&2$X^k)^*'))*D-a$R#X*E)h/d^OtF)e^v=O=F=-'W9m>d^d'!^P<&^e&,^-'@/w^D-V=H)p;c=A=]$+!Z]T*d^J'.-w)2$f&g&%'`]|&H<-)w&M<l;G#d$u[!,]^T@o5*}~eM#*%9$,$F#[$[$Q#{$6$]/1!s9P$!%-$B^g#x$.$!^d$1/)5H/K/A$s%2%DD(^%$]7/4D(b69$EDeyk)Z)**J'o$~^/&o$p&X^d^l>E*Z^<*J[w$w)1&i)$-t=!*a$^*t=o&,>w))^h&N&d$}*^>:$@=J=w)O&t=*)v*R^*^u$k=}&w^v*i^d'k=e/**n'e/k=f&P=)^u^P[*]C/$5B]U$z$7%p9h$k$!A3zC/s%j^w/p#b,B^y/S#)59$f^S#Y^y~.$Y^#$n/v${$%8)5]$_^'/@{x<F#4/>[)^V- ^/&T*|,C*y=o$z-F=G#u)F&%'M<-)R^^*|&a$Z^1$v*M^D-R^**@cE=B$E)X*m*Sa2*u85^|&)//!V-o&>;i)v*Z^Z^====O=h'B=}&E*P<**V=k)v*d'4^E)L&V=L&a$J'}&L&z-c'w$Q<77F#V%B}V*x'V*k3{7D^s5R#{/=^u%^*X*7%b$R#|5N/~,FDK&&*M^A$c'&*H8%'Z)&*X^&^J-p$F)9^&*8'0%u%a$2^7%~^J'4^d'H8 /o$w)A^:$%5C8M<[^&*[/l#l#O#2%]%C/(/-'ej)^x^.$~$a^:/&***i/E#$/s^L/+(]71!H]4{M)Q/,3v!a$R&(&9,c'o/v/o>{&|&X]r=M<O&//m't$^*~*V&GD",
"02u$X* -)*-&7=C&v*<*N*V*Z~X89$']f)>;~^G=k*Iz%a/(0'8]V{n>I/&#$$//j^b,,30'8'u%D^O09^t^d>r$i)X^o$h$5$k-u}y4M/.]y=J~h't^m'2*R*K&e/z31!([I3|=P=%)V&v= ^**#^%'B$)^2$I)S#2af^Z^d>P=&*2*y&c'K&<&c&L=1&Z^B=H)w)d')4U{I/+%B&F^L&s$&/V&D=u$9/W]e^o$H&X]D=F=l>k)2$X*a$e*E=!&O=';M#d^n0i=}&:,a$T*f$W]t^o$Z]T&*^p$e/N*5$z-_/p*9/K)d'Z)N&l;&%p$T&)^F^%'>;A=}&e/wa)5|&}$kulry$P%c)a]I];]z{)7t]%]`/.];]e{.]<]n{[{z66]N5.]r]z6k]m]C{E{j6.]U{46`5[>ba72m{p]r9*%D/j;o$X*X*9/P<}6m*D=d'5a+^t=$-S=b$0,Z^^*d'*!d*o$/&R***a*v*/&r;P=K=*)J'W97=2*I&J[-'-)X*e&F)^*R^F*R#x^J~)*/&h'u$>; ^X*y=Z^k)X*W9b$~^2%)*6$C/D5[{]{ {~{zu`%e{%]m]G{']}]a]|]l5~3r{.]>4-(~372t5)]^7k/>4t]c]b(e{l{a,*3HDn!v/T@08p$e&e*.^';a^C*%'T^J'e&-'C$|&T*/&p$&*^*D=e^*)]$R#X*<&k^k)%)D=l>2$k={^%'F)p$)^//O&P=E=^*';A=V=2$2$**k)'/k=k^<*0,V=b&g&R*-'k)%)w)==Z)Q*f/&4|&I)y=f=v=u^Y'B^]C$>==]}2=tav/{7+]-'!/,9w)D-7=}6*^^*!f#8c6`=&*t=u%.$7/&*($2^7$&/&/^*7$h$={55V4m3|3z3f973^4G3U[L443P2W4L4U3U~Q~W2J]E]53U[j}(4Q2L4.523%}N2zt>;~$E#[^u%%'s^h$bxy^/8z#a^x7o/d#l#H]K]C/M)M)4-==F^d'Z]B=D^h$-3)=H&d^a^t*g&**9//&y&';g&n6",
"^3~*A=/&X&k=C*P=<*4&c*W&-f{76^l{3-d'%;D-u^Ny6{4%]7@>Y{nl}]$$x);$6^4/%%&$A^d>&*-#i)o$M^_/D$O^d$)^<&9*[{1#F#N5)*R#k)M<D=($<*]$I&k3n!x78]7&Z]E$-'t^t^**W^J'u$R*m>0,w) ^e&c'9/2$a$P]==R*'/D-R^Z^d$`=Z)shb$g*V~n!o/V%[&1*&*N&r;p&p$g/<*i)J'T*w)yvy=c=5^k=V=p$1&p$&*D=F)W9V=//^=R^i)*aY)P]b&P]t=Z^E$**t^a*P]t-N&e&e& =]$H9X^L&X**)>;k=e*i)F=t^d'w)F=P<|&z$E)|,8&v6O#Idl/1![$Z$z#p^]7$$M),3:/y<d#P%$$g#l#r%.#8[|#Q#F#x7p^.#1/z/y<a/!%6$Y'&#w/s/x7.}q{}&K&>&M^v=X*3&)^h')^V=(&p&p&e^2$O&O=h$a$,>d^p$w$**{^e/R#19R*(,f&^>>&P]`<*)R^K&e&$-Y)e/>;9^u%2$z-+!<=0,d^P]D=D=w$D-t^d'a^L&u^C8d^<*h>P{4%}^y~]7$70'n>j^o/,3q'Z$B^U$E^z<M/9$O#]/ 8r# }97B^b,,)$$;'D^p'8'6$M)s/o4I/u7p'<!g)K&Y9!&Jb)*^*d'Z&t^g&v*9^d',>k)D-k)|&d$d>p*B$i)!*e&*^*^h'w)>;P<e&G#e&t=E)v=1&-)y&p*J'**2$I)^*/&N&t=&*2$k=O&b&w)%)R^K&v=&%OaQ&P<o$M<H&g&o$k)('f=i)V&_/C76$C{sit^`]F&t3+(C^D{T*m>b$R^D=p$C^v=V=h34%L%Z=*^`]-/.$a$0^`^%$&#-'V$1$g*E2V{26']3#<<-(w<e]+]s5[(z5H%m]|]~3V/~3@7z~g][>V/S@j]+]l{<]x[g]H%T{m!g^1^)5|^U$6^'$m^Q#(^d2B^d21!.4n>%%I]>{N/x)x7_;@cM*p&@-]&y~6$gkZ*X^F&***!!**^N&P]<&w&B'S3",
"02i)V=^>I~:,)**)[*)&{&@=&Dg^$^6]~-e&/*W&,*z!26z#n!4{04T/o/x7y/y<b)F$M#v$%8($9^x^d>9$k^W]//H)t=t^&*:;o>Q#Nu[{O){^e/R^a$&*;9e&V=Ten><<R;<-8/E)9^(^**Z)<*0be^`]^*&*J'p$O=<$Z^X^d$X*&aa$}*R^w)w)2$}&p*$-Q&l=%487|#*7,{V-9/J'J^c'R##/z-&*==T*m&L&H) ^k=l>D-R^>;v*p$sh<&,[E=-'Z^o$ =t=d'l;+^R*<&P<R*u^e&**k)**S*V=v&e&J'f&O&X^`]a$S*>[ =-'W9)>k=z-t=J'{//*m>N&y4X/@&!5ID20o3t3.{JD)0p4b}V4p4z3JDp620,fk3*fD;q[k3t3m[W;,{KD f 0=f<3k3^CJDb} f/89$o/06t05$;&b$e&N&0=8&e*2^+^M<v&F)e/D-D=D=T*k=d^R#o&a$Z][,7%7=d'&4R^J&R#!*X9p*/&i)v=>;c'k)!*19O&|&2^a$k)~^i)#=k=X^*^/&b$c'a$v*Z^c*w^<&/!:{y]i$v$~0LDG;4aC;e3-f45k3q[MDjDb}LD-3NDC;L;z9p3ODG;s3]aFs-3RedDk3B;Q;!fPDT;z4K/b#}]f2d*n&.^4^b&1&>;e/]$,>P#&*2$X*^*`]|&d'5$ =!*X^G#R*]$p$K&k=P<]$E*|&D-a*t=d'(,)^I=T^s&v*(/==R*h'F=d>k=i)}6%'Z)k=V=E)7/t=x^t=^=%'2$**R*D=}6{&s&*dP] =>[Z]Idg#%{)wB$o&9)R4%8b%<<F&w^P0c=J'o&7%>[Q&f2.4q#G&B^')a^e^*^s^;^d$//D'o$8%G{x)D5C6 D$$]7n!m/](D/x)*%+6u0.72{}tb5*7b6p!P%@(^$T@S%x]$5~7o!Z$q5z5,5V~&**/t$$^5(B$C^s^[^%/j^y<Z/h$T@B^~{{{p^:/,3g)Ly(&R*V=M<{7.4u}a*m>t=,;L&R*3&d^p*>[-'h;K~",
"Ah]&X&H=2*p&2*},7=-&:&f&u{;/g$@>%~{&i&4^e&W!p56$y~Y{c2H/+%K/o!y^!%t$;^s/.$&*I^1$*^B$Z]4^d>X^J'w$n$~8`6n>r%~, )G#==v=~$t=},l>W&W2=7c%X~{&1$E*R^f^>;9$H<q'+^-^5$v=h$9/e&E'V=&[=^c'P<E=-'c=#/+^7^*)X*P]a*Q=m*!rw/d#.xP0(,<&`];!b*a$==Z^R*2*e/v*l>w=R^N<w)D-H8E$t^V=X*L&7/5ag&D=i)V0o$,>2*d',>*^d0Z^l>^=d'*^>;e&a$d'c'D=T*+^_/|&-'A=-'Q&<*-'X^d^v*e&(,f^z$X&r[1/k/$6QD[g|A[gN}N}_vbDLvDCwAugRD)1SD-d>y=vo|/|r}1|wvN}'1)~SvIvNv'231[7:6@tLg<]s/;'T@}5 ;D-V&,>7%d'E)i=d'p$p$v=TDo&4^Z^]$J'|&L&u^P<z$R*g*n^.^X*p$T*E**>P=-'O=T*c=19W]t=-!^*X^*^@/e*k=l>T*p&2$k)v=t^q9**R#Z)e&a$X^h/,[O=S3w/y4d]5C9vHrr}hc{'3tjcZ6Jx^-Hr0[pa2!fjS[3tEBT![[SuCxKd[[c},w6xUBHzG~+3Ys3tJxk/]7M/t{Mae&|,9/E$E=`^q9k)e/c'R*)*P]d*0,P#E$v=n'Z^A=k=|&N&B&^*b$k)v&k)D=F)|&H&S*i=k)J'('P=2*e&D=$02$!/u~o$N*A=D-n^e^9/R^X*v=A=z-#^X<h'z-;^ /7=F),&7=h&b&-'db2{6$v]$t}&R^shUDK/Z/a][*%'n& ^R*-)G#M^h&!fM)Q%h)G#=^x^(^.$-'M#o$7$V=g^t=m{b5n!;/+%$$>#w/4%$$~,B6t%z#o/}^L%c)1!k/+%s/ %9%K6b,o/$$D/j/)!1!1#*7}7VDr*u$%$S)]7u%7%]7C$A$L/6$S#L/*%6$W~<{4%ya.#B) ^J'V&2(L^5/)$yB{-2*m'V&<&^*O=,*^>H8P=<&84",
"Vc-'9/k=T*6*C&;&k=$-D=d*-3E#n/u}7=v*J<|&|&2'WDo!x]@>M{>#q#y/97[/y<D^4^1^8/+(($[^*^#/T^b$H8l>3^*/a$XD'4,)}7h5X#5^d'>&Z^!9|r&*1&N3^to/705*)^z-O=J-}6Z]Z^V&2$<*L&W]~^d^[^R*49!/d'b*5$Z^f&P#M^M$a$v=7=5^a$R^V}q7Y'GdM)I4r&B='9^>o$w)X^2${^Z^(&J&T*>;9/l>G#|,%)1^Sae&t^^>O&v=2$d'5(+^I<U=l>R*k=e*Z)';L&r0z-{/X*>&h'k) ^V&l>2$k=T&';+^i)v=V=l>u%L&o$}6p&V=A=[]6{.#1/#=[*{)z-X*y&(&';g&p*(&.)t=^>[*u-('7=o&G=L&y&t=^>[*M<A=[*N&B&b&v=W&z-L-yt+0h]d#n!j{]^T*%'t^V=p* ^|&-'N&c'|,k)A=H8**J=)^V=i=,>|$<&}&a$o&*)i=>;^*P]O&p$j'l;>;k=5^R#d'F*k=V=X*W9 [R*w)E) ^**i= /e&]$D-)^A=|&2*R*5$v*z2k/Y/W@k~u/c*v&A=Oa^>e>5'~;^>d'f&^=b&)*<*p*v=;&-!I&Z=<&m>)&b&V=H<7=3&k=g) bk)I=Z#y<.9c]z2L&F=D-]&N&v=2$T*/&V=)^R*Z)A=5'/*==B$5aR*';*)2$p&**-'v=l;2*n'v=J't=(,F)k):7`=a$e^|&v*T*19E)P]|&R#L&L#c=V=d'P<d*-'8%I))&w) =*^Z^t-c'Qz==V=J8d'h)V&%'1!b%']_wK&`]e&|3[/%8ttR#'/-'t=@/*^k=@a=&v4y~S/h-z$0^X^4^8%2$`^a$M<t$o$#/O/42v/H/l#$)YD=>XrZ!8Bl~XrL!%~ZDe;;~7;f-8~2;{-k-!;.3]'h;}~$=V'~^p'y442l5{*[^[6r#=$b5g^u$394/./0'O#d#nl2{<3  -#6$F/H!79}*O&p$d*B^]^-3[&1&*!}&e/v*e^h'=^P#%''&`4",
"1w~*(>9=<*i)o$C&kaO&2$v*H]1/]7]0t&^=<*';ll/-p]+%5/9{!}y$o!q#H/I/h$t$1^g#[$~/.$!/E'.)i)a^c'A#u$m^F)^5%(F/b5B5W=<*X^D-d'Z)L&>[2$$'K/u5209-a*K&&*W9Z)Z^e&`^59X^P=4^&*1^*^p$d^ ^M#V&(&z$v*D-D-Q<O^Z*)*T*b$>;-#RBm]w/1!U{}^@=**k)(&o&2$e^7%K&1&K&E=)>2$l>m*x^R#e**^X^T*e^:7P=z0**t^0Bz-//p$+^E)*^t$1&R#Z^2$>[8///G#b*u%^>,& ^7=Z]9/}&a$**b$p$e^R*d'o$kami^=o;o5Zt<3wA&*u$h^{&7=H)f&#r*^H)S*T&F^-;X^5ad*^>w)L&D=W9b$O=-'&*.^V=i)2$5$ ^b*F=N&3&4%n>L/,3W4$*t^t=Z^:7v= ^w) =|&1&&!z-<&A=W=>;d'E$p&*^.^>;k=y&F=C***2$a*9=+!)>F)t=Q***B&{/c'C*v*2$<*==O[d>f&u)[}m^,&z--'w)1&0,49D-o$y={9qrz5M/s;`D^9,>**z-9,v=|,%'8/d'!&e&X*l;t^nrF^F=/!Q^k)7}a$,=v=B$b&c&X^C*z-|,:/|& !Xaw<x]W@N5fb-)R*#rC=e*t=D=F)5$<=%)v*J~I&2$z$X^o$U=n&t=/&t$v=f&d>E)g&|,J< E%;m'E*e*D=Z^-*e^D=-c>;>;K&'/R^2$d'R*7%V=d^M^C*5ai=*)c'9,G#8%a$8%h&d'E=2$c*d$2$T&-'.7Y^m])~Z^z-%)k3p'F#]f@=S*t=^*Q&Jbl>==R*HBy~b6X&i)q9R*u%`]R^O^w)k)w)#>|^6*K/y4n!b,o!379%c%)!}^!7S%x)Q/]7W$j^M/,3o/x)y/[/K$L%o/b5y/n!U$P%%u5}3{;-D%o/J'Q#g$u^]$%%v7n8f^5/Q#:/v/!![0=};$6$O/i;e&|&d'_/f&m/Y'K8_&b$p$J'L&q*h'V&J[o$R#I~/4",
"(Cn'a*V&u&k=d*A=z=v*/&,*H]-41/Z2w*u-f&B=K&6-.EF/z7qa%}/(T@4%z#*%~7K/;^(^J^&$!/`^.$V=&#S<2$Z^R^*/D$6*r]1#n!v{<&t=R^b$i)b$+cZ^v=s3n!l/X~6-a$J~4^w-*^2$u%B$^>E$f=l>Z^-'m'x^&^Z^a$d^D-C&G#Z]p*b$F&//k)|&k)r*i'7-:bx]k$u7j>7*E=c'')D&==F)#/V=&4L&[*t^E=l>#=^*)^V=o$R*N&R^e/X^e&a*u)|,p*`]9^o&O=Q^t=e&F)I~H)p*9,~*|& =h&.^,=C&v*%)/&k^V=V&i)z$)^r*d'd$E=I&H~4].(^w7-r%h&_/e/'ba$J<d*e&<*d'>;'/2*-'C*V=+EX&}&+^d'P=|8$-V=J'&^o&h'T*y=^>7/^*^>)^(go>H/18`%<]K&%)d'2*M#M<<*z$K&R^d$J^7$D= ^w)J'V=D=R^t^F=1&W<|&l>e&pnd'm'D=kiT*p*i)}6v=';`]J~|&z-)^p$M^D=^>v=J'z$**F=7=p*.^U=V=J~)^G=#}b,I/nl@Ev$D-l>|,=&X<J<J~*^a^W<P<a$R^/*a$m'k=0):7L&w)2*o$F=0,T&/%W]K&E$k=&*d'X#R*|$b,G/6$,73}f*Q<2*z-&*R***k)Z]*^}&j)>;i=z-i)D=X*T*|&A=J<^>w$},R^;^J'd*{^t=k=T*d'2$t=9,m>Z^C*c'v=b$}&h&d'i) =.)Z^ a`]P=Z=^*i)b&h'E)^> ^b&e&l>M< ^p*>'c' (8/p$4zI^@{l!c'`]#=m[o!y#L%h&4^c'R*a$**(/|&O&d]v/##r*G#**2(r$R^J'w)t$w$ ^,95$o$o=+]!^)5[^%$g$4/(^9$E#o4u%f^(^(^J^%$7$v/1^9'6^9'Q^.^i/h$M#r$1^y<`@`]1-G#!^~/I^{9B^]^:^:/z4E#:/S#F#M)M/R{m5{D$7$5d!Zs}*+=v=E*:/g^Z~~=;&i=2*Z^`]N<R*+^')v=)&.y",
"Sc>;c=U&g&y*|&T*Q&t^>>r*x#1/3^'8u*T&K&t=:*!=l5$7]^:4){k4$$C/Y'K/%$t$g$W/!^2^7$J^g$i)&*u%e/t=39R^u^W&){]718@7P)b&.^I<=/!/h$J'l96[a#I/B8Z-v&i)d>W=o$t^a$^*t$%)z$!/&*&*d'P]X*M#0,d$d>-',>-&)^o&N&}&[*M<D-e&>;k##E;''!T@$E:b~&/&X]u)^*!/T*O&Ua|&k)F=a$t$r;%)X*R^ ^x^%'P]M<O<)^*^W<E=4*J[c=y=Q*9,E=-'E*d'X9K&-'O&1&f$U<c'|/c=q*t=e&X***c'($**A*k)Q&)^E*k9d4$$c%h37!)/ ^9^}*D-|&W<{*(,V&k=)/J'd*c'&[c':$^>c'{) ^i)k=x^Z^7/R#L&0,o&h'>;d^h&e^w)8%L<<<'^)4<!H=,& ^#=)5q9W9v-H)W9*^g&d'p$b&a$<&1/j)o&K)z$2$-'v*L&e&}6-/J-9/c'-*($<*M<Z^ ^<&2$^>-/<&d'%'c'!&u$k)-&.^]&q9j'9^t^{&d$/&a#:{W@,35w)rD=i)E=t=+[0,p$|$2$%'j')/O&F^d&k=2$b$[^e&p$d'l>c'`]Z]*^_rF=#/L&d^K&y=,=n$d$o1,xy<0't]%7s&u%*/k=f$Y7H8b$J-P]V=;&n'|&p$e^w)w)e/I~5$s&2&J' ^ ^i)9,7=d^2$o$C&m&R^E)>;w=T*i)D=N*r;<*b&4^t^{^t^i=g&]$,>[%#/n&-'w)I~l9^>@^}&[,o&d'$-p&)*k=u$0'F#a)CxP=b&!*63s%$$K{2*2$k)Z^A$a$k)g^k)h5,3|#/-a^w)D=#/&*n^Z]]$8/B^2$x9&[F/.,%En7Au$~`}!B`}&E)wF|DzA1si]|*EAz=Epwk7Z!@~b!<xkuV@k}<93tsi+0-E;&E/B^vbo^(^F#8'i/M)Q^!^!/[$B^](l#Z/`~%{g#c%M)d)o$$=g/D-h&A4&#-3]*V&==c=L&K&*)Z^h'C*l>r'1q",
"B~Z)ibl=|&(&7=*)f&(&v&l*ta2^L/!]!-A==^(&<*!=m]D/{7$]M{([b54%T@.}L/(^1/h$]7j^b%h$'/o$!^D=*^x^`][^^e;[[{o/%%607,2^X^a$]$Z^a$/bI~Q48[j/d3=>O&g/**791^Z]O&&*d'x^-^+^)^E*E$q6v=L=>;p$%'b$`*^>l;9^Q*d*p$2*k)~^b$^=t$&$x)O#&61{e7b#l>';)/d'>;-'2$<*p$-'V=l>t=D-k)<=7$e^u%>;2$L&b&_/R^==-' ^c'F=*^k)X*waf=J't=b&c'N&`< !i&Y)P<^=u^(,K&|,h&m^>;k)d'l>P]t=/-={18M/w<;EH)}6l>e*i)h'R*p*-&R*y=]$E)w&V=&%E)k=f&e&:7u$t^c=d>9/k= )h/(&t=e&N&r;|&W])^i=E)k7C<D/*%n[%Ap*-'.^J=9^P]N&c'X^o$I~~^^*P=T*g^-/Z^z-1&v**^O& =F=J'o$k=e&J[a$C*z->;F&d'jup&e^<&z-w)p$v*-[>;JbZ^d'O&D-h/P==^Z)j) (g)>Ee],Eo%'EE'A=X*z-%^b$V=<*2$ =Z^'/_/z0%)Z^D-7%(&W9&^^*{^^=X*5^R*W]&^i)s&{&N/X^.^J~&*M<~$!/v/4%;'U3@~f^!*d$j)d>u%*^7%v*z$A=-)/*g^0,`]|,r0(&m*o$P]>;b&k)t=j't=(&D-Z)-'/*p&T&-'{/!/e&^^e/9,|/[*L&R*P]u~X9e&^*2$P]2^5aZ^)&P=w)|&r*t=z-X*k)e/,&7%t=N&'!D$N5 Af^/&f=<3o/x<E{`<C8}*'/Z)l>P<0,7$<3n8([`=`]!/P<O^5$4([^4^!/^*&*'$`^Y97$)En%|0!E$#E%`5mx|0,#[(~E!}v6{ES@]#I%[(G0=%=%[0h#-(azd]mx3eI%o/b%y<9$E#W]g$M#[^g^B^9$y<v/9$K$&#M)s/o;|{j^y~5}P!A=5$f&e>C*e}4/o%!* /2$E&A=o&d'*^f&r;R^X&[s",
"(6E=q*<*k)h'W&]&{&e/z&I)^0$/A^40/~L*7=>&o& ;.]|#M)1{ {-(<<jsy~J^g$b5i/0^M#]7&$;^.$(^X^A0R^g^>;b$H):'t4y$R/o!k=f^W< ^Z^z$E=R#e*s3Q/%7S{]E9^R*Q^ [R*H)D=Z^c'E=a$*)R#19P]>;o$k)D=]&<&f&u^d'H)L&e//&T*)^-)t^==**u~UB/#o!v/G5B]';N&f/Z)9^X*E*==/%o$J~w)<&h$c'd'J-B=R^u%E*&^,9p$**k)X^B=e*!*-'u%c'F^Z^.$w)%'^=|&E$V=F)-'u$&^e^#/Q^2*o&|&L=i)*^ ^t=<*y=m]D{x]b%]#o)H<^*<*f&t=>;P]L&M<Z)`]-'e&l>V&7=F&U=c'v=p&V=t^}&|&R*($9^D=2*>;J~d'G#W]Z^#9|&m*2^vzy~[/^EG4Ea1$E$&/3et=k^'/D-e/m'2^c'v$k=a$d>w)t=W'#!e&_>h&b$X*p&~^/*Z]^=A=$-l;a$a$#=P*4,=^X*+^V&K)%)7=c'h/E) /H)E*J~v=L&}6c'e{j29%y~p*;$%'|,|$9/^*Z^A=J'm>V=-'D-p&^>v=o$<&n'}&H)t=T&w)X*<=**R*I&N&w$c'E$V&p*2$k***{9 /Z}v6y<y/R/'{/ER*R*+^*)F)a$F)B$N&R^<*p*t=d'i)>;X*v=e&A=v=2*L&m'a$R*<*c=L&**T*l>w$'; =E)9/z$-'&4C&/bg*w&O&-'X^*^D=D=&*K&D=k)!/&/C'D-@-(&'/A=O^t=x'9,1&P=d'(Es^.]5t2$9/7=J]O#F#N5X*2*-),*Z]S#!/l>S* 397B69a8'9^a$d^!/&*a$#/V=f$w)Z0:$X^C^d^D=h'&$Z)F=,^X^&*.$B$L#u)[^2$J~9^~^]}A/L#R^2^2aa$d'7%S#w)7%n/&$|&s^m8t^d>G#[/b%[/:/u/:/[/O#0$Y/,)<4]{4/,)*7n~D-v*>;i)T&c%[/70qt#=J't=A=k)W<f&(&)/v=+*qw",
"_En&n'h'(&)*L-V&L^@-(,-;|{2{;^{(k;O&^*|&F&x!D{([v/@{*}D#b5y~y<)#4/u#d$1!]^{/>'S#G#G#a^j)u%(/;^^>a$%;h]([Q/y42$%'*^p*d>a$%/L&d*V4z#-($f)*w^2$t=W]|& ^R*+^l>d'x^#rM#2$o$t=,>==Z]p$y&G#&/O=F=r;C*-'O&|,R**^%'K&X*m^m;P%*%87_{.4_=H9J'`^d'P]G#O&N&//D-J']&2$D-u)v&0,!^c'}*e/7%V=F)J-J=p*D-==V=e/R*O=E=|&(&!/{&t=7$T*c'2*D-H)E*-)j)2$X^V&-'v&k=//v&j&W2@(F/![:EZ^8/#>'&V=u^/&1&<*w)f&Q&V=*^}&y=t^e/v=W<C&j'2*D=8%k=0,d'w)+=E$}&==v**^d*t=A===E*^*<E&f;'0$+]b3#=]$v*D-c'^*e&F=i)5^c=^*}&l>1&b$#/D-P<$0&*-)-'F)R^-)Z]i)a$g^Q&y=F)O=B=a$G#b$X*F^n&**2$5*g*d'1&d>I~J[E=d'v=!/R#[*Q2*7H5m[i|w).^e&~^u$Z)-)D-t=n9(&p$R*k=%)D-%)Z^V=k=P<k*R^#=-'`]V=k=+^%'L&v*:$-)}*h&&!-!Z)%'#$}-b5%%+(o2Ea2$N< ^p$2^(&e&o$X^J'=&w))^w$D-!*o$7$T*v=^>K&!/m>h'Z)X6~^V=T*/*x^1$L&4*e*O&0,9^2$==:,N&S*_/!*B$B$K&]$,62$BaJ-u%v=w^e&v=B=:&#/t$';N&k){&P=z$2{b,q{8!g&n&(&Mu:8s/l{e*}6l>V=B&'/@/R*9^$'NuH5r*G#S*x]~^2$d'4^&^;^G#}6g^%'R*u%V=8'k^>[!/X^8'G#&*!/Y9@c*/9^h$u$4^>[f^4^x^X^Z]($g$t=R^4^D^[^7$8%|/t$9$8'q'g$.^:/A^;^d>v/I^.#K$*75}1{Y{t$,3S%c-5$J'/&<*k=I^y<%(O*,[7=g&J'b$Q&h&X^I~e&-*'t",
"xc>&P<*!y&|&t*|&2$]&Q&C&J)#^%8:]1eo&)*;!e/a-8{R/]^!]){n>,3O#y#s^c%F#k=;^8'W^8%1/#/h$R^A^'/1^//+^R*2bg{$$T/[65$~^H)Ibj)T*`]C^=&V7n!K/'4r* bo$T*W]&*a^A=t^19]$e&***^t^}&X^B&W9bwe&-'4^{^D=A=d'u$X]D-G&|&!*F))^J9==a;d]x)[E&6s[Y*z-i)Z)==>;k)t^~/L&c'}&V& ^R#*^5$**a$d'T*c=t^p$P<<*<&E*t=E*O&d'p$a$O&^>I<!&=a0,u-19)^R^|,O0D=<&o$}&z$J'2$d'R#-'D=b{b6+%Y'a$5^J-|/E)W<a$d'|&0,**|&,>e&|,v=x&u8^*p*7%,>'&|&]$F)Z^**w)R*e&-'t=Q&J~<*e&S*E)D=d*R^c'!5}E<2p']7e{/8[%%'k=D=|$X*D=/& ^';^>X^==|&G#Z&S=a%(& [|,2(D=v=7=(&|&c'k^H<}6@/y&**')-&-'m'W=e/X*Z^/*d>d^T*B$W9t=R#F=d't=X^<{a6b#<<;3;$t=|&/&J<`]]$v=S*T*|,%'T*h'a%-'d^V&X*R*/&2$O&X8e/E*5^L&Y)u%X^u$Z)V=o&Z^Z^D- =`=d')^m;/#y<b5M5_4l>F=&*D=L&A^Z^<&($F=t^b$)^}&D=u-a*^*p$t^2*c=&4#rD-/&|&B=&*.$2$t=o&{&J'b&J=-'7=~*d^<*o$/&V=J=J'd'l>T^~$;&X^d^*^|&Z] ^l>h't=t=V=V&Z)>;p$1&a$`/!^U{H!K&b&/&k3;'1/-]X*P]o$P]R^2$==Z^ uq7s/W$|E&/b$8'19R*2^O^K&D8&%&*o^&/[$O=&*E)u$]$~/F^]$2$a^f^s9'/E$a$X^o$8's^X$4^.^)^bxRa9^F#!$e^8%B$&/E/'^u%]7t^g$~$9$[^$^($x]s^C^/(|#Z$E#Z~I]!%x]*%7;O=+*u^8/9,y~u/k{J*J=`] =#^>[u$R^X*Z^d'r~a4",
"d52*'*X&8&3*<*V&a*V=v*~;c{j8Q#v{Z-K&^=p$2*{-p]*%1/_{~{b5y~!7]71^9'!^[^S#J^4^X^&*&^e^ ^R^3^7% ^%''/i$}]K/+(8&M^w)X^&^p$0,%'d'n&#{w/.6=(x*-/w)|&)9t^o$]$7%,>X^{^k)f$e&Z)k)#^`&-'K&V=t=2$|&i=k=f=R*o&e&d'<*c'x^`]T*!$RBl{n[n!w5}^U<J<{&a%t=P=K&8tz-Z^t$v=Z^V={/J'F^E=F=e/J[H)i=d'/!z-:7==e&e^#=T*^*S*,>]$J--)J~/&:}S*d'a*u%&%D=O&D= ^v*Z^/*2^m'V0[4~,y~&}hgu%c'C*&^}=W9|&c=E=o$k=X^h&V=G#e*t={)c'b*,;m> ^R*W<v=m^t=L#b$9^~^b$e&V=z-k)Z)W9 ^-'f&V&5=](x[}7}]G]{-:&|,v*W]d^S*p;b$o&o&E=*^w^&*O=a$#/d'W9V=D=^*_/l>e&O=%)5^E)D-p$m' =^* /.)E=a$~^^*%'o&o&Z]Z^t^W]l><*c'w^o$E=/{T@4/1E2Er;J'V=R*T*2$*^Z^8'd*l*H)O&2$R^^*';E){^k=k)>;e&z$i)a$o&d'2*O&N<>;L=z-e/C8-'o&|&v&h&V=v7;-|#O#o/S3'bi=8/u8d'+^>&d'{&o$k=h'D=**d'i=d'c&V=c&},>;9/F^k)H)O&o$l9W'R^p*9&d'O&k=z-W]D-t=2$<*2$e&a$7/5$^>t*R*A=>;b&192$N&X*t^e/k=!/g&X*t=G#^=P=I)J'z7B^^{T!t-~^(&u3Gdz#h]9*g8d'D=E)t^e&l>s^s3p'y{n&!/}*O=!/t=D=X^ ^{/_/>[v=8%.8&[M#g$Z]&*M#E$g^ ^D=a$7%#^x^o$8%&[u%&$K=//3^{$G#-)&*X^d>}66^Z]8%B$!57%#/Z^&$m^<^*^C^Q#E^$$5/|#n!o!{e92@{P$,39%3E|,a$t=d'D-v/P$86H&r;.)X*+aJ-T&I~f&J'{&H=E[",
"yr1&>&#=F&y=K)p*a*%'>;W&20=/1/<]&|O&C&%)},f)z~s0y~9{ {w7b59%}7b)o!#^J^h$8'8%2$]$r$b$)^Z^d' ^}*t$p*C<z#+%x[f);^@[2$W]~^-/-'J[8&%D+%G/b%E$ ^)9G#F=o$]$4^R^o$e&E*l>M<&*]$T&&*>[V=b*r*v*d'e*$-+a{^^*X^V&t^r; ^V=T*k)|&|,_%]%Q/*7<36,)^p$F^p&p&K&P<^*d^2$N&F=9/>;2*Z8`0B*D-Z^J'{/Z]I)l;';D&*)-'E=e&c'v=>;/&(&t^J~&*|9Z]p$t^u^-')*&%2$-'Z)F)e^i=_=23y~!4F/7!3^e^e*v=b*A=Ot-'E)X^l>k='/t^e&^=J'K)!&/&*)z-V=t=u-O&D=)^t=d$O&l>J8P=J[{/&ao$n'D-v&i=w-a$l;4E$6](]772q5v*t-**F=Z^Z<t$i=z-|$t$K&P#-/t=e&)^d'd'b$i=a$<&R*d'-)2$|&)^F=k)#$s$e&}&1^t=R^P=v=d'-'A=*!O&D=J~P=7%`]O=N*H4;'b5%(!1[^p$**c'F=^>|,u^v=^=w$}&I<2*u-h/e&t$;^-)!&(&>;-'i*n&P<v*R*E*$-z$P)a$VrZ^#=w)g/`]19/*e&w$5'w//8s/n!F]#*Otb&7/c=D$i=V= ^e&2$-'3&w)t^;[i)-'>;P]O&R^p$X&U=f&!*K&p*<=z-g8^>c'a$D-X^R#e&N&|$v*L#c'&*|&<&W<W9u)7$+^h^>&J[e&{^J'V=P]P]F&^>ua)^N&/%l>p'|^e{|;k)h&V-m[*%.94]z-R*|&p$==d>j)L&d'63b)$#h)yaUaO=&$W9~^1$&4W]4^8%b$4^~$#/o/8%X^R^5$P<.$z$1^//7%|$&*Z]7$F^f$;^r%9^P=w$X^G#q'u%4^>[q^7%J^f^n/s^'$)50):/]7K$O^4^o^4/]/&#`%Q#+8}{1{-#G/](H-e&X*O&-*c'1/1/Z~C&t^E*i)O==^&4v=i)O&u%w=S~",
"5Eo&0=t&V*%)F))/:&Y)B*`=d]G'%%m]A);&a*e&'*|-L5S%V6l]=6j/Y/S%x7b#&/|^x)l#:/%$H8#/R#1^[^x^a*m'[^b&!&>{D5y<L{b*a%o&A^F=Z]b$8/*^Z]x5)!.#xwb$E=A=Z^ka9$5$o$X9i)t=J'Z^P]P=t=5$_/t^E)W=9,D=**P]==^>e&t=E)M^Z^2$z$2$E)7}i)k^=vP3z#M/)4D]x'i)*)k^%'t=e/W'%)w&u^>;X^T*a$d>Z]d*,>#b&^<&7$k))/{^R#*^`]k=p*%)%'d't=]&_/Z^O&c=-'a$t^v=-&D=O&G#-'|&t$+^z$`704D/M)g5o'#9T^^*W] =E)W9M^F=D=R*%^<&N&o$9/w^v*R#v*4^X*//b$Y9~^&*&*t=J'';N<2$R^e&t=J'<&u^R#t=e/~^**m'[}M*](*%w/-3:-t=Z^F=*^p$S*s&B=,=k)k=-'^*D-**x^D=S*/*O&k)|&~^<&p$n&^*X*e/)^<&-'d$_/ ^A=D=e/(/J'p&c'Z^}*-'u$'/r$Z^P=5/!{z#v/i)D't^D=E)R*f/J<<*&^e/V=T*Z)**9, =19:7d^-) /v=t^O=t=m>Z)N&2*F^|&d'8'L=u$P<F=m*b&N&e/o$4^E$t=D=X=`5L/3{H{M/s&O0!*&*V&b*&*D-**t^R#waP<0BT*2$S)t=O^Z^P]^>';d'-'1&P=f&M^N*v=P)P]k=E)c'u$L&D--&e&D-u%e^+^g^c't=B& =@-e*p&a^Q< =F)r;i)/-C=t=)/-)**/ul9$5;$[{a~-&z-R&F'%72{N5b&G#W<Q&k=m9#/9^R*a{b5F/n&P=d^B$2^J'&*&*G#V=z^R#G#P<%$&*!^ /J~M# ///**J^L&{C&*O=h^9$h/L&u%u%c't=i^4^m>G#t^G#7$0,J^J^>[[$B^;^h'I^w)J^J^(^!^h$x^x]o/4%x]K/8'T~T~o!G/b)4--)k=l>X*v*L/%$%4r*X*e/Z^w)G#k)w$K&Q*M#^>R~",
"Hcs$ =X&b&+*V&<&O&-&p&X*e4&*]7l{6EW&|&/&X*p-G5|#07pr!{W$*7l#'^d#Q#y/:/h$B^[^g$r$&^1$,a^*Z]]$b&n'OsP{Z$r%~9a^=^P]W'M#c'~^k);^s5D<p!v{/;#>I&u)>^w$M^2$e^R^+^Z^-'S*E)f/N&m>X*e^y=w)R#w)>;D=m>G#|&v=e&D-~^B$:7J^X&p$a*m>E'u*|#Y'&6=8ki)^P<+***p&e&}6e&w)E)X*D-9^&^S*T*h'A=P=2*|,ss'/R#Q&}6A=u^H)t^&*R#X*A=**==v=N&//g>p$:7-'i)w)&^D=R^a%|$v&6*E2I/.4E%-ut$Q&Z^2aa$X6K&2*)/P]D=d'k^$0.$z-e/K)E=L=v=f&e*&^]}1&>[-){^Z^D===O<E=C&A^X*|&a$k^S*$-t=4^#9u^7$%|<>.#!7xd'4 )9/E**)D-F&<*P=i=>;X^@/X*v&&^a$R^S*w)2*v=D=|&S*v=O&9^2$v=b$^*/&w)2*b$2$k)j)}&|&J=1&l>i)A=db2*t^=&%;7E8ED5;]9E6/c'G#[*u$b&-'c'J' =f&k)2$h/B&O=|&d' =*^<*t^E$Q^C'M#m*c'o$/&d$F=]$M< ^+^V=1^2*)^Q&x^v=~*R*]${^X92{s%.7Y[0ER^>[S*w)f0J^e/J=5$^*f&v=E${/v=W]<*&^p$-'L&X*h'K&**!*o&1&M<P=';k=d*v=.)p$t=v=f${^e&O=s^&[V=v*o$T*d'y=m*~^2$P=F=m>f&e*&*2*X^:7-/k)R^{^I/}7&]n7t=>[L&u3b,w/p]6*~^A=T*^***Z^%)0^J)H/b0H&W]t^a$7%X^8%[^Z^O=g^0^8^)^-'$^[^(^.$a$9$@/`]^*P]R*a$w$<$1&M#V=M#Z]>^7$;^//[^&/R^K&%'8%.$S#.${^+^9$f$M^F/3/yt]^o/M#:/r%O#2{([M)$7J)%&9'z4~t=~E*y=t=d$*[Gd$^p6^;W'9/P=R*O=t^+^(&#^N&)*'t",
"iqW<}&H&#=m-e&e*p&y&-&/={09$!^<>4- ^q*K&V=f!6{*%%%%(t9`/H5n>M)c%s^S#7%Q#9'm^&/D^o$~$8/`^6/l;Q^<}55x/s/'4*1`^4^Q<9^t^=^%'R^%)^4;'6$o[6*}=Z^k=7%O&l>W]J<e&+c-)b$o$!*Z^&$D=<*K&,&%'n&J9}&/*W'a$F)wa>[K&&//%c'P<&^`],[i)d'e>46b,I/X/&}W&G#f$#/V&Z)z$p$C&**v=k=L#T*<***u%[*b$~$W9&*/*Z&X*e/7$k=**v=)>e^|&|&q*J8#=R#2$F=i=u^k)d*!&X*z$v*-)ltka.]a)b5x]~$19k)8/c''/(,7/&^|&K&D=d'D=7=E*-'P<t=Z^_=S*,>t*#=H8V&|,J'<*t^l>**v&<*D=r;^*f^c'2$k)Z)p&V=l>@-J'V=u^X=x){71!o>5=i=z-h'a$b$J'j)w$&^(^~^F*Z]|,i) ^O=W=x'`^1&F=b^i=R#u%p$c'a*z-E#w)Z^*)Z]L&H8v*c'D=-'c'a$O&M^ ^b$A=u}[]$7x]T6P^(&I)K&x^l>u$<*X9**u-w)|&J'k=<*e&9^c*{9!9h^9/p$W]z$t^/%A=v=d'P=H)Y9 =G#5a#/E)T*w$ /K&V&&*~^<&#/>~B]F#z#W5  A=P]0,m>p$A=5$a^E#J'n'u%//S*D=<&J'&^>;J<w)v*E)8/t=H<*!O<k=J[`],&,>M*I<z-|&c'd'Z]d'i)L#O&p$J'}6`]w)M^|& [p*m>v*k=O&R#>&r;>;**o$ //&a$x<y/]#a-Z]|&f=MuM)Gda]E*`]k)R^P<b&y=#$-'g3d2c)Z-2$&^c'*^R^t^d>u% ^)^{/|/~/E$//O#m^.$'$W]]$M^$^o$8%=^F=x^X^V=J^#^8/d>B${/#/D$Z]R^L#x^b%!^L#7$1^9$N/k)m^[$x^7%.$g$O#;^g$j^)#Q#O/.4=}/{~$&$m/d!F*h*$-&*e*97[/G]6-E=A= aD=R^Z^*&**z$K&/!:3",
"!d#=/*aE1& *t=E*1&L&>;L&d3z<y<o>R&p*2$@):&h;%]N#Osb{q{J6]%,3#8)(y~g$#^I^6$!/b%Z^~^t$Z)2$t^5$S*1%8{z#@(`%/&Z].^+4c=d*c'T*J'c*(4S%kc.>,=R*e^R#6(0,a$k)R#d^2(a$)*H)7%!/{^J'-'**K&8/)^~9^*R*E=v=R^}6*^t=b$==e/0,c'l>Z^e&F))#B0<<y~E630N<2a{&r;>;9^F=2$d'b$F^P<l>t=u^R*u%`=D-Z)O0|,u%A<<=Z]|&R#p$Z^a*9/2$n&g*K&B$yvT*#/d'k)='H8R#<&&*T*v=t$%;T4O/n>o{wA;^t=$-k)F=W]e&c'R*%)R#-'G#~^P=&^]$h'7=D=z$9,T*2$p*d'L)H)(ak=d')^-'S*U=B&*)P<%)t^O0t=f&f&{&r;//l>e/9*]#n!Q#Y5bEX&m*i)t=P]c')^O&D-|&2$t^t=P<)^|,X*d'o&'9'/p$v=M^A=1^q9q*a$Z^R^E=)*^>F)v*L&f/t*z-K&p$i)j'A=-)T*t*F3,)O#v6cE =e*_r+^v&(&3&v=)>X*V= ^)^c=/*<*O&!/V&d'X^5^I)p$v<E* [i)**==2$-'O&p$-)v=!5P]-'J'R*~^K&|&V=2$//R#7$0y,81!p!X[p;dEO&~)w)@8R*^*J'+^p*z-o$**F=]$d'c*n&d>(&D-H9]$c=P=$-]}l>2$V&F)%)R*Z)V= =R^**.^O=l>v=d'!/f=%)E)e^0^%)kiA=t=>& =}*l>'bv=f/Z<e/n'U=P]c%O#g5@tv=J')&55[$]79]w^]$&^d'<=($5$-'W^$'kD)#6*~^[^&*R#l>)^S#t^-# /A/u%B$)^&#.$[$#/==e/w)|,2$-'d'x^l>V=M#t$A/9$'$e$b$b$F=Z]r$g^u%O^8%i)+^B^d>x^g^7$x^g^q'h$:/1^8^!%]7y~6$]%4zb)=}2)u/M)k/n**)@-d'u$w)!rd2![M*e&E)~)D=)^%'|& = Em*`&h9",
"BDt=,>S={^7=V&f&Z*xwF&_*p4@8B$']q;k=O&c'J*h>-]I/0'm!%(4}F#b5,3p^s^B^b%-44^n9a$=/2$8%D=!^X^==**eE([o/J#g~I^(&H)W'2*b$ aW<E$P<{{1#)!ki !<&J'H8==D-v&`]F=#/`]p$E=.)t=E)d'9,1&J^y=T**^7%q9)>m*J'J'O&c'h'p$a$W<W=)^A=S^Z]J-m>;&E#u7w7f]H~r-d^7%>;**Z)/*Z^b$q*F*n&E*n0a$2$**>^ /X^J9W]Z^d'D=J-v=_/k=f/A=D=V&J-^=X^-*O&f&c'F&F=t^W9x^&*c'';n;R{Vx{fVa_-T*P<P=W9<&h'Z^V&v=^>u^J'X*u%}&2$F=v=d'';d'p$H) =c'^*!*P=X*L&P=J[R#n&>;k===0,k=]$v=T*P=u$==c= =R*E*%'V=cto5w/b5*}BaR=&/X9`]>[==F=d*&/7=c=2$**Sao$ =O&>;s&>;J'D-Q^F)L8`]D=u$T***W^Z]Z)k=i)^*t^J'k)v*8%D-,=X]n'y=o;j]I/k/wAI/}6/%a$d'O&P]R^V&L&k[w)Z)9/Z)D=(,p*<&t=D-<*L&t=u^9,T*-'e&z$>;p$E)Z)e/Z^v*>;C&R*%'-'a^X*Z^2$n&9&#>2$)'t{.8O#$5j}J&-[E$%'9/d'Z^t*d'e&l>t=p$*^o$<*.^T*9/^=1&!/w&c*O&2$V=c'<=z-v=J[F&z-{/**2$k)D=V<R#V=')Z&X*R^G#X^E=]&^*!/J~ =R#(a:,W]c'#/c'^* =*^%)%uw/H%fET*&^)&!f,3y~+]e&^*e&d^F=D=.^d't^J]07@7R&Q^ /u%i))^:7;^)^D=h$M^E$G#-/4^%'a$h^W]f^W]&/k)g*gE#9f$#>a$w)!/7$y~&^C8t^u%.$P<A^.9n/]$&$+^8%9^t$4^E^.$.^.$h$x^s^8%D$L#{7T/.#j/-4B]>{2{o!w/X!Z)|&F=Z]e//8%8<{u&7=e/G#X*%^F)J'<*2^==J&Gw",
"xcD=3*7=/&<*N&!*o=)>^6n&t3O#[^']D*-'m*)*'-N=e]z#hE@{<{k]T@x7}7]7M/1^m^I^)^O#)^8%b$E=w$f^@/M<H'%]n!*7o/3-h$E$7$m*z$#!)^i)|,80C{[/n{~r-^Ngo$N<&*R^n$9,P<>;==-'~^R^0,t$t^D-F&n$7=c't=u-J[X^F^^*m*J<e&2$M^e/Z^b$J'E)&*L&t^P=')iEjE'!p#17P{o&%'(a]$D=}6t=J'<*#/z$<*|,J'=*D-L&O<e&c'Z^#=o&q*'$^*i=R*-'9,F=e/C*i)[,R#M<w$.^k)p$-'Z^J'-'#^:}la 5_(x[!,kE'*v**BP<<&X^D=$-a$D=-*b*h'`]X^<*p&l;p*.^%'O&L&>;*^Z^**X^+^~^>;t=E=b$<&<*E=H)@-)^R*%)b$!*Z^z$w^^>1=2$f^i)R^)!9%|qr39*B&T^9^X8-'Z^D-D=-'4^E)f$H8k)t^d'(&%'D=R^e&X*}&Z^l>a$^*A=i)T*<*2$&[w)o&>;==E)h/~$H8z-e&D-p&W~([|#:b4,k){/p$2$9/Z^c'!&4$p$D= =d>K&O&A=v*B=Z)V&v&N*]$d$0,P=7%L&;9=^t^a$z$)^t=x^m'z-^*y=[^d>R#V&t^)^t^~^u$2$b$[-]%Q#F/!{#^:}Z^P)~^v=/&G#p*V=-'|&R#n-O=k=h/(,P=/&E=V&F=**e/cpt=7=l>O&}*W9%^';H&k)Z]D=>&u%<*u^i)p$_/J'p$N&2*e^2$ /R*S*R*@-+=I&==-50,t=b&5eX*V6F#a]q8Z^i)k)k3m/)#,5('u%v=D=+^N&]$f^'/.{k$V/i0&^>[J'Z]A/M#}6t^N/X^D$Z^d'8%A= ^a^S#5(T^5$a^^*%'8%*^a^h'5$V=>^.$x^O^L^//u%&/4^M#X^]$($4^1^g^1^l#u%1(N/D$#$.$g$D^s^U$o/{$,$.7b5n>h58]g#H/Z$v9c'^*w=8&k=42v$c69*v*N*V=2/P=t=*)m>D=&4R&H4",
"1w^=V0-;:'T*-'>;K&r*8&Z&R{=/(^H%I*V&h'_=l*Z-f{^%87q{X{y#@(F/x<%%%$x]8'x]9$]$f$x^K)r$i)b$4^.$$}o/*%@(lEF^#/l>&*^*A=p$X8D=^>s3h8Y5R;2!g^F^]$|&G#l>u%Q<7^|&h^==G#t=@-|&1$p&k=l>g&<*+^v=C*-)/&R*R^N&_rZ]X^D-D-V==^1^E=^*c=l>d^D8v'm/4/}tI]L&%)9/M^R*d'%'%'O&j){^2/V&1&7^a$l>R#5$Z]T*K&N&#9O&N&^>e/R*X^a$}&D-_/D-Y)p$19('v*e&=^p$7/ ^3&M*Q~p!_(Qt:|R^e*r;(&<*V=>&V=V=e^X^I)9/]$t^J'7%7=p&k),>^=c'>&t=e*w)G#w)%'m'-'E$<&|&G#J'E)z-P]V=D->&[*9^C&W]M^R*b*b$D-V=B}3007^Em]9s$0l> u2$&^:}[^d'n0m'p&Q^X* =g/F)X*>; !q*W9P)-'V=`]|$z$!&N&P=P</&X^>;k= =e/m')^f$>;/*-'b;r[,54}46%sg#~/Z^|,^=p&R#l>T*2$%)c'D-w)J'$-g*X*L&;^';E=N&k)D=L&k=e&J[5^k=';|&0,*)P<d'&$(&Q<Z]t- ^k=w^D-(&a$l>t=:72*=-n%!rx])4<5l&^*/bZ]X^Z=|&v*e*J<z-c'J-p*h'e&e&(&k=D=P]z-W=*/X^F)l;0^shK&2$^*L&2$(&K&|&G#`]F=p$t=C8**q^1&}*D- [N<-[&*y&e&v*2$n&e/M^R*R^a$T*m>97s/6]l~K=`00*N7)#v/M{t^V=}6{&E=EaR*f&b&~%D/t{ b&$a$d$n&a^&[:7t^m^#^l>}6{/*^x^+^W]s^a$0^P<q'M#P<Z)n/9^d>`]d'd>8/h$/&~$s^t^9'h$x^L$3^t^8%;^]$x^x^B${$*^M#C8x^;^o^j^x].$x]y<z#z#{7.&g4_%A4q/#*-cW]R*i/G#,8;^1{5'*^w)R#X*p$<&B=,>}&A<X&zn",
"(6k=c*d*k*p&$-Z)v*l;d*&4C<-41^z53-K&|&|&{&/tT5O/y4Y~${@(<2j/.#F#Q#j^A^g$Q#[^]$3^>[/[($H)8/<5T@18<<@-<u198%X*b%b$}*7/i=o$&*!]k/_8P]+^#/W'a$o$B$O0i)u$X^n$*^**S*~*J=N&M<u)k=i=p&J~u^*^v*k=,>d'c'w)2$Z)J'^=z$l>E)kad^#/9/L&w)9,a-mEs/z4~3n{4&g^~$m'>[w)t=r#%^,>|&t=J't^,>p$1&e&o$O&V=d'T&i=N&j',[t^7=^*T^|&2$Z)w)t^X9c*X9p$V=9/P<>;X*}]J)v/V64/r=S*^*b$v=A=}*G#l>F=*^J&2$T^l>S*J'^*k)P#e&/&s^A=-'v=V=Z=c'g**^X^L)|$F)z-a$2$C&L&o$d>n'^* /N*5$T*<*P]L&4^Z]w)')p)T@*7f]N]P-d0N&5$2^P<`a,>O0Z)F&c'S*-)i=W9K&G#L&==P=V&**P=Z]w$-/e/Z]u$Z^:7>'T*b$a^#=X#m'u%h'|$o$8%F{p'([.#o$9,F=d'-^V^<*X6t*k=<*X*w)O&k^T&#>i=c'R^|,R*0& ^P]J'Z^|/D=/&w)#/J'}6p&E)R#}6==V&t=k=d$i=v*v&%)d'7$b$l>ka-/a$k7)!s/,3p].73&,[k^(&d'e^R*0,o&F)J'K&k)t^R#D-K&**T*N&t=-)'/#!V&i=i):7V=H<>[a$(&-'~*-'z-O&X*k=G#!/V=-/(/N&g&}&o$:$U'5$c'}&m>X*}&`*X^.$e&v*')'!s%$]k1]$K&+*Y;j^5}j2n^i=k)V=**W]%'&*W]u%~6/(j/(ax^f$h^.^P#>[_/`^E*B$.$E#8'p$t^)^G#Z^J^OtZ]7$]$W]Z^n9^*+^Z) /q'+^7$5$7%[/!/1^N0!/[/7%@8x^[/]$M)D^a^C8n9d09^($Q#1/.4O#97z/M/1!y<H'|4.}Y5/(f-t^`]@=sb}u3{J^y{)=)/-[v=*&a$`]7=Q&X6G#_&/{",
"~C.$I&^>a*F=r;l;<*9*7=P-a{z<r%.]P-u-D-y&t*7*v54%o!@{J)=7@()!Q#[/x]8%6$t$&*b$nEt=5$5$H)=^t[F/$$D#[/y&J^~^Z]b&M#9^p$a$5$f&aap!]7x#ou5$t=(^M#t=d$R^l>L#X^<*-'P<}*Z^V=>[}&//T*G#E)R*E)J'>;a%F*R*~$A/|&m'V=**d'P=H<o$D=A=P<-'E=V=t^Ns@7|7s/X~E&n'2&7=J^p$-'a*I~c'd>J~V=R#,>.^c=k)`]a$T*D=|,v*y=8%~^p$<&%)&^N&X*~*[^~*O=q9e/^>h'J[(&4/J<E]x<1!^4QCo$B$)^b*#=b$C&/*-'O0d'v=<&JbQ&$-^=)^v=cko&i=X^c=G#]$D=t-l>W<S*W]/&W]-'F=<&V&d>P]u%Z<-)|,%'p$,ad'(&F=c$z-D=P<@-vwZcS%M5[]4}f&`]b*b$p$5$#^O&&*h'e*==d*R#J'k=d^Z]k)}6}&P<F=R*|$E)k)E)b& ^F=D-v={&d'c'k)u%2$`<g/6*I266@(v]-2V='///R***^*F)-)D=X*e&V=R*X<F)t=i)N&|&2(R^3*d'F).)[^e/19p*F=D-n&c'G#^>p$~^-'~)k=X*R^c'=^P=t=-'#/-'e&O=r*H)>;;&m>2{j^([K~@*+4p*e*l>f^==O&d'D=S*D-P]E=m*~*,[2$V=Q&K&l>**7$R# =X^P=E=)*J-|&h't-N&J'R*z$a$D-H<P=&*d'l>^>h'P)H8p)C&O&;/d'V&d=t=M<V=**E=Q<-'Qx{$<>E|c*h'>;={C/,3ydw)D=X^ ^d'A=%'t^F=|2[(M)p}#bN<A=g8c'F)/%E)v*a^Q^e^{/~^z$8'x^a$w)&*d'z$]^w)s^R^A/&*P<u%M##/7/J^M^_/r#Z^m^7%+^>^m^;^C^E# /9$.$7$z<g^P=b%B^K$D$D$O#M/y<n>-(B7H'1{v$6$,30!l>`]R^S&d$]/v^^0p)O&|&`]'$W'h&t=p*n^q;r*oE",
"s<v=h[@*(,O&kiT*9=c*,>~=e3d2a^N5p-d'c'D==&9*y]|#Q#]{c4l4k/y~](ytw/ 9g$K$q'7${$&*a$l>+a<5$]D/H/d#_;'$k)G#D^a$N^7$D-M~g$b$~{t/0'4/d'uac'a$z$Z]K&3^|9o&m>z$d'J-|&&^t^c'R^#=Q&'/**~*|&J[<&F^^>ck)^N&R*t^1&V=D=W]V=^6R^-'w)2$d'C8X6z=(#-7V6c)W~3*>^s$K&~$1&l;b*t*}6~$z$t=&*//-'Z^(&w$R#|,l9:,b*,=V=p$-'2$X]e*<*O=&*,>e&d'>;f^-'t=w)F=%4o52767_*pEN&T&oaC*-'f$=^t=c=)^d'X*a$E*w)(&R#R*d'n'T^E=c'-)F)j)D->;c')^4^k=v=|&v*E)k=H)T*<q)*B&v=V=J~t^-'O=T^O=@-2$H& /82R^<)e{$$*7A3z=T*f&k)P=O&X^t=w)H)==k^|$Z)u$u$2$&4==)^';d^:$9/%8j)T*|&2$Z]&4h&e/8%|&d>R***D-qE(,H%<]+%0$U'|(Q<J9==(&<=u%#9J'Z^Z^/!M^R^ ^==-'p&V&|,F=-4t^'; !P]d^K&V=D=f0o$z-h',;A^**w^v=:,V=F=J'V=m^Gau^v*&*h&=^J8n'h't=[,/|-3.#X%^{)]Mvo$L&p&>;k=2$(&K&R^^*m*t^,&.$v=p$e&%'i)k=J'I)v*-'X^d>='V&X*k)k)T&d'>[O&c'^>v=w)u%($W<n''/R*v=**y=d'O&I&@/i)v*-'c'V=i=X*l>B&*7g$04rE,[k^**`e)#&#m{V&D-h't^t=C$t^Z)C^F)q{j/z5G[b'4^{/+^a$w)nam^|/&$e/Z]Z^7$|$D-Z^7%d'5$!/X^8/{/M#>^Z)[^R^x^Q#x^.^L#]$[$D^;/!/X^J^h$u%!/D^B^.4#/[^P<(^O#x^)52%y~|7y<A4z4M/|^n>S3l]N/<8y46,$0X*P]b$#r2{g${Ec*l9==j'@-F=*^W9e&i)-']&/4",
"Hwu)(&N*y=N*,>7=f&h*c'P-|0Y'O^g6^-v*h&';v&1,>]W$97D]J)1!,3F/n!0$I^C^E^)5>[J^*^.$a^e/s{%{5}w7Q%v-J9&*)^|&==-/Z^4^a^<*N&(4}]y~z~_uP$V=P<t=G#-!b$p&r;D=Ex9^D=b$-'l;d^k),[T*P]z-O=3&b&^*==H)T^2$i=a$l#=>&*b*O&F=D=19-'4^X^m^z$d'u%#8c/80p'Y5k65/u^W)M$M<2$**d',>w)u^A=d^E= =e&i=#rP<2$e^ /|&u%~*#^0, =v=|,D-==D-X^F=$-V=d'd'k)G#-/R*D]}^'7b}sEe^i^w)4^)^k=0,2$2$k)P<Q&L&X^/be&p$X*k)R#**H)^>4&N&P=V=d'X*R^D=3&T*4^o$***!^*k)e&z-,>T*}6sh<*k=z$L& /L&Z^a^k=L&1&r;y&5%n!h%D5h3/*M^E)w$/*G#f^7=b$v=k=~*,[h/R*1&8/`]g&t=P#O&-'Z^e/W9-'T&b&==|&v*X^(&^*K&a$d' ^Q*(4c%.7X~c/s^%'a$<&&%&/)^J'-'^*E)w)B=H)f/Q&9/o$'&`]D=u$l>2$w),>E=)/R#a$k=k)i)R^|,`]k^b&w)R^8%5$R*L#9^D'W]/&^*D= ^0,^*3&l>k=o$X*%#X%*753h*x~9,0,<&t-@=d'b* =Z&D-$-u%m&P]D=%)i=}6R*D$**//e^)/p*J'|&f[z-`*c'A=P]y=W<d'K&z-1$V-|&k=g>1$u%k=.)*^//-/Q^C&{/i)F&R&R^m^%)t^Fd1^b{$te&q9C*q[js.4)]y&w)=&'& ^z$}*z$0^y^E0p!}^)!4>0[&*]$k)2$5$P<o$z$t^o$9,V$=^s^t^R*^*l>7%($#^#/w)a$D= /D^*^Q#b$f$`^v/j^*^Q^^97%Q#%$.$*/x^{$;^f^4^/%x^-4Q#%%_8s^.8)5G/O#,3b,i/g3:{O#*%O/R1:$f&-)O^B=d2E#~f6,l>/!|&*)B$k9<&9,v*I<a*U4",
"h-e&Y-)>|&h*X&7=F*C&,[)&30z<P$v{|~L&<*{&[*;[G5*7g$X3q{=7I/o/E^p''^y<B^3/y^f^9^-'y^tE`4j/M)1{#[V=t$R#2^e&b$R^7$P]**;[&]%{M5x]^%]*>[P=`^F)i)Z^2$|,w)m^)^/%J-d'e^:$*^O=5ac'|!z$<&Q&'/)^V&k=D=T*N&k)kaR^]$/&F)asW]k)R^X^R^F=9/t^:[**P=K&CdR/J5H2/-[,+^7$^*<*P=!/c'v=6*3^==T*X*l>t=m'1&+^e*<&**E*R^t=u%X*p$s&!&l>Z^R^|&V=e/a$Z)C8h&#}k]([/(3Eu/#!w=l;5$c&F&P]**e^R#w)**V=C=X*a$D=8%W'p&d'1&g/d'e^|,e^a$E=/&9,D-;^E=v=e^]$u^d*w)//_/($i=v=wa';D=x^2$}6X^v=p$e&}*n'uE]yvE([j/eswE}uQ&j'2${^d'[^<&c'**0,//**9,1&v=X^|,+^)*w)p$*)**c']}z-&*h&]$t=X^J-o&V-V=z$=*+{z66$I/7;E/^*S*J'-/7$f&K&I)q*f&W0 [R*V=F=<&R^=>#!8/O&w)$-S*R^d'N&w$9,w)7^V=v=|!b&l>^=E=-)k)v=;&i)Z^]$o$v*#/==w)$-e&J'd^8^c'r;I*<46$p!'D@{t*t-p&>;.)!/2*~^k)F*Z^}6X*L&t=F=f^H)w)====~*/&@cJ'A=($r*C&m>%^T&g^*)S*F)#/-'V=z$t=^>/&r;*^Z^f$Z^p$5'k=W9Z^*^{^';,[A=v*u-G#xE:/$]riJ'V=>&|3s/y~T)|&F=;^8%b&X^Z^O= /M^j=L%3{W@<>G[!'V=;^t^a$a$[^f/o$]$b$[^2^R^4^x^*/m^a$E)t$d't$M#.$&^s^8'u%a$4^J'O^Y7I^S#.^&%J^#!Q#c%I^u%0^m^Z]}6[/;^x^N/6$:/{$D^%%d#D/1/l#j4m[4/v/*75~C8v*N*u-s$5}g$c{`*^*0B`]**b$p*L&x^Z^>&g*y[",
"WyK&V0V=-'w)R#l>}*d*EaZ*20C7r$m]W&N*Q*Z&0,x!z5Q/x)@{=}j/|#M/y<z/y<3/O#u%A$u%}61/Gam3`5yEc%2$(%1/`]l>&^o$p$m>i)K&f&]^0{O/o/96k;]7v**^)^J'E=T*J'`]m&`]j)d$G#k^a$d'^>g^u-Y)t=Z]7=d'w)p$D-)^H)*^a$**L&F=M<T^h$j)W9W]R#c'9/A=&^D=e&tvi)w}70F/D/^7y{c=`=d^G#>&i)t$>;p$(&{9P<J'k=J~4^O='/p*z$/!>;F&G#T*/%t=e^y=w^F=F*kaF=**h'b$R#zE]$k6a)##,(h08/^*P<t*V&e&c'D=#9i)u$%'I<f&)^&^J'5^d'^*]$B$c=J'}&p$E)-'o&2$X*LB%' ^H)7$&^O&|,T*:$b$9/I)0,t^'/}&b&l>V=J'|&p$i=]&2*S^X*d'5$](4%@(F3{&R#19|$k)P]Z^a$E&i)n9{^r*e/k=i)9^J9o$h/^*Z)a$#9&[i)//Z^p9';t-D=}&e&m>)/P<v*b9]7*7BwTaS*%'`t-!i)V&-'+*v=T^Z^Q*N*O=)/k)H&>^K)&^2*7/T*&^!/2bZ)<&V&M#b$A=***^A=T^r;B&N&c'&^@/c=(&R*e*l>X^N&Z^d^8%M#^=i)!/A=>[Q&AEY5v747~{C'T&t^,[n^v=w=V=**v=,[<^p$t**)('t^P< =k) =o$}6X^P]L&i)#=v&R^0/J'Z^a$';R#A=,>p&9,'/e&k=//,[D=D=V=1^m>e&S*_/d*|*%'R^J[`]7$!/Q/z#@>-Ck)~^F=B3d#b)X'F^R*|&J'9^w)k)e&L&R*M#Pa.{@($7([k20-|$'$P<l>>^n9C8B&a${/.^%88%x^m^&[=^O=g$l>7%1/u%&*d>*^5$>[')==%'4^O^9^n^a$!/E$#/*/D$Q^a$L#.^g^>^]/n>t$O^9'y~w/g$*%:/y6%8<!|4k#y/*7a-5$X&z$]$l;$^9'p4h)H=3&`]#/a$R*f&2aT^K&|&qw",
"02E),>c*|&!*1&)*1&'/d*E*Bw$8l#t4]>1&E=u-G&~;q4##u7$]F{%#~,n>478%n!y~4^&#@/1(P<=/n>l]j%T@+]/'~^k)>^7%S*R*s^7=z$E$X*W~+]M)R/9&&$P<Z]b$z$%8l>Z)<*R*9^M<]$R^)*M<k)&*~$},Z)p*D=z->;o$|,$-X^y&h'+^X^K&E)';2$5e%'c'h'd'X*l;b$D-e&e^J^!*}*R$v-V%b5@(.&]&7%N&v=a%** ^F=O)(&O&d>j)~^**O&b&e&t=#9R*d'w)t^>;J'#/-'(&Q&-'D=0=k)c'd'J'e&K&BEa'y~j6CE*^3&o$Z) =J'R^=&-'k)V&c$f&d'D=v=N&*^&*d^E=l>e/D-K&2a&*d>i=A=m*T*Q^X*z$d'v=<&a$E)#=o&Z^R*c'2*V=p$Z^>;D=D=l>';V<7=b$!&K&-'@aDE<0Q/V5){^>i=Q^Z)D=k=P=2$/&V=O<2~w)k)|,p&R#v*V=m&V=E=D=^>+^Q<P<d'u%**<*I8},/*T^k^Q*B]72x[L%H7;^ ^>'')!/,>k=9/E=O[a$m>C*kiF&2$19c't=t=e*T*0,M^ =l>I)j)V=G#Z)F=X*h/3&**O&a$/&c'>&-'b$}6O&R^V=v=v=-/d'f&F&R^c=&4u%a$`<X*9/86z4](q5(4H= =d'E)~*R#|,X*T*#/|&2*e/#/,[1&==N<D-`]m'e/e*1$t=w)G#D=.-k)D-1&*^V=J~R#L&#/h&k)v=Q&p*9/k=O=F)|&N&D-R*L*e*y=R*&^w^'/b$k)V5&$[(_-Z=-*i=MDm/I/$5t=2^Z)9^R*l>**K&ls7/X^S@t1%4!7([z{(4y=7$E)%/!/R^;^H)-'a^8%a$]$1/#/G#3^F^)^E=:/E$.^f^1/w)&*7%&/d>o$ /o/g^b)i)o$o^L#E#O^Q^s^!/A^3^#/h$F#D^8%q/s^l#.#[/6$%%h8<4a{O#!%*%h;t^R^e^==},o!b)-3E!}*A=D=d'**4^N<k= =W97=Xp",
"EEr&v*,&g*L&v=A='&-'[,B'70f^h$a]5&C&a$o&/&:'z5)!*7U7@{o/kDs%x<1!#$9$D^a^=/t^2{*)P~}]TC,(v!t$8/E#d$R#.4 awaJ/F)4,N]6],)]7|#]*8'l;e&==[^W]|,&*&%,[F=P=9^M<k=%)R#**t=t=e/{^t=R^t=kaa$<&|&('h$X*d$<*H<a$J'F=|&V$//L&a$J'@-P]]$R*D=^*|&^*:~5]I/=7UrH~>>R*q=2$-[waS*:7x^p&~^z0o$e^~^O&E))9z$e***//)/_/&*<*/*T<FE[}W]D-X*>&&*W]}&J#F{o!J6_/g^G#7=~*9/z-Q*O&[*%)2$k=9,v*d^-'v=t$e&X^N*-'W]t=<&d'b$D--'+^^>o$]$k=V=d0e&l>P<a$(,:7Ba%)|&l>>; ^2$Z^r;W],=C*d*u-S*9/R*7/v*f&d>h>u5*7K5E[M&('(&O&D-R#c=&*%)|,>>e^<*z-8/,[X*';e>u$k)a$R#t-7=)*t=t=**Z)D-Z)%'O=l;x7a61!O#n!i'K0v=')^*X&7%}*t^*)]}X^t=}&c'o&Z]F=V=X*u%o&d' ^-'Z8e&~*%'9^V=F^D=l;W9}= ^e&f^k^b&f$Z)4^|&a^J<A=d'$-@-2$Jbc'&%F^-'b*r*P=z-]$R!m{&#o/<{!/R*p&T*V^K&X6,[Z)L&l>N&*^F=X9>;L&'/]$i) ^h&t^t$}62$/%R^>;/&^=%'J->;1&e^+aGaz-<&`^#/R*e&O&o&O=X*E)e&W&D=,[k=:72$l>P]o$G#FdM)GEHEz-7= =F9F#*7@7o$Z^P=2$}*w^H95^@-d'_/#/Z$IEH%p'$7e]Q~L*&/`]9^Z)`^Z^;^<$f^X8d0g^a^V=**#^8%d'M#I<X^0)Z]g^n^Y7!/9^#/s^C^*^*/;^B^^*g$6^Q#9^&*E#n$;/s^{$8'F#h$$/o/p^h$|%,3o/9$@00{6$57w/@;:$f&k=*^V&s/;^q{G=k)D=d'l>t^//y=-'<&9/,a-{",
"^6v=v*f&J<z-9=(,R*k=T^';<>-4E#l{a~|$b&R*Y)n&&0!#V6c31{x<+%$$*%x]8%&$$/y/7$7%[^.^`6F/,)L%E*d'R^|$t=.^;95^F<D-';J#z{+&|#]#(s*^}*19K0o$&**^J'l>9/#$ ^~*9/J'S* ^[^~^-)g/e&Z^e^W9n&(/X*E$t=%)W<7%Z='/b$t=e/t=~^a$#99,v=z$|&N*R#=*C8e&D-T&($W}]%P%~6>{r^i=M$C*W'e*I~t**!,>2$#/k)O=O=<qD-V=//&ad>A=//T*L&*^G#i=F=5$ ^}6o$z${^v*P*W4Q/4%!,Yf%)p$m'X^D-^*,&|&J' [C&P<-'V=F&Z^Z)v&o$P<*;v=8/F=2$m'R^a$-'K<Z)D=D=v<uag&P<J<^>t=v=S^X^R#d$m&v<|&t^P<o$v*b&P=J[N*#9I~|/I~>;c'<*d;V72{F/<<b)I)1$*^1^L&%'>;D=7/ aM^A=v*v<JbV=F^-'Z)=-)^0,a$}6e&V=C*k=&/Z^A/k)O0#9F3B6,8=8JEb^+ap&g^K&*^V=t=%'9^M*sh|/^>T*b$)^z$o&a$t=>;e&d^Z&a$Q&e^h'L&%^Q^w)n'^*w)R^k)19~*m^>;sst=&*'&k*R^R^D= ^'/&*i&]*i=9,waI~V=a$7=!*D$(E</A[T2)&-/F))5,>E$w)=^D-t=h'^* =**/%k)w)5$B&W9Y9u%)^.^Z)D-F)k)|$a$k=T*9/P]X^v=R#|$m'k=k)O&G#]^|&>;^*L&p*t$^*|,}&X^#=X^Q<p*k)D<S%K{E|^*~*{^p49'n>y{v*)^r*!/ ^5$D=@^**S*`^.^<$j^{237M/o!g{B83*<^t^~^u$!/a$9^S^7$Q&&^o^7%*^p$2$d$#/f^f0s^u%;^4^ 8o$x^7$=/a^[^_/w)z$7$~/g$$8s^6^p^M#J^I^($O#-'(^I^o/O#8%M)v7z#0$V2:4P^hb%u{~B$==w)-'A=r9%8S{x*`]l>-)^=+^==/*[^b&[,y&E]",
"e7asZ*P6-'|2t=[*<*3&-'f*g3x9a^&{ ~r;@-p&)>/-72j/L/q{h5K/n>K/g$4%x]L#K$T^x^X9a^V/k]P%g6{-S#W]{^9^*^~^d'%'[^r;M/KEM/O/`/j!]$}6R^i)k=R^^*4^*^R*e&a$|&R^(^e&n'a$)/2a|&)5+[<&F)p$d'c'5$D=/&c'f&N&0,|&w$n&_/w)V==^G#|,)^D===V&P=e^G#c'J'P]|$K^6^R/z#`2-{T^K&=&u~T<N&I=-!9)E&Z=h& =';!*7&.)w~x'=&C& =g>n&~;2$)*g>T*7=T&R*(&v~A=j/-]Z$x/!;9%w^E=P<v=]$u-2$p$ =b^==a*Z^p$X^J'~*|&a$p&2$+^P<)&V&k)f$~-e^** ^S*q=F^E*K&#=u%2$Z]`]i)Z]t=/*G#C=R#k)e/q9R*t=0,Q*F)T*S*i)R#k=}*,[4^LE30=7g5E]t0(&b&ME@-NEY]kig&<&w~-5=&a*xw9/9/A=!8f=!*~*#9Q*^>e'=&)/bqf=P<f=Maq#9{X%1!i&P$g8*!G#<&i)]&&/*^O<Z]i)t^v=t=O&**k=U=t=X*d'/&9/|&`]9/O&a$i)E=A=t=y^e&-'^=p$O&V=D--)N&v*}65^g$`]8/m>*^|&V=X*7$i)l>T*V=u%2$Z^@^e&E4M4W$@&8{.7,[)/w)I-2'u--;v*y& =[*wE&ay=@*v*!*a&h0N&n&v*p&I~'/=>,[>&I=|&k-S*#=R*{&a$)^P=g&7=G#+^Z^J'E$**//V=&*E*6#>;t=_/>;>&O=Y8b7b%g{$t`]w)I~750']7<]#/Z8q'n^^* /w)P<#bk)a$Q^~^b%M/4DD5$$M5_{P{L&D=d^>[a$t=7$P<!/7%8%t^9^^*c'N<{/a$>'t^0^t^#^.^>[-^J^8%u$J^:/*/:$n$%'M#1^~^)5)5`9q'(^N/B&;^7%I^%%|^m^z4$/,3n![$'t;{v$x]M/k'e/[^K&%)_aB^O#V7h*c*y=&[>&}&R*7%m>V=~$C*a4",
"OE~^n&E*=&K)!*u-J9N&<&<*.{9$q'*3r}I~J96*B= ;C5/(Upt{1{M/s/K$D/3/5$M)(^O#>^($i)!f|#z5%(T&[6`^t=i)t^p$4^#/ ^6aj}{x$$([i8c*P]]/#^k^%8**a$C'o$S#sst=}&#^)^X^1$PEE=!/r;g&d>t='/8/9/>&i=i)**}6d^D-**~^E*k)`^ !E=e&|&>;h'w)%)e*P=l;*/c&>;x^t=P<HbM{z4w7h]23G4U3m0}5#}C2q3W4T4M3B]13T[U3F4b3U3m!G4(4ccF3(4L4T4W4T[QE.5N2I2P2I2I2H{z#H/W~tqt^E*e&p&o$&49/k=n'9,W&}&O^o$k)9/]$v=g&Y9Z)v*y=K&d'6^R*K&&$2$k)d*L&~^>&S^19)>o$<&Q&G#E)+4*^dco$L=P#==///!R0*^ !V=(&Y9E*d' [REE)J'k=SEk%q'+(%#QaTE-{;{~{:eE[0{Q{^B~yT~X4G]C[X3E[V2or9{c3.5ccS4+9]{N]V2h4932323I2%{=%1#m[+2`^h/X^psb$f$C*#>-)6^9/^*T*l;*!V=7=h'4^,[2$w)o$2$0,**V&R*)^F=n'd'E)*!p$N&}6J<9^d'w)*^ =t*t$ =w)u$F=*^G#F=p*O<(&~^#/,>#=%'!/-'/%o$t^f*8{-7%#i]trI]*{Q{K~#xtD;apvl]UEd44eWv.]m]O5yd4]VE3zb5c%')#/~^m>9^A^v=J't-F)m>z-m*F)D-A=-'*^-'P<Q&V=+^a^X9t^k=L&)*|&y&P=duk)9/6$%%m{|~N&8/+^o;*%c%n5l>k)}*O&D$Pq/&T*a^d>y<e&l9=^Y86$H!_7^%&693a,/&=^h/&*w$t$d$9^2^*/<$)^m*Z^-^+^8%~^F<8'*^(/d'J^t^0^h$x^X8x^q'l#&*8^e/g^[/.4.$4^;^^*)52^{$$/i)(^(^[/x<l/b5I/{7}>I]x)0$](Zu4^J=**t=B=b5L#80)*Z]Z^X^.-|&c'N<'/i)F&J<WE",
"&;-'X*V*t=v*O&F&C&O=1&d*}>-4)5a{4-S=V&^>]}q;ba$$o!b{4{y6.4;c:/p'v/D$:/+^)5+^**23K/j/<4b$[^h$b$a^V=-'t^7%M&<4i]u#v/46jc3^t^K&V&]$a$%)6/Z]5^A=)^G#V=$-V=@-k=<&G#D=D=-)B=V=}*Z^X^c=m&OaO=s^9/R*2$p$(,d'>[t=h&<&4^K&d*J'e&w$(/J[|&X*v=&/P=a$Z^(&2]*%](.7,)M),31!,)K/#7)4`/Y/T@T@$50')4|#j/H5u5j/%7@(.7j/o!b5.},)M5-7)!p'W@W@|#,3L/XED--'l>L& /O&B=wa~^H)S*<*W]<*/&Z^v=-'P= ^==5^`]X^>;J-l;^>R^p&R#{/e^v=G#R#[*W]u^P<n&h'e/J~)^ *j)r^h&!/X^L=F*^*t$D->;a$3/k=**R*w)m'2$>&[}<9~{o/}]87y~,)t]v/,3M/&6;'j/j/$5~7#7z/k/[/M)](l/M/+%$5Y'|#n!y4<<9%R/z#Jd([](D#:/$$(&F)D=`]4^|,Z^//P<P<V& ^u$u-e^^=<*i=A=19d'p$%'p$.^*^o$n'|&&*F*d'D=e*u=a$D-9/O=A=`]>;**F=K&**M#D=F=R*4^W]#$c'%5f$#/W]%;9^=/N&D$8'B&2$<*IBx74%~7(^.#:/1/%$.7C^:^h$q'0)2^p$r^//G#8/7%49(,Y81$G#Z^O&<*v=Q&~*|&X*'&}&e/*!t$R*r;z-2*4^S*t=1^2$<&G#t^:7&*}=m>e*Z^L&#/V=T**7;#t9&|`=t=(&s3x7$7<]<$I^P]~/R#G##^[^J[X^J[D-|&_r]$a$d9~-n>k4y#;{`5|,6^h/ ^k)x^c'!5t=a^R^&*]$**O^8'//[a(/I^a^ ^+^u%f^p^J^&/Q^>[O^+^9'Z^S#%$1/f$g^%84^s^9$i)#^V=f$#/j^D#:/,)1#&#gk%&j^]7x)S!5$v=i)}*b*-7z<30y&//t=R#X^L&R^)^E)X*(&6*/{",
"td{^F)**ki.)J<T&p*>[{&N&!,E^.$70&BK&J9m&9,B~N5E/C/Y{]{D/T/.} %K$]7r%F#(^8/&$}&J)+%D/`%F=t=&$9,w^S*&*i)>&n!G]H5S%;7sy*%9^J<Z)D-E$Z]e&|&9^[^l>P)}6P=9^`]u%E$t^D-e^^*Z^w&|&d$//e/F=F&A=|&d'#/J[H)X^-'>;m*&[K&+aX*:}2$}6p&P<e/)>L& [d'A<d'F=6*:bn[]7w/4/v4*3.>`%-(([Q/$#$$u}e]'8=7N%<#7#`#V%Q%x[n{V/)!{#;cKuu}<#b5H6^(,#;(D/s/v/l#%(=*D-R<$-k=D-N&C*** [9^L&N&(&e&K&c*^=)^>;v=f&~)9/2$~/g&W]Z^e>,[o&g^)^/&]&t^V=%'z-r;Z)R^T*p$^*t=R^{/e^<&Q^`]Oaa$d'w)c'F)E$v=t=d'T*p*2$&[*%e{j^*%D5|#^[']*7Kuq#t4^(q#n%+]^#/#`%;c~%-(96D/~,66,#q#I%`@S@~,q#w<I%E%tmC/:/*7t{~cC*1&-)r;W9!/ ^D-R^E=<*{/`]2$o&F)z$T*D=J'*^W]X^F)u$k)l;o&w)g$>&Z]e&|&t=^*u^0,A<2$-'R^z$O0,>J<d' ^'/F=m>A=K&v-A=#/X^&/p$v=C'A=R^&*J')4e{Gd!%>4u}%4@#^#60x#D/ #w/<#-(0#^#ft&#4%f$59c'k#u$v*)^R^f^Z^V=/*+^-'-[G&}&-'>;w),>]$i)P<k)g*G#f=-'@-q^N< =5$v*d'+a<&l>w8!*5^s/1!%A!-V0,;)^|30'u7x[5a-'5^(&!/w^d'U':7Q^g^R^J'4^k)k)2$<*]td#,3b6<4L%W^o$P<M^ ^;^-'9^L#'$($u%*^A<`]a^:$O^&/2$7$n98%&*{/u%2$d$q'9$`^*/8%a^@8x0z<x^1/d>~/D$m4d>q'd2%%E#c%y<Y'4/5}*{`6)$|7*7c!s&V=';z$K&H/9'y{[&N& /d' ^4^2$9/O0#9S)!&:3",
"Wzn&c=X*z$Z*J'l;d*E*^*z-y3.88'a]$to$@-3*#=I*E{|#o/K]q{;c~6|#|7a/+%N/M^r#H/B^N&V29$k4n2d$v=`^R^d'l>w)i)N&v3b5;'x]R#)9Z]S*%'J~>^z$J'`^#^+^%)F=&**)b$k)>;**2()^*^t=ss#/&^x^19F=P=@- =O*($-)t^c'D$e^X9P^>;u-V=D=t=V=A^Q*N&5$=^|&R*`]a$.)>[(/@8a4D#y/@>kx+,YEZE@gYtG|`Es| F.F+FWAc1@FN|^s g;s#F$F)2)s%F&FK1R@z8qg*FDbU1O}IAV}d3C(57b(Z{o&2*jlk=R*b$c=y=0^<*%'q9a$/*)}R^<*J'e& ^u-7%D-d^^=2$*^**X^&%%)9,e&d'&*e&2$(&p$u%**l>X*F=a$X^-'k=(&'/kan&$-4^c'e/d'-&o$R#c'|&|,5$f0(fY=A5x]C{(7=F#g-Fc1)2G1AvEw;FMAi1>F-sLg*DU1)g,F;g{|5 m7_v'F)FAgG|+gZ1!F,v)s[^+%y#q#B]{&w)5$l>d'P=]$O^X*E=Z)Z)k)*^%;8/N&v*'/k=-'&%o$e&f&J'c'o$%)K)d^e&'/~^P<^*$-8/V=a$*^5$c=v=2$Q^M<r;M<m*,=-'-)2$e^d'D-v=c'i=2$*^t^ /,;H2#7;'@8=vdx7-%~}-Z-'-l&(~-;M*v-L*/*6&|2y&S*[*!&t=O&w)C&t=}&<*K&**V=e*w)T*Z)L&}6x'n&[^~^1&($}*X*_/|,Q^>&V=**T&+*P=^=1^O&+^n^^>V6D^<>6!l>F)}&73c%d#}]N&B&O=u%t^P<9/x^o$)^u%2$x^Q0w^V=<*n^t$Z)o/F/x<R~%7h$S*N<g^d>B^W9*^a^Z^]$9/I^a^!57%y/5$z$7%p$]$9^H8R^t$X^O^la4^ ^o^!/9$y/F#!/1!6$1^~$*^[$x^8%y<x$.#(/4/|#d#T~  k%-7 8F!B$!*V=Q*u$$7E8`e5&%'w8N&==<&u)C^e*p&Z^{&h4",
"W-~F`=c'e&R&d'K&D-n'<*F&U~9'}7K8g>O&5'`]C*9*6{I/x]-aq{S%~,,3Q/1/y<I^[/8%}7r$}&#{*%S%n2b$d>9,7%x^{^8%b$8]P{o//(%(Hbf^d'Q#Z^t^E=**R^Z^i)~^-'l>_eR*u$Z)-'-)R^K&k=<*/!%^D=V=b*C8V=)/<&V=J<~^A^J<d'a$Z^`]o$S*<*p$m*^*|$/&<*L#5$a$&/G#t= =`]R#m3.>I/_8B${F+^t^r%.$I^P<9/F#-#[$.$9%d'E/{9d#1^E#n>&$E#A#U$z$.$g${$y^#/v$2%^*&#O#csG6b5 Dq{X*v< ^{/a$&*m>d'/&^*R*w)X^(&p$z-Z)E)R*K=C8X*F=k=Z^W]t^J=l;E)>[D=Z=Z)B$ bb$p&]}D-R*&*b^h'B$[^2*'/]$`]X*a$B=O0)>R#b$<*)*a$t=T*v=2$p&6$a]w/:/9$ !P/>[$8|7g$]$t$H8L#p^4^[^b%;^7%x^.$)#n$+4[$;/*%;$t$,/$^0$W/[/h/g$~~p4n!j/=}%$]F7%7=F)i)wa')E$g*K&D&t^d'==2$g&O<4^R#X*R*N&|&{/R^ a~^t^3&p$-'k)D= =u%c'G# ^F&k) /3*R^c'E=/&9,Z)W]a$J'e*J'e&L&},v*f&D-c'M#a$^Fo{m]M)]^[0kr }-'#!e&p*t^I<C*E)t=k)Otj)/*0=^>)^*>P<V=I~v*%'D8w)d^1&7/}6J~R*&/R^&*z-i)+^X^<&w)D-)^D=2*I=%'v=R#|& /u%h^c'P]{^r*d'=^H0b%T~f'V&&/R*m[s/.4M9v=0^F=|&Z]X9m^c'9^M^v=(^%')^9^f0S)X^*/n&J=x/18%7W~17d'0$W]t^9^N<M#o$@/!/E=*^u${$d>Q#2$4/C^a$4^h^g$B^e^9^&/5$d^.$E#4$%$[$%'a^]7Z)f$9^`^>'49N/E#F#y/4%,)F/{e.{k6L/*%1!|-t$,aO&2$@=o!0'u}]&&*y&F&O&i))^|&j)r;)^;&E]",
"(9g#r*UCd*p*)&2$P)**z-_,=8x]%8@(4=T*7/(&P)Sb>4[EC(I]<{|#([18D^Y74^[^9^t^g^1/m*G]9%H/H],=&[t^%'g^(^Z^.-P~<28[`5/Fu/i)&*u$a$z-t=T*==P]9/m>l>,[R^Z)5$*/e&a$o$E*`]G#**v=t^Z^**.$e&Z]2$b$P=F)#/u%D-D=R#*^z-L&R*d'9/L&d'i)/&m*d'P=E*R^4&c'E)G/l]2{8760>gt^X*J'S*D-t=J[i)Y7Uat^F)t^`]|&w)D=t=e&D=I<D=2$%'a%d$W]R*|$==1&-'w))*(&_*![](F/'DH~1*1&o&R*e&a$.)2$u%R^1$O&B$}& ^&4e/F=k)o$K&a$d'J'&*+^b$k9]9f$r;w^D-T*i)/&l>`]($X*|&m49,F=e&k)ask)X^O=E*F=V=t$O0t=F)w)&***5^t^.-$)pos0s/o>~rJ[8&N&T*W]1&i)e&V=k===/=N&E*}&9/v=Z^%'9^v&`]F)Ex-'e&e/e*R^a$A/2*c'0$Z-n!G63{53~;-& [:$V=N<E)>&(ac'Z]c$%'q*{/+!f$%)2$Z)';!/Z^T*B$$-)^d'P=T*#/X^o$Q^K0%'9=Z^A=J'e^J-D-)//&R#-/c'x^O&v=P<1&O& ^9^h^D-N&e/o$p$[*(FY5y/p'abd>'/>[X9R*k)d*>[ ^**4*w)<&t-7=D=v=k)p$9/n^R^}6p*)*u%**O=r*>;!*_&a^J[>; ^P<&*F=R^19A=r;Z)%;f^b&|&*^v&<***d'X^E)w$-/J'd>G/it+]}~w)=-^*@dz<*%)4C8B$c'2at^a^g^G#/[a$k)&*r^Q^D=}6)/O0G#&*^>9,b)|#M)3}]/V=]$>[t^3^G#8%6/!/;^A<4^x9!/}6g^D=]7P#&*P^f^p$v$D^a^7$')//E#x^4/1/D=9$&*:/`]#$V=4/~9%%C^O#$/n![/t%B^1{Ato/y~o!&|!%h-E*F<,!x]-#Z~o=**V=z$%'2*#^|&u%f0z-p&cc",
"_F)^-)V*c'{&D-f>/&h'F&|&-}z<-4q{k;>[`*h'k=h))]W$:/J{M{)4}7,3y<[/F#!^E^R^(D3/r;x4T/@(%(u%x^)^b$z$7$u$<]s5z#4/u%/%F*x^u%L&g$%%-*D=X^P]4^J[|&m'{^D-v*YvA/a$h&)^d>n0e/`]8%d'8'-'4^k)R#Z^R#n0R#w)]$t=D=<*>;G#P]`^l>5^5$`]d'd>$-Q^%'O0!3t=c*m3=7q#4%s's^8=/%c=P=m*{&&/l>e*J~P<v=:7E*-&F):7,[V=|&t=%'{/2$&*l>W]]$Z^i)W9|&d'e/9^a^A1+]js@(6]g8,>Q*]$@*<*)^^&k=B$1&!/-' [d'Z^%'I<N&W]O&l;-)c'|&w)-'g^`]*)k^#/A=2$%'-*2$[,m'Z]>[**]$Z)8%%'N&^*K&H8v*<*P=A=V&e&**%'=^d$b&z$fa7{R9b69%P&//w^p&7%G#Z)N&A=5^o& ^Q<>&Z^[*A=9=U=^>^><*2$z$o$t=J~*^e^-'RaO&>[e/F&>;a[a{4%^#&]w5<} =T*k)9,t^u)R^M^a$9^9^$-w)w)/&z$8/%){/O=>&X^o$i)V=-$g*,>n&b$YvA=7%U=d$V&}* ^6/~^D-9,,=X^4^o$)^2$19**Z^>;Z^t=e&d'2$D==^w=^44]0xx7}(h*';2$k).$R^Z]t^z- =/%m'G#S*/*Q<t^<*-'X*U=9/F)w)R#*^7%[*N&-;>;)^9^$-P<9/d'V=%)F))^n&%)'b:Ft-F)!*F=G#+=|&#=I~0bt^*^^9f/P<C/1!6]*|a$:7(, fx]B^q5k)2$&[B$)^J-b&a$]$9/C^X^r^p*w)l>M^a^&^a^4^J[]^O/c%@(3}#>6s*^&%!^J'Z)S#y^W9:}L#+^f^Z)8%m>1^+^.$4^&*u%8'l>t$*^*^g^x^a^d>4^x^9$M^n9M#O#q'~$l#[$:^D$X%]7E#s0p9m[`6r/n>:8+*<Fb$Z)f=E)b)1!-3W*/&t=}&#rv*#/0/`]8/k)[*@0",
"OrP]K&p&8%9=c'|&X*2$F&)*2)x):/#]1;v=%'(&v&R'C{`5[FT~o>|#Y/+%w/o/!%b%!5A$y<6$y&<!*%j]u}`aT*#/-'w)0,%;F3)!j/|0}F.^^99,,&**J'o$5$X^k)T*D$w)t^B$^=,=V=F=Z^-&A='/b$R^J'v=**w)~^j)t^e&u%T^-'T*u%(&T^b&a$m*a$D=o&b*Y8m>**X*d*i)i)f$&/X^}&)^}^Jsp#3{t39wE***P=O=&[t^#!{/d$V=P<#^V=L&d'n'/*&*m*T^^9#9b&W^>;a$a$v=I~`]&*:71&k)a$O&P<S*'^B5X/([G3T'H8t$d' ^Z^R#F=c'e&}6k)e^2$T*==!&7%N&I8J<(&.^}&n'T*i)}*>;p$i=t^kit=c'**m'Z^k=w)2^w)i)`=)^**k=v=';d'l;E***S^p$i)c'E*(&L&T&H9N]^%s0'49-.-A=Q&**<&c'-'waw)[^1&T*Z^d'z-2$b$^>W'G#R*/&!819E=v*2$K&7$F=h'i)R^K&n04^Py@(Y5$$|31;l>W9|$o$e/k)d'G9d'I)M#V-f={&t^/b<&e&P] a/&z$v&E)1&V=u^'$w)w)>;)>J~e&h/a^k)]$G#e^|,F=|&w&5$ ^N&w)d'e^H8o$v=O&p$Z)a$**e/V=i4K$Qx@7|FM^Otw$R^b&o&-)p&d>,[P]f/-'^=e*A=1&S*%'{^d'-'}&i)O&'/|$2^z-^> ^P]t=E=J[P<n^!/%)G#^*w^k=^*!5B=,[T*+^9/<*e^t-W'f&|&k)%)k^T*Qxv7z{n~S=L&n&[3it1/}^W]+4%^P=*/,[d^Q^d>P<W]G#k)V=k);^'/ =P$u%i)l>c&o$nl8[m/03s9T*i)4^a^($7%O^k)D$q9E$h'4/&/a^a$u%7%t^8%3^{7#/n^gEG#&*Q^W9;^($X^S<M#4^M#6$(^9$[^&*W/j^M)D/9$$7D^J)s{Q#6$~7v9e*}*e*9^l>'!g$60(*j)i);9/u.$(&_/>;K&k)Q*Q{",
"1F<=4&_=:*v&@=o&{&-'0,W&_0B71/h5L!)/e&k=(&9*]f)!1!~{H].#/([/0$[/ya9$%%9$z<9^='*}K$8[v]a$k)|,r^]^W<#^j6p!1!*b[$X*h/|,2$3^&*D=E)J[c=v=d^'$7=Z^)^R*E*q^{/#/L)'$e&'/<&N<-'D-9/{/R^&*v&D=W9d'd>-'&*-/a$d><&%)E=H&2$5$a$J'R**^e&d't=F=9^6b`4](K/F/N1V^G#)^i)-'z$ ^!*A<H<X^*^,>&^$89/p$N<a$]$w)f&l>9,Q<J'F*F=8/%/-)V=I<v=F=u$F)R^/%@tF]y~s0xdl#-)c=^9t=R#D=p$9/J=^*-'|$N&-'y=k)a$F)]})^-'z$%'Z^z$-[7%>[<&+^P=V=d>>;d^R^|,g8Z^t^J'f>-[h/{^D-Z^#=2&%)g#N&U-]$}6u%h^d'#/e*03zux]b5T!)^Z]X*D-g&2$-'u)e/t*u&4^,[J')*J~2FP=F=/*-&l>z$*aq9==*))^z$P].^J'O&b$D-Z^|,5&D%;cI/$5`6h'9^NgG#r;^*2$p&T*o&<*i)B&)>T*9,/&p$&^($t^|,0^t=P<l>v=|&l>Z)2$d^[^kaf=z-k=a$Q^P=e/E)H)n'd*d'9,9/k)-'Z)V&|&l*~/t^0=T*L~t[,)+%#8~9E$d'a${^P]M<V=k),[A^}6n&v&^*u^v*)^/*J'|&A^P=X^i)k)]^D=`]c'0,a$w&o$#9O^O&2*t$e/S)<&Q^d*%'-'^=K&O)v=x^b&F=F<G9F)')T*';b$2$M#'!1!L%Z!h^9/N&6[2{%%4]I~//2$^=m>2^**h^E$+^Q^7%**+^9^k)G#u%l>a^g^c'Q^_=&*1#1!I/Q2`]E$J'4^J^u%.$1$o$A^4^>[0,T^`^)^5$P<B$1!*^'$#8g#n^{9Z0)/O^C^Z]2^q6*^%$8%[^n/%/s^3/.$x/]7:/n>w%9$R{T~{$2{3{_-|,B&$-_/2$G/B^J)W0.)e&-'m'k*E=i)t^{^|,v*G]",
"_FD-`<W<7=5'==S*(&L&^>{&J]C/a^<{g~=&z--'f&+*C{F/}7!{:{@#y~|#F/q'X%s%G/D^|^a^1&B89%o/c3v=P<!*d>m^h'u3;'@(J)(*q9&*Z]5$S^Q#**)^X^>;P=0,')a$G#Z^D=T&**L=^*d$o$P=)^W]Z^~^V=X^^*)>h'l>R*T*1&J'(&P]//P]D=k=Z^_/1&,>j)!*|,-'7%-/*^J[Z^o$/=B8a6p'z730!*-/>[p$-*{/-/*^c'&^f&t=a$X*L&-/G#F=u^}6!/1&G#19a$A07$&*9^V=J[^*a$F=e/3B[^X*b&&^#$6&p#K/V5N39-P<)>+aJ^**3/(&i)o$e&J',[w)h/-'Z^d>1(z-7$t=T^Z^9,Z^//l;]}w)%'&*-/c'd>%'&*3^m>~^-'i))/e*2$]$<*t-D--'e*<*t^d'*^u%L=b*F))^0{2{3{a#O&m>}&-'c'J8**>&/&F=**2$d',>D=SaE)^*R^V=/*x^#^d'('2$b&O&+^$-b&t=';v=b$e&D=n&8%~rC{-(@(a39&.^J9)^9^W]W]5$n&M<S*Q&P<e&t^w)0,t=e&')N&2$F)e/}6R^a*V=.$k)D-2$m>-'V&X^S*Z^b$H)o$|&9^l>{!m>t=v*^*&*]&a^R*t=9^**d'w&J^{{!4*7{#0gP]%')/2$i)N&Z)|&d']} =)*|&t-P<//P*|$**w)b&#^e&-'#9W=t= =** ^0,Z^b$|&K=&*>; /*^ =&*J[m>A=)^X^A<`^,[f&t^,[I~B$P]V&O^k)k)|,*/1!42G{6,('==O0H;87s/pBR<e^=^R^(&C^4^L&,9#/a$!/n^l>C^L&R*f^!/x^j)e*&/6(6*o!A[x73FY=6^p$]$a^5$k)~$P<J^V^&*s^s^w)]$d>]$J^A^O^X^r$a^e^y^G#!/&%.9J^[^N/9^($;^.4.$x]M#a^3/r$6$h$4/:/[$=}AtW@87)!M!-#8/V=h'e*!rQ#I3$=O&^*[^<*k=T*-'t=$)g*L~4F",
"&;A=!*c*b$7,-&E=i)}&/&X&)fN^t$o{u&!&<*<&k=4'w]O/H/~{J{/(B69'1!,}1!h$3^B^S#M~~^.&T@9%%((ac')^&^`^T<G3,)X/T@t=p$J9R#E=E=n^8'~*5$')Z^J'X*D- ^t^2$$0m^R#e/e^-&a$y=,[ /9^e&+^//d'2*F)W]**d'4({^N&w)e*Z^w)'/+^|&W'p$D=D=0^E=)^L)e^s$R^r;_4](4%L{[g[^0Bw)J-d'v=>; ^d'R# /k^R#R*l>o$*^k)>[|,t$c&2$5aj)e^X^P=8/N&O&R*Z^J-N<B$`]u%a$t=0,'-v6K/z/m{T53&N<*)p*%'Q&u%**<*)^C82*>;t=#^Q^a$<&{/G#5a-'z-p$|$V=k)%'R#b&y=w)F=P<d'$-'/(&~^d'>;4^%'<* a&*l>!*g/k=p*-*d'O&0=v==&5*35v/[8L%'2Z)6a<&Oah&y=|$,[2$K&`]l>i)y=N&^*v*a$Z^w&e/w)R^J[V=p$Z)W9#=F)*^C*X^)^V=t=// ^v*z-F#)!y~R9,{`)+^b$Z^Z)P<F=W9L&v=**%'t=k=Q&p$d'X^&/h't=>;O=2$F)E$,[R^<*)^i)2$B$[,`]k)O=<&e*`^^*^*r*,&)^,[2ak)v=c'9^8/*)O=w)O&+=E2b5H/s^!=y/Z^F)D=V&V&G#D-M#%'v=#/^>L&y&5$R* =S*K&k^}&X^l>F)#b>[d>}&B=d'($1&^>9^S* /)^m'`]+^o$w)|,]9]&k)t^k=/&D=L&*^K<-'k)$-*^lsP<8%9'Cty/4Af'/*/*g*gDn>x)m/R*,[P=r*(a`^8%f0m>`^D=2$#/{/k)f^w)t=2/}6n^p$s^;[L#g))#3{U$!4R7R*4^E)9$w)R#~$//0^A$a$D$s^Z]l;>^&*x^$-4^t=a$t^N<+^P=g^($&/s^g#b%g^%$g^v$(^y/C^C/1/y/x)y$Y'Y^o;4{j^.4,}h>u%%;c'ysL&4/]/R;m;7&6#c*O0i)S^|&X^I<e&L~5F",
"w~v=B={&T*7=b&B*8ui=B=L&d3x/4/40/-X9]&L&v=-;o[:(y<n2T~4}b5j/,3B/4%E#%$9'B^9$R<-3Z$p!`~O=**/&~^(/v7v{@(B5x'h$j)Z)Z]H)7%D=t^t=d'F)O&P<M#V=9,u$k^e^D=-'k^K&#/`]P)0^#/E=z$u^d'`^d'-'t=^*D=O^.^F=t$t=#9v=*^R^R*7%_a#^t=W]1(X*k^l;a$p&s[t]M/*7&[4^t^'/f^Ot)^^>7%k)q9J'2^|r-'R^-'M<o$W]a$2$p*7$R#d$E=u^F),[>[f^P<t^8/w)bxd^R^~^Z]**k)7$H!H%U$T@}>D~ ER^N<k=5^o$i)O&V=sh1&c' /e&T^w))^k)Q^)/Z]W98%*^q9p$^*s^G#X*D-e&Z^~^O&,>`]g^-'0^,[T&^*SaV=J[%'F=a$d''/t=9/e*g&wav/Fu'!872^1^e&z$1&p*D=D=<&h^V&2*F)j)]&S*9^2$w^X^**l;d$e&J'l>a$e/R#i=)^Z)<*z-&*';W'b&7%R#d$D=V| 38[y~G{$-s$M^^*P<|$W]$--'p$O=x^/&x^**}*K)M#J'~/Z^d'X^t$P=o&V&Z^N&D->;o$%'#!2$]$b$2$d'f$y&Z]r;x^d'o$*)-c/&O&g&Z^2$n^ps**}^G5n!J^Z2*1,9e/&[**W^g&D=c'~^E**)p&R#n&R<p$R# /<&L*R^=&v=b&0,w)t^R*l>{&%'&4L=>^t=X^R*L#Z]F)D=e^%;**u%Z])^A=0^N&-'|, ^l>m^b&/*}*u%)/d^[aC^%%7{f~./g&p$m[%8]/<<F^'/ =e^0,f^X^i)w^(^a$N<A=P]g$d'G#x9*^&*%'u%d>H8,9!/I*mx07b5;'>};[u^A^')g^M#Z]1/&*d^h$=^B^&$Z];^Z^8%J^m^D^7$H8S)7$*^&#%%i^h/6^o$4^g$D$N/W^[/y~4/%8T@F#s/n8U7q{v$O#57U)]$h'A=V=~*s/(^c{7*]}g&h/G9<*@/**9/t=Z)&4qw",
";el>K&oty=!&y=e=T*//0,F=FsQxb%d]}-b&';r*J9;-G5,3$Dh{Yc4%w/%%M)M)8'E#.$4^M#h/e&j>](%#22>&M#}6!^M^S{R/@([{7&D-g^ck**|$V=d^9/g$ =9^&$t^D&b$h'2$P<k)d'o&e&b$*^u%d$H9|r}6Z^'/w)J^X*O&X*A=t=i)D-M<R#b$9/e^X^O=.^7%*^a$-'k)w^Z^w&R*Z]h$i{)4J543U}t^V=t^S*F^==E)t^d'u%p$<$t^5$}*X^y=v=t=w$(&0,i)6Fw) =k)~^p$JbZ)a$)5t=V=N&*^!/E*e/D=(,}==*a#7FS%c)~{Z&`u)^7$<=1&P<W9W]w$M<k)-&k=-'l>%'%')/l>2$u%F*J'i)d'Z^k^`]R#H8!/t=b&,>m'A=(&D=b$^*==**K&L&d'E*F=**-'}* /^>i)V=P*Q~O#e}{0pyX^/*g*c'u%t^m'W9t=R^y=u%**Q^^*|,v=v=F*9/T&#^P=waP=E=v*K&e&u^v*J'Z^K&|$[^u$d'a$t=]&u$d$X5D#T@j3!*X9sst^x'i=694^t^A=d^i=,&b$Q^0,c'z-K)l>D===t^F)E)-'V=J'k)w&2$k)`]Q&o&H)D-+^Z^ ^D-X^&^l>/&a$X*d'`]X*H)D=R#d'h-Z4x[&#y#W6F/t=T^d'a$d'i=*^e&8'5$t^i)T^d'm'+=ka&*f&n&j)K&K&O&g/R^'/p&k)**/!)^P]>;t^_e|,X^P<T^^>Q&<*Z^@-&*|$m*W]k=^/^*d*4^*^j)*)<&q^w)f^M#n!6$60nv|&P=b-E3x/n!8{//f0=^t^P=R*h^W0 /1^!/>[d'Z^`]B$8%($}6**9$B$M#*^.$l>f^|=Q%m//(([Y[-/)^#/w/X^t^;^;^x^E#g^M#*^`]h$8'n$49R^]$7$L/)^e/n$A^$-%%!/%$M#')*/t$g$9$W@ %4/&#:/B/o/1!.{|{Q#9$W@A-B$C'O=9/O=y~[/G{C-d*P#Q*K&==C*i=]}}/)*[*j>",
"8Fa$h*1&7*e&`&]&L=|&{&>;<32{8'V7lbO&[&c=]&h;T5y##7i{<>S%n>O#g$%$]7Q#v7gaC^;/L)s{y#F5d6f$n9`^a$w)V~l5F$&{F&.^%'Z^R^A=/%l>&/Q^]$o$F)Q#|&e/Q^h^S*O=l>G#e/<*a$r;C^#/`]v=d>2})^J~kaf/o&J<:[%'D=V&d>m*P<N*d$p$a$Q<d'f/ =!/9^X^^*O=M=m3k]T@Z$#bf#!/d'T*c'%'t^0,M<'/v*p$$-l> / ^F=}6<&T&[*-)O&<&P=T&d'2$e&t^P]l9_/&*-/a^-)m*E)L&t$ /j)t=]}aB@>97|#vxa97=V&i=3^p$,9Z^e&T*a$d$.^J'^>>;u$B=P=t^>&0^R^ ^&$t=c'W93/)^F)V=_/@cm'-'x^P<|&_/M#}6t=W9&*19S**^B$t=|&C*r;I)S*d]9F,3o!O*#$r;F=o$t=<=R#8/-&J~k):7F*~^z$+^B= ^V=T*h^waJ'd'p$w$o$P=p$O=L&t=r*($Z^F={^t=w)F^kaP<|,0F*4p!D5|q@yi=Q&(/w)r^P]P*D-e/[*u$v=R^5$ ^e&m'd^Z^k=//O&d*P=t^ki^>(^3&R^Z)X<a*V= ^m>-)9^V= ^d'F&-'Q&Z^*^T*2$-'y=X^D=VrI32]](J^m#e2$-69k)d'*^9^2$H)-'b&d''/w=t^=^H)V=C*K<d'1&e&e&O<D-R^<*o$>[t-c=S*-*b&|&+^%)P]9/t^R^Z]V=P]2aR*T^J~r;sh$-b$K&/%R^e*w8e&P]t^W'!/7%V62{i{3'kak)g*,{qs&#S9A=~*t^)/E$'/f0S)u)#/9^k)!/'/o$2^Q^o&g8J^ltQ^7$4^R#Z]8%t=k~<#~6}]([v3Z=:$w$!/m*n/4^Z]7%o^_///Z].^1^Z)7%4^n^X^9,{CZ)#^n!X^s^x0h/g^u%h$q'g$h$x]*/6$Y'l##7n!r%!]M{=$:/y4|'<$R^C8T^T*1!U$1{t)X*@aZ)k^i)*^`]D=P<$-7=h4",
"g}N&I)L&c'+*Q*2$V&c*Z&Z-aFM#b%e{{&+*a$7&B=6-P{J6!!k6M{b,)#n!47b,D^%$]$b%9^8^}&U7,3k/=(l>S*)9J'n&g3)!Y/S3y=YC;^d$u%2%~*3^B$p$r$2$b$k)t^e&^*J[d^%)&^5*X^b*t=+^o&a$T&C$w)o$z$@cP<(,R*p&2*')B=e^z-g/D=Z)I8p&T*R^h'-/P]R#w)V=B&)*x]r{M)w/10L'R*@/W9X&R##/d^$-D-d'9/V^v=<*J~a$F*9^t^k=Z]X*2a2*Z^-')^**')='(^p$A=D-2^ aN&K&k=B= ^H)E)%'R^($y<v/9%j2r[h=#/$0`]7=t^o&9$A=0,%'v=d'a$F=g)!*D=p$<&%'M#D=,[0,X9(^2$)^V=*)o&{/i)V=%'v=,>o$/!(/R#^*@=D=C8l>&*%)h&^*<&';P-}{$5S/YcU)P]R*@^c=J<k)/*w)M^W]P]z$H<c&D=d'W]W9P<R*J'A=t=h'g&w),>$-C8c'V&^*R#D-T*m>9/t=)^N&+^==~^#$S=E59';'E]O&/&^=R^D-k)]$)^O=f&Z)H)f$J'2$B&Z^**2$p$7=9^q' ^*)*^i=!*&$D-E*u^*^(&t=k)*^^>J'R#N*9^d'`]v=O&E$Z^e^d'D-e&*^_3W$]%([[1{$M^t-O=G#Q<o&2$W]T*d'N&V=Z)';9^Z^P< ^a*<&V=}61&Z^#/Q^P=}6k=n'a$/&e%d'7$h^'/a$<&5$|&(a$-7%O&'/2$-'9^ /R*#^t^d[H9a$>[0)k)J~=^^*B7M)B^@{Uw>[^9N&C9Er87N6^=8&L&V=R#A<(' 9~/7%a$W]N<a$N<#>R#[^n'&[i)9^]$f^ /~^C8Z^u%EBL%4/n!F/35T^1/-4w)')e%4^x^X8Z8)55$C89/%/`]iv-/ /M^]$>^t$+^g^.$**P=s^%$.$Z];^D^D$]75/o/Q#s/:/{7J]=}S#[/`2j!B$c=i)&^h'B7s^[{:&v=&*5$F=-'t^m> ^h'o$c=r<",
"B~l;MB,=<&N*Q&|2e&l>m&+*<4_8(^K{w*C==>9/O&u!{3k/&##{so4%y<s^b5E#B^&$W/8%A^7$c=K~n>([,#`]h/k)]$R*]a.}w/`~Z-X***e^&*M#O&%)-'W92$|&J^O&5$t^*^z$t$}=&4}*2^d>H<l>%)C& ^-'+^F=R^F=Z)l>v*c'z=X*%'z-|&**O&V=P=P&Z^J~X*X*P=a^t^**i)y&}5bFl{S@cFQ^A^)^P<]$R#T*M#|,u^&^v<t^k=J'9^i)a$//{^K&&4]$a$.^b$i)<*a^t^p*v=Z)#/9^&[|,{^X^W9u%v*X]a^T*82i)k;Z{;'b5N5S)-'E*F&l>2(i===J-P]2$ ^J~V=V$D=H8d'k=P=w)}*R#u^k^P=J-*^@/p$c'9^-'b$K&G#{/]}//D=o&b*v=`]l>m>^>h&z-l>i)F<I)W~x)3{E/$tu%/&F~';@-e&d0m'O&l;b$$-{/t$J-E$K&2$d'&*&**))^a*F=p$t^k=-'k)W9&* =d$k=I~C8t$$-%^R#D=t=p&e^I&K{b5F#~,Q62$M<J9c=d>p&/&o&R^';5$;&O&k^a$}6d'**D-P<D-d'5$w)D--'/&|&z-g^F)_ak=7/~^*)**f=v*X*w)B=k)Z)5$d'V&D=r;N&n&+5X'y6b)k/dFN&,>X^Z^w)J[P<K&2$X^8&-'%'1&Z^7%V=P=P<j) aJ'+)]}%)!/8b&*k)o$t=X]T&c'W^**N&h'N&R^O08%t= =%'e^/*8/V=2$(&U'**l>`]g8v=*^&*~^l>P=T&s^d2(^(]eF/%}&n&V[l#4/]]2^//R<Q<0)//R^D-R<'/n&+[E)t^k={/T^o$E$2^W'7%}6!5u%a$ /w^h^2^4!@%+%b5`%C2J<f$hE3^s^&/g^s^O^N/h/P=2^f$Z]d$D=7%.$H)Q^'/$^p^`]|&t^a^.$J^b%9^]7a/Z$s^B^j^4%y/fFE[*}*%Z/Fd6-d[P=K&k=P)+6$8X~i&R^F= ap&-[Z]V00,Z=q&z-gF",
"4)==e&C*1=)*I&v&Z&<*';**w3[6%8GEUwC&)*L*|&g><]<<+%#{:{H/b5x)@8,/Q#h$x]!^x^~$J&A{K$~,-3E*M#f^%'a*C<F#1#~0F)w)J'*^7%X^l>&*P#w)}6P]m*d^{^4^u^0,1^9,0,b*D-i)&^b$5$)^**#/**v*X]b^Oa>;/&F=*^v=F)V=&^k)E)R^]$P=a$[^,a>&,>K&)^7%K&v]U5P%2{%yN&,[{^k)%'`]G#D=,>2$R#u%`]p$E)k=P<k=R^^=7%o&** ^c'c**^T*1$m^-'>&#/2bv***d'f^k){/u%|$.$>;J'2$D=L#t^I8`%K/$5+{5'.^D-|$&/e&F=k=t^~*k=P<D=&^h'p$V=O=5$P<P<c']$Z^'b1$R^y=#^}=hFk=>[ /1&|,d>X^ /R*** ^u%-'';|&)^*)P]d'-'qlz]ZC-7>(_=S*T^K&F=R*j)=&D=-'i)7/P<u%**P< =V=e&H<b$F=2$k)J'd'X*Q^W'F=T^X#w$p&-^j)oaQ&|/*^/*)/p*H)Z]L&1/iFT@6$y4G4W&-)w)V=)>-)a$l;Z)D=_/w)1&m'W]M#Z))^*^v=`]l>R#*)-'F)D=A/[^O=D-a$ =t^J'K&W<z$A^2$:7O&w)v=b&c'==t=a^g^4%jF3{l#~%*0h/l;`u#rJ'=^i)d'L)G#v*#!e^P=0,-4d'R*/&e&,>A=,&{^/&S*9/+^U=k)t=T*Z^~^b$J-X^M#k)#>%^m>k)L#W]l;J9//2^W]R^(&#=p$R^v=X^-!&*<&n&&bg8Y7D^M)v/Wv!=z-P=+*kF]73zf]j'G9P]wam>~/N< [w)#=G^w^G#X* /d>0^7%i)D-:/R*>'W9W'=/-/R^X</[i)CB@7Y'([4}[3%-Q^x]i)E#{/*/M#{/q' ^D$1^.$r0:/+^%5{/~^d>9$X^6^g$M<`]{9Q^B7%8v7_89'<^;#B^($x]Q#93k6w7Y'M)l-($O&k)|&m'n!4/20s}8/t=g&,9')4^d'G#y=e*Q*V2",
"Sbw)O&1&/&(&]}^=X*5$}&|&L3,)[/+>6*F)V=n&C*@*lF%#F#+{o]/(M/6$^%($y#u%n8>^E'3/d^:4.7o!a{^>D=i)~^r*mFw/=7U[]&*^O&w^X8e&Z)v*L)D-k=Q^5$T* aG#w)T*2^a*Z)-^2$F=<&Q^**l>w)G#=^d$J[%'R*j)J<o$e/F)a$~^W]A=l>z$P<b$T^**L&X^P]R^X*B=;9U3J#X'<(R|*^c'u)X^4^k=^*R#L#D-d'0,S*-'-'c'e/a$v*e/S*c'1a<*$-wad'z-Z]-'@-O=R*}&a&5$W'e/L=d>e/k=b$p$k)i=3^^*|,~-l{/(67([*(R*8^z-{/p*r$~*&*e*t^Z)m>^=P]7=b$F=~^i)j)d'}6o&e^9^N&c$*^W]X^k)t^|&J8';&*2$M#O=k):7u$O=`^M<%'^*m*T&@-f9H0m/o5*5($q^t=L&J' ^&*e&J9k=F=<*u%V=-'//J-T*E=v===Q#V=R*e&w)#/D-b$D-v*Z]4^G#Q^k)E$k)**(&t^1$l>X^>^J'P][*0}nlI/G5|{e&c=f/P=M#R^v=E)w)X^R#0,|&9/B$k=w)`]w)l>^*P<y=X*X^N&>[G#l>L&z$_aA=~^P#y=2$2$z-%'$-^*m>k=Z^@-o$N&c&z2([6$*/f^k^V& /D-u%R*4^*//&R#^*t^Z)H)N&i)2$)^w^k)F=**}6a$i)T^w)9/O=P]}&2^e&O&2$v=F=^*2$0/l>t=W]m>P=u$0,8/P=a$*^D=(a&*e*%'n&W'.-d'g8S*k)k)9/x/Q/'^o>Aw8/E= =y3,/G'nF(^Z<v=J'!^U/`]!/m4t-J^V&k),9L=2^kaA<!/o$4^G#0) ^7%t^~$%'F=m^d>')>~!,y4;'$5t;:'f$/8i)x^Z]7%d>a^3^4^J^R#u%u%9^9^J^f^3^u$g^#/[^a^7%s^f$l#8%F#%$C^{$g$:/F$F#9$Z~b{J^*%18{-+^`]^=-'+a2{a^L{b'%'{CF)t^-&//`]P=q9*)'*W3",
"Xvf0D-v*;&2$k*N&v=K&==k)N4x/%%6]u&}&+*D=C&=*h]M/H//35]/(y#y<0$3/Q#m^-/:/-4l#k=){b5`2U~C*&/d>H8*&.{n>m/h{k)J~L)Z),[a^t^W]k=m>t=u^Z^X^.$V=v=}6c'd$F&>;D'i)Z)A=H)T*y&d$K$%'m>^*2^t^G#>&i)c'V=2$k)a$u%,>w&)/&*R^O=R#d'b$t^)*55w5T/k/T^'$h$9/T^~$c'/*X^H)t-O^e/Z^K&4^L&P=b$==K&K&W<,>-'p$a$E)_/M#L&R*&*>[d'+^R^V&X<v=Z^n&-'o$J'R*l>E)`0X&,[U$_=k4&#T@<!E!*)o$ =8%r*l>e/|&k)X9M#X^H8H)R^**rua^d'k)E= 9l>z-p$<=V=P<e/a$R^w)N<v=z$X^W]d'~* ^q9O&m>7%-'p$g/X#oF982{%%/0~'H8*)d'5*c$Z^)/N&K&d'm>O=T^d'J-{^G#V=,& !w^3/.^R*)^Z^R^p$d>O=d'<*|&!/')|$p*d^1&X9d>Z)a$V=p$w)u% ^>yo{](@(q3@bD-K&w)a%F&Z^:$Z]D-d^ /R^')/&(&E$c'M<2aw)R#O0}&]$O&F===;^k=3&X^,>}&E*Z^L)|,B$9,k)|&k)c'c'~^j'k=}(e]`#6$I3/1a$e'X^4^7/4^P<i=o&v=z-c'0^X*J-i)D=t=V=F= /Z]'$D=K&V=9^t^&*'bG#)^Q^N&k)l>P]J'/*t=z$=&O&j)t=#/z$-/q*V=,9)/t^('^=E*f=ka2^`]V=+^[*+^#^K$97x/E%M= =k=k)b}v/[/pFL#Z<f&*)#>O02^g*u)P=N<9/H8%'~$f^G#*^]/M#g^*^Z^7$3/W]B$}*u%O^!/a$l>w}S{H/,)<]E2#-P<M#l#4^.$`^]^E$1/l#Y7E$7$.$.$O^u%I$>[o$b$;^@8Z=O#o$8%E#a^D$%%v$9$O#n>Q#]7.{${;#Y'R9Xr1$==7=]$c=y<,3d]f)**G#N&b$P=u$F=19t=l>H=tw",
"qF/%*&,>b&e*0,n&O&A=d&V&`ex^4/_0i&c=q*(&>&{~:Bk/1!S3z{rFc%3{K58^y^M#D^q'E#Z^@*d3R/n!${i)8%[^Z]2$f2#7j/e3&4M^Sa9^X99^d'[^`]a${^i)%)O=-' ^!^V=&[t^n0h'(&d'&*&*J']$b$J'V=V=-'!/)^g&N&h'o$L&7%|9J^O<u%#/2*R^D-X*ki7/Q^L&d$2bk6V%!7HB$tX6d>#/**i)Z]@-n^w)7%k= ^k)Y8)>E=+^2$D-&/b$=>/%k)J'r;e^>[k=-'z$Z^t=**V=#/P]t=2$^*2$)^g*d'u%d'|,a^l>]$R#W8d]O/ 8`%U~Z&e^Z^}6]$b*i)W9N&e*E)]$c'I)P=X^d'-^2^J~S*o$_/D=t=Z)B&O=(aP=d't^<&m>X^~*P=W9F)v=~^E$~^K&a* ^'/h>(4A5s/]%Yf{$O^G#w)k)~^T*^>l;z-K&w8E)h^G#e&//R#,>`]U=[^a$v*A=p$-'k=~^&[P])^l>';V=W9v=a$s^~^o$l>C*P=H)k=(a2$Jb-*D#b5'!e]U[c=a$ =*^Z^&*5$>;D-E*-')^Z^{/ ^p$D={/a$}6R^:}/&K&V=x^e/)^*^/*`]k=/&*^e^p*R* ^P<J'K& ^T^J'p$A=1-sFy6j/J/u!I8F=9^#=~^'/Q<~^&*z$k=o$v*|$w&D=h'P=p$m'3&-)e&+b>;]9)^~^n^h^P]*^**0,|&W9p$o$#/|&L&]$e&R*dj)^N&P=3^J-h^n'2/R*#/G#t=z$J^S*#9|&w)n^!* ^>/`pj/p]:~^>h&'&+{Idx)0'R*m9T<+a#>'/9/N<(^*)N0q^//|&&[w^8/)/(^^>o$(^q'u%.$i)a^o$l>!/a^l>`^Z^R|Z2-7|#a)>}8&b$8/J^o^R^1/-4~^'/t$f$a^^*M^3/O^8'Z]n0t$=^%'&*)^m^5/o!E#g^I^]/o/1#M/]%Y'>{c3y/67C/l&d>c'D=';:}B^J^$67A0,k)`]l>-'F)d>z$**D=kiV2",
"(C9^v=`*Q*N&2,1&{&c&E$R*R4#8x7Z'e-d*(&{&-'5&P{b6n>J{<]D#v/$$D^.#y~)5;0o/a^m9%^A{kDx7=}h^!^J^w)**z98[p!_0T*T&h/e^9^v<=^%'SaE$&*4^t^L={/k=v*'/T*X^==d^<&J't=p$f=F)|&^*r;**W'Z)#/F=!/9^***^z$t=&^T*]}X*d^)>D-.$T^J[-'3^}=z2R/=%|#tFy^-'9/G#**l>v*R^*) [i)d')^p*t$X^-'%5|&*).^b&+^%),>K&e&l>Q<a$t^%)P]]$t=[^>^Q^R^d^u%(&Q</&Z]3e6^K&u)&*69N&*/umH5J6`2P{ bJ'y^$-}&&*b$R#Q&h'~^*^M^H);9D=7$w)&*d'l> a//P=G#5$t$K)L&z$D=a$X^a$t=}6|&e^*^ =X*X^R*-'X*==L&*%T5+%q'j%f&z- !*)_e2$j)ju')5^`^**e&e/X^t^%'M<,>k=>;v=~^w)**~^2$2^/&D-B$%)M#'b(&>;c'&*R#Z)q*l>V=T*~^D-0,u%**k^T*wAp6M/l/K8 =D&w)3*8%2$o$J'4^P*b$Q<//_/S*p&|,Z)>;u^B$B$u$k)==Z^)^c=m>R*w$v*R^1&x^:,**2$h&V=]$7,9^]$a$L&R{57z<l#Htb/L&l>=^'$*^e*&*`]u^t^%'P=>[R^)/z$R^**|&a$**}6t^g^e^W]D=t^m>X*J'w)7%)*f^}=2$t^Z^ =R^M<4^P=^=^*]$Q^W0p$F=Z)J<Z=P<W^t^L&7%%) b//!/A=//(^~958%%{{h;m>V=z-W2s087)yEa,9_r1^k)X9gar0Q^P<P<f=H9{/g8p$*/;/&*+aV=Z^M#2$Z)&*k)a^b%w);/`]!/8%4/^gZ~{7o/q]Y[PqS# ^i^L#h/L0d2u%E)t^J^W':/M#t$s^4^**B&&%J^g^-4h$2^5$o^D^o^M#:/v/o/v7y<J]G{n>L/p#j;b$k=e>7%C=X'U$%4 *d'l>W]r;2$~^2^2$]$2$J<zn",
"h-W=';#!^=~*v=7=#=^=d*E=I3,}0$=]!-p$c'x'<*iat]K/u7h{u{)!I/K/o/S%G#'^M#491/`^0/j>/(V%R{W]A^>[;/Z)E[k/y<[{K&Z^9'Z]4^2$P<R^*^.$e&R^T*O<~^P<t^F*D=R^P<R#>;J'W'J~`^t^L&*^e&|&^*[^i)O&V=h$*^t^**5$[%a$Z]Z^o^Z)D=|,t^+a//h'p!8]e]-(ta9*2$N&**)^]$`].^ ^C=L#M<0,=^v&_/Z)n0'/t^t$>[e^%'t^**=^e/w)w)-'7% ^** ^E)]$X^2$o$|&A=X*9/w)H)/bk=D=P##b2(o$k)c*v4!rj/<2z3[&l>k)c'2${^m'g^-'w)a*i)d'c'A/d^D=<*a$I8e&`0S*P=D->;m'E=e&P=l>V=E*e&b*&%Z]l>k)R#E)<*.)X^t=z=25HdZpJ#{g;9V&{&+^-'e^J'#/69L=E$E)p$-/q*W]2$J')^k=P#{/2^o&C8n^>;-)a^**i)d*}*W9p&Z^>[h^|&J-N& =X^z-S*w)%'-)D-a%R^($C'X'H/,5T[52Vrt=b$<&p$)9P=**k=z-2$l> ^0,2$k)a$W9<&O0J'{/9/M<k)R*]$F=**)^y=i)<*i)=^}6!*m>d'2$5aP<== =>{T@D/9%*|l#c'i)G#]$&*l;Z)>[e/z$~$8%8%e&S***G# ^`]A=d'D= /19='d0e&X^D-h*m^h&'/D-i)**t=f=T*.)>[O&A=u%F)z-X^-/E)ua&///l>W]4^(&2$R#e^e^f=^>%)p)P<X9F=_7G/K{m~p*.-eqO357'AuFM0r^'///m>L0 /waQ<la'b(/W'M~|81^P<h^!^>[_rw)e^B$,[`^#^Z^d'(/g^z=D-y^P]B4+~3#/8}]w5 >1-1^>'t^I^t$(/&*6^8%)5o$:/1$(^a^1/t^#^ [!/x)g$a^9';/8%#>T/($M)D^z4n>jsC[Y{+&)!1! AE$-'^*R^b$T@z/.&A~<&';V=V&g&#^<*m>V=<*[&Z4",
"vF9,~*g*v*p&Q&k=C'D=2$Q*I3f^]71B!'t=2*2$v=8*J5$$-7'{*]y~/(w%[/z<n>x]9${7^^5^L&4{*7B5<4k)Z^|$o$f&.{H5T@*}t^uu'/V=^*X^s^t^w$A=d^A==/-'7%P<R^e^]$a$i=*^Z)0,7$S*]}8%D=J[g*7%V=D-t$P]R^u%`]o&d$)^F)F=Z^m*#/R^%'^*==i)p$p*Q2[Ew%l{/|wF.$}&&*X^w8d'g^t-Z){/E=h'J'k=')W9R#T*t$3&%'l>a$F)X*Z^p&P]>;*^V=H)F*P]k=y=**Z)>[i=G#V=e&]$a$i)u%|&l>w)F)**t^Y7]~P{c%W@v{$$T*[^B$Z]#/d$t=f^.^m>#/<&W<P=>[b$t^r;|,`]>[k)V=B*F*2$E#L=N& ^D=2$>;Z)2$Q^e&2$k)g^Z)a$=^~&i{N{1!s^L&e^i)~*4(h&l>w&H)Z^d^k)V=u)i=m*i=J[7%>&v=T^.^D=Z]*^L&d*[$-/w)<=7%t^`]Qz|&7%<*A=t^D-i)o$a$x^&*Jb{/k)a$<*o$V=(~g3^%^wy{<^M<}6'$6(z$v&E=g$c'P]Q^9^d$d'-/t=8%F=P^T&**v=2$J'}6**4^k)W'J'Z^c'|&|&6^`]k=X^u%P<k)Z^n&23@(Q/y~x/W&J-%^]$-/d'&$t=P<'/';X^X^L=2*1/X6T*!/M#a^p*H8V&y=D-V&X^E)-)k=D-<&2$+^u)E)R*k)e^m*H)-/L&a$P=t$|&k)E$]$****F=|&T^**Z)P]a$W0k)a$<qh-m'p$R#n/DrY'xF)c>;)/n&z3,7G'IdR<T<A=T^';';q^Q0Q0`02^+a-/}6u)V=1^ [!/X^t^*^!/K&d'0^X^)5M)<*S^F=g^#>G#>[L/U8k3c%T@y]r[;&A$Y7o$J^y/V=4^g$_/~/z$l#8%Z^O^O#L#C^%%[/&#7$x^[$L#~ea^}%4/O#l#]7s/-{Y3O#$$p'0!L&.-N&W<O=H0%%0}^;S*T*P<-'o$2^Z]~^!/v*I&f4",
"yFF^D=A=A=v=w=R*!&F^E*)*c7W/{7^{S!j)p&t=iAl&t5|#b)*}j6O/@(o!]79'b5[^8'%'!^&$t=`~D5M5=}t=8',>-'^>t8T@n>J)-'z#1(7%&*E$h/D= ^*^J'&[)^G#q^k=J-R#4^w)-'|&//9^P<g&D=~*z0u)5$w)m*L&wa a!^k)8%w)2$e*V=P=z$J~T^Z^r;5$V=Z^e>:]K5x[.#!/W<b*P=19H8B=&^G#k9o$R#2$t^P<R^K&h'@cZ)k=J<w)&*K&)^**~^#9//<*j)M<i=W]>[F&2*Z^d$F=w)p$X*(&h/V=P=m>P<}69/T&b$Z^[^**n&+&M//(<<P~R&C8h&V0//X<N*e&e/b$%'B$-'7/8'+^m*J'Z)&*!/L&&*F^b22au) ^Q&1&~^R*V=X^P=c'c'P<k)<&&^d'i)3b35B5m/=8M6Z^X] =P<z-e&-'R^**P=**2$ ^P<*^Z^J't$&*C=7=W]W94^[^E)O0v*E#-'V=(,z$R*^>==%'k)D-1$n'*^O&,[w)** !A=x^Z^d'Z)E$l#n~J5|%Y5#}5*F=e&R^J[%'*^P]i)2$*^^*>[V=a$w)P*f&$-d'Z)B$P=`0)^5$R#P#u)p$X*M<`^<*c=*^o$A=c$/%<&|,-4m{Y'47v]zF=/k)Y8Z^*^D=h':,X^V=Q*A=c=7$S)J~R^/%<*f^#9X^t^G#==J<h'<qL~1&k=u%d$p***d'7=O&e& /,[L&D=&*`]'/S*u)d>^>k)t-x^}6_rf/=&w^w)+^^>J--'u-f0V0X^S*x^o!z<Ya)3R#g8R<H~IdC(AF%)6btb2~`0{,$b@-[aw)-[V0%'2^a$-[x^d'I<0bR^w)^*}6a$!5d'>[h/A<>&&*M#I8O^9/&/C^[Bj>([]%g]G25*&[.$9$d^(^]7g$1^8%E#a$~/9$'^L#a$B77%g$($[/O^7$7${$&#A$k41/y4r%yaT~:{c%$7p!X=)^d^ ^2bi=}7g$M{)&v*T*w)5^t^`]i)u)#/P<n&84",
"/7j':}<*x'c=^>J<y&`*H&q=53L#|^M{:']&7^%)k={-w5@#Y'I]$]o5r9n>C/]7&#%86^c%'^{7<&%}u5z6x3&al#^*5([bL3,)f]k{k)*^>;h^a$J^Z]%'x^c$V=d'H)2a<&J'i)u$X*%)E$d'M<t-P$u$!/-[J'O=%)k)%'|&|/J'O<**a$a$j)a$|&D=7^R#A^t^7%&*F*w^R^(4^#I/p4M[-/g8N&M<k)#/q9*^t^D-==m*i^m>F)k)=^/&2$^*2$k)9/#^)/!9R**^{&v*1&'/P=>[Z^J<G#$-V=~/v=u^N&*^-'>;u^v=1&J'&^v=N<w)7%BF;^auF'$7F$<]9xD&d'|,D=-)p&n'd^W9j)~^|&Z]V=ki)/**Q<//4^,=E$#/&%**b$7%#>d>y=N&~^%'p$e/E=D-o^]}X*';X*=}G5W@B7k;n$W]t^G#R#v=-'_/+^d'-'F)M^^>c'm>uak^V=v=t^+^==8%>;*^d^8']$V=Z)J9!5//P=>[l;J'*^^*D=u^&4F^/*P#r$Z^E=z$A^M<c$W]==2'v{K/z5B{M)0%|&d't=V=|&V=R^`]2$49&/c'F=>;P]O&&[B&c'Q^w$b$F)d'i)'/!/X^P</bG#u$u%o&]$w))^R#w=_*s[8[479'M&7$t^}*!52^(,P]c'v=)*R^**p$`]J~X^F^**<*='P<2$#/8'm>**S*/&Z^W'n'k=f&n&P]C'P<P=P<,;-)D=Z)**R#}*R#BaG#V=O^{/J~`]W]>['/7$J~_>t=';a^P<J-O&V0t=&*(^CF@y;]DF<*';_>&f|xz7EF>/.)A=w^{,FFGFV0G^//ga#9X9K<U0j^//S#&[F=&^P<~^D-;^ ^h/%)~^#>9^Q^g^t$ /&/Z]]$O^n}H].7.7w5G[|&I^)^D^]$4^A^9$9^f^.^a^z$E#~/A^S#-^H)r$9${$g^D^Q#D^&#]7{7q#y<o^B8${$7b5)!y!P#},Z)X^c=<<P$q{|=!^Q<_/f/M^2$7%u%|$V=q;R~",
"Rd19X*/*7=^=D-p&c=v&-'3*%dj^1/^(I=)}I<d*<=;&72}tx]D]f{=7I/4/9$f^9$J^M#Z8;^s^S*-3}]M/j>|,s^5$m*{&L]##J5q{-)7%i)o$4^h$>/g^G#W]!/ ^a$T&==a^Z^|$Z^w^[^P]X^}[R*-'T^Z^2$9/J'X^&*N&e*c',[R^M<R#N/d'R*i=i)P=;/D-t=)^W]<=6[j]k48[D)C8(,,>9/J-2${/D-p$=^u$7/V&wav=a$}6}&F)9/R*{//&D-`]J<Z^d'|&^=&*P=m'%'T*p$}*(&E)9,O0~^~*F)N*P<o$`]9^Q^)*E)}*a$!/ /l>J8]7T!p!z5T@%&('<$M<<*v*H8]$.)c']$X^{/F=}=o$`]^*/&,=Q<d'i)p$m>d'==n'R^Z]~^D=e/>[]}`^X*V=m>G#!/V&^*W30'1^w%/}1&m>7=Z^}6D-P<-'C^7$1^>;b&a$b&i)V=O=P]-/E$^*,&H<R^z$Q&G#{92$)/A=X*m'y=Z^k)-'V=e^-'d^Z]c')/B&-'D-&*R^D=d'Z^7%&*8'mlj6o5M)b{HaA/L^k=[/X^M^,&g/*^'/]$;&:7/***/*L&F=a$m'~^e/d'8/^*kiq9v=R^t=4^v=2$N&[^k)J^v*L&t] 6W@B^!{wvE*P]k)9/J'k=%'F)e*)^2$e&D-t^2$|&H<e^9/t^i)P<S*)/**D=}6`]0,Q*M<`]r0Z^:7#$V=O&Otp&i=k)O=9/&*%'la>&t-]$($w)v&T^W^Y]@am>l>P<//E=2$t^`=t=f=:79/(^x/d#GEq8f0n0I=FA }HF18OaXb0^M0q^IFob2F|bCb+4n0S*w~A<#>+4P<|&J'F=W][aX*Q<{/P]M<7%7%9$E'4^4^7%g$|8#^4/q'dB:bv/V%n5p2bqj^u^X^B^~$')H8y<h^.$C/S)s^#/8%~^j^t$4^4^-#.4F#O#*%9%9'b,x];0t8k{+&b)l#r!e&}6P<a$B=y<;$=8m;JF<$&^9,b&n&_/x^)/k^X&Cz",
"L6P<X&k)v=t=i=EsX*k=d'L&P~{7w/403-z-p&X^{^1,L5F/2{}>[{`@V5c%x<]7d#1!x06^a^.$V0:bT@!4e3c'b$o$-/I&-3p'p'*{p$Z) ^*^k=';]$^*`]P=d>2$X*T*>[d'u$-')^|9v=o$r;7$0,G#5$o$k)_/f$*^e&z-L~P=L&k={/F=l;c'w)W9Z)S*E$w)w)7=t=&$ba<<<<KFP't^/&!&c'l>h/t^e&P=**R*]$)/// />; ^J=c'9$G#W]D-9a`^d'-)Q&w)&*A=j)M#5$$0X^m'`]w)V=]$v=f$F^-'9/==O&`]Z^#/b$i)k))^2$*^!/q6';@fA[.#g]V2r&2aM<W]E*b$H8P]x^J-J[L&2$`]t=I<w)J'>;]$4^c'#/d'k=V&l> =k)t^l9Z)d>J[2$9^X^k)E)~*c3b6}]|x.36#`]S*P<W9X*p*(&d>D=]$V=d>D= ^H8J<~^ /9^**M^z-***^o$R^&[d'G#=^>;Z^**t^Z^X9e/p$J'u^n^&*V=b$!/9/a$]$Q<J-Z] ^**d'e*';},a#,3q54}L]{&%$u%F=>[~/l;W9P<*^2$a^9/T&&*P^D=E$R*t^**d*/***P)>;!/o& /C^&/K&J'P<w&R*p$>&='3}*7~71/to #Z^*^G#Z)N&+^|&h'9/'/4^K&i)-'w)R^`]8/0bR^X*V=e^<&==b&V=X*X*>;Z^Z^5$Q^l^E)y=P]%)C*c'9/V&Q&V=1&X8D=>;9/%;e^>[e&P<!/7/g*D=R*r;2$w)v=}6:7a$b&^>2^G/D^K{y!Q<~/%;-3LFMFNFkaOF&b)e&&w~~8r^5bQ<k8}=[8q^X9J< /q^k)<^ /Z<u%i)n&;^0b`^-/*^4^!5>^B$u%f$t$&*2^!/6sj~03B7D/c)z2t&g$<^r^.4;^y/1/~/d>=/L#o$M#o^+^d>1/v/9$#$z<[$O#j^Y'1!A$C^y)  q{|#M/a#W!o$k=~^+^ *H/]^C3t)**1&|&c'//a^t^%'=/P]f&cc",
"*'2=<=z$g&n-**-'Q&p&k*!*63>/($K{u*O&v&k)t=d!v5I/x)0{K{%#O/b)Q/f^QxB78'g^)^8^)&qD;'Q/20J'9/x^Z]Q&W2^%,34{h'z<E$u%E)d>P<w)!/.^[^+^~^k=H8//2$4^J0g/<&e^2$^*M^&/Z^:,F=O0l>t-o^J[//l>R*u%P]G#4^>;{/]$e/&*Z)m'&%9^d*gFD5P%|]Gu4^g/9/a^R*R^8/k)t$i)b$e*R*F)'/D-='2$4^P]>;)^i)2$)^2$X^T*t=R*a$e&i)a$n^#=},e&a^!$r;,[d'`]C*T*0,d'!*%'!/g^b&p$M#=^~/t^F)H)H)k~@>](,5A{k9j^9^p$i=@/v=k=h't^v=7%g*e^&*R#u^u%J[^*&***h'c'9^d']$z$J'Z^}&V=P<l;<&>;]9wac''/93;'#7']#)2^P<>&d>p$G#n'($t^H<i)**F=k)p*%'>^-'S*O&o$V=#/E)h'g&5$2*>[g^u%~^R#E= ^2$Z]~^-'Z^Z)J'%'d'P<9/-'/&Q&Z^u%e^-&J'~^},*^^>`}:b8[)!0]#9R=&%(&F&}6R^m'p&N<|&Z^u$o$t^ [/%n'c'2$^*w)&[F)<&i)P<t=h'9/|&F^ =t^V=%'o$v=S{w5b5s/S@;>r;d')^`^b$]$a$>&2$2$t=p*O&J'=^{/D-|&p&W]a$t^n&#/R^-[F)S#!&//u%|$)/Z)A= ^7%Q^m*l>X^ [e&{/^=t=R*X^d'l>T^}6P=t=>^Q<Q*8^&*^> =L&a$h&R*N<m>i=^9|$~/'!DrM{_-L&:79)V7`90x0uybZq,e}a$bFF|b}bX0L0Y0M0X0:73qP0t0H9o4Q^c^`]m>'/**#/P=0^O^p*4^Q^(^g8P<')]7h^8%(/($%'[BG]M)9%f]q2K<&*g^1/E#!/7%')9^g^m^~$D$x^.$g^z#1!1/d>9$($4%{$G8W@:/r%42`~h5W@n8p!]'1$**X^E=d',3;0mtR&n^Z)a$v=7/e/n&>[2bJ[p*T4",
"Aco$Q&W&}*e/u$%)(&v=b&!&.d`8x]v]U*N&F)}&-']*q5%#H/N]%{V6T@4%x){$M#E#h$@8y^;^i)O3|#@(<3v=q''$(^2=53K/K/:b,>n^;^7$d^h'Q^q'9,^>d> =F)v=d'Z^t^ =o$X^X^c&k)W9y=K&t=d'r;.^t^P]+ci=D=D&<&8/d>4&d'm'w)='^*R*-'Z]**d&<]PFU#x<D/v*D=B$V=V&h$g^Z^D-E)!*k=N&2$4^v=i)1^2$S&E$b&,[{$K&9/g^<*a^J'**P<R#i)P=o$X*#/^*O&|&o$J'P]l>v=R#b$m't^l>X^F&d>]$k=a$-/2$5$Q^ !t=D$y~,)%4p}-;l#!/l#F*2^t=d>`]i=~^V-k)w)s^D=A=D-**V=B$2$Y7-'(&V=L&`^D-}*>;)^ ^i)F=i)c*SaN3y4,)`27vs^b$B&a$O&Z]|&X^X^u%]$k)z-p&T*k)e/u%J~{/2$*^E)Z^d$N&#/V&o$i)v=5^o$19D=T*P=I<<*,>W<H)7$D-i)`] ^B=2$p$L#t=8%9/!*0^l>D=`^E)g^;'=7k]%}N=d^9^<&}6F)1&[,d$V=n'#/.^H)~^!/}6K)V=y=a^e/w=X^^=1&-'m^9^}&Z^}6R^h'%'7$O=W~@($$y#2DM$z$F=S#F=%;J'G#^>E=P)x^{/F&M^a$f>u$D=7%F=X*!/&***Q^Z^t^^>F)(&h'R*m>w)2(%)7/#=*/t-+[f$g&G#,[lad>L&{^X^u)t^X^~/^9B$Y7o$P],[u%`]}*a^m>X9}=l>e*Q<I^QFM)4A8BsbL8.b-3tE;0RFL8>b+qWbXb cpd4bZr'b99>eA<A<N0=/q'o$D=>[8%>[7%d$f^+^1/0^V=&*d'x^t$o$l#t$J^x^R^n/Z]Z8n^)g*}K/L%%#H2=&&$<^s9[^]$f$;^5$Q^(^;^8'4^9^p9]7U^)^E#U$s^]797($B^%%a^j>@{z#4%,3d!E$R^O=D=Z=V6|#W2a;S*0,0/**P<9/%)R*SaZ)d[UE",
"od2*^5l>y=J9(&19t=}&e&h&SFc%E#%(<;K&^*m'[, ;2]nly~0{*]a#A6E<1![/s^y~-4q0s^m^m*O33{C6h3o&A=juo$d*L]^%M5I3J'&[J'!/8%A$a$0B39X9&*O=R^)^a$Z)`]k),^X^D=S*O&}6e&v&)/K&J[v=#/u^L&W=I8O&{^D-o&D=T^X^d>p*Z)o&k=a$~^f=T[,$M)vvHrP]k=f&T^7%a$i)%'k=I~J[ /J~d'Z^,[7=o$J- =|&1^>[Z]>;**+^d'k=S*+au-P=-'B$P]e/o$*^G#e*S#/&@-2^l>R***#=`]// =a$,[($N&J'<&F=Z] !]$R^p-%4](V%P{x0t=M<e^4$`]2aT*S=>;a$G#3&D=J'==2a0=J-c'A=7=}6-'-'e&{/E)v*d>g^D=[*z-i=A=g/%5r{a#0'S/O&I8d0}6y=&*G#S* ^u%w)y=%)'/L&-'w$#/w)]$b$ ^c'-&Z)0,J'Z]2$P<l>i)X^k)9^-'Z^t^*^=/c=F*o&Z^~$G#z$z$P<w)d*d'o$d'O=q9R^T*c'#/i=<xj3@&M/i]a'V&t=%']&e/I)d'p$d'A=v=M<k=G#v*-'R*J~|$0,)^l>S*d0k=M<8/)*//dcz$k)7=f/L-V4X'x]ErA#!* =X6,[t$V=`]r;a$*^q9m'V&>[p&X8R***{^R*W]%)&^X^D$#/H9'/P=t^[^X^R#P6X^i=|&o$e&o& /J~R#g8-'g^v*R*d>~^^>u%t=7$S*E)9/V=f^shP]'/)^W*d'!/%;:7T<k=h&(aq'[89$4ATFV0@b=[o;UFVFWF+eIpXFYFviwoZF3c`F G,9DaH9Z7+/}aN0L0d$W]a$f=k)L#Z]4^2/>[r;>[O^7$1/P<&*R*7$P=z<P=v=j)M<)!-w:bs/P%c]t;g)b$i/8':/x]1^a^7$Q^8%2$C^[$5$J~]^8%a$,/F#l#d21!*%K/y<03H{*%w/3{h>B$5*<$F)~*M)]724H=%)p$#/i)D=L&v=7=g80=T*a{",
".G<&V=#=k=y&o$ka:,D-}&Y)!,]/E#%]p&c'g***u%+GC{K/`9W~[{;c'!w/F#N/B^c%a^)5h/m4;9*}I/J5v6d'8' ^7%'&5{T@M5=8p*~$X^Z)2bB$d>+^5$W^;^D-%'w=d>>;k=Z^D=b&*//bE*b$D=J^d>X^l>g^t^E$V=t^|&P)p$^>n'[^^>+^b$-[R*t=Z^)^c*Z{HD@Gk4os;^f0{^o$N<w)T*e&D-b$+^**x^t^'/>;-^f$!&W<W]5be&'/q9d$EaV=d>P]e&2$**-'l>#^t=R^V=G#:7K&t=3&d'A=J-|,V=3/m>A/R*X^&*g&*^S*2^L&2$*^+^//%'@-z5|#y]#G!={^c=/*/bT&g&F=S=u-p*g*Q<u-7=Z&b*A=8=e&u~^>4&+=p&u-n&Z&9=f&v*D-f&$-{&@*3[Q/P%o>6|e^ =P<%'<*2*l;|rT*O&D8***^^=c$h^A=w)Z)o$s^O&F)R*)^X^8z,& ^k=V=2*y=o$,[^*A=l>>[P<e&a$**|&R#B&t^^*-'Q&R#`]R^N&d'%^2$&*==D=k){%K&p'!7c)gFY<5aI&u-r*V&I~}&-'A=-)k=U'9*(&/*t^v*|&!*u-e/,;X&u-V-C*F=g>V&N*[*i=J&Qx~{*%)5&D(gA$R*~^e^R^b$},W^%'x'($D-K&Q^d>P]-/2$F=%)Z]P=D-K&&[N<&^^*l;m>d'2$**,[1^i)i)v=waK&/*+!P<#b+[>;F=>[=^/-:7*^+^a$a^//g8a$w)h-P=|&^*d'd'}6G# /8/ =W'^*4^$Gd2T{%G9&}a~;*4&G*G=GYd-G;GPpBc.G}c(qT0Oc>G^/a9xbQ^2^+/N<m^0ba$#>[^f^e^]^v=P<a$>[X^a$t^~/e^Z)(^R^L/,GJ^ ^o$1^.$m}<5nxj/`2r[+=.$3/K$P<($;^8%*%a^C/y~S#[/{$1^,3u%{$B^8''^r%}7s/z7*4  4%b#y/a~Z)9,O&8/shI6B4F]r&%)M<t=t-')V&d'~^x'n'/*f4",
"*'k)0B/*F)k=<*)*X*t=y&=*7[Gdy<${=&e&2$J'k=9*e{W$L/D[G{B6A6O#w/u#1/]^%8%89'J^m*B8j/T@0}T=2^X^a^t*${</b5<4]9`^q9|$7%2$*/;[9^X^`]J-*^t=W<*^w)H)r**^D==a**9/ /T^Z]T^P<-' ^y=7%2$#=h'Z]v=R^5^i)4$J'e0^>t==^D=E$N]T@9'q7'Gf0X*<^.^ =2$ ^D=2$k)T*P]LyP]u%M*q*N*7%S*Z]*!%/.)~9Z^-'k)4^N<w&A=w)O06sC*d>)^u%K&^*f$S***h':}n^^*+^%'i)<*[^>;u%/&R#e&2$Z)k) =R#z-R^l*){'^](4{A{n2#{p4`~~{`~33U[m3U~F3I4F353/4U[m353.&T363T2[5[3$'F]G]j>U[C<U7=6U[d3p66]nly<7/E'A=|&d'^*F)t^r;a$~^R^t=y&T*v*w)u%X^A<|&b&2$Z]V=#^)^r;f&4^m*e^D=D=a$|&~^k=w)7%D=d'}*0^d^N&T*}&P=e&A=E)E$G#p***R^a^P] =g$-*R*t=h-d]'^|#z6B9.{I4Y=*}f2<{d3d3M413=8o;J{Q~E343)GU[20J]f2J]<!U~o;o;+fR{@{<3=}`~93Q~2]$6{7 ur#*^F=X^%)'/*^~^k=d' /X^T^-'a$X^c'R^d$Q<l>E$X9i=]$[^V=&*F=&[9/w)8%#=|r^>x^8/P<u)!/%'Q<d^Z=`]/&u%`0|& =E)A<9,v*G#e&!*1a`]f^>&7%]}w)u-N&S^!G';W-%)X^t07Fo!|qYuNcBcqFm3~G{G]GVb6deeoe^G<c/Gpd<s(GgcFaZ0G#+4{CJ02^(DT^u)q^}6J^a^ /<^j^w) aa^./>'M#u%W]9/g*h/D$f^!/)^-4A$s%_GSrQ/T@D5 >/t8%&/M#L#m^M^.$[$Q#8%1^9$Q#x0Q#&#s^!%w/{$87M/+%L/C]J{b#z7%u7!&*z-1&f^#=y5z<_0C&}*R^P<)^Q&Q<==F)i)/*R&7{",
"(6B=`=}&**T*,>p*~;}&2(Z=s3]7K${]D*X* E+aB&1'E<D/x)#x7{##,)n![/1!l#6^6$g$&$.4';H]kDD/Z2u^x^2$a$)*m[K/n!_0N&o$8%M<t^#/r%K&x^e&i)&*D=R^t^R#|rb$_/f^Q<t=e&k)Z^4^4^E$<&7$W]f^2$`^o$]$W'q9<*!^E*d'd>p&R^v=W9g&%}`5##+]`}F#J'e*b&%'9/-'B$V=O&o$a$2$u^c'E),>!$f&e&L&F)A=]$J~&^~^R#)^A'V0P=W<K&^=O&k)E=n0V&>;R^L&R#^*!/>/t^n&W^t=R#w)M#7%E=J'B=D=d>d'B&W]S*Z]`]h^:G+>.$*7/(u{f]v5<Gw]t5[G}^q5](y4&6yd}G%7W7T@$5z6eaf]<<CdJ5)4T@T/k]>4T)z5&]U{p!&6!76$vskr ^9,Z]|G//|&/&D=L&|&(&S*)^c'p*e/X^t===$/e/*^o$j'R*E=&*l>,>O<|&]${/J9D-Z^H<Z8w)==S*e/2( ^|ry=)^';`]E=-'v=-'J'~*{9~^#/1&w)/%*^dut^9|d]r%F#d7j2L%k]f]K5}]1GX'R/D57272~3t]u52]e]F5Cd[>$5p!,(n%4}o5-(K5zu`2x5l{D/<<b5hba'epy^p$C$&*A<`]z$J'!/i)&^)^n^}6a$!/P]Z^a$d'F=a$d',>X^E)V^J<L&)/d^]$w)~^V=G#&/d9d'u$$-Z^G#!*0='&>;A=a$i)**E&)/**e&m*#>v&D-Q<W]^>+^-'@an0R<+an0K<t-2~2a`]2Gz<4]3Gnb;bxrH~4G5G6G:f7G8G9G0G!qEeaGAqbGcG]cdGOF:>{a0);/T<3e]/:7>[O^ /h/P=:/L#l>`]4^1/k),9_/D^o$a${/!/%)R^l>D=%']77g7[D#9%~3p23*I^&#q';^;^3^z#&$M#C^7%#$g^l#x<1!9$-'y<k]V%.#Qx&3`6X@Y'O/a-]$/&c'u$-!k/U$<{E!W'YCJ=A=-'e/g87/(,(uM=W~",
"*'@/<*O&D=ka!*k=v=L&e&)*E9Q#1/ {L~a$';^=-*{&r5$7w//{@><8b5</)!y~+%{$4/.$|^N///J),)S%*{L^;^9^8't=23}^|#*}-'#5#/(/o$J'($c&o$`^{9>'8'!/*^k)d>^*Z^*)s^4&v*P<o$2$P<)/`]9^A^V=-'a$)*J[T^l>**`^&[!/k=X^|/^=]$T*&]M)b5-]f!**V=]$-'R*M^d'P=**t^Z)v=v=49t=Z)J'e&5$Z]F)v=b$ =w)x^u^J=D=@/A=2$v={^8%Z^Z^O^t$k=f$t$2*Z)c'#>v=|&w^P<k).$i=Z]b$**R^h'u%p$W9w$m's99^//T*{^@{x7m^M/b)[/U$2{yad2q'[/Q#b)X%M)6$x]*%y~K6$$42z#=7$7Q/x)K/1!9%p'b,M/#7#7P%x<o/D#2{C]vcR# /&/(/E$-) bc'w)C*a^u-n&c'{^!/m'`^ ^%'G#V=*^r;2$l9t^F)')O&R^D= ^R*n&X^R^t=')t=R*a^.$}=&[L&**W9+aa$==t^T*B=#^o$v=)*v=W^9^7=X^P<$)q{q/)4Z/=7*7.#2{a/y<y<b5+%E82{F#:/,3.4z#Er{7o/g$c%$$&#b5p'v7y<b).$9'[/Gd3/n>W$1!%(#>,>e&D=&/v<Z^w)N&d>~^]$A=d$v=X^M#[^/&l>t^l>g8^*T^~*0^e&W'e/#>^*R*T^]$//[*I)z-|&Y7M#`]19-*G#Z^G9{&R^|&Z<@-{^0^('u)P=#>e^`0t=%)P]2$k)V=W0a$P=w^ aEaP=#>HFx0HsbrPb_c^dA9eGfGgGhGiGjGkGlGbfmGnG/GUcdd]cvboGH9pGM0P029+4G#&*Pqk)q6~$x^k)m>)^R^,/*^&[!^t^t$4^)^3^4^!/g^*^9^o$F<g^un20,)n%l5u2qGrGA^@8y~9$)#>[:/4^j^.$4^9$]7O#9$`#&#g$!4F/y~03K{)#b)M/c-}6e&w^E$v=o!M/R{u*A^F)#/|,k=P#5$^>R#i=v*0{",
".q%)#=(&z=G#-;<*t=]}C'b&b>z7%%70Q=W97=^9F=eqz5</z7/3<4o!]%.7B^.7O#X$l#1!]^%8r*^Cy~nl*{|$7%a^u%x&#dD59%R;,>f^`]m^-'Z^')*^[$*^2$k^&*#/v={/kaE$o$O&G#}6u%|,}*G#<&==b$v=a^9=-'6^]}A={/M<e*k)t^p$u%R*F=H) ^r;%46$K/B5*}%;&*p$d^d'8%J[k*k=^*D=Q<t-Y9_>**//F)z$R^z-d^'/e&^*!/Q&V=#>W9*^7=p*5$W9|&X^z$2$v=a$^*B$m>i)!/L&A=P]b$2*<&W]`]2$^*Z^P=D-P]u$|&-'o$N&X]';=}o/a'p'Z~Y@=79#`@Z%<#sG{0S@8046`@aw[(q#,#qi*([(`/S@(0`@+]tG%(,0[0~x-A;(H%uG=%*3n>H04},7h'9/a$h'J'K&l;z-c'J-e/^*t^o$(,#!R#9/D-w$9^#/V=2$**^=R#)^T*Vrl>^*i)V^==>[w^J'X*d^D-2^Z^.^R#W<d^**x^X*A=Z)|,P<L)d'v=J^^9F=.$K&o$V&.&`2K/97`%`#a#=7d]q#]#80n{76Z{/(tu80Y@]#n{%(E%Ixx#o%o%*3d6a#5]<#%#v4u}Q%']@>B%@yO#)!N3|2W9R*f$O=d$5$-'d^D=`]Z^**;^J'>;F=w)X*V=*^2$V=P=A<8'k^V=T&l>**';`]O&h' ^g&Q<t0r;^>d'o$-*ka@-tdw)#=k)>[{^-'T*~^k)p$G#V^^96a#>%'%)#bu)Z8P]tb.)kau):7H9NFi/vGwGUbkdaqxGyGzGAGBGCGDGEGFGKoGGHGmfKpBcIGOrS0Z0^9#^X8T<#^P]3z,[0^q'b$'^(^7%w)P=x^2$a^4^+4a^g^1/1/J^4/=^R^]$4^o^ju.$Z|%(p!/(H%3>z-g$n^J^r%'$(^.#($9^7%D$|#J^#^P%Q#x^8[,)p'C^T~u6+&$$8[;-3&l>~^{^(,1!x7u}z=Q^w)P=F=+^c'%^a$q*`]8&qa",
"(9v=g&c&[^2$]&T&C&P=y=I&JGx^x0o>8&V&b$Z)Q&Z=2]D/6)c{@>%#x<+]r%=(]7y<&#.4B4r%9/y[Y5O/#{z-6^u%J^z*F3%#G/K~d'o//&s^8/kl*^7$!/d>8%8%a$Ex2$e*o$,[w)H)Z^B$&^P=D-%'b$A=%'P={^|,d0o$W')^R#J-u%T*G#1&b$|$P<#/w^'*i;Z'H/n!~{-/4^&[_/7=&*+^Z^l>f/P<2^*)A=*^(/t-V=&^2$d'//d'a$T*k)^*-/#/&*T*m>7=i=Z)/&u%1$P=4^P<R#p$0/)^k=o$e/(&M#Q<+^`]i)w)O&`]v=b$7$7%#/29l;t^W=A<D]}^4%v6KG!*mz,*EBpykrPt+3b/a~W|2!LGCB3t-9K!'2~1cg_sbgMG7ad|M|SvB}wvM|NG+2!ukgt)l5Z$18.{*~'$#/,[9^R*I8/&J= ^|&|,v=-'V=u%X^4^F)R*F)t=P]3^#/o$';k)y={&+^!/a$0,^*P]|,V=`]v*L&/bd$';%^P<4^}6O^u%w$j)e&+^e&Z^[&Z^t^b$x^1$v=|$D]1#}]t[OG@}8)S[s}MG^f6~$cMGGs0gP[}FZwktPGQGKy[rrt>~IsY!&|d/e2fw2!c/E}Hb=vNB};T@b5*786S)k[M#e&3^4^1a&*J'D=#=x^X^**`^t=//v*P<O&P]|&3&9^Z^D-+a&[Z^F=o&==X*N&^*e^N<r*<*A=9/R*n&N&A=!/V^X9m>O<#b'/**Q&T^+^N&**X^9/x' a.)%)'bG#hkJ<R*2^f=Aa>&#9RG]/O9c59bPc=qSGTGUGVGWGXGYGZG`G H.H+H@H#HEqFc-G$Hga%HL8[a#^7/[a =`^2$q'X^^*Z)7$>[>/Q^M#1/8'7$P=4^O^t=Y'X^j^t^#/%'~/ aG#r#E1%}p!p!k/y2r;~$6^7$[/'$ /x^[$!/g$g^N<o/D^8%g$;'#7w/K/s{-{v$Q/b,!;d' =+^x^!*`2j/X~(*,9]$%'c'D=d'O=1&5(3&V*&H",
"g)b^1&F*j)V=)^>;w)d'(,7=559'y/a]P&L=V&V0X^5=Q6|#'!#{P{o/*#y4j^F#%8y^:/-4}7h$W'd3W$K/B8N/A^!/]^'&G]@(.#1{&*&*4^Q^s^o$a^n^M#R^(^g^V=o$(&1&a$t^7$~$q99/t=r;R#k=k=J-X^Q&&/<*#/==t=2$-^z$-/u%>;v*>;*^h'>&|&J'n=%4u7;cesN3J&]9Z)p*4^J-z$`]#/t^J'e*%)5$Q*R^D=%'w&t^ /';!/9^%'-'%'#^P<h'|,#/k= =h'2*P]]$X^]$'/E*4^G#9/t^u$o$^>&*D-^*@/2$R^19}6^*)^o$l> ^`0 ^#=j472-()#'a')Z^v=>;)/&*X6u%R*o$M##/}*p)@-t^l9|&!&X6#>-'F<u) =W<L&t=h'I~P*(&&4O&t^*H=HM/X2X/q{-'P<_/t=1^**t=d'},R#F=i)V=D-^*D=t=a^%'a$J~9,>[X^a$t=w)[^%)f$F)O& ^r^d'E*I~u%F=E#O&J'G#&^O0Z]e^Z^m>4^w$i)S*^>c=w)0,P=e^&^v&u^Y4o5)!](sy %R*R#v='/`^ /R^N<J<x^ =i)P<N<0^&*n&f='/**-!/*^b#9.-1&@^`]a$**-/q^k)_[=(97:(w]P2N=}6!9D=w)7$c'{/,>Z))^x^k=O&V=A=D-Z)u$t=V=9=d^*^P< ^]9c'R^h&>^a$X^!/Z^N&v=w)P=p&e&5^l>ka**f=E)R^z-D-F=V= =|&=^V019k9lsG#>[W]:7Har^p*U0#^V0!5Z=-H,9;Hz7Fu-r>H,H--'H)H!H~H{H]H^H/H(H_H]h:HDoJeaeLcdq#q<HDau)^/{aw^ka//N^D=//**G#7%#/D-A^^>x^*^!/+42^[^`]X8Q^t=%))5d^7$E'G#W]M#`%+u70*7$5.> >@->[O^1u;#.$9$X^t$1/5/!^.#g$K/M#n>Z/([>^d]Z{%%y#n><E]&^>**L)2$Q/F$<4y&1^2$m*%'P<2$m>#/b&7%)*$y",
"&;p$s-L*@-K&r;%)n&[*K=^>#dC^;^K~X&<*m>,[)*'&%69%Y'a{l5$6M/n!Z/Q#]7}7}7d#x0y<h'-3;'c%h3J'J^X^=^w8V~J5K6G{E)g^.4T*%'D=t$u%X^D-d^'/N<&^V=!5b$D=t^+^;9==e^.$R^R*==V=**T*K&g^9^F=e&79R*I<J'>;**%'V=W]2/u^==N<D^[He]+&n!t4`2F=x^8%c$h'N&D=v=>;w)P]X*Z)#/&*a*M<R^Z]~^!9w)`^r;8/F<&^|&R*J'Z).$#/w)P=^*g^)/d>a%F=2$R*n&D-3&F=^*r$Z^|&t^#/D=P<R#_/|&2$V=a$'/O=,3]{J5:/*32=M^//k)w)1&w)h'P]v=+^|&d^V=D-d'k^~*R^d'&^2$>;Z^Z8**e^t^)^e&^>!/!9X*k^e*;^W|!}x6P%|{g8H)e&3^F=J'D=2$F=y&z$D=Z)D=O=u^z$R^V=D-*^#!e&2$<&D-J't^d'V=c=C*F=E)R^H)d'N<e&N&l>-'w)A=F=8'W]:77$/&O&5$9^^*X^u% /y=7$&[2$/89{Y/x]m[N't^3&a^**~^M#D=O<{^t^M^V=Z^.^O#T*H)c'k= =R*+4R*T*k=^*2$M^e&=^-'**-[^9x7}H*]]7K/q{`]P<p$a^W9J't$t^o& ^t= [Z]F=>[^*X*t=#/d'e^)^v=`]2$R*P=h&// /P]J~E=n0T^w)k^P=-'D=b&R*t^r;V=V=V=R*#/F=~^P<e>W9 ^L&#/k)T^}6k9N<&*';Z^>b|aAag8+[!bV0^9|H&81H2HVf[cQq3H4H5H6H7H8H9H0HaH<n5hPnbH1fcHdHeHfHgHedFaM0k8X9,/C^zbW]:/y/Z]5(>[0bn^w)l>p$a$V=4^b$<^~/<^R*;^o^%'3^ /f^+^d>v=)4'1v4U5M/T5t;k*q'i/h$#/d>j/o$O#x^9'+%:/.}y~S%/(l#z#`~$B;#c%|#_ww&d'9/`7p&n!%%T~|B^9S#~^-'='Z^~/d'h'a$ =s{",
"i0R#C*l*&*O&b&o&Z^R*O&[*75&#$^o[h'V=<*k)P]6,c)Q%%%A{a,D5`%Q/.#1![^x].4t$6$F#,[B8D5|#.&')')g^m4g&V~W$y~%A=^J[f^l>&^u%D-Z^o$u%]$I<P=^*f$5*~^-)d>d'b$F)F=m>s^`]R^2$W^9/=^i=k=)^F)e&H8f^-'O&X^R#7%Z^d0J'd'K&h'9/w/%69%G6U[/;d>F^J[T*Z^m'-/~*e&v=v*t$X9^*t^d't^[*t^O=1&^*e/>[/&W]M^%)b$d^d'i)J'J-e&`]-'K&)^2$R#^*L)X^W]Q^,&P]F*4^t^w)t=x^i)d'Z^p$*^-'E)b&L]M/5}`5,tQ^*^'/<&)^8%L&a$P<v=^>%)L&F)i)X*d$z-+[Z^ ^*^B$5^>&g^l*e/0)E=*^H8v*d>n&b* [/&k=D/)!D5H')&J-t^M<E=X^J<x^K&m'&*R*m>9,b$l>k=o$w)Z^9^b$w)d'D=X^R#N<>[S*<* ^`0E*A=v=Z)9/%'d[9^0,R^u%9/l;A=t^.^i=-'m^=^J~w)e^P<V=*^X*:56$P%P{>|c%a^V=X^J[2^H8D-8%D=W9t$k)a$f^====~^F)t^$-%'P<&*duv=6((&k),[N&e&W]g^>[o&V&*%*%D/V5t[+*A^z-`]d$B$^*E$2$-'C8y^*^t=*^k=D= ^^*G#)^k=0^2$!/T*|&V=-/O&&*f=G#2/a$,;*^N&^*X*k)n&l>v=a$ ^'/**z-%'*)--k)X^*^m*7/|&+aP]R0:7>[V=Q^hHPbJaZ<I=#b'/{GiHvGjH^dFykHlHRo!pmHnHoHpHqHrHsHtHuHuf<fve7dvHwHqb.aOF-[P=f0=>m9i/W]^9Q^8'9^#>4/2$}&C84/L#h$&*($A^^*O#y<`]{$Q&*^J' =J^O#4^Z^M)3w<3j/*7>4p2!&9$8%-#N/1#s^~$[/M#x79'!^4/y/o/*7,3~{}{)#Y5%79au^`*//H)T*t]z<qi{&I~J&&/'/.$n9w)4^d>t=1-W3",
"xq_/m>t=e&)&J=/*3*f&f&C*z3[^$^u{p&7=L&t=X*z=|qT/07(3m{d#u7!7*%1^O#K$9$v7D$&/d>*},)I/`~X^d>~$V$HaF'J5z4h]C=g$c's^G#t$t^($D=Y7&*O=L#]$(&{^M#>;^=YCD-t=>;)^M^m'3/o$2/E=j)w)}&a$F^&*9/X^E*a$v*t^k)Q^t^k)D=@/O&q*Su/#1!W$m{g6Y-%)-'}6c'm'Z]b$[^x^b$Z^|& ^d' =R^L&k)l>~^7%~^O0A^+^t$e^{^p*W9|&|&J~C8X8'/%'Z^P=&^t=B$v=0,p*P=v=[^'/V&N<d'H8*^l>)^D=)^Z^i=~,%aj/]7y~V=l>a$O0&*M#m*9^U=X*R#|&d^-^8%i=)^z-'/ ^';t^}&z=Z]9/D=8%T^ =G#P<b$t$2*7=%^N&)^k!y3*%,)u{5/p&]9a$|&&*t=d>c'l>&*%)*^**N<L&E)u$~^P<%'m't-Y9k)|,d> ^R#V&o$D=M^&*T*P<2*-'o$R^9/l>Q&^*7%N&8%e*&*J'9/r$i)i=9^X^&*w)H)V/B{q5b5)$4*Q^&*n'Y^m'&/!/V=v=,[|,X*^*v=D=`]k=2$i)Z^h'w)/*2$x'%'f/D-J[t=m'c',[P=2$A=J^'~^C/(b5e{x]0,v=f^X^Z^b&V=W]w)R*-*a$&*P<D-k)D-U=k=t=Z=7$G#k)D-2$%)S*'/T*d>7=d'^*a$b$%'w)-'L&7%Q<i9P]w^h&2$Q^P=**w^9/P=e/r^$-@^(^k)>&P]*bq'w);[L0Ea';X0&bU/xHyHzHAHMp_dBHCHDHEHFHGHHHIHJHKHLHMHNHOHPHQHXd~qDatbtbh0>GM0$-89#^p)O^=/_a29G#M#J'E)~/8^Q#Q#a^O^&*X9[^V=t^`]Z)!/a^A^r#r$x^2^')M^O#syd6o/=7$]3>C&u%8'a^x^8%F$($O#g$,)4%&#Y',3([E<>6*}+%s/x[Q8}6}*)^9/c=y497c]I=D&c$k)2$9/1& ^f/d>//5*J{",
"s'|&,[|,O&e&e/t^}6X&c'y&N3v/ 8@{K&}&=^N&9/X&q5b5%%;ah{a#](=7([Z$n/C%A$A^]7;^P=G]4]<<X~dbN/{7X9|bd3o!H/*}e/G#&$V^9^t^w)^*H8Z^#>F^X&w$($($<&a$O&!/%'J<#/Z^E=O=k)v=2$>;k))^*^8'S*3*}*-)i)W'h^d'w^&/*)f$7%/&!/B=O#},/(](R/1{|8z$n^a^f$,=)^%'D--;N<8%1^i)-^~9]$>;K),9D=*^M^d'&$t=!/&*2$f0Z^m*') [m>h'&^&*&^d^';P=|&4^p$F=v*N&%'E)j)t^P]%'M^*^b&t^t^p$a$U[b5n8qibg8/Z)d>~$n^2^R^}6';#^k=P=#/A<d't$D-|&E={^Z)8%8/7%9/V^E)k)0)Z^`]M<<*5$M#0,~^R#s*T=x&l{{%$5t[i*ZrE)V=]$9^E$J'}&}*v=R#P<a^7/R*`0c$>;,&&*k^D-|$2^g*P= =c=c'R*<&>&w^*^B&m***i)&^}60///)) [7%X^2$)^&^e*D=d'Z^**-'6^,=S4w]K/66eDD$P<]$D=Y9C=g^O<9^&*`^9/Q&a$>;W'Z)=^9,D-L&i)w$)*T*)><&e*u%a$w)9^d^T^J=B$+^k)J'`^X5{$)!#}C&Y7V=e&n&!^F)e&a$l>7%Q^f^#/X6y=D=O&d^*)-)e^d'==E)-#G#e&W9-'|&t=J'M#d'`==^E$`]&*]9N<N<**d'*)N&_r;9V&&b>&u)>[m>#^P]'/,9>&Q02~#9#bX9g8Bb-[RH9b$bSH58THUHEqef0GVHWHXHYHZH`H I.I+I@I#IUn$I%Iqf7d&I*IPpFaM0!c!c,9#^w^2^ a9/1/P<ka*/+^!/,9X^3^ /X^ /w)s^d>k)d$!/O#+4g^q'D=w&9$&*#/~^3^n>E4S3T/3{k/j};&C7+(^^&*5/y^U$w7[/q'F#O#4%=73{g3c3]7y4<]!'v=V=w)%'M<b6'^{0f&H8V-2*w=a$7=Z^T^^*i/J8K~",
"ScE$Z=m'Q*v=A=J'b&N&p$z&=fm4E/$]2=p$z-(&<&6-z6w%@(>{){Qt@(0'1!{7J^C/g$Q#z<.$#9<3M/=7%}p$>[Q#d^K&f2T@)4K{k=h$E)a^'/h/]$D=**)^o$M#)^k=9/)^X^~*z$|$G#Z] ^E)I8u)/&|,+4v=V=+^b&/%P<>;E=d>D=D-g^z$P=a^l>R^&[2*X^i=D-6|p6k/$$t]m0#*n$v=&*J'==D=&*2$A=A=g8|,9,u^/&**R*%)D=.)F=R*X^:$d'7%w)=^P]$-^>B$O=R^y=`]{^4^_/D-S*F=>;p$B&^*<&E$c'u$X^W]w)&*_^a^t^+!h{s5nlb5h/iv&*Z^w)F)N&pt<&`^R^i)a$w)x^Z]Z^E$>^//k=|&&*R*M#i)W]E$-']$J'//a$^*H)//e/)/0)u)i)+)];40M/M/<]/(~$}6H8**t^t^)^**a$P<F)Q^ =M#X^2$J'~^X^i=X*{/T*D$,>^>v*p*d*E=19^*w)t^4^f^Z&H)Q&0,R^e&e/)^19N&)/d'h/w)d''/`]8%*^<*){B5D5x]X^h#N0T*D=#/8'i=x^{/G#Z]&[/&<^P<e/p$!/n&p$V=`]w)B$2$i)>&g*`]E$K&r$z-h&L&'/k)<&5(($V@E[k44%*78{=I5^/%Z)c'J<L#[^Jb]$|&l>'/V=P]&[k)%)F)b$D=%)m'a$l>J'>&d'W9M#k=<&e^P<l>R#+a+4`^o$|&)^^*}*m> /e*Q<G#u)P<ps$-**0bZ]+aN<+[,9{,,9T<g8.bg*'b'cX6;e-IiH;I6r>IopwqSG,I'I)I!I~I{I]I^I,n/I(I]pqf_IEcUd}c;HhH$bH9obg8W'f0{/ aH9'/#>)5s^#^J^e^.^t$^^a^-/9^1^+^#/d'!/ ^.49^3^4^J^;^4^D^E)a^x^g^:I44n[@6[>t;}&($[$h$A^6^1/{7 % 9$71!o/n>$71{!{s%4%p!Q8/bF^t^F)r;!79$<3'-e%O=S*P)u%O&S* ^u)p*8&V2",
"<I|&3&F=**<*t^A=J'k=^>}&Mu%$0^[I'&}&k=K&h&<;M5k4([W~E{l#<<@(y~c%$7,3>^2{E#.$D=`~K6+%M{F^!^{7q't=20)4$5*})*h$u%m4L#1&P<]$I^A=M#R#t^9^]9~^h/%'a&t=E=|,g&3/,[Z<p$~*R*a$&*-'i)%'R#!/>;&$&*v=2*^*e/K&w)L&H)Z]O&N&n&Z^W8<]^#R9c],}&aA=//9^v=f^J[}6E)p$D=&*a$2*==x^]$J-L)0,'bN/t^R*/&e*Z^|&s^&*%'.$T^S*Q^u%//I8t$F=%5 ^~^**Z^]$6^J<i)z-i)^/*^{^**-c8'9^13<<'^!}<t4^V=|& /p$R^B$Z]V=R#&$l>-#x^r$&*&*t^m>t=g&]$d':7k=V=|$~^#/G#Z^';P=g^2$V^&^D=N&E)&*:/E0}tM/](`~(**)T&t=-' (E)V$_/D=)^T^-/`^k)t^'/Z^A=X^X^l>R#==<&a^|& ^V={&d^9,!*V&P<O&t=Z)Z^J~4^N*z<V=R*W]k=P#R*D-<&'/&[#^F=R#+9P%X'5{W}*/P=2$Z^F)I^T*X^<^m*w^u%V=a^*)w^>[v=_=~/*^t^i/J'A/!/`^h$>&o$d'o$1^)^P=~$F=V=R^0b4^R&z5M/$5B]M=S*#r{$F=6/9^P<F=P<A<R#F=F)9^T&**m>E$Z)a$H8u%t^4^W]F=t^u%~^>[F)F=0^H9X^O&l>s^9/d*x'&*=&//A=Z^w)D=[a`0k)V=}&{/m>:7@-@-R*';N09b@->bL&Aa'c-[Nb}I|I1I2I3IGpch4I5I6I7I8I9I0IaIbIOmcIdIeIfIgIhIiIkhL0RHM0Z7ka:8X0#>pbm^C^,9>[Q^|/($f0b$t^J^G#|/|/4^O^;CL#a$3/R^a$h$';k)#9{$yts^g#Z).$$/0$&2H]4]H5m]G[}=/[7%N/>#1/:/D$i$n>=(T@d2Q/R3W{c077B6_wA/W]ka~^D-,)n8g{c-d'O^F< /w)a$)^D=>;u%X&oE",
"jI(&5&e/e&-'^>3*<*B&e&;&#d[/J^<{X&|&.)kiF*A-%]@({7>{V{$$/8]7,3Q^w/9%J^_8-$-48/c{`/([S{E$l#8%x^D=*}b5B6V79/W^`]7/($#/ /2$p&D=7%%'O=Z^D=A=#/&%X*-'2^&*P<-'O<E&}&/%l>a$u%o$t=Z^[^/*i)-'Z^)/K)u%w) ^2$K&D-R*#/-'G#p$d*H607+%@(J]3*H)w)|&Z]i)E)o$t^s^V=Z^[^9/d^w)<*2$d^j)^9G#**2$>^+4Z^R^19V=F)o$&*o$%'2*9^i)&^o$4^V^P=>[S#N&E*p*P=F)`^%5p$>'6^x^1=P4|]8[6$e>!/*!%'*^,[Z^+^a^R^^>)^z-E&`]>&&^o$G#t=P<a$E===-'9/P<W]l>P=//Z^-[M^P]D-i)L&]$W=t$==E'!&(-t{m/%6%7@{z-`]d>K&P=J'z$R#v=2/J~J'2$.^P]x^v=v*R*X^e&c'Z^>&w)!/n'd':}>;d'1&X*|,-'Q&!9P=e&2*p$e*t=R^W9d'B=n&R*4^&*D=%)F)m3x[w/4}hrY/w)~^X^%'F={/z-+^ [|,]$Z]&*X^w- /+^t^2^`]`]S*k^D=P<7=l>V=g$M<*^R^1&u%D-~/p$F={/^*&^Hb=}3{P%$5Hs**9^V=|,u$G&D= ^z-l>d'Z^t^//U0F)P=|$&[)^G#>;S^>;)*3/,[//t^l>t0P=$-:7P='/a^t^F)m*x^&[O&F).)'&(&p**)P<7/-[,9W]!bD=8/E!F=Q^G#-[R<[asbqc4b ckIlImInIoIkhjepIqIrIsItIuIvIwIxIyIzIAIBICIDIEI@eEc~qFIJcJqG^lsT<OFF8f=9/K0w^Z^>[~^d$A^7%-/q07%G#C^7$0^f$A^}6M#M#&*G#X%&/8/A<~$D$9^**M^/%m^K/&up6M)x[4}z9Ba[^S#p^4^K$I^1!.}`#b,{7u5@>]{)(,3q#=~z$V=wa#^t=([E^O3u'h'W]D-E$C'z$P< ^=/w)p*[4",
"&9Z]/&k=H&-;q=(&'&R*L)=&k2g${7;]j&[*F^D=-'h)c],3c%<!e{1#~7o/%%F#{$p^K/x7n!S%'*/sj/p'Z2x^!%g^7%y=70k/b5o{F)i)M#L#{^-^.$)^J'd'&^J[o$Q#%'**k=o$5^z-P]O<Z^Z^R^D=2$==)/E=h^o$u%T*>;t=p*u%F=d'*^o$R*-'D=L&v=H)S&D-m*|&n$GI86B5u5j]V/P)D-e^($r*`]o$a$k)Z^Z^d$i)R*t^&^Z^-/a$7%G#5^5^**+^&**^F=k=]$B$i)X*=^*^X]2$%'*^#/s$8/W]';2$}&t^,>R^==u$R^K&7%9,6${{T@O/qi{'H8q92$t=N&p$+^V=d^`^M<X^A<L&[^o$**Z)>^a$T*a$R*a*')V&!/~^o$1$*)g^<*t-o$x^9/u%J~d'u$./k)P8]|o5=7`%X3sBt$';I)1&t$k^y^D=Z]m>w)]9%^<=9/X^)^u%H8p*D=R^]95$1&k^x^1&7%v*F=R#`]i=R^N&k)m*5(V&V=H)~^v=D-A^J&Q&z-X^b$X^n^%})!f]F]2-X*N<z$^*J'e&D=2$9/,===i).^t=#/'/)>Z)|&E)E=j)i=%'*^1&&^k=P<l8 a^*q9B$}&)^|r!/e/Z]+^**A#H-T5P%o!/4P<M<A<#/$^-'<^7$L&D-X9u^d'b$w)m>19H<k=Z^P=,[R#V&!/F)T^h/t^////r;X^Z^z-ka}6~^X^)/t=.-`]f0G#H9wa>[A=a$A=X^//n&Y8,[kaH9g8P0q^<^:7Z=^3^3I9Z=}dHIIIJIKI6hLIvfiGMINIOIPIQIRISITIUIVIWIXI1h]GYI(cZI#qwHwbxb[aN<7%f=I^V=u)m^]/&[`];^&*u%u%)^k)J^#8s^g^m^C^{/D$t^J'&$g^7$Z^.$q9;^d>u%r#1/A$fvQ%5tT~!7V5g{T/-#G'Z]!%b)9$h$o/4/M)6$n!  @{Z/`I-(g~w)Z]|&P=c=*7y<){ *&^>;2$u-t^^*i)d'=^A=z&23",
":a(-==d'_*u%n&O&z-#=c'v&Mu-4]^@>6E/*/&d'e&u&m]9%H0#{o>^%6)y<1!0'o/$$`8w/y~6$`<<3I/~,o;L#3^7%4$';#{$5.7-39,J~3^C^e/W]u$c'R#D=1^a$D-m'k)t=a$8/3&D-t^d'Z^a$[^&$**5$d>#/]$-'P<R*D$^*R^k)d[**8%M<E)==A=P=1^8%X*//J'z$z-1^h&<<K/n!%}|&R*}6R^a^E=C*P=M#D^g$7%O&**^*^>|$P]O=9^]$r;#/&/C8O&(^]$J[G#}6k=d0`]k)59')~^ /H8O<&*e*V=t^i)T^2(O=0,d^8/Z))^@)H~S91!Er<bQrx^R*v&|$;^Z)&*#/2$X^d>k)<$W]E)R^d>/*M^W]X^J< ^-'v=F=+c0=d^+^Z)H8t^J't$e&V=I)a^^9I8w)h^W]@=m$n!@(y4U3 -*^B&7%*^c'x^z--'(/';=^e/ejh&K&r;k=v*d$a*a*d'T*Z^!3#/2*}6^*-'w)9^`]X^.$V=A=`]e/9/h$2$~^F)X*8/^=_/G#d*f=z2R/k]@7D1u%4/B$^**^T*u%G#I^!/d']$G#d^V=P<_/$-|&R#Z)o$2$X8W]V=2$**{/&*+^P=/% =O&x^R^6^8/7%&^c'&*';/*,#0'K$k4o2T*M#a^P]';J'n'*^'/)/Z^d>t^F=//1&c=F<S#b&}6#/,>X^J<~^w)n$R*-4t=.)b&R^K&~^-/>;`]R#9/G#**,[t^//A=+a.-a$ =9/w^w)~^#>t0('T<t^T0Z<('Ea}aOb JndvH|I.J+JiI@J#J$J%J&J*Jao=J-J;J>J,J'J)J!J~J@H{Jhe]Jwb^J.a{bGy{,J0h&n^q6O^X^-'U^s^0)x^-44^Q^~/&/7%9^J^*^f^g^7%**>;%$7$P=C^O#!/b%;^.$%%;^1/&%x]O#kul{37$543qB.$!%.$l#5/%%2{G/|#m/`@C<lw]7v/-(5tP#Q*5^~^';#7](!}m&k=$-k= an&2$X^2$u$c'X*$y",
"4)O&!&]*d&)*a*v=|&&^Z^t=U40'O#U{,;>&2$D=<*W-t]F/F#/{o[E</()5b5]7]7d#=7A^.#8'L)-3)!,)707$D$19&^O<h5A[,3M{a$t^]^pb|&f^.^%'.^a$/&X^b$X9W]4^D=P<|&]$p$e&K)Z]E=R^w)^*:}S#J'P=~^X*='v=%/+^#/a$G#O=8%V&h'Q*.$P=G#|&8/)^d's9Ju 3b5|#Y5*{iju$J'm>E=-/v=W9F=>[=&D=`]t^)^,=&^J=b&D=:7d^V=d'R^D=~^t^==Q#]}W]>[2/)^P=a$M<M#M#R*g$D=p$P<e*)^ ={^R#2$ =:,`/b{j/o!L%~&e&A=F*7^)>t^X^>;f$**!^%^l>7$^*t=V=}*`^<&>;/!8'X*F)2$T=`<8%Q^i=G#T^t$D=_/G#j)>;l>Z^2$z$2/,>2$*|`{v/=7iy97YvZ^T*V=+^L&-'}*h$v*Z]^*^*p$W]k=M<]$X*3*o$,[f&&*';T*7%*!X*1&E)F=V=1^i)m4J[c'2$7%19*^Q^Z)O=Z^t^Z]D- [x#G5F/b5t4E*}6k=m*a$19`]k)!/R^A<p$]$X^u$^>D&W]P]2^V=F=&*7/d>]$v=Z^D= aZ)p$t$A/1^u$<&8%D=m>p$f/ ^|&Jbg#/J72x7%ux{ ad'z-;$h/d^X8/&49G#e&w)3&-'%'c=**a$e/*^G#%'//p;P]V=X^h&t^@-*!P<=/'&)^-*2^9/[^~^d'E$t=**k)z-p*:7+aR^b&';*^w89^,[/*x^T<kavbka,cK<(JpdXbEa_J:J<J[J}J|J1J2J3J4J5J6J7J8J9J0JaJbJcJdJxfeJfJ^GgJge(GS0vb+[qc>'>[w^!/,[P< />;k)u%#/4^3ex^s^7%x^$/*/l>6$;^Q^./o$a$A^i)[^d>J^&$!^7%;^#$>^*^M#C^n/t^B5+(h5'*4^[$]7|^I/z/o/F/[>l#/(({/{{$,3a#q~b%0y>[W]A=V5]7h5;- /S*t^F=i)^>!/i)9/==kiSG",
"w~H9m;F=`]V&E*o&]&v*]}y&b>b)1#z{g>l>t=,>2$P*X',)z71{%4I/,)n>y$*% 89$9$)#L/,3G#03`/)!:b^*Y9{$1(^=N3<<Y5h5K&t^Q^a^a$f^E=3^`]b&%^W]D-M#%)7%D=*^#/3/E)P=7$|&j)Z)P<<*=^&$F=E=E=S*F=b&b*)^~^-'>^V=e/G#p$e&>;==D$X*t=0,X9G#&$$~$7k4t]-{2b19W')^L#**Z]%)*^+!M#(&m>d'P=P]A=&^i)w)x^X^t^8%}&i)9/>[l>M<2$'/&*J^a$}*x^t^2$-'t^u%d'P<t=f$w)R#r;2$k)t$@-H2b5j/']hJO#X*H8A=p&F<>;0,9$='e^d>Z^x^e&F)X<a$h'X^G#!/=^J[I~)^Z]P=|rJ~-'M#b%ytH<d')^J't= ^I~g^!/P#4^u%BaiJ:$w/x<n!v36-Q^c'>&_a==^*Z)7=k=F)i=a$p$D-`]v=k=B^d'**F)*^F&x^.^t$a$J-==2$';e^E)v*-'-'9/Jb>^u%d'D-p)B$l;h'b$l>@-y2^#@( 3dB==/%R^^*f&ka*//%,>t^')Z]P<j^i)/&S)p$:7_&D-,[&%:$N&B$d'X^4^!/=^7/h&#!X^l>+^b$)^d>R^&%a$)^m'u%a^#5,)n>Cd,{`*W=|&D-F<P<#/%'b$S*9/F=f0w),[P<k)'/{/^*k=l>&*d>@-V=e/kaD=+ad>P= ^P<-'&[**v*V=O&^>d'|&(&(^1ao$@-m>';T^O&3&0)p;fag8Ub('qc+[`0D~jJ{ckJlJmJnJoJpJqJdfCfrJsJtJuJYmvJwJxJyJCjzJAJBJMoCJDJEJZF:dXdH9FJS)}aQ^H9n^f^CaO^G#(^~^:8Q^X^x^o$1/1/Q# a1/Z^;^k^8%0,i)G##>($!^5/&%7$*^!/>^g^`^[6^*s^H8}=+f{f[01'5/N< 84/.4v/%%,3C%n!p!-3a}!$*%R/<-J9X*H)f01*GJF#`%@*P&Z^m*u$R*D=o$m*-'`]X#5y",
"*'{//*J'2*F={&,[V=m>l;O&t;}7|^@{J&}&C'>;|&g>#6,(2{a{;]]%$5,3A7t/6$[^(^Q#z#Q#P]^C@(n[^42/R^+c]/k=H'k/M/e4g^4/m^P<S^s^S)q6t=($N&z$R#-'d^h^E)~$P=&*w^d>-'R^&*J<t^>/:/9^0,N&Q&('*^B&u$-#<&a$t=Z]7%V=0,X]%'P<d't=e*a^-'-'X6c[XCz4}DP%B]y&m*F=m9x^4/J^9/7$D=w)d$D-|&#^J']$`0h'%'$-9/^*>&d^Z)u)J<}6d*G#d>#rp$>[d'P]4^P]v=^>d>)*_/d'p&19(,')2^u=4{C{$$;$&44%k=e&P<&^#/)5!^k)|&-'>;R*,>V&u%*)1$Q<R*m>Y8`]e&f$X*L=V&8%d'G#&*u$0^k)g&t$D=^*t={/L&-'k=|,P<')7$7/+3[{y/)4t4HJX*]$G#V=a%<&c't-k)!&v=&%[**^%'GyV=F^0,#/c'e&P#B$X82$P< =-'i)P=Z^P=B$<&V={*1&D-d'~$e&%8R#dcw$t^-)`~wnT@j/}'x[r*u-Z)w)_/&^#/|&m^!/#/Q^T^`]N<B=c=u%J' ^!/a$=^d'%/n'l;l;/&2/2$-!T^S#5$&^P<-'D=D-]}/*Z)R^!/e^t^&|n{)!y4L{|/M<)^)^k=!/a$v=r;e&~^#^')H9'/R^W'kia$a$=/-)_/u$|&'/r;99{^|&~/N&r;N&l8';**#/';t=&*L=R<S*}6}6*)V=H9-/O^|&X8N<-/b&~^;[=^Pb@aK0DaqbIJvb JJJKJLJMJ#J$h0hNJOJPJQJRJSJTJUJVJWJXJYnYJZJ`Jmf-Gke:amd~cobR0M0_a=/@ai)j)u%t^:7a^L#I^&*p$g^u)!/4^19S^B^;^.$W^7%>^Q#`0:/g^a^:/-4G82$h$Z^~/O^d$;^]$-'Q~!#']r~h/{7#>y~E#<^.$n/y<([b%p6${j#A4o!9;r%P]+^s9Mv<<O#o>v&Q&D=~^0,8/*^ ^V=2^o$Z&%&",
"Dcwa>;K&T*7=K&<*2$#=3^%)Q;@y1/.]J&%;R*K&7=p;72p#b)23h{O#@(z#x<K$w/}$4/8%N/6$H8X~D/k/#3M#4/;^9'O&D[V%/(X~n&;^Q^&*R#*^H84^~/N&w)R^**Z]H8B&6^Z)]$**R^I~F=c'R^G#q'p$X^B$G#!/R^D=c'R*V&v=X^//`]%)]$D-b$~^X9!/A=$-e*k)x^!/9/6# Kx#S/F/B69%<$t=&*%)V=&*O=G#[^P=+^u%M<t^l>d'a$t^8%w)l>c'W9Z)G#a$2$e^d'J'v=7$)/+^,al>P<E)'/{/%'t^t^}62$d^P<0)}*|&_3)4](-3.K%)A=>[A^W9M<<*[^A=[^n&~^ ^P<19d$h'-'`]**^*d^)^a$D=a$>;a$X^Z]Y7J'g^+aV=}6e&]$<*d>$-*^ aM#*^**~/V=t=./v-j/j/)4I2V07/J=2$X^(^h/!/a$1$F)J[{^//R^z-X^^*e&R^5*^*]$~^e&c'D=v=H8v*)^d't^F)e&4^R^l>k=k)D-($X^N&~$L=c'T*23Q/s/v6k~P=q^ a{^F)G#G#**D=i)X^Z^d$f^D-2$8/w$y&R^D-)^r;2$v=P]U=J[p*W9u%d>u%V=H<19k)t=g^A^g/W<1^)5F=d'J~~$)^P&+K%7[>E93-t^P=ki3^R*8%i)u%Z] ^V=W]h'a$T^}6%;f${^e*N&A=;[#9`=l>x^_rt^Z=A<Z]Z^W9d>V=P= [X^^>';A<V^D->&#^W'X9#^Aa{/k)7/~*P=d'tdf}&[@KOr>b/doo~d#K|I$K%Kae`g&K*K=KsJ-K;K>K,K'K)K!K~K{K]KGo^KmfqevHpd89TbP0/KdG~cf0s^%$N^q'0^h$=/w)f^S*d$&*x^X^M#u%a^~^L#t$]^+^+^z$%%{$V0o/{aA^b%s^W]Q#H)1/}6!/i/&[45`/<<v-7%3^]7[$9$x/]7y4a#v/z4`~q{9%o!o[k!!/I~R*t^p$-787=6X&J</bl>i=G#2$Q^R^z$i)`<V2",
"Ha&*A=t=V&{&N&d'e&R^4!!*(K4/n/U{;&**B=8&g&z=`2@(c%o2b(##T/@(X%_K]7X%9^h$m^,/i)G]/(@(0}:Ku%0)0,;&Bwp')4 3e&b%.^`^v=*^x^X^#/Z]V=>[i)h/[^D=8///p$O=|$k=R^H8.$E)`]n^)5>[Q<X^a$L&~^/*F)d'%''/J'W'bxd$-/&*L&d04^g/b$<=D=t$ ^p*vn)$Y59%Q/`4c*t$<&Z^u$193^M#-'b$z$2$*^n' ^u%9^g&9^+^>[{/f$e^,&-'M#k^9/D=Q^Z^>'R*a$D=t^]$4^-'R#&*`]w)!^J~r;a$d*U[m]&61#]yb5w)/&e&a$&*>;%$b&}6Z]o$&^m>i)|,5$J'-/>[t=k)Z)2$-'z$W'J[]&N<X^2b>;l>V=J'&*T*e&o$)^(^`^`]c'e^d>d'J'c'9/'-&{I/z4,7V4!*X^E*u$d'F)H)*)|&')X^w)/!='Z^J' !P<-)T*B$P<+)R&Z^<*9^8&t^R*R^-'I<a$$-c$~$2$}6~$&[.$J'//u^b&3}q#T/`2$&y<P$G#la&*A0q9O=l>m'~^Z]>&X^P],>&/A=!/k)b&R^-'-'d'%)t=n'L=d^%;t$d'k)Z)J'F=a$b$w)R^B$Z^k)2$!/3&c'}&m^N=:]([+%X2o!f$2$K)b$&*S*F=*!2$Z^#/O0^*w)t=k)1///x^Z)t-w^a$V&M#o$V=k)P=G#)*A=|&'b99m'L&)*x^Q<(&-/e>J[N&@a&4P<t^e^J<'/>[ [F=T<89Z<v~+q>b+qoG]c}c<KkB[K}K.h9f|K1K2K3K4K5K6K7K8K9K0KaKMnbK;hcKhI8edKeKie<s$bCbV=U0//T^a^0)&*]$3ed>Z8Y7a$!/R^ /h$d')5t^M~=^ ^L#Y78'I$&$.$x]j^8/9^&^@^;/{/7%2^!/*^+^t=N3z6n2suF#j^-4m^{7%%c%+&o/0$-(C<J{*%O#*7H!&%}*w)P<P=T@6$<49***V=/&3&3^Q^-/D=//*)Q&M4",
".0t=V-K&)^P]Z]*)E)N=2$('3>kls^70 -m*#9V&N&9&L5M/07  o[I/~,F/X%1/j^O#(^y#{79'=^+f=7b6{0b$Z]X^t$2*v6P%y#V~Q&)^Z^n^($u$-'d$N^p$2$u%E=D-X*R*D=D-D-i)/*l>F)T*N&f^e/ ^F=p$d'//'/E#Z^^> =P=R*7%/&-'N<c'49a^R#u%i)1&]$V=;[d'(^t^!&vh:4g#0$q4[{X#Z]0,!/O^{/t=S*A=y&D=_/L&F)v=|&'/L#**R^W]//Z^i^)^i=R*2*6^!/X^&*[^2^h^%'e^0,G#t^2$==Z^&*2$&*7%Y'J{<<O//(%)J=Z^G#A=T&a^e&k)L&l>k)o$ka2$_/==&*H)*^**D-G#-^}&4^G#%;u^V=*^t$p*d'W]h'>;G#B$'/L#%'^*:7}*w)a$M^X9**5$2$&*LEx[I/`%1{(^D-s$k=+^7$A^Q^F=c$A^w)Z^o$X^H8w)G#c=T*A=#/V&u%e^.^N*[^a$`]n$e^ =P=|&V=p$1^S#e^>;%^L)1/X*n>'{)7n[M5-)P]4^]^k)!9R*&*v=J'R*R^@/F)V=G#R*]$}6Z^O^]$(a}*%')^e&E)2$1/V=/!o&`]c'P<F=`um^P<4(P=X^4^F=e&&* /w)@8G#R^fKc)W@I6Z48&B$]}8'k)*^k)V^R^'/Oa2$a^x^/&9^V=E=a***W&a$I^t=W'Z^P<,[G#//v=u)v=R^0^R^ /.)4^T*Z]Q<k9!/u)X9,9-/<&#^**s^>&;[-/P<(fR0|and.aEaPcY01dgKhKiKjKBhMH0hkKVGlKmKnKoKpKqKrKsK~itKei h]p%ePdlJ}c(cFa}aT<U^-b|&#^uKT^ a8%)^#/w)]$%'%'*^2^!^u%!^I^0^%'7$!/w)*^a^Q#u%E8W],9(^)^&*K$t$-4u%*^~$P=^*#dX/N5^=8%g^.$x7,3O#y~vK0$,x)!H]4{,$3{j/m&-'Q&V&/&2*}]s^c{|2t^-' =M<A^u$g^-/P<d'[*S~",
"8d+^,>p&v*^*'*,>)*L&V&o*SFO#O#1BT&|,)*-'<&6*q4|##7/{P{w<C%0$o/b,c%i$@8,/o^4/m4g3([S%C<~/K)#/s^//o;$$77A{t=L=2^C^=^:7*^&*]$z$~^m>9^<*Z^9^#/G#S*u%f&n&O&h&z$/uM~f$Z^^*#/Z])^~^t^t-w)F=k=k)t^K&t^ /1^D-5$P]M#J[P<*/f^*^F)d^e&;^Q&o!;c@(.{_*R^5^Z^I<o$l>f$P]j)}6K^19p$r;d^V=9^E)!/d'*^G#)/!/t=b$x^t^;^k)%'>[a$2$&^+4D=8'Q&}*'9d'2$d$v*!*T2B5H5p{Sug#F<r^^=a$Q^>;d'd$E$0,~^ka)^)^n't^M#*^ ^D-4^t=o$c'2*%;6^R#E* ^{/p*F^p$d'd'a$e&S*-/}&-' /N&~^h$<=A=W'z-0,**-* }u7p'R/z3(-)>/&T*u$P]Z]k=J^D-u%v< =o$d^==Z)r;V=g^Z]F=H8+^E***5(-)i)L&f^E=]$H)7%e&d'`]/*19J[~^4^)*E2R8T@,#wKo$S#C*,^+^==7/Z^ ^t^w)d^l>u%^*e^F&D=:$I~|&E$%/o$k=m>M#g^p&J=B$0,J'8%.$==Z^`^l^9^H8a^ ^i)J~B=D=q9V=t=G#`](&-(~7s/f]eA )#> ^a$|,X9d^q919`]l;G#2$>;T*{^w^E=X^7%k)(&o$A=m'P=D=z-a$P]^*D=Z)k=**L&P<w)q^F)P<~//*+^ =S)k9Z)>&G#u)xKf0n0t0{aOF~c@bzc@bBbncyKzKxHAKBK5f*hLhCKDKEKFKGKHKIKJKKKLKMKNKOKEfPKgfNp;eap1dqcapQKr^#9,92$&/=/x^//N<%${/1$u%{7G#O^>'f^a^!/o/&*f$P=x^8/g^6$X^ /f$x^D^N/g^~9l^.^d$d^u%&^7%W2@7J#X*[$Z]x9[/D^$$y#n8]7Y/b5e4`{,$ %j/X=t$r;8%X*k*`5v/l{|*#=#/9^@^e**^P<H8~^>;kicc",
"Qc(&u-O&F=K&_/P*v=z-c'u-p2itn!a,(*|&z-<*a$P*J5k/s/e4y{9%p!07l/|^r%8'*7:/:/J^i8$an%|#_0w$.$t^1^T=S3%#|#70<&4/)^W^g^9^X^l>u) ^F&5$R*t^-'==|&v*]$:&W9g^-'L#d'd^d>u%Z]**&*w)_/M#%/c'#/%)|&k)}*a^d']$P=V=V=B$t=M^g^a^ =Z)t$%'>&'/4;RK%7&#)] fk*//Z^V=a$G#)^p$5a^=x^C^%'d'~/192^w-a^R^%'u)t=2$|&t=7$^*_/h/N<t^]$>[R*^*R#P<O^w)H)4^&/o$d$O/p57#P%>[M~,[J'I^>;G#H8e*';I<[*O<]$D=F)(/w)O&a$G#';1&J'A<i)Z)b$e/z-,[S*9^V=2$d'`]^*[/ ^7/t$e&X^^>+^P<w)+a)/w$E*J^l>Z)%'7v03F/j#H{u7-&#/UCb$J'Z]-):/F) ^Z^D=^= =,[V=[*E=u%&*{/L&u$=^0,w)1^H8Z)J'l>>;o$9/b$Z]`^P<k=&*X^2*=yf{=7j/B^F^+^8'*^R#4^X^)^~^&*O&l>P<L&]$k)v=o$';V=V=l>|&R*S*f$a^O&d'H)P=//D=T*E=k=D=//J'~^&%k=u%l>v&]$t^X^-&5^N<l;m^`^AwM4+%j/b4K0&*n^T*//|&Z^)^R^h^o$ /+^V=i)h&Y7V=//l;P]N&^*P<X^t-u%9)==F=|,X*2*a^2$X^P=u-P<B&@-X6(&v=**//!5 /Y7P=W]&*2FP<k)ql}bkI,b!dRbSK/cVbTK#KUKVKUgWKXKYK6IZK`K L.L+L@L#L$L%L&L*L=LBfBfMcdH-L;L@KH9t0n0A<99P<]9~^!/)5#/8/O^Q#!5G#o$g$}6G#a^:/(/d$+^!/x^*/]$H8//~^M#Z^%%7%,/4^7$!/7%8^8'9$U0G3V%m]I=(^[$r$o/v7a/w/x<v/F#+%7{m{)#x))4S!w)5*(^!/P]!4B^*{p-{^e^R#'/`]9/.^p&.-a$g&84",
">Lv=t*t=O&**R^7=2$},b*b&o3`9%%jrh>g&x&j)t^>=5}D/C7{]U{}tK/I/,3%$A^$$&$d2]%h$D=d]@6M/0}C^{/%'%'@-F'T@k/%(v=x^g^e*J^a^m'*^g$*dW<&^49l>V=T*e&L&L&P]1/)^E)'/k=%'t^k=V=b$&[#/S*d^2$|&==g/Z]]$R*-',&D-<**^z$Z^A^}*-^$0F)D=9^|&&/o$t$ ~k]O/V5G{a92%e/:K//z$D=}6Z^R*&*:$G#J[o$P<-/F=493&b%*^t^X^ ^V=)^=^b$#/^>u%R*l>u%!/P<,[)^W]1&B$V=d'2,6[t]b6.{_u2^8%I8W]X^&* ^u%***)t=2$Z)l>A$e^#rW9**#/i)8/5aE)M<}6]$p$F&l>Z]F)>&#rp;J-**/&2$k=c'3&L&p$S*d^S#w)Z)i=Z)w)z-t=p$8'D-Cdt%Q/Q~n*o^z-!/}6 ^&*>;O=`]+^d't^c'*)t$w)2$8%Z]7%t=)^d't0E=0,2*g^&^J<1&w^4^a^)^//P]k^~^Z^n&Y=,LZ'bcn}W]GBF)L=o$k^i)w)S*<*>[K=-'p$W]t^W]A=u%P<-[D=l>V^0/n0*^l>k)**w)7%o$5$G#m^5$t=d$b^ ^t^v=R^t^o$d>Q^S*.^d'd^#/2aH)2$W5y~'LI2a=p$F=d'l>>/ ='/%^4^**2$D=D-w)waX^m>k)8^*^N&g^k=X9d'&*K=v=2$,[J-)^1a%)9/2*|&|&//F)P=T^f=#/&[-[X9>b+4:7-/(/%-g8@a%b+aGFY0{d+qgeZI)L!L~L0p*h{L]L^L/L(L_L:L<L[L}L|L1LNH2L-h#H3L4Lqd`bYqUc5LRbwc6LV^r^,9r^$-A<Q^n^x^~^r^&*Z8s^&$M#u%I^j^Z^&[Q#t$D^>[7%!9j^y^+^8%B$i)_/ckk=&*'$w^#/8/:5|#S{p*O^($D$4^.$1!Q#|#1!o/A$!{j6*%|7z5l=-/d*d'm*h*n!0$<{%*B&[$=^c=F=O&w)D-h'h$>;7L",
"*'9/ =Y-^=<$!&L=o$V=X*^>M;x]&$%4R&<,R^N*2$9)ydk/V6M{k{X@|#!rn!-(A^[/-#u#8's^-4f2b5R/=8M#M#6$4^X&J{b5</u}e&#^H8C88/C^s^9^D$b&!/o&%'A^9/9/t^W]&*J'>^h^**>^t^a$l>R#w$R*]$X^O<{/&^N<H8b$**u%F*e&h^u%o$N<)^D=|&L#A^V=)^m*#$t===v=n0q;ftu5C6C6T47=]$O&`^R*//'/R^p&%'-'}&i)'/F*8'Q^2$;^Z^1&|8D=u^l>F=n'R#*^V=5$D=R^>;#9M#h/,9x^Z^S#u%i)q{T)*7 %;3D#R^H)*^S)1^d^X^^*&*5^+^4^X*G#A=`]%'z$|&`]~^2$)^L&n$r=/*O&0)Z^J9**(^u%b$'/*^k)X*W]Z]R#F)j)V--'[,A<L)p$m>J'v=a$k)u%H!B3,3o/2]9] ^0^F)z-%'%'1$l>F=D-b$>;Y8J'7%N&T*d>x^u$k=4/d^&^[^t^-/V=d^]$F)o$T^&* ^2^)*u)o$**G3c]D/,3&9([i)}6a$E#O=^=+^z-R#s^8/ ^X&2$P<O=P<I~m>L&O=OaL&**t=L)waT=t$T*~^9^+^x^9/b^P<&*%'2$e^t= /-/z$*)B=P]!/')i)L&)/5$^*P|h]C(6)$] 9X*`]$-//i)u)V=Z^**9^**o&9/d'*!e/c'u%B&D=E$j)o$ 9Q0a$%'a&i)`]c'e&R^9/~^Q<^*X*gaG#-[`=Z=;^P]t^:7,9Ea^/*^Q<|aH9f}t01c_rhl_c~d8L9L0LkKaLbLcLdLeLfL6HgLhLiLjLkLlLmLnLoLpLqL7prL%epdnbmdZ789!cOakIr^{,L&2a:7{,[^ ///t$z$P<49[^9$w)f^q'Q^i)P<~^`]!^1^-')^Z]5$d$f^J^.$7%.$w)o!4^7%*/}=sL}^6]X6y/g$E#6$7%m^R/]^K/$7,3J{|{x70'`2h;N/v*F=2^I&f]]^039*E)X*'bw)2$}*X]u$h//*}=+{",
"yr~^J'%;l*@*h[S=<&R#N&,>U24$J^g{a*f*:/~^{*_;,5F/97j>j6-(1!,)b%%88'A^.$&%1!f^)^F4T/<2o;Q^.$6^~^b&~5,(M5lw`*9^i)B7x^#/`^J^**l>>;)/l>P<e0y=!/3^c'F=>';/0,|$Q&u%Z=t^M^X^*^|9}*R#+^%'F=5$Z^2^-'m'4^e&P]F=g^|&i)0^F<P=4^k=_/W<t^R*k=N<N}k6`2S/h]#7v<!/h/|&=^1&~*>^,&}6w^9^Z^@-K&T&%' =E$**{/k=Z)n'q'n^k^J'e&9/E$5^Z]h^T^w)^>Z)d'M<2$q*H~/(H0p6$*%CR^2a==X*%'J^+^Z^%'P<%'E=7$D=M#f^|&a$a$*^&[;/4^V={^A/Z^H)-^a$G#E$Q&^*n^z-M^**X]Z^i=J<E=t^(&O^}&>;t$t*u$O&l>z$X^)^D#]u<]x7~,o;:7~^J-a$W<O=&/v*q*X*R^L&v=L&3&!9D-~^V=%'`^t=3^v*k=Z^L)Q&J't=-'}*`]**t$I~Q#S)F*M^23I/r5`~j-h^&^n'<&]$z$w$X*V=o${&ka`]v7}*i)Q&l>7$i)k)Z^Z]W]2$1&x^i)cki)V=Z]|,f$#/4^J'-'o$J-T^b$D=X^2$-'V=`]%)49Z)/& ^LB//{^n$ywb6>Bo!r[2=k=W]N&2$H<W]2$<&n09/R#F)tL==7%h'>&O&`]>[k=)^H8h'W9}&F)J~T^9)g8k)L&*^(&f=I~P=S*>GF=d'j)X^P=T^q'ka+aH9f0=&|a.abqX0scuLzcNcT<vLwLxLyLzLAL9hBLCLDLELFLGLHLILJLKLLLCGMLNL-qOLPLQL|bfd+qN<@^pGG^P=w~w^ /RLf^g^a$f^<^T*&/==u%#^o$I^s^d2($9^u%f^A^g$g^O^J')5i)J^o$#$[^g^8'#^b%:/(^z$3}V%:]X61^7$A^[^l#n!n>n>*%a#47<{o>.7s/1!u!2$)^P=u)Z)p!.#Z{h>t=J<#^b$v*c=G#{^R*9^X&X3",
"hdp$t=(&u^W&k=7=n&Z^(& =X;%7@8V7G&t=,=>;}*:'f]]%x)%&6]~6$$,3]%-$_8Q#;/>^9$8%V=J)P%3{M{{$4/3^==3*E[w<;'=}-'V=t^ ^l>g$8/e*ys>[w$C8t^i)u^D=1&Z)l9R^x'V&^*R^:7J'~^P=&*1^{/F^k=d'+^d'u)V=,9t^4^m'h'P<7%5$o$2$`]C8Z^3^X^~^@/1&M^2$#/k)9^V-3{$$T/;{C*2^w)X^2*u)-'7%a$t=X^k)^*o&R^'/)^u%t*a$k^-/-'f^F=Z^G#9/b&9^**m>F<,>r$o$Z]t$R#7%h&k2t]-7R/A1f%3^=^E=+^|,Q^X^t$E=t=2$d>e^Z]X^Z)w)V=o$v=Z)i)Z^R#7%.$C8Q&*^8%k)_/R^N&9/d'e/u%o$($9^b$V=~^D=k=P=**A=7%z--'N&X^&^w)d*:7e*Ueo!([n[03:,d^{/u%9$^=P=D=]$i)l>F)T*%'S*D=8%D=P<A=]$b&p$R^`]e/-)5(m^`0&*2*I<^*v=Z^3^7*p2n5~,o5OqE/SaV&&[V=G#2^o$~$|&4^P=v&Q^2$,[4^)^t^(&A^c'9/>&+aF=2$x^|&X^^*R**)'/8%d'!/A<H)F=R*p$R^k=V=|&l>T*z$E$**5$0&g$V=V=7$X^~-Z2y4C6T)57D=g^F=C8A^t=#>k)<*O=}6t=y=d'`]V=Z^ ^n0a$k98%') [d'R^m&^*j)^=8/k)P]0)**-[0).)v=t=p*-[gaA<7/ =0)Ma#^@a^=1dX0ob,e.a,bPdE7Gq>eSL-LTLUL:hVL`gWLXLYLZL`L M.M+M@M#M@H$M%M#Irf&MEq*Muc+quc=M<ag8H9L#L#Pq^9{aJ^{a!^4^//C^M#;/l8Z]$/`^4^&$~/!54^P=y/~^y^d9u%8'(^s^m47%n/n9{7x^9^d>o$v=H218+]kaY7}6n9&*Q#9'{7O#Y5O/y~t8>6n>8[)44!W]W]}u9^|&j/x]E%|2==u^d*T*V=L&m'J^/*>&g&'{",
"02b$C*b&I&5$S=p&/&L&p$1&JGx^Y'-M`&p$F=5$-'M=$5z/z7*}@{M/,3Q/l4o/{7Q#.${$%%7$G#<4f]V%a{M#d$l>Q#Q&<3k4([&dT*R^R^A<P<Z^P<t^Z^&* /d$V=k)|&R#////i)l>t^z$7$y=t^]$k)n'o$D=-' =*^N<t0J<<&v=g^#9|&2$R*<*M^=/4^<&a^8%~^ /9^R*7%o$3^P=2$T*d>Hz44L%R/^7Q{c&O^N<c=Z=w)p$]$(&D=X*t=H)G#.^7%g^/&R*W9e&m>P=8%%'g^o$W]E$k*G#9^2$l>==D= =%'9/x][4;cT@+&W=^>`]M#W]#//&2$l>==o$J'V=t=A=I<k)P<E$V=T*<=*^2$O&V&Z)!/19-/t^^*d' ^!/u%2^4^G#J'<&s&+^X^)^t=D=$-)^a$-'2$K&<&^=***/t^w)t^l;r6*]6)w]Y~h^k)**2$`^UaZ^~^a$l>O&;9V=P<R^k)n9R^T*k=R^:$J'V=g^|&%'Z)+4E$e^{/P]w)}6V=u^k/n2y6v/;M>Mf&w)m>7$H8o$o$u%^9P<w)R^`^@aD-)5&*-)R^w)%'D-u%Z)X*#^A=D-u$}6i)l>v=.$d'*^f$R#a$2$c=e*F=9^t=a$z-2aR*W9D-E)]$F=~^z$C&X^bw7!#4<<n!N3c~]7k)7/^*+a,MK&R*T*t^f=J'm^D->'u%T^a$L&o$^=t^F=[^O&B$e/7/}6X^Otm> ^**#9** [W0^6,9//t^//Q<m*|8 [@^jaN<-['MQ0)M'cqb!M3d1d+q~M{M]M^MrfGh'J/MCL(M_M:M<M I[M}M|M1M2M*LKf_h3M~qYd[c.aOy.ao4f0Z0$b]94Mr^N0a$O^4^g^2^n^//J^N<h$O^($h$9^x^&/g^X^i/Q#D84^J^0^7% /n^~/9$C^.$L#)5y/B42$k2Z$m]pn~$S#W@*7W/g#@&*%M/x]n!*4$]K$y)'L3;+^|r|&T&0=$51!V4/;L&2*b&O===<*e/o$Z^:,#90{",
"'e,^h&m*)&(&h'o&R#u-l>='|>r%%8!}/=**Z^}&[$1,B5$5}7A{T5([o/!%w/Y'Y'E#x]>'M#{7tbe3$5)!70#$~$[/**S=F]^$D5:bK&a$A$u%f^E)*^&**//%`]J~R^N<P<P=/&F= ^A=4^E$a$-'**r;R^k)t^)^*^0,%))^V=Z]P=%)#/2$]$P<2$l;;$d$**4^h&X^X*t$h'G#E$g&M#V=R^uaG#)$Msa)w/([l]*-*^E=W]k=w&V=&*t^V=l^P<W]p& =u%k)x^p$>;D='/Z^v=S*R^S#*^X^J<Z^R^9/ ^#/#/-'e&(&j}z6w/605MJ^5)v=#>o&j)o&9$2$K$>;&^G#a$*^o$o$Q#z$k)c',&N<t=w^)^)^v=P=d>%'E&i=d>**R^t^a$*^V=N&R^Z^a$v=$-%)2$t=T*Z]A= a6^X^e^r;a$!/s^$-D-~/b)c%C{U3.)R*D=f=E)N&8'C8)^d'+^a$m^R#8%A^<=x^*^J=,[R#{/Z)M#M#t^w)D=w)~^o$t^*^1$9*z2n[r9({qvQ#7%a^[^S*9/Z]/&Z^ ^X^|&-)O&K&e&}&a$2$F)t^g&t=H8P=&*P<S*Z^t^z$D=E)d'K&5$h'9^%)|&m'7=P)V=o$9^ =i)(ao$D=Q&y=k=c']9Z]a^|&**,>]7f]y4V/M{v=>;A<W]w)R*%)&^W=W't^D-k)m>V^G#s^Q<#/o$x0-///'/X9j)*^w)2*R<>[**+[7/n&E=!/S)G#y&0)>[8/o$n0l8g8Eac^t0+a>&4bS0%H=e6MPb{C7M8M9M[K0M3f9fzJaMbMcMdMeMfMgMhMiMjMkM~olMwffImMCJUcie`bnM{d;r|ar^g8*^~/P<N<0^W]A<g^') /6^u%C$+^N<8%&*{/l>N<4^:7t$;^'){$N<x^&*7%7$g$~^O#Z]4^x]w$ /G9b>S/l{b&u$4/D$9'n>s^r%L/p'4%,3}>E%TsM/n[HE.$R#//n^X]x]B7){m;|r(,w)4&D=m*Z]2*Q^|&X6H4",
"Acc=z=a$m>h'}&F&7=E)l;b&p2x7ya:]|&n&c'K&E)+*A5Y/0'!]U{9%~7@(,3o/J^Q#]/v/T$L#|/]0C6@(p6K^Q#!//[z&)0+%o!X[&4D=P<c$D=]7&%G#2$Z]P=.4D=w)Z]t=Z]|,J'~^|&=^R^O0i)9,'$==I<F=J9 //&R^)^#/**t=#^Ra-/7$8/,[D=`]X^z$D=`^E#D-t^t^m' /}&E$G#e/*^F)';n%*%@6n{%&)*)^h'|&h'v=|&<*h^k=P]k^v=<*d'L=d$Y)&[Z]J'k=9^w)t^X^^*3^z$4^D=-)S*X^u)~^=^w<[{ %C/t=k%F^#9S*Z]X^d'<=0,2$}&J'w)J'*^^*($a^]$T*e/'/M#'/4^q'5$J'&*Z)Z)R^L&)^V=T*M#N<]$G#P<E)t=V=E=a^Z)F=R#b$E=w)R^v*%)Z][^Z))^=^D-*^==]~X~]( %30}7^*w)a^2$-'==**==v=1&7$9^8%w$+^Z^==k=&*)*D=P<p$i)Z]I^X^-^]$Q&Z^Z]5$@-J)c]X'%%**4^+a2$J'u%X^Z^O0E={/q9X*K&p&c'^=G#i=9,E).$.)n^^>#^#^Z^w)t^>;m'>[u^P]u$)^t^z$2*F=k)D=w)t=V=d>D-P]_/4^a^X^w^b$F^D=R^a$|,%)9,h$e2C<.4}^G3h)c'a$[^(&*)Z<<*u%R^-'R#O&z$Z^V=>[x9==D-A=P0m>-':7!8#/i=P<8/f&w^B$P=+[!/**'/#brA-/>[w^';$b_ambm>X8#^q^(D+q^/3cDc@b}dkeOyoMTGpMqMxo+HrM1KsMtMuM.ovMwMxMyMzMAMBM,pCMgIkhDM|c}cEM@bDaP0FMgcm>T^p$&[~/G#&*Z^f^x^i)X80^2^M#8%~/O^M^_e7%')B$x^B^ (B&D=l#x^x^d>b%r$o$8'8%D$:/!$t^73([$6S*($g$&^M#%89^j/p'$7T@5}%&:{*%y4y]>~~^**O&*^g/)4w/=6v*E)/&8'O)|&r$e^&/V={/-'-{",
">L9^_=Z^w=t=j)<*L&g&A=L&2>Y'6$!}f*J[V=c*g&>>n5S/Y'-{k{y4R/V%.#4%l#p^U$1!Q#&#6^<{n!18vsh$8%t$u$/*^4p'!703Q*p$]^~$&*o$h/5$7$h$C^2$4^b$#/2$a^F=9/ ^V=0^d'y^G#&*Z^e/R^**-'a$'/F==&Z]@-5$-/%';^Z)l>a$w^9^ /m^%'l>p$^*V=r/Z^d'`]*^*^G#+^`^(/d|<46$Y5[4lsu^#/li)^,=9/e&t^G#Z^Q^z$+^1(l>Z^2$&*l;t^Z)o$J-M#|,E).$c$p$K)R^P#Q&==i=&4|3`2.}m#@}P<9/*^G#)^Z^8/d'**/*`]`*h/Q^w)A=)^y=a$k) ^N<L&t^j)~^]${/A=K&p$R^_/e&R^W9/&Z^J^a^w)d$u%.)#/R^P<D-G#A=@-d'z${/Z^';@/v=)^p*** =P]z$ *n[n>F/`e^&m*E=t=J'Z^d*p&5$J~R* =b**^>[N&+a~$Use&o$P=O#y^L&X*T*t=7=b$^=o$e&E=G4GM,)B]B0)^>[X^Q^4^5^X*p$8/Z<d'Z^V=J'Y9H)>;2$>[~^t^t$i)e^I84^V=|&Z^<&~^R*t=p$a$ aa$C=*^3&7%G#)^)^X*<*t=v=k) !L&t^k)w)X*>;g*(/6^A= ^L=t^@=17#71]V~f&d'i^w$T^GB`^**x^V=)/&^)/(/;^m^_/&^&4~/g$&[Ga%;d'R*V==>)*X*&bk=u)g*t=i)X6`]A<f=}&d'='1aZ=q0#^#>OF9/dGqcap$bRgOrHMpdIMJMKMLMMMNMOMWKPMQMRMXnSMTMUMVMWMAm2LXMYMZM^G_fDMpeZ7wqmb+qa9OF:7P0g^Y7u)x^2^W^]/9$`0|/a^t^E#w)9^.$$^9$M^2^Z]O^Q^Q^q'>[n^9$a^a^0$F#F#2$z$f^s^9%h/2$z218n2S*%b.^9$p'R/~$g$F/$7l/w/s{J)s%A[j/f!9^u)<*!^c=n[Q#f22=%'j'R#Z]*^F=4^M<=^2}b&&'",
"Nc^*Q& =h'F=Q*S=}&Z^O&c'%dY'|#K{O& =J<==m>g*p]4%x)/{5]P9;'W@]7_8F#d#z#D$M#;^j)u}n[)!<!w$za#/<$';u3!(,)C<a*h^M#&*7/d>^*7%E#>;G#b$]$`^)^e*J'N/9^ ^P<G#K)0b9/{^**~$v*g$~^h'Z^O=R^Z)@-E$P=E=7%9^+^P<&*}*H<*^M^3/9/]$t^e/4^2*2$2aZ]>[Z^a$-'p^(^b5V5-(U31!c%x/$7E%.(Y^87y/o/w7v/87Q/it6$M)0',7'!%$/8]7v/q'7%]^d2O^z7x]|xm/;'p'q{kbR/J6e2&#4^X^9/t=w)x^i)p$')-[z-n9E=l>8'{/d'x^a$#/2$R^m^&/Z)waV=$-1&a$Z^a$b$$-a$ ^!/{/t=!/d'W9)^i)`]V=r;P]<&e&O&>[G#2aL&k)r;X^9^>[t^p$^*D=;-h3b5T@l5znq{%(7{E{<]_{']']#4<]K{f{N5m{8]|{<{`6*}~][{q{P{`MM{66#]4{lw^{_]j]_4zuD/c]M|[$X*^*l>z$D-R*V=X^)^)^T*]$w=2$`]x^e%|,R^ =k=Z)Z]Z^|&P=r;H8f&P#R^g*g$z$D$]&R^P]E*c':7R#**>;e&w)Z^i=h'M<[^d'H8&^L&9^R#p$V=h'2$==z-a(p6B7%#%{X05&(aoc*&tdT'@-`]:'ibw8F~MaY]y&[*D~=& =G^sBJ<U]`=:~-5 =N&f=G#6*d'O^`=0bm'P]a$>&kaS*+[P]k)^>f=:7T<Pb1c8e{,4bPd<dUc>cvH N.N+N@N#N$N%N&N*N=N-N;N>N,N'N)N!NAI>o pGo~N3L{Nge|cAqtcOFob-/FFP<h^//pGL#f^+4O^-#2^D$#^r0P<%'4^f^4^x^O^M<V=o4J^G#t$E$t$Z]g$m49^j^I^//u%I^Q^3^3^|&J;}tt{Z<>7V^K$*%g$j^v/F#|#|#0$`~c4D#M/o!c!+^e/-/]$C&##S%Z~G=J<2$-/P=)>1!C8X^*/ =C&:3",
"]N;&;[3&Q&c='**)`=P]+[6*z9.#%%[{=*V=p*E)G#Y)Y5^#p'0{'4b5@(]7y<y/w/!%.$y~:/c%i)L]T/M5m[m^D^t$m4g&V~##$7>{N*8/E#[^J'J^M^e&($[^i)X^D=0^Z]R^w^9/X*!^X^u%]$*^==p$~^5^j)w$';&4L&M#T*m^n$d'*^d>i)w)t^R*e/Q^W'2$<$l>u$9/2$Q&D=P<9^'/<&]$^*($W9d^Aw&f9%q#CdE{WvvdC{1])]-]i])]&]c]D{-]^NN5bau{%]o]q5e{m]V{i{G5Wv/N6{i]H{Z' 6{3D{@>H{X'R/G{c*&* ^T*^>}65$:7[^//5$D=Z^I~d>#/%'R^#/&*b$z$R#2$t=P<~^i)1&**u%a$x^2$a*0^D=}6t$a$l>x^t^%'~/t=M^X*V=>;&/S*R#<*|&m'd'V=W]V=`]//_/z--'-/.^.3C6X%T/a#~3t]$5q4N5bai]baD(t5<<q#[>)]8{w5x{T)8{C{&]w5h]72WDP{x{+]e{C{&{n]|],3*7+fh=*^e&E$E&u$/&+^v=f$G# ^Z]E$~^Z^D-2$S^a$R#&*|,Z]//|&&^d'F)J'0^E)Z]:7J'A= ^2$|&e^E=x^n^>&#/X^d'**d^|,J'f^O&>[B&P<2$t^)^v=Z]`*N&t^w$9^a;&6s/x[Y3%&v5%](NIx0{|{a]_NT)]]Q6fDydU5n!+KA[&8Qxkzeb:89/a$T^n&-'d[J<x^P=,9J<m>t^m>w^R*t0e^-/^/#B7/-[(DLa0b,btb alanb}d:Nqdge<N[N}N@hHp|N0i1N2N3N4N5N6N7N8N9N0NaNbNcNbHcK{Jwohe#q|a1bZ<{d cdN,[//=/v^G#h^A<M#x]H9/%a^ /F=Z^2$7%E)x^`]V^J^A^.9Z^R^8%f=~9x^[^^^3^($%/R^h$Z)~^o$z$={M9g{k*J^M#([d#9$,)y#27W@b)K/Z2q{X$|#<<v}2a2*t-e&`)T/<^70V&1&E*}6A=K0w)i)<&2};& =VC",
"p8f&r*p$D-e*T^V0+^R^A^;[D;s%M/v]`*r*>;v=')/-y]p'w/|4%(-(n5M/&#z<X%8[B^L/U$r%u)Oe^#)!Z{E$d>a%4/W0~{D/Q/`~i=P=($ a2$;[/%u%P<>[i):7n$T*R^/&f^J~o$u%Y7H8]$R*)^*^9/a^;/#/:7^*%'')|&u$X^i=w$t=a$k)>[|&E);^A^X^=^l>M#($x^d><*{^G#d^d'3/h/+^-[7%D-S=@&eN~,E/>$](Z$F/w/|#@(k]v5D#/(~,v5fN([=7|#([K5`%B61#V%-(@(T/t5z#ft](v/^#<2T/;'w/A$%4**S*2^F=[^l>^>R$9/u%R^')*/p$u%>;D=!/a$Q^/&.)u)2^e/Z)-'a$i)V=f^D=A=t$_/P=p&0)5$l>2$D=t=a$T*-'==<^u^e&d^(&)^>[u)W=&/g#u$';.#//)^3e0,J' ^V=Z{1!.4t%!74}729%C6q#R/R/z5|q[>*7$$3{v0Ery~F/r%,3M/=7 %K/-(M/,)=7T9w/V5<#|#d#42l{t=Z))^`]k=L&Z^P=e^V=d'9^P<v=k=D=J'l;v=4^d>&*o$8&Z)d'==&%n$D==^Q<9/4/F)c'9/O<]&R<E*4^^*==Z]&* /`]-&T*w$>'5$w)a$-'t^7%!*a$,&**R^7%d^c=z^b6l#,)&7ck/98z.^f$&%r#1^8'R^2%2%,=i^z$8/&^&^v<E=E=Z^f$b$E$D-@=X9!/B=N&D-&[J'J[L=kaA=b*%)b&h&U' 9q^Nax'M#K<6yU0!c|a%qrpgN/duK8M|IhNiNjN}h>hkNlNmNnNoNpNqN0H.oyMrNsNtNuNqLvN4dUd(GPLwHqc8eU0 c+4>GQ^>/S<&/r^8%;^a^w^s^a^w)g^M^*^4/`]5$)^x^3^.$[/,/B$z<R^g^i/&/[^{$M<.$s^[^#88'_/k2}^:];[9$h$E#e0$$]7Y'b%x[B5y~R{T{1!|#}].~&*B&>[{^L=p!b%76S-W'==|&T*#/k^]$R^&^c'@=V2",
"crE$/*g*O&X#=&b*t=T*R*b&W2Y'|#[(/*W]ua.)-'z=t54#b)Q{[(V%n>o!~,[/*%.44/y<;09$F)`c,3J5<{~^[^X^i/$-C<@(,)G)v*!/&%l>D=8%[^&^|&W92$u%h/D=>[d>t=*^>[V=d'P)=^z$-c2*b$ ^~^M#J&-'D-7=L&V=**J^B=**<&T*X^o$Z^Q#7=)^`]l>H8w)`]]$]$]$n^F) /A=i)P<`]P]<*P~u5Y/p]t;t;t;<5I;U2t;t;M;t;t;t;u;t;M;t;M;t;t;t;t;t;t;t;t;O;t;t;t;t;t;t;t;t;t;E<,30'-{#^d'Q<D=P=e*')J~8'O=R^&*Z^2$u^X^Z^t^M^a^^*P<9/t=)^^*r$l*D-#/i)-'J'w)u^-/**^>-^!//&W]R^*^B^p$E)$-a$i=D=F=P<2$Z^-/t^w)L#o$)^O&)^k)>;O&);Q{!C[/'!,AdA!fRCE;G[Mu2>+dR4wN%dxN7[o32>MuM;M;M;D;t;Q4P;+d!f&}xNyNMuk3H;I;&D.7K/qad27$t^e^R*>;D-==V=t^}*Q#&*L&L)J9a^V=2^l>F=T**^R^T^t^H)c'Z)9/{9t=%'/[';R*e&k)7=F^,=-'[^&*v=0,D=t=d$*^'/l;_/u%Z^J~waP]i)A<d^P<&*l;,>O&g{Cd$$0'o;>0vvgD){5x~fqi@fI%Z~!}K#5wS{~%t4P9:b%#E%@#S#&%x$K$]^`]f^p&a$7/u%A=!/R*//'//*J~m>t^:7Cbu)t0|aPbq^g8T<zN%H.adHRbcdRbGFZIxHANBN[p`gCN}NDNkoEN9NFNGNHNINJNKNLNwfLfRfMNNNONQbQ0*r c$bJ<P0n^&*3^A<2^8/z<t^9^]^Q^s^Z)>[#/8%7$]^~$k=x^:/;^+^ ^!^g^D=($R#J^8'X^8%d#%)y^[^5$M#g8g2|#'4;[3/G#O^x]:/;/.#]7V%n>x)PNF{F#Y5([7;E)}*o$**h*T/n><{$*L&R*4^#$f^}6-/z$'bR#_>:3",
"od/&4^N&p$F=u)<&Z^J'|&z-A;v/d>{#h&)*.-O&(&m;>4/(x]A{70=7K/R/y~E/:/z<%%%%N/x]}&L]@&T/8]rGX%{/b$v={0M/47f2f&x^ ^}6g^ ^o$&*K)!/R#-'s^a^#/z$d>M#P<Z^>[{$E#,[a$[^R^0,;^e&`] ^]$5$N& [&^g^^*t^u%u%x'J[D=o$^>4^-/b$x^E)o$9/Z]Q#=^x^9/t^w)d'y=*^w/[4$$n[$$QNbgZ!7!RNwv~rfwjc+0h73w]2d|av>8>~&|4DJupaJzSN1|*|EBTN+|f1rnwvM6ktbgUNn2W$)!S9=}3*9^e*9^J'*^k^%'Z^2$b$k=R^!/{/a$Z^9^a^%'W]|,C8**~^R^oFW]D=f$l>X^19G#}&Q<-):[ ^t^==K&D$p*D=!/z-*^T&t-t^t^a$f&z$!5m>R*X&*^`]p$O&~^0,Q#Hsn5C{46WA-w)w41tAVNIvJ|WNf1Lv3w{sC}#2^1_gt|/1XN,|JyW}c|,DK}ZxRp5|A|wgrnAg7~I/}]B5W4|*Z]W9e^P<`^z-P=X*M<D-GaV=X^**R#h'N&>[t=o$F=#/E)T*V=Z]x^9^R*F=9^/%p$P#-)|&i)E*F=l>e&C8+^d$D=w)!/k)[^W9qBQ^D=9^l>a$X60,!/>;J<Z^A^0)KEEr3{;cc|0*s$*){&c&%)l>Z^d0~^F=h/#!')>[V=7/L/E/8'3/$/{D:/W9T*O&R#x^R^Q^J~7/t^n0*^'/W'x^d'=/v=7/O&O*A<X0!c--D73cYNqd`bZFOc<cZN`NwL O.O+O@O#O$O%O&O*O=O-O;O>O,O'O%M)O!OGo<f~OhedqQb}dkz{O0):7{a0)!///Fa`^o$i)a$w)49#^4^u%7$J^($[^2^2^g$&*X^8'K$;^d>&*Q#y/M#=^.$Q#9^9^I^!/]$c%-/J'45n[<]y&;^t$x]1/n/_8F#[/k4,3z5Z~@>*%y4k/T!]OP]T*.$i*D54/5{I=d'i/n^,>w^k=wa^>A<^>]&|{",
"E~R^&[//R*r;F=#rX^3&Z^A's31^v7=8H&G#%''&f$}=j09%G/U~G{X/k]&6P%E/1^h$:/,36$O#H8S3}]%u{0/%-/1!=^N&7[R/;'<4V=2*.$D=')8%{/Q#%'#^~^W^==t$G#M<s^ ^k^%)k=)^w)t=W= =Z]c'v*S#D=|,W<9^t$//J'l>R#D-J'w$D=f$k=m^4^ =J^u%//R*D-F&r;F=h^f$]$g^t^M#o$**T[D5T@5{r1t^a$m>W'z$+aO&1&v*P]>;h&{/w)>;**T^w^k)X^v=l>v=J<a$G#A<|&Z^[*D={&F)&[n$Gsm{<2F/#{:7d^S*9,==[^/[d>w)0^9,1^%'R#+^)^J<==V=7=I<V=P]&/`],[O^%'X^j)h^&*G#2$ ^1&N<D=**a$u^o&I~~$F)S*j5,;,[#^P<*^I~t=]$<&X*J'2$O^k)%'e^]$-;#}n!H5^OO|x7D=L&Z^<*t=^*i)t=W'R#]$}6|&l>J8>&p&t=t=d')/5$I~YC+[V=!/k=&*2$<*f=)'/O]7m]@>(OE$ [V$f=o$a$%'!/D=//>^g$R#]$4^b$a${/D=D-&%//~^9$J^w)A^1^=/R*v=}&d'v&{^2*V=R#<*7$//9^V=O^^*x^T*0^2*D-V=^***-'s^l>Z]2$P8(& /X^%^H%o[*%9'o%}-&*g)//W'f^#/^*7=V=-^}6Q^e^R#>[|r/&)^(/i)9/X^c'Z])/`]Z^W]@-#/%)X&>[`=W]L&~/GaQ^=/<^~^IFR*}=@^_O,[.a--4bgavb:OPpRb<O.a[O}O|O1O2O(h3OjG4OEK5O6O7O8O9OuI0OaO`n/IBhYIEodKlJdqbOndcOk99'PqG#h^*/G^^9h^Z^P<'/]/j^0^C8&[O^H8S^t^,/G^2^m^>/Z]~$*^0^L#]^4/A^=^g^4^19s^D8o$B$f^P<#d37D4R&E#o/l##8g$l#|^b5M/b5b5({i{v$x<}^1,S#k=|& ^@[y6.7|{C*==L&D=T**^h'd^d$ki9^O&<!",
"~Ce^E)8/i=|&K&c'u--;W9.)2>y~%%+>z-x^8&w)O&.-,5M5o/.{L{g]T9*%,3g$g^1/-#$7J^Q^Q&.&|#D/M{h$(/ /.$';C3R/T/]ah/t$69g^&%u%Q#M#g^+^t^v=i)]$P<)^a$4^)^z-I8k=O&8'o$z0u%0,**F=-'_/V=&*c'8%P=h'h&ib~e0,W]u%1^a$S*i)>^7%t^S#t^Z^2^&*=^!^k)m>B$V=K):bf{k43{`]dO)^w)|&2^_/R#o$==B$'$**|9O=v*G#~^a$P=:7Z]Q&492$t=p$d$a$/&P=X*L#P]^*K&n&+^k#6))!y5F3d*b$#/d$F)O^R^Z]5$X^t$d>%'a$Z]M#P<D=t=|&o$]}1/1&o$7%6^u%7%8'X^]$R*=/e/B=i)A=8///Z^z-d'olq*e&**-'-'2$5$c'R^**-'w$%'b$&^7=d$%)X#r]f{](p!6^(/5^]$<^u%O&<&R*|/n^h/-)Z^`]Q&]}G#o$P=t=B$O0k)a^p$e&*^z$x^P=W9X^M<`^!(*5y]p7W5H2g)e^c'==8'*/2$2$.^e&2$a$ /Z^H8u^h/Z]+^%)-'**8'Z^'/*^B$V=Q^F)V=c'/&t=9/|,l>k)R*p$%'V=D=197%-)t^O<8%j'*^}6t=d>D= =D=r;-'w)2^u$d^23R/hbk4(|:/O&|,D=P<}$9/#^O0+aR^E*x^{/**7%^*;/5$ ^D=]}&*&/9/g^-'{/W]t=p$N&A^&[^>*)Q<T*P<P=e&ga[*r0kaC&-[^=K< c^9E!<s}btb|bwceO{dfOgOhOiO'hjOkOlOmOnOoO`LpOqOrOsOtOuOvO^hVLwOhKxO`bpdwb^/L0#>yO =4/#^#^d2{/2^/&M#N<*/P<]^p^~/[/!/>[3^*^1^8%>^L/=/)51/y^o^z$a^(^s^S<x]1^g$L#9'Z]d>P]|3*7@vI~i)J^!/l>nl[/9'D#Q/n>y64{Ypw%Q/B6hpW]V=*^,ar&K5g$%(l*1^F)^*k=N&V=b%+^1&k=Q&u3",
"Hw&*v=/*[*d*u=e&v=v=w)@-P;#8y~G{!=i)kig&;&:'w5,)87*}$]^%p#w/M/:/y<)5>7s^9$#$f$G{([M/^49^[^h$I< [r3Z$([j>*u!/j^5$W'2^Z]9^2$E$S^4/R^ ^*^)^&*X^i)&*l>Q^E);^==>[N^m'b*t$c'E$Q^#/h&//t^*^X*Q^h'E)*/l>V=x^*^J'`]o4X^2$}&5$J^R#&^t^s^9^+[A/`]23T/k4%}]yW<)^7$P= ^l>g^t=G#N<&/1^w),[d^[^G#Z^E=h'x^!/&*N<2$ ^4^t^9^^*== ^Z^D-8/P$9^*1.{`2}^m{S%5aP=n9>[f$7%%';^X^~^x^~^z-X^o$:7e/7%R*`]&^9^t=k)M#a$>[l>Z^*^J')^)/v=T*F)Q^a$K0`]D==&R*J'2*`]';8%D=a$7/P<!/P<Z^M#7%7%*^e&I8^>X4-(p!sLzO&/m^1^W]Q^#/t$`^-'v=4^t^6^J'f0M<V=k^P].$s^t=>[a$V=Z)#9e&Q^u^&*2^w)t-F&o=d]M)f]Z'c],=7%#/a^,>J^R#*^J'D-^*P=x^a^`^d$X^o$a$K)b*t^Z^&*2$-'>^1^N&J'J~o${/^*P=^*>[<&XEM#l>q^b$t^t=F)Z)%'Z)8'~^v=F=9^D-^*[}>[|r-))/Z4j/p]h$;/ $W'{9>/w)W<^*!/f$Z)m*f^k^Z)Z^**k)t^t^B^P=%'0,2a//h&t^^>shd>c&^*W]P]z-u-`=2^.b<&u%m>}6T<ka|r`03b4bW0;[H9JaC^WbAOxbNpZqBOCODOEOFOGOHOKhIOJOKOLOMONOOOPOQOROSOTOUOVO=LWOYIqJ c6LCazcZr$b>/-/2^ [_8.49$p^9/;^G#*^~/8%t^>[J^X^a^a^j)Z^~/g^E#~/M#[^u%#^J^o/%%]$!^[/(^>^9^q',3x^.&B5o>R*n/4^J^it4/-#4%I/|#F/n> 3%{+%*%j%<b [=^a$a^X&@(.470~;e/R^J'd'v=R*8/k=A^H)k=Dt",
"r!k=4$]*{^p*r*.-==d'h'%;fku5n8%4{*3*X*N&H8F~>]9%p':3y{~,,)d#&#nl1!+&v/3/e%($Z<h5b6##o;B$M^Z8x0u^X~1!$7`~A=m4>[f^3/!/T^G#a^D=d>Z^9$o$Q^}6{/X^2^z-V=a$V=_/t$!/t^J'A=J-d>D=+^P]c'^*V=p$p$$-;^7%&*:$u^V=**<&B$$-R#b$h/ ^Z^`]*^}6^92$t^L&,{}]=7Y/(Cd9)^J[H82$V=l>2$4^d'J-a$R#{^d'-'O0r;#^o$T^t^L)&*w$P#9^s^X^t={7 =t$!/4$D=**&/<$]$W5-(<]Q{z=o$-'49R*V=t^d^Y7O&t$N<b$i) ^E)`^F&t=2/d'`]`^e&Z^^*J'S#R^d'a$]9&*)^p$%)~/Q^R^R^X^D=c'V=:,Z^2$,>t=Z]-'M^-'c*D=d^<*&[%$P][&,{f]o!](T'XOC'x^)^D=2$Z^X6F)O&A=|rx^a$e&g^~/*/k)Z]P=H)f$&*o$-'P=V=X*)^)/D-J'b$V=#/8^Tvz59%z663LbP<W9a$&*t$-/o$>[Z]]$+^W]T^t^h/}&B&p$!/=&X^J~u%p$d$k)X*4^5$v*a$K&L&p$t^i)h'F=r$ ^*^R^49t^D=F)d>o4p$O=g^X^G#L&p$a$p9du*^U{f{*72{a{(14^E)*^g&!/ /Z)r;&*-^C&*^!/S*Z)**p$#/R*9/l>X^m>**D=Q^t-,[J<|&x^a$D=F=Q<p*-/O&G9`]_a-';/89P0>'+qT^--}=dGEaYO6LP0cO>bRcvqgKZO`O P.PCMbH+P@P#P5J$P%P&P*P=P-P;P>P,Pwf'Pmf@e)P2d!Pwb(DJ0Q<#^Y0%$=^Q^r^Q^t^&*g^Y7E#C8[^./z$)^,['$Q^0^t$/%d>{$]$Z]Z^u$S)f^D^!5!/j^[^8z%'Q#l#N/z<p$6[,3x#r~8'=$7%g$l#6$%%W$d#n%.6~P!{n!*%)4L!u%F)N&0))&n[#8:bv-(/W9<*V=i)E*V=~^9/B$0&s7",
"JaV=C&A=f=*!**K&J[~wp*,;%dy~y<g5[*t^|&R#q9/~UrZ$M)o;H%,)o5c%y/[$6$j^B^~6,/#$ /R{!7@(&d;^D$g^n/*)f2u5z5W~v=D$+&'/o$F=5$x^-'w)c'N<=^D=w)z$7%>[!/p$>/t^ /d'b$**W'h/&*2$b$4^w^c'V=dN`]}6]$&*E)F)B$4^R^'/j^)^k)b&0)+^V^9^7$X^e&V=!/P<E'Z]+9x[,)H]:=q^R#'/4^a$d^//7%%'#/P< =4^b$2$8%<*Q^t=5aZ]M#l>A<9^k=*^H8)^!$`].$2^t=M<,['/d>OaU)E3-7F/c]B{B=*^Z^M#//d$]$9^==V=D=u%`^!^J^e^2$//0)Q^t^0,@-w)`]k)7$////}6J[R*E=P]9^W]S*|$F=a^&/W'7%!/Z^G#X^E$l>k)F^$0//#^V=5^ ag&q*0^U4p!M/dzkt!/{/r^o$f^F)d>7%a^|&L&<$w)&%D=1&G#%'w)D-e^M#a$l>}6$-|,[^49t^ ^k=E$d>X^t^&*;#V%u5j/([W~=&19#/u%,^P=t^~$o$P]n0]$-^X^**R# ^kiP=R^D=>^-'-'~^k)k)G#2*&*P=k)d'D=k)*^&/2~R*]$*^V=4^k)a$l>F=}6f^k)x^#^O^a^t^ ^N<-)GaX[M5@(V%{Pr%4^>^Z^&^O^R^)/`]D=F<4^h&{/J'**w)|,&*A<R*N<V&&[W'*)Y0R*G##=k=#b`]'/#^*!w)A=%'V0q'/*A<h^#^&bW02~|bsbQ<EaJ0mb89Lb/dwcWOqbvH]P9L^P/P(PCh_P/MlN:P<P[P}P|P1P2P3P>P4P$pPK5Plfwo6PCFJa|agc2^'/,9,9PqQ^O^#^k))5 /s^&*(^O^;^R^P=q'*^R^9^&/&*H8d>*/7$Z^4/%%r#Q#s/y<(^(^;^;^)5!/.}(^7%MuM/!}r;9^u%*%{7'^{7M#W$H/q#+8R{  4%y4n[V'W9d'*^-'T*j/1#_0y&v=&*]$W9R#o$**P=J8T*)*({",
"7wt=-)P)B$z0Q*T*o$>;R#v*utC/'^n{-'c'^=2ab$~-w5D/,}J{H{T/1!Y/y<p#B^u#o^o/|^g^u-T~z#z5d3g^!%]7Z]]9-fa#y4f25^r#o$z<(^0^t^o$w)]$t$m>//E);^b$%'P=D=f$)/E#+^l>,>b^7$V=v=2$a$h/E=`]&%V=k)2$d>P<t^a^Y9t$')k9o$7%l>;/f=G#2^7$X#G#.$&/~^t=!*={}]S%k/>dX%%)t=|,9^Z)+^x^8/b%P];^*^k)Z]7$]$k)o$W<~$t^H)_/&/-[R^t^4^u$Y]O=W'd>#/d*i)<*e&#>A$n==(j%$5}{wEX^&[d'L/-'Z^^=)^R^]^d'R^u%k)!/]}M<2$A=)^p$)/V=K)F=v7P<oab$]$P<')D=>;b$D=%'P#>&b$Z]V=+^9,w$V=^*k^v===&*'$D=;^E$%'r;:&y;[>$#;'7P5%c'2^P<&/!/&*l>J<&^k=Z^4^#/d^P<-'|,N&M#D-5'M<>;b$Z^R^p$//&#a$Z^2$8%u)'/Z^e&Z]MG2))4o5*{T^f^E$A^]}}6_/P=D-*^}6p$d^*^R#R^$-w)C8-'t^]}Z]/&x^e&P=6/]$t^_/8%R#p&E)9^E=b^_/`]J-Q^t=|&P]o$d$)^n&h/~^M#Z)F=&*1u|&L&~5fDr9[/=f8Pr;t=:}b$G#>[Q&w)J^7%V=9/a^W^9/P<M#M#G#G#D='/0/c'Z]u%k^&*<*m>7=X*H9f/D-w)l9Q^,9k)*B'/-[J<B&,[;9t-v*u%a&&[0^ c}a89Oy6d=[nM&I9P0P.JaPahbPcPdPePfPgPhPiPjPkPlP7omPnPoPpPqPDM&MgelJ<aqc%bO^gcGd`]S#%'O^g^Q#8%8%*^D^R^9^:$E^==J=<$)^g^Z^9^h/x]Z]L#t^2^a^u%D^@8b%,}P$Z]A^9$Q#8%M#X^N3@([{ME&*FEA$:/O#A[*%r%o/,3R/!}K]itK/I/U!&**^V=!^f*t44/:b9-F)L&ki%'b$O=!/C^u$t=a$|{",
"1bE=z-<*F)D-7=K&.^c'S*)*Asj/8%g6[*I&**V=~$g>Q6%#Y'I]<]T@$$b5>41^D$M) 8z/&*;^#/R{P%M/){m^O^m^d>L&U~T@n>B8E$m']$i)d$`^G#!/|&u%Z)X9*^'$t=X*P=v=w)#/p$G#o$}&+4w)F=Q^}*c'*^(^)^X^P]ptP=B$**|&t^R#!/]$Q^)^#/'/B&t^t^T^o$D=)^w)`]^*(^E$b5[4j/##*3T*X97/g^z$P=E)a^l>.$F^^*R^m*E$M^19R*!/,^V=h'>[k^p$G#X^//Q#d$c'F=)^.$m*#/a^Z^_/*%t^5$<;I3@(}^P{U[}=l>)^]$-'Z]a^&/#/2$R#w)t$%'d'9/8%b$!/i)R^D-a$R*wa_/**e^4^W]P<~^t^&^T*t^G#|&f$p$P<R#J->[k^<=J't=A=2*w)i)7/;^n0]&,=.}^{Z'K/3xt&o$w)t=]$G#B$b$&*b$v=d^r;7%]$u^~^V=g^Z]#/+^a$G#k=M^2$X*V=M^F=[^7%.$w^a$9^D=V=6^g^h/v096@(C[W*//w)u)f$J^2$g$;^d>v=~/4^|,d'g8u%P=w)9^d$+^h$Z^a${/!/t=d*|&N&c')^W9w$**'/&^X^Z^-' ^Z^`]t^i)t=&*T^Q^c'E$Z^a^A<X^ =:4B5)!y~i|~/k)d'`]t=k=M<P<%)+^L&v=Z8D=a^y&e*(^9^P<|$P<!/>[l;R#,[X^J~g8#!Z^n'0)W]S*u-|&O0t^Z7kaPq$b-49/5brP,[Ga.bO*+aL0*rT08eSK|ascncsPtP|IuPvP|hwPxPyPzPNn(LAPBPCPDPXMEPFPGP:p/hHPIJKpPpIGapr^T==MM~G^3z#/u%@a4^I^L08^)5a$8^%$o$h/3/G#~bd><Hd>0^)5V=4^r%&*r^h$9^]/.$($8^4/%$8%[^A^t$')~b55k/;]xw.$h$y~y/9^$7]7K/]%-(/(Z~T~0$u5@(0!4$V=S*X6~&~3}7C]9[e^n^Q*/&T^B$iA-'o$z$x'IP",
"buF=-!l>s&g*H)!*n'k)C&b&#d](X%h5I&0^9^#^u^L&t5n[H/qaZ{=7;c96:/r%_8$$($X%&/L#|ro;}^q#c{4^b%R^8%'bj>h#<2*4d^>[7tf^~^]$g$J^B$v=k^;^~^9$3e8%2$w)!$d$;^M#`]&*h^k=0)E=8%*^P]z-2^Z^R^l>Z)D-P#f^)^R*h$a$*^}6&*X^X^|&Z^g$g8B&t^d'r;j^4^+bI4@(##8$JP&*%'8%>[d>D=!5h&&/c'd^X^J^7$~^-'}6l>A/R^w)J'^*3&d>a$*)i)D-`^G#R^V=u%c'5$M#F=X9v=D8c%:$RBi]T@p'%{~/P#-']$g^b$2$/&w)k[t=V=9^O&o$N&%$b$I)a$t=>;l>o$3^^>F=K&s^P=X^t^t^d';^P]T*!/b$Z^W]<&L# =T*d$|&9/8%8%)^]$d$j)e/Z^('r[j]([L%i|K$d>e^0,t^4^e&-^2$R#w)v=X^-*W]t^`]4^c'j^2aO04^R^//M^~^k)o$J'*^D===***^;95$`^9^+4 [d|U~K/K/P{g^X#G#7%J-8%k[3^4^M^_/==X^Z^5$f^X*w^d>t^-)~$^*R#19>[c'|&;^P=`^O=c'D-R*z$D-=^d'D=z-p$z-X^R^Z^w)A=i)R*Z^z$ /~$r$M*H;Q5M/n>m#n&M<!/c$4^G#t^x^R#^=Y7~^*^d'!/d>8'7/[^>[9^|&h/(^)^k):77/-[^*'/Q^9/v=y&(^**G#N<R*l>,[{/r^>[;[f=F='/~/#/Na-4N&3qOF^cZ0pG GJpKPLPiH7MnIMPHoiIYgNPOPPPGnQPRPSPTPUPVP>pWP~J NRf*MXP8eYPCbc^[a&*UC#^f0&/ ^N<L#A^!^2^a^Z];^8%]7X8&/0)t^[^d9>']^|^*%Z](^7$h$[^9$u%Q^[^D^%'G#S)!^!^6$<^V^b3*%H].)y^o^]7[/z#O#|#M/I/V%W@c{  F#w/|#&;a$j^7%-/v*@(o/b}N=l>v*-&1aP])^w)Z)%%P=d*W3",
"Ndg^+^h)w&%'i=*)L&G#R*g&s[#8}7`5c*V=2$ =G#[*T/c){7`~G{X/y<p'j/E#}7*%a^*%w/[/W'S3|#y4R{f^B^>[9^v=#{T/b51{)^u%~/L#!/X^9^&*)^R*(^J^&*J'8%T^%'d's^M#[^E$_/{/M^2$ ^-)-)*^]$d>D$Z^_/u)W]^*h/m>a$E=P=`^Z);^Z]_/7%o$4^a$**}6A$D-&%#^T<a'a{Va}^%%d']94^W'&^8%j)R*8%d'*^z$O&9^o$4^]^2^x^^*{/!9a$//D=2au$R##/Z]]$z$`]#/B$Q<2^*^Z]v==^W]~^V=W])#6)4},(U4A~(^t^7$#^3^2^w)S*)5d^&*d>,[N&o$8/D-G#M#W'&%Z]Z]^*X^V=t=^*%'%'*)[^v=|&v=*^**M^i)J'J[(^>&R^l>&[;^Y7o$+^-&{^G#')16G5y4)!`]f$/%%'9^u%e^s^Z))^F^%)c'j)w)R#7='$//($2$d>#/V=Z^*^Z^&*n'd$7%!/!/~^D=]$9^2$&*(^+^]^8'F$m&u5w<%76[p&a^8/}6 ^ ^_/~9:7C^]$t$%'2$Z]e&>;`]E$}&D=k=e/*^O^t=t^;^(,5$*/%'F^a$V=n9**V=2$0,8%**Z^V=-4V=k)t^Z^t^E=u%-'r;]^_CI/b5,xZP)#tvd'x^A=Z)kau%w)t=L&a^Q<P<H)k)Z^X^>[w)&/*^I~}6R*O=L&-[';}*g^V08/Z^';Q^!/K&`]#^7%L=k) = />[X9~^k9ha2F6b|&P],9T0g8[d!czc>eX0H9`P<K Q.Q4f~JmpiKePEKTn+Q~I@Q#Q$Q%Q&Q*Q=Q-Q;Q>Q}dgN,QPqq^~cPqG^c^ZrH84^>'Z^G#<^]^M#g$D=[^+^0^u)G#A=t^~/2^5/9^~/J^.$x0!/[^h$~$9^1!y/Z]m^4^x7a^7$*/ a={}^v{W'r$'$.$($%8O#,^y~@()#,)V7C]O#!4j/:-9$0^c'~^]&<<:/y3A-Q&|&Z^2$-/g*h&*^&*OtQ<*{",
"yD|&C*qx%;X^-'#=v=k)X*h*M;;$S#C{J<t=Z^a$M^.-Q5`2Y'93G{k/b5[/o/s^*%g$*%x]l4K/#9C<o!2]H'g$n/s94^g*t3o/.7G]t=u%m4Z^.^G#X^.^}*`]W]V=~^.$|$;^&*T*#/5$h/G#p97%d'(/F)X^4^d'J[d>s^D-o$t^i)a^>;W'&*-'s^>;4^i)G#-'-*J'o$Q^{/`]M#M^o$>;v=K4`%<<,fiuI^ aD-D=w)t^[^Z^**t=V=^*==7%g^)^9^e&&*19b$)*e*f$g&R^W]&/t$u%D=W9F)D=x^d'u^7%h'R^Z]**&*a$K)i5`cR/`%@>T@ck@8Z)-/8%t$o$&*c'b&V&a$^**^k^H8k)F^*^e/2$r;(^<&Z^l>D=D-2$=^R^O<%)<$*^t^k)q*l>!/O^J~)5h/Y])^`]X^O<2$:7%'k=j)&Ag]/(G))wQ^9,q$Z)X^!/ = =(&==D=4^e&8'u^B$i=a$e&1$R^S*x]G#b$V=X^-'[^d^o$F&V=M^R*m*9$A=2/9$4*t^t^'Q`~k4p!D{h$Z8%' /J'~/9/z$W/O#)^M#)^=/J't=Z^k)]$Z^#/k^v=E$R#($-)S*0^o&<&<*D-q=~^t=o$a^2$*^2$m^{^N<5$t^V=D={^!^d'W^`])*#dw5n>y~[$'$E&w)(^W]2ak=a$2$&*Z)(^k=M^a*F=**h^'/1&F=9/L&e&J-*/P=-*R^0^t^p*(/=^V=~^X^R^|&**Q&`0{aP<8/#^Q^-!D- =sh+^>&T<N0'/O0J< =Ubka-e+qXb)Q!Q~Qte{Q]Q9f^Q/Q(Q_Q:Q<Q[Q}Q|Q7k1Q2QyohI[fUdedEMgHFFmbZr;^//-4n0(/G#9$~/K$M#<^i)C^w)E#G#[/X^&*=/J^$/]$R^M^1/8'7$8%{$.${72^p^!/B$%8+4&$o$f08%9$<*p3F#76>&;^a/47b)d2n>@(Q%o!D/A6M{%{,$T@Z$X!($G#*^`]1&H%4/00@;-''/D=i)8% ^m>E)5(|$z-%&",
"3Qk)I~{!r= =O&)*]&&*>;.-t;C/n>o{[*t= =c'2$g>72O/ DC[e{+&X%o!,).#B^Nug^.#|8J^=&M4%7R/1{{$2^m^9/j'V~y#s/<3M^Z]h$99#^!$3^%8u)E$!/b${/4Q!/4^T*Z8{)Z^Y9J~8%a^V='$D=w)X^ [u%&*)^o$*^F=2^a$2$-'7$*^A^F=7$;^F)X^[^J'g^p$b$i)x^V0a$%)H{-]z51!A=a%R*>[]$2^&%R*t^J-Z^//f^T^*^'/|&M#J[o$e^!/}*2$P<&%m8l>D=o$X^f$*^Y9k)**w)u%k)v=n/E)/&0,7$5aJ^x]b&;'o!n[b3|2P=t^#$w)H)P<Z^|&a$t=`^/%4^o$h/*^k)Z^1&2$'/5$+^Z)J~T*u%{/7$D=X*&*8%u%h^R*y=-'*^o$u)Z^Z^d'E)x^P<m'P<Z^%)A=p}`%,)Er/;9$';D=b$3*&*:$P])^F=V=M^//&*5$V=+^7/f^P<-'D-)^Z^f$^*-/P=x^2*Z^#///a$E=8'w)i)'/Z)|&V=*^Z]s^l&o5P%M/Q~y&t^o$t^ ^ / /~^d'G#P]M^T&|&(&A/a$D$X^o$Z)G#M$//z$k)2$*^4^|&f/t^|&X*C*w^F*!/C^u)Q^a^}62$n9O0z$O^b$R^J[P<w%k]3{~7V7~g2$T^:7a$I~f$//**>&d>Q<R^J~]$W9u%==l>^*P]G#w)a$t^S*G#!52$-/k=#!k=T^@^t^2^:7|&`]X^J~P<1aW'H9Q##> ^n0`0;[g8'/k9d'{,>&`0|bk9qcX0Xb{c5Q6Q7Q8QDfafWh9Q0QaQbQcQdQeQfQgQsK]hInhQiQaejQvHkQ[apG+/Z7]9dNn^B$#>#88^!^4^L#X^t^#//%4^ /t^j^`^a^&*M#r^u%7%.$&*{DF<g${/m^}6G#8[($;^~$G#P=1!z$2^G#55c)h5,MD^J^,3C^z#r$,3S%k/s/b5L{a{.}M5x[|-!3d'`]P]x*J5.}%(P'F=/&-/c'S*R^t^F=E)3^X6=c",
"(f}*t=>;v=K&V=O&;[@-R#,;H;y/L/^{h&N&r;e^B$i&-]F/G/.&@>^tK/b5{7l%]7b#%$[/1!Y7G#S3<2~,o;U<$$o/%$m- {z5v/<3~*7%a^)5O#g^t$&*~$a$p9x^&^*^;^o&)^v*~$>&G#R^S)G#9^8%k=J~t^-#P<I<k)V=u%~/8%%)3/9^-'l>i)/%R*]$W'^*P]W]p$E)9,S#9/M<T***V3}^T@p4lun^M^f0 ^I^7%`]1$-'C^k=Z^f$w)//M^Z)!^a^n/S*E$Z)t^5$a^m'w)&*Z]o$x^u%D=i)D=L&1&o$2$F=.$T^i)4^%'w$5!e3K#S/p]u58%)^]^D8J~J'R#}6t$Z]/*F=>^e^H<p&`] ^v=>[-'o$e/e*X9!/8^D=9^o$_/l><&b$o$W] ^V=&*)5%'#^9^e&l>z$~$w)&/Q^Z^1/]{)4%%Z~$~-/#^E$F=m'b$Z).^a$u)+^S*t=e/,[z-D=c'2$$-T*D-|ro^F^P]e/D=Q^p$4$o$^*u$|,e*n9'$Z^u%}6!3k^]$2$(>O{q]M/T)x[k=0^`]a^L#**{/9$G#K&)^z-i=^>N&<&H)&$&4#/'$u$^*c'd^.)u%^*Z^t^9^]$Z]|,R^Z^p$//:}O&e&>;J=~^E)m^&*X^h/B$r~95L5P%l#6*v$k)n^u%7$G# ^+^ ^;^J'n9i)}6R^v=t=N<4^7%&*F=P=%'~^e^%'h&!/j'`]+^a$+^-/waN<V=~^i)i)%)2$J'/*-/=/)^&[O0N<T^6bv=%)O&-bOyP<W00b.aJalQgc}O)ymQnQoQ,H3LTLpQmOqQrQsQtQuQvQwQxQ2QyQ4LdKUd{dwc%bpG%H@a,9;/Pq a-/f^f^M~'$M^M#j^%$>[7$q'K$Q^>[u%h/7$0^8%D$!^ af$y/k)N/E$.$f^Q#O^m4P#h$g^]$8%!^]/8>B5E%%^b%h$J^6$&#w7K$,3T/8[p'  $]]7,3M/p8M<e/l>v=3*m]Z$<3|*k)c'|rp$a$a$o$/%s^%)d&[!",
"McJ=Y8f&E)v=[&n&h'&[z-^>3>^^l#t{k=@***R*&^z=ydV%QxQ{6].#y6nlc%&$l#E'.$d>-41!(&<{b5]%.{9^]7F$B&E*03u5]%&3R^G#.^a^Z]P#T*x^**8'`]==w)Q^g^&^.$9^X^B$p$D$c'2$`];^2&i=i)W])^b$y=W]**~^9^u%**K&v*u)W<&*;^-)Z^H8]$e&%'*^&*(/G#g^S*b}c)M/X2)wK$0)J'=^-'+^~^**S**/t=V=R##bE=P=J' ^+^z$*^|$)^E'#/&*a$_rv*A=V=F=;^>&8/w$s^3&Z^6^9^O&o$#/9/k)w))^*%]~n{j/<]33h-L^F=a$R^P<8%5$V=V=d'9,{^Z]+^&*A=S*g^V=g8T*]$G#F=D=J'd'2$Z^i)Z^&*d'R^H)P<*^Vrq^-'&*P==^&^P<$-Z]D=#!B&r[$6`#$$Nrm^C8>[1/**%'%)p9t^O#8/ [Z^z$X^&*}6V=D=X^k=H9G##$Y9T^R^9,A//&)^L&)^2$D=3^J'V=7$9,>;]$s^`^]$H&C^krl{w/.6r[L~J'%'M$!9 ^d^t^Q#|*J^D-9,^***x^y^==+^t^F){^&%!/4^ =t^T^X^R^W<)^E=e/e&'/g^a$|/M^p$7$Z)d'k)e/Z][%v&1&03pB/(M/+fzDy^A/g^o$h^J-9,J~%'P<R^v*;/7%-^==z$7/&/P]4^,/t^-[x'x]Z^a$N&t^O^:7W'A<m*L#f^Z)}&G#-'^*^9 [w)a^<&P=.)>& 9O&#90bZ<-50)AaRH0b@bDa3qxcEaHIzQAQoI4dBQXgCQDQEQ2N`mFQGQHQMnIQJQKQOL!h#HLQzcieFMMQLFq6+4^/Q#>['/m^&*(^J^0)8%9^&*(/;/ ^>/O^t^7$t^m4#/]^A^7%'$*^D$4^g$B^t$+^-4C$l^5(194^t$C^&^2$L2Z$v{Z=1/g^n>|#J51%1#4%M/q#m2|{T~$7D/|#H=`a|&79a$u&J5Q/@>Csv*R#a$m>T^W]-'W9-/i)';;{",
"NQf&C&O^P-v*8%)/R*X*>;w~fk]78716W9**y^#>O&k>o5@7b)C[e{P%!7x79%v/%%4^E#9$O#x]_ap4M)`%){o9&%U$o^n'j>p!o/N3d*9^A^z<@8h$x^A^&*#/d$q6-^d>)^O=V=M#j)w)9/^>5$s^e&8/2$U*{/ ^t${/y^dNt^|&&*V=h/-/(/f$D=<^A^O^]$8%l>>[M^&^a$o$8%H8C7`4ft##70O<P<d'`]>[}*&[s^&*1^E$P#V=~/w)o$X9~/`]';#!H8d'-[W9>/)^d>O=&*-'d$D=9$u%19e^~$Z^R^0,L#7%]$ ^Z^X8e&d>t^O&L%&6([G5N]ka4^t^]$g^o$J[====T&J^A^k)t$#/E)P<F^[^Z^Z]Z]]9o$k=Z)5^a$-'&[d'($F*}6X^E)P]~/a$2$P=%'x^Z^!/b$J~79w$j6T~ #D</#V*f^L#J'n'M#W9D-3^a$p*H)t=O<o$M^P]h/2$D=R^X^+^X^#/R^x^~^u%{^L#;^Z^|&D-D-x^y=R^[^F)#94^4^P=9/x^p9 / %n[;'xdJ{b$8/`aQ^2$d'P#j'C$q*w)X*`]P=-)4^s^1&>&>;2$#/P=!/R^i)+!;/a$~^^*}6~^D=<$2$==e/t$J'd>H89/^*d't^:/d^X^OQ^tw/Z'PQy/i)c=u$4$j)Z]S#8%e/&*m^Q^e&7$j)E$j)u%F)Zy=^}&J~*!-/k949e*0^u%t^[6c'l>G#-*O^H9h^~/j)J[;[N02^}=f^t^X^-/~9Y7m4//K0Q^m>T0gaP]5bT<@KZ7M0-I5B;IQQmfofRQJISQTQUQVQWQXQYQZQ`QCf RcKPKONuLcG8e+/-[{a)5P=8% /;0`07$a^Q^!/'/9$[$8%g^:7u%g$=^;^x^8%2^%'f^G#2%h/]$*^h$d>3^S#b%!^-#;^h$l#&%l#4/*/W]%d=7t{';N/1/,3l#D#o/:/4%,xk/o52)q{;$X%`/@~M$j)R#0)-'<<($5]5&E)(&#^l;F*|,E)T^-&5$v=+{",
"Fqf&N&)*{/-'}&(&a$F=t^^>ta$$i8Z'e/T^w)b&@-f&w]T@0'A{~]F/n!n!4%&#g$d2]7{7F#c%Z^B8z#U{<!y/h/q'2^R<X~S@j/B8w&(^.R2^M<4^9^8%Z]&*!/Z)i)E#p$c'k)S*7%2$P<Q^J')^0,L&e/>[u^P]194^)^x^P<2%i).$7$1^%'o$9/g^s9^*/&t=X^)^`]Z^3^X^|/P*V~o5W7+R=1h$E$Pq)^O^J^c'59P<-'P<t=a$o$G#~^Z^F&^*;^a^u%R^V=M<r;H)%'a^u%/bV=d$J~0^a^x^')Z^R#9,a$W9V=M<i)($E$Q^./G#XtHB)4b6%{@^&^K)a$+^o$P<t^p$]$h$4^k)9^1(2$//X^ u8'd'd^u-5$w)T^)^q*g^>;m'//e*!/W]B$m^w)7$Z)m^i)7$[^8%4^o$>[y&L4M/o5=};gy<'/9/3^+^'/z-a$e&Z^e/Q#J[a$2$R#V=V=i)c'O&&*k)n^M$V=D=9^p$v*2$9,a$u)F^:7-'&*L#)/f$ /.$T^a$d$;/]9u%UtQtz4w]D]>>]$|$t^2$c'D$W9d'Z)B$P] =i9~$R#`^V=a$-'d>V&!/~^m^B&8%J<R^Y7 /<&19,a#/d$t=&/-#Z)7$E#F=F=d'M^d'>&/4F5`/9sx0V=P]t^Z^a$F=a$4^d>}6}&o$2$h&^*J~t^19D-8'@-;Ch/a^f02$J[f^[^7=w^/%J^w)Q#!/E=a$R*]$%'P<7%p$2^F=Q<R*Q#b&!/#/g8G9N<;[T^f0q^ [=/2~t0Q0qc^/3e@RgK#R$RHe^G}h%R&R*R=R-R;ReQ>R,Rcnif'R)R4f!R~d~RvlebZ0-[P0 92a#>X88^ ^Zr-4 /W]]^t^&$//d$X^1/g^J^g$)^*^d>;^!/&*x^0^1/h$E=[^4/**s^%$*/7$[/h$ /~/d$)/E3%7P{Ja;/&*E#j$j/y~s/R/k/D#o!o{%&]7M)}]i>f$P=J-M#*;Z'U^3#7&FEk^7$Z)o$6^H<%)kaG#f=S~",
"Nci=2aV<b&D=a$-'J'|&u$P& >L/n>c])/R#^*m>D=faq5}^Q/#{m]]%Q/b)%$9%[$u#&$:/J^x^'9B84}X/![b$g#;^Q/$-h3V%I/X~t$~/!/Q^*^^*;^a^M#n9i)'$M<!/w)C/-/W]u%X^a^e^t^V=#^**F*z-a^7%F^0^t^V=^*p$J'K=>[+^%'W9o$S#)/L&2^V=2^/&E$h$b%)^b$4{Hs9%0'9$H8o$V= /Z]4$M^//]$%'8%D-t^J'Y]*^d'u# ^@/h&J-)^`^w)4^=^9^d>A=5$d'A<g^A<-/n^R#e/8%a^L#&*Z^ ^#/d>d'G#E$&*`^r%o$y4p!t]H']&k)9'2$&^t^)^O=O=B$c'`]u%~^t^l>H8-'e&d'P] ^k=R*P<y=K&:}d>t$7%g^n^|,)5V=Z^%)4^#^Z^o&a$g^%'5$C&<3T{p!97F=M$pA6^a$)^Q^R#X^u%e^A^d't^Z^A=p$M#&^/&D-w)&* [}6w)u%)^`]2$2$]$z-X*k=u%!/ /H)]$~*A^t-Z^5$1^Z^D=M~d>m'a^<&Z$([+]f2C*#>//1$X^Z]D=g$V=O=A/f^3& 77%4^a$Z^X^*^3^v*V=u%l>W]a^m^X^)^4^^*4^u%>&t=9/a$a$.)O&9^T^.$J'*^-/L]D5k4=}*1%'[^!/t^N&}6E)4^a$a$9^u$~$J['/t^R^W])^l>$bJ~7%g8F=^*J^W] =f0P]e^%)P]J<u)|&-[A=f=P<#/2$>[w)Q^)^>[J<g*7/#/{a&bW0g82^k92~,[T<3e.-+qRb.bA<{R]R^RMJ/RKpGq(R_R:R<R[R}R7K|R1R2Rif3R4RCJge5RLawc~bk8#>3e#>,/K$s^[6x7%$X8(/g$-/M#u%,/9/&*7$(^>'9^2$t$o^h^o^9^~/h$$/N/B4L#[/I$7$g^S)h$O^M#G#F#f$c'[9}]C]-/9']7x]r%[/k/;ch8a#.#@yKz4{;$o/X/f! ^G#**i)<*T/Y'E3+*a$},}*'/S#&*>[V$R^j)|&+{",
"tcE=`<|&b&^*v* =1&1&!*P]aay/:/e{R#2$0^19i)%-p]~,.#0{M{S%b5nlw/4/w/F#2^8'b).4~^[{@7@(X2r$7$L#I^X&534}w/T~m'S^g^Z]C%&%X^^*8't$e/d>5^D$($Z^&*X^v*l>4^f$#/&*g$R#j)w)~^'/a$A<E)F)e&k^>;T^8%d'#/19o$-)P<w^3/d'Z]P<u%)/P<R^S*j}j/n>.&]2Q^4^T^i=t^>&#/2$%''/%' /{^|,==#/i9A<o$a^9/A^19i))^t$F=m>P<O&t^ !p$k)]$o$I^H)!/u$D=E$6^*^!/W]E)w^{^-'u^e&m>.~X~)4p!a][a2aqB}6F)t^ /p$M^)5k)V=d'7$*^o$)/**I<O=';z$R*W]P]*/F)7$-'w$7%A^d^t^)^!/6#t$8/s^O&~^)/-)d$E)>'D]R/0#I3{'-/2$7%&%)/**7%X^`]8sX***p$V=}&L#**B=c%8&9^,>e&G#-'8%v=7=o&D-a^H)D- au$**7%t=r;Z]D=p$4^X^g^;^f^7$E$o$=^u[N34%y$c{:>,9a$C$R^1$>^R^},u$V=h^P#l>&*R*E)+ao$V=V=^*8/k^d'u%i)i)p&($d>p*)>)^*^G#!^b$h^^*D=a$G# ^7%m&E9([17E/8&h$T^4^&* ^d>O^X^=^t^d^}*J'*^O<49l>d>-'n'l>9^3^*^a$%'9^`]&*'9r;w^2$M^4^:7k)v*Q0;^P<F^J[g8P=n^>[>[H97%=[F=.)R*L&-[u)**P]P=sbCbk)T<@-=M,[NF6RH0Ru7Rwb8R9R0RaRbRcRdReRfRgRdIhR9fiRspjRkh]J>/^/Gdk999X8a$!/G# aW^kR%)Q#I^l>LF1/J^W]x^+^G#A/ /.4r% ^Vv8%M#s^]^8^#>E#u%8%k=.})5h$4^9^b$a^v$ a5$J'N2nlD5v*8'[/W$C%y<c%o/I/4%K/Y5v{u6r#M/b5:-:/J'i=+^==z6s%l5f*&[)^}*V$=^d$d>x^R#)^!*S~",
"OrX^Y0c=v=s&>;'bv=i=#=(&Asj^:/q5o&P]p*J'p$p;t]B6*7p};]B6k/Q/0$:/(^4%X%n/d2*%T^-3T/p!R;&*E^4^Z]e^03T@Q/.{v=lRx^8'B$d')^M#`a2^]$W'F)-'#/u$d'X*g$l;`]W]I<t$x^o$F)t-L&A^f^a$[^u$i)D= ^E*2$~^9^}6J't$f$fva$u^)^>;R^5(E$W]44u}*#.}^>@#7$*^M#g^3/X9)^w^_//%l>c'9/R^N&Z)t${9d^8',&9^4/W]]$R*#9d>u^:7G#:}X^**@/h/&^[}^*'/!/`] /m'P]1^J'p$';t^u^%'X^:/mRy4V%)]45+=X*19X^R^n'e& ^G#}&R*Y9t^p$.^~/c'P<E#P</&n/}6Q<0^l>D-t$i=w)]$X^R^E$&^;^O=F=o$E)*^&#2$X^F=5[v{@(&74-F^R#W^Z]x^&*w^*^2$')3^t^0^y===u$i=e^*^)^}6Q^l>)^9^*^P<*^a$V=e&B&t^)^X^$-9,m>E$t=>[.4t=~^d^a$Z)1( ^t^t^5$b%a*Q/5}D/H2V-R#]$G#&/{^9^V===>;5$^*E$P=d'C*Q^W'O#m>X^c$e^X*|$Z]!/X^d'5$X^//&*|/'/A=5$)^*^b$u%i)]$X*$7m5;'<2B8['#^2^O^X^7%5$ =P<($d'o$9^J~J'//R#E$~^P<Z]m>+^z$4^!/u)>[]$Z)E)Q&,[5^1&l>a$x^u)f0v*&*w^.$h$7%S^)^N<k9%)`]=^K&J~[*S*,;>[j)P< =X9^&O^ona9+a#^`pnR5{oRqdyelh%xpR!HqRaorRsRtR2QuRzpTQvRgN>bdG%H$b`]{a:>8^Z7w)99a^*/`]x^>[M#&*4^%/M^j^M#g$g^;^s^4/D^u%@/4^g^7$[^]$]$~$%/E#J^4^%/Z]h$0^.$r%W<A$.$s^u2$5@>Wzu/l#l#g$A7|#.#O/I/=7 #]0Y3r%.#n>n7I$p$<*u/f&L%@8<3=*`<+^*^9^N&Z)0^a$D'w)O&W3",
"Wy<=r;]&-'P]^*.-*;c't=n&={v/*%k]v='/i)-/R^'&v5K/w/#{8]E/I6]7,3y/]^!#|^p'r#.$a$-3}^x[M{Q^!$($ ^e^`~M9K/G{z$d>M#v=+^E$1/x^!/19O^d>==*^^*Z)#/|&z<%'P]^*t^O^Q^9$F)a$L&:}P<g^E=7%R#!9J-#bZ^(^9^//G#v= ^7$Q^)^F)t^x^g^F=c^o2w/Z$j>2!^9#/($&[X^h/t^&%G95^ ^R*k)n0+^b$W]f05^I<Vr,/i)P<>[P='/4^^*#/R^Z^t=|&R#R^w)Z]l>E)p$d'l>Z^ =#9m>b$n^J=Z)l>F*e*//J& 33{8[([m]1$K&o$-)B$*^9^t^V=P<)^t^~^A$P<l;@/#^&**^7%*^]$&/V&w)]$&*V=V=t^Z^9,`]F^m^k=]$R#N<#/9^D-_K7{|#M)Vee-.$F)Z)!^P=M#x^Q^%'p$t=)^P<E=&*J'*^x^Z*W'X^w)R^J'dE2$/*R^~*B&X^t^u%R^V&@- ^D=2* /R^~^2$D=9^D=2$T^2^4^3^e*P](-,0w/t%a].7E$;/a$8%d'b$P=d']$!/u$H)J^ ^R#A=!$b&&/{^// ^5$9^&*9,M#9^Z]c'M#;^E$f$t^~$8/P< /#^9/|$.-V4e]y<)4}'~eJ~7%e&T*n^7%1/&^%'a^H8*^p$&$Z^N<*^~*u$%'Y7h^p$R^W]l#^*P<Z)R^k)3/'b{/g^u%7/~^O^V=3^**%'l>*)>[)51^//u%{/k=wa`]G#e*'/>[u%:7K<`0e^5bO*N<!bX9|x`p$ywRPcYNrh#GUGxRyRzRARBR|RCRDRgfML]G>QFI=M[aXb+/U^H9T^3ew)^929P=s%>'N/7%u%f^a^X^9'[$A^h$a^7$R^J^!58'y^!/a^m^B$[^*^g^x^]7m^;^1^>'U$*%-'W]F#8%!/W2`2v]Ma^%($O#H/F/'^F$v/&#$6j/q{I]F/4%@(ER2%F)|&e%Y-*7%$Z~'&j^w)h&X^[^D=2$:7}6)^#/tw",
"[dB=!&N&k=c&a$k)f&V=k=v&s3_8&*.])&^=W]L)x^C&w5##*7<!4{S/H5s/b%$/%8c%v$r#I^)5k9,0l/k/q{X89$;^*^^=w3}^+7Z2X];^w)9']7B$#/~/2^ ^x^-#7$e^t^&*R*7$B&{/t$Z^=^%']$d>Q^R*Z^b%f=&/W]49P]o$J-`^a^)^l>^*!^u%V=t^J[!^#/B$&*`]:}j>X2}^$]Pyd#:$&*f^S^f^M#>[z$&*Y7Z^7$t^`]**#/A=5(P<g^M#X^Z8J[z$R*e&4^&*|&w^u%p$P]R*x^ a&%X^o$&*N&($~^&*J'E)&/e&P]t^a$*^h/u%9$FR3#n[##-{h0)^d$j'Z^'/H8o&>[G#2^7$o$v=c'C*q6t^b$w)u%R^waZ^=^*!Z]o$[^{/N&}6M^J'V=J~^>h'-/t^'/d'W0P2~318,#GR;^t$^*#^w)&*u$#/T*i)>;F=L#[^2$2$H8`^&*~^e/2$2$i) ^a$B$f$D=F=J8>&9^&*a$o$J'X^%%/%Z)G#&$a$*^+^1^G#o$~^t^X^r^Z]@/n~60$5[>V~*-'$Z]L&R^Z]S*^*W9t^2*O= /3^}6*^r$E)Z)5^-'f=.^b$/&X6|,K)/&e^P$n'd>**o$w&o$'$F=x^#/2$,)l5v/z/q{n):77%>[X^s^-'`^d'(/Ot9^7$X^o$d' ^_/H<E$w)h&o^}&T*//W]X^2${/4^3^z-e&`]~/k=*^(&>^G#e&T^*^k=Y7^*|&`0]9n^|&e/S*';**w$V=x^>'d^r^Oa,9'&pbnRP=N<kz0uWCyx.qucmb>aHRIRJRQMKRLRMRNRORPRQRIoLPedRRed,9mb3qSR99a$7%/%2b,[4^w){CO^V=&*M#~/t^-/o$A#9$t^29Q^D$h$ ah$l#a^t$K$s^8%L#a^/%a^9$[/!/S<E=C^L#&#59b$fk`%`5X*9$y^%86$X%g#D/F#%%I/c%c{r{1!,3H5/-D8`^^>==t*%]c%Z~!&|rF=4^L=m*.$Y8m^W]~/v='t",
"--<*P]U*<&w)b&X&<*7=^=<&`;3/$8)4<*^>b$%'D-f&t]T@M)*}'4*7x]k4$$B^%8E#*/[/D^u%**y3C6g]*4d$E##%($D-S4*%w]c{D=;^t^,/g$d^e^D$6^X^o$5$O=Z^{/p$n^0^o$'/a$2$ /t=E=7$D-B$I^Z]W]4^~9h$i'~^]$P<t^u%=^a^X^4^Z^-'P#4/%'N<}6d[Gd!]z#a/%( *49&*a$h$2/%$W'L#==)^g^L#Y7#/Z]u%R*a$R^3/*/4^8%a^*^}6g^8'p&d>{/t=E&W]V=v=P=1/7$9/Z^x^&*9/~^O^>&X^R*i=_/'bF=8%Z=2$t^Zy1^O/q5<<]{e&T^p$<&a$`^t^-'o^g^d>*^k9Z]Z^M#D$O^w^9/p$t^G#qBG#9/>[9^**n' =e/X^t^*^}*x^C^a$t=R*w/_{k/K/^%e/n^**6^^*($>[E$P<,^R^P$w)9^G#B&j)(&r0n^d'e/j)q')^49Q*2$2*2$u%P=`]i)|&d'c'P=R*W=w)|,&%a$*^&*5(A^n^i)1^*)O=J'o$g^e^/#z/T/y{x3v*5^P=#/`^#/&*N&d$X^&*`]2$Z^A^%'R#z$e^o$2aP]l>E)R^*^d>^>=^h/h&k)A/a$2$4^G#=^v=9^K<kkT/b)(w]2D8*^t$j9Y7;9l#x^A=#/X^e^y^Z^D=2$V=9/7=9^4^`]#b7%'/L#k)[^&*>[T*X^W]l^`^E#L#R^Z^Z]d*k)a$~$9^i)D=C^E)D=>[b&wa`]!/P0,[P<H9P=w^R0N&2a2~G#e^PqX9 /TR,3qaHaL8J0tb5yURVRWRXRYRZR`R S.S0G+S@SgeEMPbZ7EyG^lax]#^[aa$q^u%b$'/0^u%/%7$M^.$J^ [s^A$f^+^6^m^9^'$u%b%9/A^M#6^D$Q^9^;/1/x^q'9$&*'$l#s^&*{7I^e^%dM9D5S&k4,$.#E#O#K/j#w/M/M)`5<{!{r%.#;'.qI<4^Z8a*c'}]I/c{J&2$V=2$P<h/>;>^t^R#^*ki84",
"`FX*{&v=Q&D=d^F=B=I~D=^=yN.4@8$6q=v= /`u1&N&T@n[s/K4${D/,)o/:/y~s%n/x]E#b,[/#/p6I/C6Z{4^Q#Q#0^e*63W@l/O3p$^*o$X^8%.$J^ ^=^A^&%C^_/F)>[v=b$7t [*^A^7/W<+^R^a^8%u%u^d'k^l9D=L^i)u^{^-^t=($R*x^t^W^#/R^-'oaM^a%[^X&E2-(r9+{A1%5E^W^7%x^F)O^!^)^J'o$ /+^8/-'a^2$//O=E=D-m^Z]a$=^A=R^0^R*Z]&^Z^f$)/E$V=R^R*b&b$O^t$k^0,B$M#Z)o$T&J^u)a^i=<*Z]&%d'^e&^[',fM/@(Y{P]K)(/V=D=X*f0h/J'u$t^2$G#!/o$V=~$u$^=S*~$#^h^#=5^k^P]'$i)*^)^A^1^2$W^o$;^*^2$e/>;T2k4b5[0*F{/*/e*w$-'H8N&J'o$!&C8M^!/S*a$R^8%t=2$&*o$M^($|&[^E*b$2^Z^d^W91$>;%'X^]$*^u)a^k)4$ /G#w)t-==+^R^**|&&/x^8%d$C8')R^^f@>X%n%J3k9E$m'O#<=X^:7n/z$t=2$#/7$s^A<t=4^i=4^|/z$Z]Z)Z]D=|,R^d>4^Z]}6<= ^+^J'/&t=7$L#e/~]Urj/Y^w/t=7$]$Z^4^E$&**^>&**t$f&1^%'=^n9l>D=P<==l>F^n^o$V=//r$T*d$Z^{9B$//`]T^K&m**^&**^P]u%a^i)#^*^u$G#-/:7t=B&L&L#4^@aQ*L&)^L#`]~^ =a$]9pGP=PqJ0q^=/#SG/s70ckeQ<SyR3]PpRAG$S%S&S*S=S-S.[gI;SIM>S>GGy_8'/X^]^#>2^g^N<{$;^|/M#u%z<Q^%'a%M#t$G#*^a^u%M#s^H8N<]$D^p^2$(^9^v/%$,/L#($o^:/u%X%[^8^]$N/+^+4~^D;M9c6';e%q'E#87Z/y^n>$$y#~6{%q{:4b#w/p!h><$X6(a(^p$X2;'&{/-E=R*!^t=2$($Z]o$*/1()>p}",
"Rc(, ^=>-&l>)*O&h& =`<,&E9$8o^$7e'D-/&p$I&^=m]P%k/846]|%M/$$D^n>M)9$y^8%B^y~V=R;c%)4~5.^O#Eb&*O& 3}]l/){@/^*o$k)M#~^g$p$m^k^+^8'|&2$,9#/a$+48%J~a$J'e/v=';19($W]9^*^F)x^D-z$&^l>b$M~,[~e]$~$r;u%A^}6#^ !R^w$(&@>98P%b6b&U$v=A^)^(/A$8%A0f^!/~/:7#/<*8%h/l>5$ /J'm9Z^{/`^>;~^*/h/{/w))^O=%)&*i)l;&*W]&^4^P]D=h^t^t=t^7%a^v=a^&/{/u$** ^E=P]t^R^g^0$m;j/p!g]+5!*==z$d'2$6^r$I<q9#/-).$u%c'R#W]#/D-#/3Bw)a$)^Z^9/{7*/t=p$2$E=E$]}V=2$`^%'Z^)><{u{W@Y' =X%w)2*l>**w)S#7%%'R^G#L#a$c'E=T*d$8%u%V=s^9/c'.$*^H)#9R*R^D=t^ /J'+^|/x^V=*^G#p$7%O^ /:}q')^k)k^g^c'#/4^X^Z^t^J^m^k)t=&*e]<<[>E2L&*^59J~G#7$!/G#k=E$'/r%A=4^S*t^1&f/X^ ^k=^*S)*^'/u%x^ ^a^c't^d>0)>[5$:7G#G#x^rrJ5T@J#)a~$E$u)t$w)O0u%o$h/A=2$a$&/X^d>V= /N&**7%F=d^%'*^0^Q^!^e*S#D-H9 [d^@-=^P=7%9^5*5^~^'/^*2$x^ =(a2^p$x^,[ ^Z]%'L&w)u%(a^>t^i/%)>&+aA<&[1/MaA<x^Aa^7Gd@{:)#9DaZ7so,S'S)S!SCL~S{S}d|p(dWO]SapmI}agcPqC^#>!3g8i/s^h^~/S)4/`]P<2^s^J^;^h/9^%/Z]A^1^d>2$#/D$4/1^x^($O^d$u%8%g^.9!^b#a$6$8'd$8'K$t^.$E#'; >Z$e{T<]^x]59J^H/$$j/o!-4o/D/%44{{$3{b5v96(t^m>#^|&C{C%<3v*&4u$>[//#^l>%'w)*^(/R#or",
"jzL&c&F)^*m'z-%;b&D-/*W9$'%%#^j/D-J'b&'/1^z-t],$w/K~${r#}7z#n/~t[/S#J^Q#E#&$Q<R3M/T/-}8%^9!/1^-'o;,(w/f2w$ju5$!9]$`]M^N^d$u%R^^*t^o$R^[^-'D=u%o&h^A=Z)G#P<B$a^R^w^//G#>[l>}6o$7$}6z-V=f^==9/%'8/l>*^.$5$')K&d'g9`%w<!0@}(^I<*^~/!/)5]$*/l^*!]$5^&^ =D=z-O^a%)^x^`]l>+42a~^<qJ'o$-)B$l>Q<Z]P<h/a^7%_D|&Z)~^N&q'*^,[z$>[*^ ^+^}*W]&*D=o$)^G# =]$N&D-=>=8M/j/.]%7:}2$0^u$w)=^b$v=e*X^n& ^~*)^h$Z)|$]$u%0,//W]Q#8/m'd$5$m> ^u$z-Z)*^d>Z^qld$$-p}l/*7{0qyR#X^T*P=!^R#R^|&2^&*-'h$V=,[#/J^7%o$F)d$>[J'p99/*^#rg^^*G#a$t^^*R^Z8D=&$w)S)g^e^O=Q#t^u%M#2$%'*!>^~/&*A=)^2$H)e^19k)d$9[6]^Sz50{k9ivt^*^J^ ^4^i)3^t=a$i),[O&Q&p^Z]l>2$#^B^($7%D-t=P<7%.$8%==a%*)I^P]2^]$Q^0=U4}^*%c%&^4%c^c'{$8%D=d$M#f^**%$R^%$#^e^K))^0)F=e^8'=/2$O^3^f$Q^h^u)*/&*:/f$qBP=T^J=0/#/4/@^8%t^O^Q^ [Z^2^w^R^z$//Z]v=W]B$wa|&%;R*a$d'P0i)w^w^>&l> ^}6C8m>n[v/i{=~CbH9n0vx/S(S_S:S<SE07d[S}S|S]r=M%b>'nMnMlRZ]Q^~^3e@8a$!^>[f^N<+4x^y^Z^7$C$>[X^-/.$!/O^&$x^d^3^O^2^K$s^4^V$Q#-/g^j^6^>[I^=/D$a^2^%%>^g^M#';r[p!5]r~L/Q#9$z/+%_8y<0$Q%M),)-{I]'^I/x[v9:$a$W]W' *`%D$~51*S**^9/*^}*N<9^($t0**1&tw",
"BDF).)>;i)r;2$#9-'^*O&|&Mu%%@8`%Q&R*~^**J'R<$5D/y4/{T~M5.#([=7t^8%1!1^'^E#%$U-,{3{@(|{M#ytL#x]k=N4o!F/H]k=E$J=]$7%o$n9u%g$]$!/}6j)&%2$R*')2$`]a$A^*^>[R^|/2aZ^Z]m^t^&%o$t^L#n^k)n^4^o$~^M#Z]8'D=)^*/`]T*E)z-I]l{|#o%%Gh$9^J^7%X^]^l>9^t^j)d'u%l>A^p$R^&*i)e^'/o$O^'/%'#rA^k^M<d>-/#^a^}&)^A=0,D=i)x^Z]i)M#e^4^Q^n^g83^d'G#L#G#X^F)O^0,f^-*[/-'J-Z)&$=1k]([K/n3^b&$a$Z^Z=j)d^n^*^*;2$!^1Sd$t^o$!/X^Z^k))^&*~/ ^@cR#}6|&7$7$o$**Z^h'8%!&P&a>q{##b6(&($e^2$_/a^d$P<P=b$T*x^R^u%5$-[X^5$.$J[E=a$a$Z)Z^`]N&G#&*o&J~e&d^-[2$8/T*9/t^($A=o$a$L#b$n^n^3^z-O&J<#$u%8^M#7$)^n^[^G#&*P<&42S!7j/H2g>J^a$#/V=l>&/b&D^*^F=t^x^)^2$e&W9B${/A^ ^|&P=J~l>%'d>*/Z^u%=^N<J'=^)^P<E67{@&$5;]R18'')H)X^w)a$D-I~>[z$*^h/Z]o$7$f${/l>g&D=V=w$f^2^N<t$W'a^+4R*X^k)$-P<X9t$*^2b(aF^J^w)R#d't^a$w^h^l>P<9^7$f^r*^9~/*^~*Q&X9R^Q^Q#T^Q<!/R*G#P=R^l>3S5BM)!]ncubA<>[n6js4S5Spd6S7S8S9S0S^/ cgcPr}a=M]/C^ 9{/0^}6&[[/4^9$7%3/;^:/9^:/#/t^.$o/x^E#r%f^G#u%-4Q^ol~/{$4^a^!$.$j^g^r;&#s^9^J^)5h/*/h$u%#/G#ltaaP%u}W&+%s%b%B7v^*7M/T@I/D/K/K{c2[$o/T/h;d'S*P<8'p*e]nlR3>>o$s^H8X^2b*^t$d^`]]^I~5F",
"vqC*y&e/*)o$H=V=2$d'=^+*%db,1/.7-/%;49e&k=('T)D/6A|{l{D#z4)#s/F#B^+8($F#}Dr$n&c7P5X'c{ !x^f^~$P=u}##*7F]J=*^d>u%8/Z^f0>^Z^w^!^E$7$F=]$7%2(u%_/l>5$|&t^7$~^~^-/79a$8%t^8%*///&/M#Z]F=)^Z)d'R*;^w)[^z$$-)^V&I^W[Y/J5tu^*G#R^]$8%=^Z]P=&*X^w)4^a$($#^9$H<h'u%x^4^h$=^P=d'e&!/4^1^x^n$($m^o$e/|er^*^D=O^{^=^5(2$b$X^v=~^D=M^b$1/E#x^R^,&~^Z]9^ ^P=Z)7$8/Z8;#@&}^}]D]-*L^**N<w)a$D=g^p$L&Z^2$')p$Z]e&8/&* /w)Z^>[Z^;^Z^,[V=!^w)3^t$d'R#T*w)S)b9Y5@(Z~,uu%%^')t=a$4^J'a$l>49h/{^*^49:/E$h^d>&*P<7%Z^,[)^J~b$=&S*2$=^X^n^X^`]Z)7$f$M#&%X^Z^8'o^.$2^D-o$P=E$E)u%J^D$*^R#}6z$b$&^z$ ^F&<3D5n>|]G'O<>;]$A=7%Z^V=!/d$m^5$-'h/x^N^d>j)4^L)m>9^}&-#f$Z^%'V=t^5^>[t^~^8'B$B&'d*%a'V%`<{%W9V=z-//&*Z]p$&*o$q'-';^#/~^^*h/w)-'b*e^ /t^d'G#2$a$`])^'/4^E)a^W]<&d'0)X^#/h$8/J'X^O^>^a$h^r;A^K0>'Z]t^ /b$!/e/7%X*r;**{/P=v=w^R*L&o$G#s^Q0X8i9c%qs!{3!0^X9L0e4it|xaSdNbSY'18Q0hHcSJ03qZrr^Sy+4w^Y73/Y7f^~^ ^I^.%[^m^>^1/7$J^n^D=u%f^.$9$7/5$w)3/M#h$t$($&$9$!/t$o^5$w^7%8'N<i) ^B^d>l#*^*^1!>^n0D;@&G{Bag$Y'j#4%*%o!H/Y/z5.#n!M{${z#H/([j;u$-'D-~^K&k]L/ ]L*d> ^G#o^Z]t^%'u$m4//g&%&",
"yrV=L*v&**P]R#l;]$P]d';&Mu3{8'%uj),;,&E=,[5*o5C6C/J{p]D/a#m2&#o/%%1/6$8^8%f$8%&dk/P%-}[/%8u#8%P*j>V%$5%}f&;^i)X8 ^!/9^'$x^;^9/e/k)V&X*l>Z^;^7%G#d>2$D-a$c't=**2^u%]^:7J^>[G#i/~$[%&*M^Q^7$d$}*R^d$)^9^c'&4V~baj%g3W|y~J'&*!^ ^z-19B$R*t^)^2^D-X^l>D=>[o$2/!/Z)F=@-a$2$Z^N<|&9/7$R^P<./&*d'*^Q#^*0,X8')P<J[x^ =X9Z]R^O^!/w)Z^ /A/>[%'k=}6Z]R*9/*%z<4^h$f;03##o!y[Oys-C&g>~;3&Zueq)*9&@-@*+a`-R&O&g>h*^xX&@*=-m&O*k*h>l*L*:'#=^x/-N!G&#[wu4}.#7s&un$4^j)!/c'g//&2al>e^i)m^a^&*E)*^n^o$&*t^W]|$d>F)P=B$P]a$R#i)m*o$}6i)p$p$c'^*J'f^c'z-%'X^($/&2$7% /{/4^~^7%l>X^N<a^-/4^(^d$L#b%+~+#4%j235J&AaF~h*F)3*(*[&y&G=-~;[<*p*2$g)@-=-k)]&/*x'+*=>2,x-m&N&F~`=c*[*3,[*N2-]T@`264$*J= ^S^i)`]T**^b&.^~^5$A^1^a^**0,%'w)&^H)X^f$t^t^o$>^7%Z^[^t^!/o$n' /=^w)a$)^E=P=0^&*~^O&}&Z]#>X^o$**&*[6x^X^!/>[k=-)d'=>C&`=F=X^2^F)D=%)Q<E#~^U0X6Eds/c{x~//P<=>H'o!GddSP0P0:7.$nM^/^/3e=/w^v/ =(^4^<$P=o4P<h$t$H89$h/*^2^h$]^f^A^s^'$*^L#8%9$'$x^7$7$p^.4}67%6^o^u%K$`]Z)z$m4Z];^W@L#M#!/ a%%4^J'U0AsP%8]r;K$[^-7A$F#%$)!b5+%|#$$ {Y{]%1#K/|-t=^*H<2a<*,5F$0}m;&*L=s^t^~/C^4/#^G#D=L&K~",
"P&*)V=.)B=P]**k^=>Z=9/d'45x/(^qsB=X*X^P<%^v->4x<)!*}q{F/B7`#yt*%O#v/M#_8C/!$N<J)@(4}<{'$%8S<8'3*<4@(([R;S*~^V^1/E)t^k=>;R^d>*^5$&[&/0,d'`]X^d'!^]$#/7%w) /Z^*^O#//*^x^}6 ^a$8/d0e&{/t$~^//&[r$}6h$d>F^h$W@L{V/*7X6l#~^:}%'!^t^d'R#-'x^)^A=O=u$2^J'G#~^&*N<&*5$H)u$%'{/F=V=2$&$g${/*^d^E=)^2$u8t^o$@cR^p$g^J'#^b$u)a^]$]$D=Z^G#z$&*V=*^G#F=*^7%e&n^+^`^;#u[z5T/c%Z4u2t;u2E;p2G[u2O;t[4[p2>}O;E94[u2G[E2r[4[z2G[H;u2G[4[O;4[O;j}y2s[O;j}r{_(;']%:,&^i=)*o$p$-/&/Z)Z^t^Z^B$**-c)^Z^D=p$o&D-~^t=]$z$Z^Z^8%l>&*0,h/5a2$4^-'>[&/Z)7%Z]^*a^Ra=aR*d'M#4^R*P=X^H)#/P#R#J9%'7%9/ ^5$=^p$+(K/b5 8U{G3L2Ask2<5G[|>3>E9E;3> >v24[>}4[4>>}z2y;w2r[G[3>>}G[p2E2O2v2O;4[t[y2q{K/)!K/sxS#1^d^~^4^P=Z^D=Z^t^5$Q^f$!/9^Z]7$h$R**^}6#^g^{^8%a$X^=^#/d>u%R^X^>^w^a$*^*^ ^q'd'&/>[J't^W9%'v*R^R^{/-/W]}6P<i)gc'&P<**>&%)Z^u%;^^>3z2$FF8%k)R^#/P=3{F/4AK0g849v=G]Br5B D-/ /ls>[f^Pqqc192^g^X89'G##^+/g^2^X9D= 94^W]g^w)]7u^.$($8'~/~^8zO^M#)^#9==s^%'#8Z^&$;^7$+^#$G#D81/h$9^4^b$f$)$!/g^!^9^4^]^ [r[P%o[.-O#[^{7{$]79$)!)#B6C{$$<{A{y#{f[>1;*aR*F=&*<*q5z4_07&w)a$J'P<-/k9Z&=/m>z$<&0{",
"4)z-';,;i=V&<*V<a$i)|&D-t[,34/F/X*F)a^t^D=^=x5<<@yI];]w%eSl#*#[^o/D^]72{!^L#D=03$5x[+fD8L/3^Q#^=^4F/W7E]!*l#n/6()^.$t^M#k)x^u%w$X^($%'R^')]$E#J'>^|&M# ^6^S)2$i)D=]$**t^h^ ^E$D=t^w)//n^&/8%0)#/W9M#J'^5W2lr$5y{U)R#o$e&b&P]d'd>Z]w)2$O^k)&*c'&$#9****G#)^w)#/;9R#**b$V=Z^d$R^c'~^ ^O^}6Z]`]`<q'*/g^L#|&F)d>R#a^X^t=t^3^2$2$R#a$i)h'7%G#t$R* ^e^Z^-)`]h'm&<]n!J5F#M/,)D/b5`%D/%7B6M/}7Q/<2k45}k/Y5D/k/}^p!e]f]^%w]T@<<}^R/n%$6v/w/Y5p!5}I/]%7=z$t=(/ /x^&///&^Z^M^G#r$R*>^Z^b$#5%'%)d^O&d'i)d>O&F=u$+^0,-*Z^t^(/b$o$2$ ^k=+^~^-'9^5$t^r;b$a$h$D-k=k)~^u%2^&*+^X^>[9^D-P<V=P]u%t=k!u}-7=7t]D/[>M5Y/K/I[V%n!,);'*%C6~,H5,3=7*%!7D/|#X/([Y/)!S/}^%7@(9%o!](C6T)72P%$5/0PtP].)9$d>O=*^G#E*%'-'l>x^M^.^w)a$F)&^~^#/d^V=5$X^l>u)i)&%Q^T^3^ /P<~^ ^r;(^V^t^'/!/&*{^w^m>!/>^')F)^*R^R^E*G#n9*/!/T^e*O<<=4^>[F=2$}6Z]O^i)R^~^>/*^=/Z'p'l]e>u%=/:7[{p'$5fSobCaR0^9q^(D 9)5]^J<H9291/Z]7$O^>^~$E$0^P<1/g$($M#B$l#&$g^c'B^+a,^[^=^4^B^#^Z^Q#h$&*P]b$By{${$)5b%1/jsl#t^%$:/D=E#d$ ^7%g$L=Y[m2z~P]!^.$p9S#M)h$y<y~b59%-8:b^01#s/s/@}|$9/p$5$*>P{+%R;I&Z]Z)*/a^d^V^W'9^)^&/%;-{",
"r't^v=P=p&n&Z)b&Z<9/^>p$M;g$5/4} !V=#/u)|rAaC{)!97;{r]z5y6M)[/M/v7x]Z/y<.#3/V=^0Y5@(c{@/d$8%8't^o;E<r573Z^M^d>e&M^D==^a$&[7$[/C8M^[%k)2$7%f$w){/R^r#!/a$&*r$W90,g^(^n/t^ =`^[^Q^X9F=x^d>d^>;-/7%x^%'8%~*<4M/D5`5z*19#^J^_/a$s^a^]$h/9$2^&^|r!/ /^*D$R^=&q9X^F=l8~^7%s^7/5$<&Z]#/*/W'1$]$R#h'l>J't^d^&*2^F=5$=^)^g^9^[^7%9^&*]$4^Z^m^q^4^B$m>&/G#7/>[]$>'[^Q{`%z#'^l/x/|7T@([V5n!,33{C/(^M).}U$2{~6[/b)x]}^%$I62{+%!r@(.#Y5j/u5O/n>*%D5x<H/T@xE-[%)L^&*+^g8e&H8u$c't=H8Z^*^L#w)8/!/h/V=J-t$z$F)5$G#}6&*%5v=:$b&d^d$9/#/&*!/a$J^V&v*V=3^4^*/+aX^gS =f$7$}6t^B$P#8%a^t^q'f^R#o$A<==E^+f %`%B5&61!$7z#b%L/]707x]uwz#$/x]&6*%o/y4!41!6As/R/x0.7j/uw]7x].7]7-43/a^-7Q/]#Tu:/B$E)')W<l;d>J'>[7$#/}6/%)^:7J'f0#/M^^*== [V=5$t$w))^+^S)[^-'f/y/#/u$Q^#/>[X^d'i)M#k^x^E# ^l>e*3^w)i)O=X6c'>[E)~9P]F)z-_/N<P<`]u%`]4^2$G#Ot*^Q^a^**I8V{M)}{[*N<x^>[<3m/Q/{Ok9P00b^/r^.R{,]$z/C/[/1/V=!/g^$87$z$}6N^>^!/#8Z^P<8%f^f$S)v=>^t$r%N<.$9'&*]$4/==J^R^y^I^X^s^g^4(;^F$r#M#j^f^o$u%L#o$4^^^M#F^={j%&{h^d2&$l#9$o!o/x7W@-(*%`%}0:4w/G/C/*-ua_/7/%'L&|]*%Ych>|&R#7%m^wa0^)^M#==9^V=%&",
"d5G#m*G#=a-[=^p$P=d'ka^>J;x/I^)!)*M^a$d$D-8bZ')!hS5{h{+%o!x<y~|^,3S%F#&$:/+&#^tup!R/`~7$]$G#A$a%+>v/n>T~b&g$M#W@g^F=9^[^1^+^}/p$2$L#h/9,R#9^D$}64^7%M#w)M#n'f^T&d$]$R#k)u%O&;^L#P<`^x^a$&[7$]$b$w)O^;^--Z~!73{T@@(t=R*{/K&&*9^*^z$+^#^w)A^d^d>#/8%w))5x^N&:$D=Z]>[/%b$t^k^X^r$MQ`0&[X^e&!^+^&*s^t^[^b$l#&///t=H)t^z$8/&*199/M##$`]t=4^u%l^u%X*'#a^**M<R*![U{x[`/M)i|7;e2a-()R|iSQ8~~d!|~H!Aw[-|~siT7+~[~[-u[Xr]~5~tFf'|~fz:G)3E0jx*|*%T@M5j/b3{[Z^d'X^W9%'z$9/X^G#7%8/n&]$n'o$E=#/(&u$N&D=2$a$;^r;'bO<P=')B&'/I<#9E$Q^~^-'e/D-R^R*2$&*b$!/Z]J^b$1^w^J'G#;^P<!^ ^+^t^M#M#)^Z]a*N*a]m]%8;cd2;~q~j;A1P[$c^fzDd|+~$~PQj!Hb)~E4d;&|jSE0<-R16|;~zD]~y}~~8!kSw!w9$c&uLvb|x/O<o$g$t^)^t=')Z^d'+^W<7%J' ^&*7=M^x^t^;^M^Z^u%v=j)%'!/R*./P<3/-'=^F=Z]+^&*]$!5m>+^g^_/5^j)^*w)=^E=B$N<9$t$V=#///e^P<~^T*R#N<O0k)S*Q^J<J[i)m'G#D=.$d>>[E5,3 3j)j)`]+4C<v0K9O/f=+^Y7s^Y7p^0^a$B^7%8%4^1/X^1/#>[^a^]^C^X8M#Q#L#E$`^J^m^!/:$~$~^t^$8.$d$a$g$s^6sg^2ag^>[E$O^s9!/:/Q#n9d>d>h$J^C8g^3/E#N/h/!5As}]v]May/4/9$[/9$z#4%p'S%'^@(T~%{)4%7T/E0!9a$a$d>{&w<M/t{;-~^l><$2$3^C84^7=-47%F)V2",
"BBL*J&9)m*4&k=~*V=(&e/n&dAC/1^a/5$**P<<&}*n0q5([1!j>G{)4M)([p'z#E#I/]7<^O^)#!8vv}^}]X~{/&$m^;^)5S#W$<<6]*/5$4^'$19D$*/*^{9lS%'a$t$X*8%9^M#k^t$f^M#,[}65$)^b$')5ap^t$Z]*^8%f$[$u%.$*/e/Z]9^v=a$i)!/h$7/L#M#}^kDA[L]u&z$O=M##^Z^S*w)`]g$R*%'N<x^f^M<e**^**t^C*2$t^C^5$u% ^%)w$+^}6P<s^(/&#N&a$d$+^t^P<T^h'~^t=x^4^2$7$2$i=.^B$D-V= ^[^ls*^s^`^^*l#9^D=g^W0mST@H5k3Qu #Y@S@t4:0S@7#]0[#F#=#$6 #Y@o#<#nS>Bn%m#p%o%;$D#Y@%#h%J#p^$6]%A%1#d|J),3u7T)U5!/T^t^[^x^X^$^F)s9]}*^!/X^2$J'O0t$a^J'8/x^[^l>k)m>z$B$Z]=&w)J'w)t$}6u$&*!/o$P]2$-'9^J'`^.^d^M#F=ytb$-'H84^s^`^9^ /7$a$1/ /u^B$*[P2y#M)o>'1N#$6{%}(j#1#9#66y$~%^$40]%LsT%D/ #;(+(S@LsT%@%([N%S@&vt%+%5%U$0#E/@7#$D$A=w&&*=^l>e/X^`]r;0^'/u%f^k=5$Z]c'h^t^49g^2$+^`]d^R#|&9^8/h^a$&/o$//D-{9Kb]$7/O^2$9/c'Z^P<~^d')/Z^t$Z]a$F=>[V=q^e&L&Z^R#k)P=w^Q^X^9^R#h^'/=/m>d'~^1/Z=2bZ'[>c{F~a^2^P=.&3{}]!rO^it!/ ^7%H9K07$<^7%*^t^-/Q^g^3/p^)5a^D=0)[^t$a$d>*^h/t$u%&*a^D$>[7%9$#$r%o$'^b$.$4^!/;^z$($M^)5U$x^n97$J^8'x^4$.4+^s9<$#/kar[~,R;g*j^g#{$1/!^9%C/K/o/B6([:bJ{-(H/n[~-5aR*2$L# )`/y<*3i&r;}6d'b$)^x^W]t^#/k)u)#{",
"R&,=,>m*r*z-e&k)L&F=I&9*|3)5B^Q/0,R*Z^~$j)A<.6V%w/+{b{+%](,3|#L/y<%%L#g$1!87w^70y])4`c`]d$7$d$*^h>x#@(k/  O)e/'/.$b$5$h$M^)^7$3^l>8%8';^E$J'&*u%==b$|,u%k=]^b$/%X^*^n$^*t^h$=^*^[^f^O#9^X^>[.^ /~^e/*^%'|~k{/(n!z5+{_>g0'$O=Z^&%a$(^4^d^&^2$b$/%$-u%Z]P<7%f0n^V= ^[^//t^+^Z]t^//&*Z^t$D-[^{/w)X9i)D=)^^*-/l>X6g$h^P<x^!^x^`^ / ^2$&^z$C^D=**X^~/2$|&P]#{f]([77h;r/=^~^M#i)W'<$w^|&D=J'n0#$^&g^>;9/P=7%&^&*|&c'*^P)T*//t=d^E*9/2$7%R*~eS=B7<<B5F3^5e*L0:}%'H)&^v=5*9^R*>[9^x^Z])^4^#/O=1^[^&*{^M#b$a$k^k)F*w)]9+^M^s^d')^=^u$ /4^p$a^W9}6&^Z^h'Z^P]d'l>Q<t${/I<a^7%a$&*d>-^t=]9#{t]O/z#%-h/2^~$D=|,!/a^k)M0!/**!/p$'/k=<q7%G#Z)J--'b$p$>MZ] 9D=t=V=X^5$N<E*t$*^A=*)&*{/X8'9t^h/`^J^K&7%5$!/V^p9t^P#X^#/&/>[8'7%Jb`]Z)P='/Z]X^ 9)^9^d'R^X^4^,[9^H9&*)/6^~^B&:7 /G#9/*^')b&P<u%8/ [L&Z^;^&/t=G#E)2^2$**B$a$w^X^%5d'n07%L&($T^f]([@{K0s^2^J^<318R/;'{^~9h^N<n^.$h^q0q'5$~^`^1^#^&/H)x7!5P<+4E#//~/4/9^0^o$t$I^+^J^h$E#{/&*t$V=9$t^k^o$3/7$@cJ^.}Y7g$I^t$~^ ^7%:/]7W]4^)5]7Z8P#M#p2-(;]su+8l#H/u/d#{$r9;#j/k/'^=8F{M/Q/;'-~7tj)==d't*c]*730S!P<F=Y)m>D-l>i)<*m*$-^>C[",
"XvR#b*{&,>J'**l;P=P=E)a*E9[/1/3{p*v*t^%'F)=-B5t5,3K~&]F/Y5+%D#K/z#,3y<8%[^6$A^:bk/R/*}d>%$4^8'C8w^p4C/k/W2EaE'%$%'o$q'0^7%D^o$J[I^4^#/u%8%)^[^o$J'//6^j'H8P#+^H)'$ ^V=V=8'D-J^z${/z$M^P<i)8%t=g$=^e/w) /w&(&u7@G$5<!kiM^/bt^l>**=^&*19&^%'F=~/D8**E$b$}6C'5$#/&^7%==w$T*_/*^L##/9$P=_/o$Z]Z]&*#!J^w)>[%'P< ^o^|,l#i)Z]J=t^Z]h^,>y^3/F=W]J'9^6^*^V&F)#>A3`%b6f2Su`],/Z^l;d'E*S)>[&**^k^k=-'3^>^-/%'E)e*X^V=<q,>c'#/d't^w)L&7%:7+^e&Z)<&6='0$$y#M9J]P)^/+^&^O=F))^k=G#l>]$e/X^%'0^#/}6&%f$($!/*/d'a$X^Z]%'n^W9d'SaX^t^8/k)d>*^;^%)t^b$z$H8f^o^`^}*&*Q^]$w)D=t^|&A^v=~^1/V=S^J''^/{X/([+f=vf^k))^}68%|&j)/%q9i)=^2$4^i)D=)^E)Q^~$e^e*2$&*O^E$i)9^~$~$5$D=R^e/H)A^w$=^%'W''))^L&1^v=Z^9^l>X92$e04^p$)/2$!/*^8/E#X8X^t^5$ua|&o$!5P]#^r;/&g^E=d>u%[^!/P]7%H8L#u%a$F)7%|&9^!/M^A<W9*/J=*^`^v=p$.$t=9/';0,]$N<^*7%F=#/P<1^<^#/g^]$L%T@*48&&*8an^C3V5j/A[a$g^#/n9i/2$[^//u%t^-#!/X^s0>[ ^d>m>g^;^H8!/*^1^.$[$~/W]D-,$9$d>&/~^x7M#E$1^($-4B^#/($f$W<19A^{$.$#/j^I^t$J^Q^C/L#g^Z]($J^]$L2V/t{.)&$y<]$.$&#b#+%F#/(M/!7[{Y~k/^Ek4<--)w)i=8'8tx[&#u}5&y=f^#9w$E$a$ ^&$V=f^k)cc",
"^bA=xwo&X*2$N&>&|,|&|9k*M;z<%%q/,[9/]^k=F*;[k]T@,7E[e{T/D5d#$$y/](s%&##$M~j^u~f2a'M5v6YC!%t$l#*^+]C&;'o5T@={F^7%&^Q^4^ 9h/)^a^A/&$|,F#d'l>//&*~/-'Z) ^S#R^b$u$d')/R^]$!/H<c'a^!9*^n95(g^&%#^8/&*t^2^*^t^o${P-3'^!#D/H2w=g&**>^M<5$@8a^)^D-UC_/k)d'8%8/z$W'5^)^#/2$z$a$9$_/{/x^k^&*G#Z^a$9/ ^#^u%R#:7s^^*-'u%X*o$P<Z^d>z$`](/`]u%h$*^d>R^j)./9^]^sh(*E2m/T/j%jS2^D=f^a$5$c$w)I~2$m>u%Z^k)G#t^2$J^%'b$`]R^R^**X*4^&*t^E$J'X^^*&*l>*^f=]$7$+3O/x6|#a]@8b$l>]$w)i)9^#/Z^X^9^d$Z^d'V=!/]$%'P]z$*^&/u$O^*^8'D=w)^*p$m>4^&*1^}6%'p$G#t=S^b^5$u%u)}6Z]G#=/19w)p$t^A/O^7$D8)^c'9'E)P*q2m2R/z#=~q/>[~$P]7$d'x^6/|&t^S)//[/)^P<R^b%d'L&*^z$Z^F=X^D-Z)>;D=o$V= ^d'w^'/V^k)#^u%a$<&Z^m>9^R#Z]7%*^%'a$X6#^t^1/c'+^u)Q*9^Z^8'Z^c'k^t^D=%'v^:7a$a^A===t=9/R*D-2a%'#/2*w)`]S*-'k)h$I)&*z$W^ls9^A=u%w^+4D-|&*^d^v=X^L#&*;^&/)^!/*^.$5$*^d'x^j/;cH'^>F)&* =={Er([_8#/4^A^l>{$Z8u%m^Q#4/#82^g^x^q'V=,9G#{/h/~^g^1/&$)^3^C%a^)^k)=^~/O^~^]7!$]^f$8%d>3/E$(^;^[^)5J^,/s^itu%a$7%>[u%s^4^u%~/N/H8#>z9a#%(/*)#F#b5-$I/O#g$E#n!.7V%'4%}^%M)x[Wz,>Z^x^j)A=)7Q/n22-P<X^~^ !#/ ^//(/%'u%K=}>",
"*'~^b*d'E*p$%'~*F=d^v</*0>Q#S){Ob$Z^L&t-T<)cJ5a#R/92b{q#R/%%O#,36$E#4%o/1/A$Y]C]q5;'fCd^n^M#]$M<C/*5v4V%R/C]G't$G#L#J^G#r$k)%'Y7g^7%h$r$>^/[&/^*4^m^d'!/t=-'P<E$/%W9Z^X^1$M^W<T^d^a%K&P<#/ ^M#O^w)t^4^gaG#!%>~v{I/]%l59'k^~^I^R*=^*^X^8%2^r#A^u%[/I83^//D==/*^n^-[k)0^>[2$t^[^W^8%T^&*X^4^m>+4*^b$X^O^X^7%V= /**p$M#Z^J~!/2$2^v=9^j)b%-'a$|&2$L&P<B{b{j/9$##M&W^@8X^P#x^%/^*a$!/Q&D=f$)^t$=^8/d>3^ /%'t=t$v*b$J'&*F=D=5$u$*^t$R^=/&*V=y=n&`3##57([caF~a$d$+^2$g^a$w)w)a%')C8%'7$g^4^k)x^i) [9$d'==R^r;u%4^&*)8^*2$R^7%-/e*=/i)X^e&!/&^b$R^Q#2$Q^D=W]i)=^&^X^R^.^j)*^)/2$9/l5g{p's/-3E4P<t^M#~$9^Z)Z)*^&$b$ /t$o$d')5;^*^~/a^+^Z]8%~/Z)!/*^X^1^b$ ^>[c'o$9$w)]^!/~^*)`^d't^%'v=R^|&&*Z^D=8/^*+^D=*^B$*^k)i)a^6/+a2^//D={/`^E$M<6$o$u%w)a$G#t$9/k)M< /x^2$J' ^u$t^v*t^d'9/G#E)n$&*d>P]c'R*R#l>Z]K&^>2$}69/O^**s^#/d>J=)^O#T^}]Q/!{g&Z^I^M<G]t]@&,7g^x94/!/g^f^M#$/h$8^2^5$G#&*~/w)$-($~/u%g^w)s^L&x^V=)^7%4^*^1^M^{/!/4^]/h$.$a^{$&/E'7%Z]^*[/[^M#1^t$t$1/8'8%x^x]3^[^o$J^o9~^k2a#<]w)U$u0C/x]]7:/w/C/|#|#H/o{a})#]%G6;~M<h^=&A^#=w<*7+]X&S*j']$!9&*d'X^t^E#%'O&U7",
"oS2*R*f/t^f&V=X*P=p&7=O& >Idj9Gd|&<&&/D=R^>>C{R/&6m!q{k/$6=727!%G8C/[^)5|^!$&[-}o/D5,#C^t^.$-#ivn^E#X^}tA6$5q2F)[^g$#^l>E#P<]$*^d>u%t$D-|&*^ =2$+^<^T*m*G#}6e^t^%'!/)^q'~$Z)b%Q^^*!/{/>[[^Z]T^a^g$8^G#2^)^//S*{#$54%)4[3l=(^%'{/X^}6s^7$Z]u%M^-[**&/8'V=b$n9X^(/L&a$N<-'c'P<1!+aP=L&+^'/#/W]]^-')/)^x^19^9Z]//~/Z^//#/h$k)#/Q^2a8/ =C8d']$!/9/a^e>z3!7m/vsOqJ^2$J^#/A<P=-'i=a$X^i)R^')o$w)*^V=t^F)D=!/N<h^M^h$L#&*L&8%[^d^t^8%z-8/*^Z]P<J=N~!}]7$$s5-7k^8%A#P=9/D=R^5$5$M^F={/o$k)R#V=7$&*X^i)p$2*!/6^8%Z^^*o^T*H)Z^b%***/J[|$pSD=h/!/2$e&l>8%v*&/s^!^2aH82$]$%'X^G#Z^')Jb_3n>@(h]NrK/E)_/I8R#w)_/(^&^Z][^t0[^P<D=P=M#19|rB7)^o$J^o$H8E*F=/&&%Z)E$Q<G#7$`]z-X^W'R^&%S****^5$V=d>Z]!/d07$R^k)i)($`]6/R#2^g^P<:7f^9/L#t$u%&^W]0,P02$V=z$'9#/B$Z) /i)Z^&^$-d>P<]$C$8'N&D= ^P<I<h/C$ />[V=k=-'D=p$v*1(R*`]f0h/7%W]h/Z^u%O^D^ aq5p#K~6*L#2$C^  m/}]*%8%g^[/l>{^!/X^}70)0^]7a$t^a%0,~$M^Y7r$f^O^t^r$f$[/l#Q^Q^D8f$.4e&G#x].$8%8%4^G#F=!^M#z-G#]$.$(^G#[^J^s^~$!^%8#$&*l>&*.4^9Z]Q^#}~,'4B~[/v/L/K/v7Q#*%y/K/k/P%:bM{+&M/D/e|v=%'V=Y9,*k/B^~]e;&^d'1^<&Z]6^M#U'c$,[GaqS",
"<IV&d^v=-'c'n&7=v=<&]$,;E96$I^EdE)#/g&D=A^MaF5swW7J{;]([([d#O#u#H/.#:/x)O#07E)#{rS<2o>M#K^u%]71!i)!^1;T%sSX@z5tSJ</%|^s^&*>^&%X^o$8%~$($:/^*&*4^ ^D-M#n$9^o$[^X9!/X*u%P=2^l>j)g^h/`a>[+40^4^P<R^($l>J^_/V=P=#/uS:b)!p!,#v5+^_/Z^9^t=Z^D=R^*^#/#$}6#/;^d'_af$o$9,1/D=J<P]b$O=a$R*9^j)9$t^D-1/=^3^l><*&['b9^!/M#j'9$e^ ^X^d$M</%*/{/l>t^t^+^Z^&*p*h{c]n59'y#|$J<z-[$H)9^u$;^V=s^d^V=D-Q^R^>'C8P<*^d$d>9^V=Z^f^%'g^`] ^h/V=)/}6a$w^%'(&t$I^k=J~:(vS^tq#6[wS-^#/o$0^9^3^e&a%#/*^h/:$ ^5$j)u%~^T*Z]Z)h$d$X^ ^a$-/w)+^t^W]n$g^&^G#($w)%'t^&*]$0^Z).^%'8%i=s^'9&$l>M#7$-/a%Z)L)k3%]u51!n{-'P=8%T^M^g^o4H<D=e^l>ib{$u%C^~$-'.)&*D=5$*/~$t=d't$G#**D-u$ ^w)t$7$)^k)@8]$&*R^&*R#|$x^n0&/)^D=(&r$t$o$9^h'Z)Z^%'X^t^%'7$&**/:/R^a$;/S*&^4^2^R#x]&#%'%'p$a$&*D=R^4^&*u^dN>[P=V=&*)/a^u$5^D=k)+^L^t^D=M#k)'){/J'M^x^&*Q^(^&*N<&/J[o$8%f$18D/xSki*^q6%'.&k/T/*71^J^Y7`^8/2^Q#Q#*^X^D=[^%$X^M#f/x^P<z$m'M#O#a$.$;^]^0^s^M$~^8%@8R^+4Q#{$d>g$8'z4'/8'a^#/k=g$(^>[t$!/8'-#6^g$s^m^A^{$d>!^D$#/P~}].]X*.9X@%%f^O#A^y~1!z4>7 %M{M{]%%uD5h)9^{^F=-'l;,5y~Zcn* ^F*k=l^t^(^T*2*Z)u)J&+{",
"Xvb$f=)*S*z-p&v=[*%)E=]*M;A49$j]9/u)Z]$-[^.-nFD/18*{`5=(([u5L/b5Y'F#U$B^8%($ys#{n%M/u}1^1/j^%8 ^3/.4P$E0/#P%x<h{V/ ^B$a%d>&^R^!/h$9$Z].$&*s^L&B$**P<;^7%)/m^*/ ag^5$o$ ^q6u%m4K&X^V=f$a^t=+^[%4^}6t$~$d'M^W9g^!/d$1#l/%73}g)E#&*E$}6&///~^a^u$'$%')^o$N<[^X^&*&*B$X^h^o$a^*^&*8%u%2$&/;/J'7/)^w$J'Q^3eb$//^>Z^R^T*7/u%R^v*w^V=P=)/f$P<!/k)X^9^@[+5%#+%&(E}r$8'//2$'$!/'/ ^J[&^ a-'{/d'h')^==>;[^X^R^W]X^R^K&h^{/**X^G#^*!/*^v=X9X^**Z]`]d'4^*||{Cd<<U5h5c'~^w)w)a$~$'/z$y<`^a^R^n/h$**o$7%l;W<o$t$m'&*2$#/{$g8^=V=l>w$d>e&o$E$]$`]@8a$**r$*)/%!^~^x^e&7%l#l>I<//`]w)5$ki3}&7k/ttZ|d'%'t^7%d'x^Z^O&l>P]4^b$2$2^*)R^a^2aa^*^u%R^z$w)1^l>h'`]J-{/J^L#a^&^&*Z]'/($w^-4L&*^^*w)^*S*k^V=7$#/}6<&A<d^N<+^R#D=X^#/M#~^E)h^&*d$D$8%W9G##9 ^9/&*K&>[ ^1^N&S#F=M#2^#94^Q<7$&*f^d'z-g^w)W]V$&*t=%',[O&19k)l>,[[^)^0^ /p*t$7%Z^*/&*!/a^,5I/E]h0!^%'2a<{!r/(3{7$(^8%J^2^9$7%N/h/M#u%q'4^a^&*J^ =&*F71^J^S#b,8^W]9$d'8%+^9$4^M<{$a^g$7%%'x^')7$X8L#a^t$h/f$h$4^9$u%f$f$)#8%D$8%g^8%$$4^u%x^&}B6l{j)[^=/,3s%6$z4r%/(,3n%!#M{l]t#|#$5O*4^X^,[k0#!z6g$<{}~Q^9^Z^;^k=2$&[w)>^N<V=E[",
"Hw|&u)D-O<P]Q&]&H<X^%)d*N3.4l#$rN&v*d$w)f^L~k/`#5}H'g{S%;c|xy<M)A[9$M#z/7$y<q9*4b6M/[>o^B^h$I^X^7$p^7%B=X**7E%*753P<W9Z80,1^8^Q^V=g$*/4^2^Z]P<`]|&5^F=s^X^9$j^t^a*V$d'Z]R^o$&^o$R*D--^~^q9!/i)|^;^]95$|&R#u%J'r$f)m[-(;'.]'tI)E#iA&*g^]$t=3^7%m^8/J^P=b$[^t^Q^^*z$4/Z]k^:/u%3^*^a$o$A=R^<*7/R^E)K&%'!/**9///Z^i))^t^K&P<D=0,`]A0k^Z^d'~/h/Z^`&|5%7R/1!h'(^#^9'a%i).^t=w${/`]m>4^//X9V=k)[^X^8'N<)^C^<*~^+^B^G#7%.${^b^T*%'9$d'**~^Z^9/ ^Z^*^)5W<%#b,X'%}g)g^')|,')o$E=M#+[ /P<k=d>V=^*+^3^.$k=7$9'd'h/t^)^2$#/+^J'W^^*S*6^w)19x^a$**s^l>g^}6G#P<a$k)3/h/*^R^&*~^G#gE!*Q~)]9%u/A<0$i)A^O^X^W]&*R^l>7%)^z-4^)^q'X9A/M#R^Q#P]:/P]9^5$D=&%f&%'t=^9/b!/^*d')^4^9^+[}6Z^2$F=f$t^Z]s^Y7[^~^>'G#!/!/H9J'd>h^a$W]Z]0^B$u%d'7$5$#/w)m'u$P=Z]d9k=!/Z]G#P=i=b$^*a$0^I^g^W]p*t^5^w^Z^&/u%h^$-P<M^d^|$t^>;W]X^#/p$u%]7D-^*W]V=X^8%*^P#`2$rF/6]k=&*f^3/E318t])!8'Q^o$f^m47/q'($,/7%[^]$r%x^E'+^]$a^W]9^3/g$x^l>!/&$.$Z^~^s^b%!/y<l>x^!/*^&$==g$.$S#1^ ^')5^q'u%g#X^p^9'A^s^#$3^4%Q#.$P<2}%%P~Q/c]~;4%9%E#r%x]]7Y/g$j%S%Q%q5(31#O/,)4;1^T^^*p$3&p!*%.&^;=^O=N<W9!5J'h/W^=^S#O&#{",
"Ab)^1&R*&4[*(&k)X*A=5^/*Y[kzQ#A[a*G#4^P]u$@-L{Y5.#-{_{Y/b5,3&#|#:/P%]7>[Q#Q#='S3J5@(yS;^d>7$h$Zr4^f$d>x^ous%46G6z6b3T^&%r;4^]7*^V=4^&$a$=^8%49.$9^4^1/!/G#Z)2$Z^U/`]k^&**/*!B&Z^F=Z]j)&*V=z$4^}6D-)^Z^>[0)0^&/:$n>zDM9D/-($]h^5^i)G#E*g^A^9^'/2$b$*^R#|&e/%)x^`]D-E$2^)^]$2$&*f^Z]&*&*%'D$c'P<r$J'd^d>m*g^Z]t=e^l>Z)i)t^ ^G#&*c'l>E)&%9/7^4^<^c4K/P988gg;^P=F)}6Z^t^V=Z^n^R^q'e&t=!/Z^3/_/]$t^!^F)+^R#g^{^o$(^^*4^**&*Z)*/ ^n$*^x^*/q9R*e&)^3/1;S{Z'X/72#{l;q^X8t^&*9^;^h'u%O<a^)^f^p$t$m>&%T^)^t^+cf0&^4^M<7%u^**[^D=9^M#**%'k)a$&*6^a$Z^;^j)&**^>[2$2$)^2a#/'$_^J'O^V~F6;'.{Z|')&*#^V=5$X^M#i)p$a^*^]$&^8%2$>[=^B$u$P]o$~^P< =E)w){^Z)R*F=>[+^8%P=8'w)*/1/==!/d$t^o$&/t=X*C83^S)]}-/#^j)d'x^Q^&/t^d>u%~$L##/g$w)o&~^P<4^-/j)V=V=($i)b$d>-/8%%' /;^d$o$S#J'0,e^Z]d'2^X*z-9^V=f^i)'/c'd^R#X^a$^*+^M#A^l>&*P=}$J'~^;^*^S*C<`/j/O^z$|&)^w)73u7p!!71^6^w^X8&*s^8/6^&*[$&%h$)^4^9^!$==g#%'`9h$D$>[d^@/($A^t$m>.$R^0$//4^Z)I^M#1^&$(/C^.$t^!/&*+4F#C^L#7%O#&*t$~$h/r$Z]M#!^x^g^7=H'M9`%1':/&#+8&#H/'^b5)#b5$7|#']Y3t#!7V%f''$^>o$.$p$}]Q#G{p-FE!^^*l>w)E)o^k)%'d$^**}",
"sd>;O0 [O&e^!&,>F&w$|&%;3}y< /eaC&*^}&a$~^R<J5P%$5*{~])4)4|#c%1!1!9$v7#8C%[^K08#$5%7B8**&*K)d$D$|&y^M^j^O#Og+]$5T9k]j}ka&%g^N/&*E)&*J'Q#X*.$4^a$t^.$t^'/M#*^7%P<Z^Z)d^P<9^u^6^0^5()^&/7$o$P<1/8%P<X^//]$A^p$y<5$>^F)%#w/|#k/Q~*=7$M#W]V$u%t$H8&*2$2*u%d>)^F=p*V=X^7$H8&*d>~/R^)^~/o$C^8'49}6P<t^Z]Z^t^i)d$Z^k=u%2^P=-'t^D=X^G#>[ ^x^Z^.^9,/*AsK/+7z4E|)$Z)9^b$0,X^k)E=S*t^V=)^2$k=8'**G#D=#/=^>'&*~^#/2^P<8%=^o$e/R#2$&*%'>[ =m&P=T*m'G#&^7%r;it9;~,:(>4B](&f$k)b$9/p9*^=^2$R^(/==b$b$k)#/f$a^*/d>e^z$8%u^S#k^Q^d$C8R^`]d>]^2$Y7P=G#4^2^a$o$&/{9M#A=.^G#u%w):7&^+^rA%d72Q/6$T'v$E=Z^~^V=i)G#8%>;)^O=z#V=M^&*t^{^5$w)k){^a^W]9$N<B&Z^2bj) ^^*O^7%z$J^S*d>t$*^u^P#O^**Q^[^e/:$D-|$z$,^X^`^J=g$-'')E#a$w)>[A^R^0/p$X^Z)-/&[&4'$u/**P=D$Z^T^D=[^')k)7$^*S*1/:7e*Y^F)k)G#Vv';K))^T*O=Z^X*E=V=|,Z^e&P]w-==-#&*#/-'d'u%B$R^u%k=@5n>n{!=6$I<u$//_0|#o5M/E#D$O^7%&*t^A^)^q'*^1/B^J^S#i/'/u%R^s9-'.$7$!/J[7$7%&$]74^Q#!^M#4^o$j^Z][^u%A^x^'$&*P$g^R^b$8'D--/O#3/]$2^a^Y9d$;^{/Z]9^3^ [M{9%q5ka,/]77$I$+%g$o/$$,3b5/(u{  '#/9,3&9x$o^t=]$i*@(x^!f_=i8Z)P=p*>[X^J'd^`a+46/VC",
"~CD=^>]&l>h*k=V&-;S*8/|&Q;9'!^U5)*T*'/P<D-A'2]z6,)*}e]([D/C/T@x/.$I^n/8':/7%D#q#b6,(p3N&a^&$W'+^8%7$!/M#.$o!W}.9J5V%j]O;D=t$g&W9u%d'M#G#(^ ^a$V^a^d'+^&%m4 a~^3^~$l>E=d^r;d'&*Q#V=X^u^*^[^Z^{^n'X^o$!^C89^i) ^j^o$Z^:yE%-(*%W{8[V=#^t$!/t^($d>Z^+^Q^u%5$5^J~P=^*9/^*~^w)p*9^D=O^g^Z]b$^>7%p$]/T^`]d> =t^J~N<&*d'2^Z^N&5$&*')d'&/&$i=#/ a>;Y@W{([}][0@*2a]$X^8/k)f=//t$e*~^2$y^|,&*f^o$a$F<l>g^~$d'^*P=G#w)l>-'//#/@c)^19';A<8'G#-'h/Q^//z$/%Z]L&v!C]@(z54}={{^Q#.$%'D=w)a$R^R^`^*^D=`^e/9/9C~/b$F=5$Z]R=-'g^M^&*E#&*e&P<&*W9&*J^G#|&E=T*j)*^2^J'*^Z^2$w)X^a$Y719Z)qsT{M/&603k-T^)^**&^R^h/&^|,Z^X^[^t^a$)^+^J[k)S*Z^>;|$)***+4W]'/19R^P]B$T= ^Z^2$B$**t=)^}6&*X^5(8/=^//-'E$#/o$`]C85$|&~^Z)x^p$Z]2aD=t^Q^]${/C8 [4^P=P<P<Z^b&%'e^E$f^L&Q^T^~^e^J<O^G#a$c'D=%'}6l>-/[^d$@-+^L)R*G#w)(a#/u%Q<2/|,t^&*&*9/W9t$g^~/Z019f^4^a]J#<4dx*/S#A<E$y{b5H5y4t$J^l>g^0^`^l#J~N/ [u%9^$/)5d')^ =Q^4^e&J^r$u%h$[^!^x^Q^3^t^n^)5]9;^d$^*b%+^m44^Z^9^3/d>;^4^J^s^1/a^J^h$[/;^z<M<*^x^m^L^(&r[G5%#%(F#&*,}1!F#.}.$n>w%W$]7,3G{J)9%o!K/P&h$a$ ^>[v=/(u0${f*Q<L&J[a$*^X^9^6#_au)l*S~",
"6y}*>;T&y&(aa$F=G#Z^i==>r3,}{7yd>[a$k)u^*^t)f]1BT@/{%]|###z4y$F/1!1/y/O#x<;^Q/3&e]V/e]s0'$_8($g^2^_89^]/8%B$x/zS*fm2x[b(W4 *5$ ^#8~/l>[^O^2$`^t^u% ^#/&*2$M#o^]$`^[^U$7$=^H)P<p$,/9,u%I<t^Q^Z^{/9/1^e^v=-'%/Z]w^a$P<K$O^z58[)!H4r~u%l>9/t^t^7%p$!^./!/^*^*R^R^#>)^x^w$F=7%x^o$`]g^-'t=o$!^P<G#D-V=/%P=Q^4^O=}6M#p$&*o$v=u);^J'^>')u%Z^5$6*G[j/K/u}X|9$x^**Q^~^;^&*g$O^t^J'm>t=z$u)`]t^v*[^Q<1(//u0>[a^2^)^p$]$*^x^}68%a^{^d'7%~/'/#/J<9,Z)D=;^/[n>P[%4z6b59]It3A7%u^a$8%&**^h/B$4^X^e&|&D-E$>;Z].$R*O#)>S*)^9$m>P]8/k)a$Z^P<B${/t^f^t$&*|&!/f0R#^*l>&*M#5$F=]^!/(&[3j2M/06B|k/1$8'&*x^E) /%)8'm^P<w)P=N<~^p$x^x^5$0^f^f^P]&$H8G#&*l>%'d'u)^*f^z$c'9^8%P<i)F=2{}6+a8%P<*^F=O=J^o$a$0^)^x^`]9^;^G#f$=='$g^i)D8&^Z)x^i)v='b2^#/i)P= / ^-/J^Z^t^Z^|&**G#T*Z]{$w)o^(,_/G#J^V&_/W]Z^l>d$R^D-d^R^4^T*R*v*J^E$<&)^{/t^i/u%4^I~4[t]C#j8[%T^P#]$4/v{@(R/8[!/4/f$2$Q#g^f$)5Q^$/g^-/7%P=)/o$#/)5c^/[t$(^x^u%h^u%7%V=8%(^8'(/&*%% /3/t$)^J^Q#B^/%t^($#/I^1^D=fB8%7$3^F#6$X^7%P#&/g^+^-Aq{|#([0!XyK$&#.# %O#>#y<*%F#$$Q/5]34/(z4M/m;)9d$r;>[Iba's070l)W'u%G#c'R<X^D-1$5^;^R<E[",
"Hw-'V=R*D-F&1&%;e&`]p$7=v;1!1!p!e&t^fbP=-'%;8{a#,322l{X/H5n!W@[$'!&#Q#c%Q#[$ /u-V7~,c]N2AS8'@8($G#1/~^M#8'%$p^b6BS70F/b5e]k2*;,/($4^s^B$!/9^7$9^l>#^*/d'X^[^4^a^7$F=5$J'')Z^2$^*O=z$~/R^`]M#+^**b$V=6^4^Q^Q<.$w)&*Z^7/v9q7Q/##l{U~^*{9R^x^h'G#o$X^/%k=u%m')^F=%'a$X^Z]{/!/m>l^;^9^a$,[M$u$4^)^E=<*Z])^<*9/o$d$`]2$a^p9#97%d'&^3^))l>D=9^TpEu`/n!0^H#-/t$&*5$b$Z)D=P=7$#>]^ ^h^;^u)#/{/9/P=9,t^A/8%i=d^u%8%G#7%n0Z^1^2$s^t$M#%'<&A=F&p&3^i)&*&* /J'm>z4b5+%$56[W&E)<*u$!/8'!/j)k)g&z$e^V=H&o$)^//V=3^X^-[8%a^u)P=t^q'h'o$#/4^5$-)|/**Z)m^Z]h^&$t^2$^>z$0^7$Q^D=W<F{-]p'n5![[,H8o$G#v=t^&[9$G#1/c')^7$D=d'i/J^b$d>t$l>2$~/X^R*2$9^-/d'^*E$D-**R^V=<&|&M#Z]t=#/'$ ^b&3eZ^V&~^Zr]^//-^Z8J'+^P]7%7$a$#/~/l>Q#~^5^u%e*A^&*a$,[s^o$Q^t^^*e/#/]$>^(/1/i)P=)^x^J~f^a^`]*^ ^&*e/k)')#/b&u%d>[^X^!/R#R#w)g^$-+^&/)5h/V$8%u)N<!^-]At3{5]+~8%[^&[!/59~,B5)4z/d'N&J^Z^[^f$9$.$Q#0^u%P<g^N<l#a$'$x^C^]$&*P##/C81^Z]f$8%[^1/a^W]#/a^4^O^g^P]O^C8!/~/N<*^t^%5&*,/J^'$o$C^J^t$g^[^<$*^9^X2X[-(;'[D)3%$]^.9{$.9O#K$.#4%J5o/b5j2:{M/o/R/f!5^a$J[&*/*K/'!V7g)<&l>8%T*Z^ ^M^b$E)~^{&T~",
"89{&2$==>;Z)**c*>;D={/.-CSx]o/V6R*Z^';P=s$b&T)<<$5K~`5$$T@4%)!Y'.$.$J^g$8ai/,})4H&<<D/>]22B=)5:/x]7%4^Z]h$X8t$n/L%DSd]T/k4|]q2o&]$B^2/d2d^X^A^~^&*f$8%d'4/ /:7w)&/P]/[(^x^t^J~)^)^Ex ^A^9$R*~$)^&*V=a$h'*^{/-'')e/>[;^A/{'b5z5R/T~Y].$V=t$&*S)R#9^d'b$)^9/g^o^9^&*z$a$]$R^//)^Y9!/{/!/ /{^}6T^+^;^Q*u%H9n^z$h^^*k)2^7=19!/W]Z^P<E$i)D-=>:5c%!C`~Tv#$z$|/R#4$%'z$#/Z^D=g^V=9^P<t^d'g#i)l>R^G#E$E$i)R#o$D=_/Z)5(g8)^&*k=M~Z^%;&*Q<*/C^4^w)R^A=&*X*Pqs%dx<{J5`5D4f{p$J=A^B$-^x^X^{^X^<&7$Z^7$Z^9,f/j)9$#/(^N&d't$s^~^a$u%=/&*V$9/5(#/m^|,]$9^5^ ^a$D-t^-'n$g^X^]$|&V~t]!72)=|l8J'R#)/t^2$]$h'h/!/m^8%i)7%=^1^W^X9t0=^l>7$^*Z)]$n$L&Z]w$P<P=@ca^>;Q^8'-'R^&%g^-'o$x^8%s^i)X8^*h$H)//)^%'P]-'k=+^l^'$]$-/X9a^*/W9`^D=+a|&w)t^-'F=Q&K&&*N&S#v=D=#!{/X9&%o$'/e&!/A^4^a$-/4^t^a$%'|&{$J'X^Z^9/I~d'7$4^w)+^=^d$!^^>m^[^o4s$*/G4k/z4n%(-1/#/^*x^D-w<x[p!67c%g$E#7%Z^P<7$I^J^B$$8,^q'7$!/($d$9^~^f$6$u%7t2aJ'1!9$h^[^t$4^x^g#P$-']$&/z$8%&*8%i)g^.$ ^t^8'z$t$*/s^h/o/M<O^f$P<h^j2p}Y5n!y6Y!@7O#,}Y'E#D#:/{$l#d#W@n>w/:]~{I/*%H5i!8%|&R*b5^=)44/<3k~q9B$D=J-i)`uR#!/R#Z^$-K~",
"VcM#P<i=T*F=h'w^D=[*e&H=20B^i/*7B&t=z$Q<a$L8t]k/p!*4%],3([$$]%v/N/3zt^J^y~D^|^b)(&){w],)){[]+^s%.$S#N/&$[/f^O^%$~^d#c/n2~7a#p]W2h)Z^h$*^(^M#A^L&~^h$[^e&D->[&/}6B^s^~$')g^($&*M#w)9^`]B$.$Z)n^waR*&*F)4^d^Z^F)*^b&T<Z]H9,a+>n>O/m]$'G&!/%'J[P](/>[u%N<t$&/l>u$k)7$3^Z^u%8/Z^R*g$P]]$&4o$X^J'V=>[R^a^u%2aq'+^t$f0R#Z)b$N<<*O=f$**S*-[**M].])!/97;u/]$N&J~E)p$>;x^Q^x^`0W]7%Q^a$X^9^G#9y%)}&//k)q'+^a$w){/}6w)J'7%t=9^Z^W]n^O=J<2$M#($4^V=&*!/&*X^8%Z]B^L&M5}^f]H~{rX^t$)^ / [>;d>k)g/t^!5V=}% ^v=&*0,=^m^7%W]s^V$*/*/8%J'h&j^b%{/s^O&&4*^~/!/-' ^D-d'w)w^Z]`^<&B3m]x[5}P<~$a$E'u%s^X^P<E)p$F=o$l>%'k)Z)N<&*Z^#^N/`]^*o$a$&*^*8%'$&[u%D-)^w)9^d'D-V=J~*/h'Z]%)`]a$#/&*)^R*R^R^4^//#^a^**d'8%X^J8{/-[-)F)9^z$p$f$<&2^E#V=i=R^J-2$)^8% ^]$`]n^f$Y8i)i))^2^{/*^ ^a$d$D=k)4^W]Z^{/7%==k)N<b$=^u%^*Z^R*w$k)*^ /F)o$&/ ^n0N2O5*%z6=1`^]$)^>&E) ^E%n!o5Q/8/2^&*.^*/4^8%X9[^{${$u%W]'/u$C^7%t^8% ^h/Zrs^t^`^**//k^o$g^2/b%;^u%a$J^J^9$9/0^Q#!/-#X^A^`^.^ /4^v/&$m^1/A<>^!/p*[IE[I/,)*%7!b$4^7$O^E#B^[/&#v$z#z#.}@(([ {a}Zt,)%7*-M<m>m'@/T*G/c%^(#~9/R^h&-'l>c'/&%)v=J-=&|{",
"ES]$d'C*J-W'O&m-L*|&E=e>-3+&:/,3^*|,0^a$T*9/<2b6G/c2$]p#l{[/M)n!d#E${7l#l#:/h$h$kDgrq{Q/FSc3GSt*O#[^;///z$p^D^V=6$^9!/]~%4j/}][]Q{p$E$a^(^>[.${C=^=^~/&$4^!/)^Q^~/!/&*C8V=w)r$Z]o$X^V=.^]$+^[^N/a$X^t$!/~^P<%'g$u%9^ a&*O^%|%4p!-(F{ 7^*n$F#*/x^Q^s^R*t^&*V=Q^a$~^w)#/'$ /8^e&#^E##/Z^ aV=}6S)o$R#^9&%d^P<>[u$(/0^X^P=,[a^{/**H87%W9S^N];]n[+fDE<^p$Z^l>;^m*i)a^Z]Z^%'b$4^e^49P]T*O=l>L&]$//P=[$X^0,o^Z^Z)h/G#+at^o$9^d>D--'P<W9`]x^4^R^X^2$Z^x]P<t^a^b/t3=(*7([#{R*`]1^v=]$M#_8*^R*u$w)H)`^q9:}E=#/J^J'A^Z^P<d0*^*^#/4^9^L#T^t^D-k)3^p$Z)//E#u$w^9^%)h/2(u%*/`x@(~,u}M| /8'Z^*/d'Z^Z^>[k)S^V=#/x^7$V=f^i)A^`^wa)^X^]$Z^C8{/`]1^Q^+^[^p&X^^=d^o$w)#^d>E);/J'b&f^k)s^Z]u%!/}6 ^a$g^a$w)5$a$F^=^-)e/{/k)&*J^t$+^o$m^p$D-t^N<a^'/g^G# /W^o$B$.^Q^//2$o$^9d>&*]$<^h^!/d'.$X^#/u)'*R^P=e*Z^0,9/b$Q^v=a$T^R^m>{/Q^4^ *t[X'c%0'9/f[t^#!-4O^#$#^<<O/*7R/)^P<8%a^8%&*;^L#!/j^Q#t^9$a^C^G#7$q'd>.$q'B$o$a$8' ^C/P<#^a$M#s^~^x^&$g^{9a^&^(/f^)^z$g$J^;^)#~^K$.$!^8'(^.$[/J-4}o2H5*7$$v*;>)5d>~/v$M)[/4%87s%*%,3T/.#y#B8h{.}v/k/7'Rz'/u%n9k)@(m^b{%~P=D-`^g$Z^~/&^H8-/z$z*b{",
"XFZ)5$)/i)b&H&**;&-'e/@*V~$^C71B//)^;^L&2^R#T)D/~6#{b{O#<2([$7j^}7D$d#1/Y'4/d#4^w)D#v*q5T/a#B]HS(&7$0^d#E))5*^b%($$/L#g#<-']+&[E8]e4n^X^d>.$;^/%{C!/4^i)h/d>V=V=P] ^.$5^8%a^1/]}^*&/V=8%O&F)G#c'!/)^9^a$9^M#d${/4^>[4^4^R*2{E/<2F#V5[3}=P#k)E#!/7$&*E$P=X*h$+^3/)9!/x^g^ /m^v$2$V=Z)1^&*}6#^}6>[D-2^7%8/Z]M<u$d'9/2ag$X^P<2$a^k9R*F)s3w5X2$$h>'(R*%'2$i)J'!/]$x](^ ao$2$X^7$:72$`^D=g^,>9^)^V=M<*^*^d>7%4$e/9^P=0^}6]$e///W]a$t$Z]n^!/D=Z^l>w)*^n/P<D={$a[M9~,([k{/*#/i)4^k)=^~^r$u^N&9^i)`^x^G#)^4^P]7${$J^&*x^J's^V=t^S*t$l>.$F=8%9/w)E)b$4^E*8/M#a$R#9/m&Y[)]p!j/e> #)^u%<=^*<*P<]$==Z]5$]/_/P<f^Z^!/D=u%#/d>D=7%Z]>'d^G#]$!/ [G#b&X^o$==d'*^==)/9^#^q^Z^a^8'u%+[9$3^0/g^a$Z)**M#Z^b$R^D=B=-'D=>[k^f/&/.$D=ltw)Z^7%%'~^X^=/P=`]u%j)-/+^f^d$%'9$+^{^!/s^A=a$&/2^;^Z^9^ /P<)/k^**a$h^V=W=m>z$]$W]%'5^D=]^M#l*G[bap'&6*]=|M#($8%_/w)V=S<g]@(e]V^-#Z^s^:8[^k^g$;^.$4^u$4^=^;/L={$t^{/m^X^&*#>y^W=`^R#(^9$[/M$1^~e)5:/7$g^n/8%**P<.^9/b%u/R^a^g$R^3^O##^8%H8-$$-jsK4y$b5d#~$j!I/ $s^s%[^.^]76$ %r%&# %o/y#P%p6a,h%y~$55t>;~/P=L#(&D5|/<{%~#/#^Q^!/x]{/p$R#v= /@-VC",
"oS7$X*X* b$-X*~*x-o$-'N&#{$8Sy}]A=2*K&m>9/';t5p'&6s{d3.$9'.#,3:/w/z#z/$7O#q'Q#1/u%g^X*j^_(D/;c}{[>7%s^q'D$J^B$($Y9/[a^4^=& ~=(8[|#  tmP<9$[/n^&*4^!/X^-4//4^x^)^8'4^d>1&Q^Z)Z)2^//}6D$ejZ]E$]$k)]$]$|&&^Q^g^>['$<^x]s9e/ka0^LrJ)/(]%T)q{b$a^Z]**G#($k=!/%'9/E){/-/h^e&|&E^d>Z^a$*/o$e^ /a$B$T^&*w&J'Z^8/!/R^%^=/|&o$Z]w)5$e*G#J^Y9C^W{J#$580-;`^a%k)g^%)Z]#^P]7%m>')R# 9Z^ ^8%J^9,G#2*F=3/8%M#!/a$2$X^`]O&1^/&~^)^;^{^]$7%E$3^u%2^|&D$M#p$L#{^i)4^L^x^`]/=00J5|#<]G2R&=^Z]G#-/2$b$Y99^a^[^w$r$2$8'p$b$0)Z]!/Q^3/-'e&]$^*V=*/P<K&3^2$F^=^|/a$J'O=h'p$i)u^g^]7|4([k4p4j[G#H8#/X^O&~^t^P<!/W<P=Z^D=!^j)G#5$Y8V=u%M#o$P=g$b&`^[^x^t^t$w)&^)^H8i)4^**k=>[Q#t$;^H<d^Z)Z^9^w^~^&*+^'/g^!/29d'q'W<o&k)2$Z]2$!/>[&*//t$w)q'C^t$o$x^8%>[x^P<&*x^K&i)9^7$t^^*P=&*|$ bA<'/d'Z][^O^Z]%'&*2^R^ /X^|,E$E)>;M#a$-/d'|&N&m^O&r[U{T@)!l5)2IS&*!^Q^~$u%Z^{/S3F/z5V^b%Z^i)t$6^)^B$!%t$K$u%1^9^!/d>g^1^.#r$x^r#a^d#t$%'a^h/)^1^x^)^q'H)s^o$V=M^g^x^[^f$d>>^:/>[79y^i)4^d>E$L#i^-'X5T[t%D5Z$4^Bs)4($g$D^D$Q#2{8'v/:/*%y~v7w/-(M/R{){:/j/v/h>f$/&@cJS**k/8%:b/=P<#/G#7$R^2$m4&^n/v=I~0{",
"yrN&,>c'D=T*b&[*z$V<'/S=T{z5o!M/v=C^u%t^($q^G5a#T/:]d4*7j/V%*%F#.$)5J^0$1u+^1!v$A$C/)5T'E%$7c)g634j2o$g^o^%%I^Q^Q#K$x78%|##=|=96w/n!@{Q~,=9^A^D$n$t^|&D-n/!/D^m^P=Z]R*b$q')^7$P<o$*^Q^R*D=L^//b$Z^4^'/7%`^g^d>%'1^Q^(^P<n/J'G0]*@(rFH5C2R<:$w)^*)^-'Z^3^D-w)w)d$%)!/Q^X89^*^~/4^p$D=L&b$M^D-4^&*Z]&*%'J't=2^9,`^T^A/W]R^X^d$a$~^~>C9D5;'##n}3/2$N&a$+^a$X^t$2^k)!/d$~/E#R#J'M~k=V=Z]T*')P=G#8'//o$w)m>%'X92$%'u%G#Z^S*a^!/d$^*//^*W92^G#&*[^t^d>`^n^&^7$~/q<&{Z$;'|{x]E$+^+^^*J'Z]1^f^h$d>-)e^,/R#E)a^T^z$5a>[(&F=[^l;O=V=-/(^X^g^Z^t^y/R^N<P<19f^D=x^P]KSq2,),3`5,uy$u%<^P]g^ =i)L&x^4^7%#/k)a^w)n^4^a^s^X^^*7%+^&*k)k)D= aV=a$}*9/H8>[g^)^J^J~E)C80^[^t$a$l>b$&/ivH)x^%'l>%'l>M#P<g^a$D=P]i)//d>u%Z]n9J'h/>[n0%'4$&*]$(^f^*^G#w)t^Z^J';$&*m>y&!/Q##/d$9^s^P=a^&**^4^|$#^9^8%+^D-19V= =9^&*e&F)X^]$d>2a>;t[z{n!V%[0 2n%y~k^[$,^H8Q#+4R#}3c)4}/*L/P=%5t=m4s^R#8%4^U$p$d$u%Q#h/W9&*3eA$O^&*>[b$X8&*X9J^Y7[^g^t$f^g^($7$y^g^b$L#7$&*+^a%(^'^X^y~x^.$B$7%J^D-8[B]-(,3+(l#M|x)1^I^.4;^[/:/]74^$8%8u#=7{f4%s/]#0{g{z#d2h]U!ckD-|$]$>M}^:8{#G=Z]($D^&%($}6*^Z]F)f^@--{",
"Xv2$l9A=m>(&C&^>I=i&)*%~g{+(I^3)hpnch0b&g)f0e{c6M/n%<4N3>G8'd#4%l#:/w/:/C/D$A^S#l#[^7%$$d;+>n!z6P9K{|{v=W/]$L#d#<$97>[Z^J^'^i;G*n!M54%h]${e*~$[61(7%X^1$;^P<&[x^O^]$E#u%P<%'%'>[2$D=b$O#7$l>S*w)***^D= ^g^R^`^l>**1/2*d>|/7$T^e=f3I/y]}]I4V<{^V^)^3/f^+^Z]X^1$&*t=[/8/o$V=e^&*J'k)x^L&c=%)t= /9^j)t^*^Z^|,#>k)//k)V=V=//9^F=P]V^']m{n!x]%%ti|&V&!/9^'/ as^w)5^2$!/b$8%S#P]d'o$&*)^9^F=X92$a$d>>[Z]s^7%u%D=!/e&A/&**^-)B$d>2$a$a^)^)^i)R*`]X^V=+^h^Q#-'*^#/R*=#n!y]-(f2y*zaQ#:/x^-'W9~^m>.$l>&/waJ'a$V= ^%'k)P#H)*/)^a$l#J'f$)^P]F=2$I~ ^-'i)1/b%q^8%d'p*44b{x7c%c6'&.^]$X^&*Z^f^Z^7%&*4^0^UC#/d$x^R^z$&*u%s^v=c'%$o$#^;^d>>/t^P<J^x^7%X^,>a$+*t=f^>[)^>/q92^}6199$u%i)&/7%-)x^R#(^)^!/|&~^P)k=f$Z^d'v$k)Q#e/>^C8m^c'g^P<&*o$>;!9#>g^9/ ^P<:7y=v^V=X^h/&*)^R* /x^}6o$&*N&x^9/J~'/9^X^T*`^d$A^<**^x^-/[^=&H;N{-(P%D4=gi#J^=^;^D$R#r#&#5$u)Y~~,F{s)-#)^M#)5]$7%Z))9]$#^]^g/O^u%X^}6o$7%9^f^E#a$2$d>!^u%w)y^J^-$&^$8~$4$1^4^o${9`^8%a$4^Z]{$;^.$~$C8V^A^m^M#v/Y=y6@(T@a^+0a'&#)#($8%t^U$g$.$0$i$6$W@y/#$4%.7<!l{`%v^v7@797D-E)~^_a [y4c%Tpd> =o4]$0^ 85(F<D$1^n0n&+{",
"LSt$O&D=w/^{6{8]l]/{[3E]E84/y4<{o;Z4t[452><>M5}]~,D5|]m]v3./z5b,C/x/*%[$$^I^&#Px.$Os!/[^j/{>y{MSt%z6p]m{.-s^G#5$s^6$~$;/7%r%9$k!0bY5kc$$I]G{,>7$9^>[&*o$2^J^]$ ^9$N/%'M#4^&*g^o$&*n^b$D-W9t^W]%'.$ =M#a^K&D=F)2$t$H8u%~$&/a$R^&$~rB5;cB6%3N<R^19C8>[;^&*i) 9S*g^l>&*Z]X^t^5$**o$a$>[n^2$.)l>[^z-o$Z]9/i)x^9^!^d')^~/d>(^r^5$~/P*j4%#j/.>lz /d'+a9/A^;^k)I^R#g^**&^A=#$Z^C^t^&/k=i)n'#/d^a$4^j)a$h/F)!/f^u%{/|&E$($7%F=F^#/o$E)e^R^4^&*2$**a$Z]c']$t=#/A^4/~e/|n2k/([<<*{&^~/1^j)(^-/g$|$V=R^7$^>,&;^s^R^R^g^Z]e^w)e&2^^*J't^]/D-X*o$w)P=Q^d'^*W]:7~$R^**H'w/p#H]NS.$>[0)7%X^8'=/w)t$x^t^o^>[8'X^%'0^&*z$L#W]-'7$w)l>O^-/D-u$G#t^9^w)d^F=h'W]R#^*8%~/Q#T^&^+4_/u)7%-$E##/u%&*#/9^#/(^#^l>e/5$x^z-a$G#W'x^9/d>e&w^#^i)W'd>&/&*B&/uQ^a^&*4^{^j'h^e*&[D=u% aM#2$**D$h$X^x^P<S^d$k=^*2$$-{/b$#/t^8/o&T*h$.)A3s5n!K/.]Ms.4Sy4$>[a^|, ^Q^u$ys6[w]@(){[&2/>[u%M$07a^d$N<d>w)g^t$|^_/2%g^.$J^C^u%9^8'4^9';^N<H8Q#>[g$z-7$4^u%&/')t^za+^M#`^!^:/;^I^8%q'8%9/8% /o!V[S%u5K/'$OS$7o^.$x^g$1/h/D^-#;^%/0$$$,$F#K$u5z2j/p!S/+&%%+]j>]4V[%] 34e.]k/`5H2GJ[{$]U5zu<!=8l9W'a$';`~",
"tdE=&[')X'2{`9gC]${[-)}->>i&PS!'QS'=)=3'{>0gF/S#K5=7](t]<0z2e/$$[/.}8'L/*/8'4^O#1/C^g$5(|/v/<6`@j/9%p!>4Q~ *]^+^j^9'4$(^1/0$7%klw*d>T@)!'7Y3s][}4^Ra&*-##/J[1^a$M<l#E*($G#wa&*]$l> ^&%p$>'D=Y9w)J'w$}*8%d^d'z$N/&*|&]$l#d$g^-'79@*;(@(c%<<I4d*c$ !ssq9u%V=M<a^b$&^M#)^<^p$ ^!/P<c'4^R#'/w)B$^*!/X^B$#>k=e/t$o^L&Z^d'G#!/d>'/#9+{t5;'d#G=c#&^u%*^Z]P]%'X9;'o$M#]$t=W]n9Z^E)f$P=2$3*7%p*`^P=G# /z$x^RS&*-'2^_&2$v={^E$D=*^)^a^V=.4E)J'!/V=9^i)C^Z^]$z$t^o$!/x^,^d0*7F/`%84ibw)E=8%d'W]R^w)y=^*Z]a$Z^d>R#,[Z]t=7%X^!^P=7%7$]$)^*^ju'$L&7%z$X^P=)^8/k=/&r;Y[e]%7d2@/u$u)w){7^>!/Z]m>N&f/|&~9;[-'#/8%8%5$7%s^7%7%Z^/%d'//P<#/J^2$O&l;:77/B$<=X]o$X68///{/V=&*n^P=F*7$7%!^X^d'2*G#7%8'&^#/`]H8_/>[7%&[Z)~$T*N<4^d>g^8^&[)^N<w^&*7$P=1^t$Z]0^*^7${9i)l>7$F<X^t=<&l>&/R#i)x^^*t^$^w)P<A/-)x^Z]G#Z]}6-'k))^z-55SS9%T/>4$ub$!^&[7/t$u%&*B$J^M$.824Y/U{f!S@d>d>r$1/]7za9$y^'$L#($19:/[^j)g81/{${$~$@/W97%O^&#}6D^>'&*3^b$L#W/($9$8%9^[/#/>'!/O#W]8/<$N/;^u%h$d$4/I2TSc)B6[6CgO/8%r%l#m46^x7=7h/M#c%8'9'y<'$3^)43}k4J5j/z#F$z< =@4)[USO-^D]ua5;^5&,tn*C*j&2*2$m&)!wnL&J-]tL]",
"HwC8w)!*j2l{n&qo1;;-g~L~k;zDri0DA/<&n^h$#9*3~^Y5@8<])!$$a#6{I4k)p'4/F$G/!%8'd#{$S#l#a^C/M~#^:/VS*%,)<#<2)]#{h'_%P#{$_88%9$~/1^t$[$u&6^x/b5,344WSP*-'`](/I^G#%'y/a^u%[/9^7%0^FF/%($o$*/h/b%i)&*f^d'J~a$o$8'#!]$k)0^>[&*w)i)(^d>^*&$A}l5Y'M/p{R/*[s^.^*/Z);/}6N0A/>[%/)^v=+4'b4/*^~^!/W] ad'J~S)z< ^a$O^+^P<4^]9G#>[&*]$G# ^A<7%'{f],)q7|~w^:,*^D=D=h$')V^R#5$t=m'*^4^A^Z]-#[^!/ ^{/Q^Q#!/G#B$]$-'>[*^f$t=*^c'X^J[<&g$p$]$]$2^J=V=&*v=V=g^>[//p$F=8%Z)H8J^x^X^[$[rJ]#7n%`6J{p&D-m'k)B$2^D-P=t=F)%'b%l>l>!/4^X^0^)^0^X^Z]G#|&4^^*29')l>a$f^w)e*3^x^4^)^Y5%{k]y4]a#uP=t^a$7/)^M^>[x^.^}6_/*^9^l>:/P=#/h/&*J[8'O=`^&*0^2$M#%'N&l>M^P^w^8%~^o$k=Z^`]f$d')^9$-/duD$}&A=j)v=2$P<W9x^($R^-'7%Z]P#,>.$M#}6!/d'd'*/b$O0-'~^C^d>G#d*F<7$M#O^Z^0/'/d>t^x^.$N<d$.)z$}&w)P=`]O=q'c'p$ /u%l>)^4^%'Z^_au%u$%']$3^h'z3h]H5`5j%0vv$f0+4($V&l>t^2/&%C8V0I4n%n[V7Ysx^%$.$&/&/~^[^*^ aa^G#*/8']$($t$ ^d>.$b$8',/o$*^9^8^;^.$7$]^;^+^K$d$5$.$g#!/Q#a^1/o^&*Q#x](^[/]$!5+^H/+5([F/([4%N}o5Z]I/C^H8t$Q#[/[/S#v$1!.9K$$$L#18G]V%v/<<m/Q#{7Eax/0}66b59$o/*%=>XSe9c=})u[v9:'#=X@f]$7Q*C8v=&'",
"Or<&5$Y'n[a(M82'6-]6]-]~YS0)n^p;i2)~E}6|ZS4CP{%8$6o/n!n[y<b6n{q2-/($8'E#8']/8'B^l#]^J^Px&*g^2$k^2'C/R/M5$5U{W4'&E#v^O^R^[$)5O^L#1^[/^~w)o!p!0'a]M{X^%5)#1^~^>^j^Ra%'4(o$o/p^Z)a$f$p$G#o$a$+^u$(/8/B$79M^=^t=D=T^P=Z^5$~^4/7%7$:$X^y/u%Y5V5([Q2g*4^H)B$8%H)#/Q^F*'$X^)^`]-'^=%'!/n$J[R^R^E=W]c'';1!!/8%b$#^N<b$|$>^L#p$i)==O*r[M9r5V%`S6$6/X^G#M^~/+^k)!/*^B$G#}6&*o$|&E$&*/[,a*^.$J~A=O^p&M~l>f$X^V=H<p$b^8/)/a$)/Z^p$M#;^5$u%9,w)%)*^8'Z^B$9^'b9^u%a$a$M^G#!/s%_=z5o5L%^4<;n^W9Z]E$P<a$==C81(A=9/>'w)l>f^D=%'g#X^9^2^7%Z]E=I<59J-$-F=>[#/M^~^P<&$>>j}c]B5Z$3-e#P=J'J^T^'/)5*^P<*^o$9/x^*^^*V=T*c'V<D-f^,[&*]$d0q'b$Z)!/g^^*a$u^d>a$w)7% [Q^.^-' ^{/s^//h$w^f$&*C8o$7% =&/Z^d$Z]}69^l>w)2$ ^`]o$[^~$*^^*M#u%d>]$t$*/L0S*K^{/3^**9/|&:/w)a$//T^(&w)j'2$a$X^#/a^+^+aX^A^!/ ^R^{$Z]h/J[T^V=Z^x]}6V&03%{-(J5y{!-r#`^*/8/J^a^-/2$'/o$=&k2.]`5P{$>!#j^!/&#x^L#:/m^9'>[M#t$u%a%7$,^!^L#u%1/d>_8A$~^7$9':/l>s^{$0^t$%'&$g^b%u%D8M#S<s^O^h$m^%% ^)^#^($)5://{<<T@F#=%dxh%.$I^B^L#[^[/!^t^(^y~S#f^I^y^h$p'H4p'M5D/:/h%%$x7]7H/ T.T#2+T]6@T`/J^$8#TZx)=mR%~1'$Tf23{S*)5ki$y",
"=4J^)5T<$]i&8/|&k*(&f=('%'a^1/0cR#{&#9Ga+[%TJ5Q/y<h]C^w/D5~6x).]/5X^D^1/$^#/I^3/.$:/j^o$x^4/1^D$*/!bg#W5,(j/g{J;I&r$1!F#4/0^Q#a^2^M#4^v-X*}]R/R9){c{/&7%4^M<M#&$.$g^a^}7%'49b%]$h':/y^1/X^&*J^{/t=P<X^&*Z^ ^;^>[R^'bk)0)4^x^Z]-[b$`^+3V7o!j/>4-{=>p$c'F)2$L#E*x^V=#/8%*/g^Z^.$'/M^ ^j)V=Z]d$&^B$X^%'&/]$-'&%R#u%~^N&o$q'[^}]F{^#o/x)v*'$c'Q#{^7%G#`]I~]$4^P<a$~^A^>&}6J[!/J[k=X^5$*^==i)|$//a^/*%'o$~^2$9,2$W9F=P#P=V=n^(^j^<*+^t^J~P=/%T^f^u%B$d$'$r$a^~^//d^1$f*~0F5u5%]}5~*e^#b9^>[Y7`]<&F)e^A^m>D=P<V=&*w)D=j)R*[^D-)^=^a$#$Q^gav*<^9^J^T*O^X*$]F{D/~6-f8-N<[^*^(^A=[^t^H8t^&**^8'X9t$u%J^l>*/y<~/Z]~$ga)^//-[F)d*J~4/!/!^n^{/k=C8R#%'X9D-x^d^d''$o$l^P=S*D-2a&^-/u%#/Q^Z^T^*^x^K&Q^Q^w) =q'!/R^==Z]d>M#]$)>[^t^G#J8H87$l>x^&*9^ ^u%R^x^R^p*P]P]d*8%&*n^d'A/*^1/h/!/b%P=Z]//g^ ^q9#^x^t^#/'89x`5<20$w!/%A^x^*^1^t^)^&*h$[^`0G]l{@7%7:(,-C^1^!5[^8%E$>^l# 9z$.^c'.^N/R^D8W9u%7/(^8'&*E#9^X99^v$!/a^g^8%s^x^9^(^B$d>($#/)51/x]7$;^d>2^j)~$8%&$J;c)<<H/!$&T/(&/]^#/!^:/D^q'g${9b%;^:/K$n>%$nlZ4`/F#y~F#1!<bP%%$@8-7X=&$m&g**)S!V%B^4%a(9/M0'&9&Z=8%%4k]2$O^#9`4",
"h-Q^8'[^b{tq|&5$,>'95$n&;/8%4^)'t^B&'/2/W<[&j]q#]7K/L]u|^0X/*Th8j]3}P]W@9$s^n/I^1/x^2{E#D$9^1/#$%$q'|*x],(F/([c)t[/&N^I^8']^#/8%O#Z]A^a^[*s&B6p!1#<{M{==D= ^;^m^>^g^x^($8/>;)^w)]^1/~^p$R^7$a$t=]$d'*^9^d'4^($C^P<5^{$2$D=k=a$x^W^8%P$R&r5b5##!{N^t*8%]$**k=t$>&b$D$>;Z]t$a$c$;^E#M#f$%)b%l>A<M#'$*^E)-'n/D=F)~^P<R***X^=&P2B6M5P3=Ti/M<Z]Z^(,X8F)%'D=t^P= ^t=9^9^**X^w)D=5$w)#^|&|$R#E$G#+^E&(^9^==X^%'[^'/M#h/P<h^O^4^d'w^E=a$t^P<u%`]>[Z^D=#/ /(^ ^E$J'R^B$P=4$_;U{`%3{I{0)e%E)o$c'a$.^z$;^&*X^F=|&J'R#{^M^M#L#%'d'h/Z]4^5$9^+^2^o$e&%'=/A^U=8/m3f]>B96[|:/R#f^[^i)&%s$t^o^x^5$T^u%@/8/9^`]t^D$Z)i)~^!^Z]&^t$.4X9R^o$E#[^w)+^*^c'`]d'W<!/.$&*b$b%O^x^o$198%&*P$X^v=9^]$!^8/N<,>(^G#!51^J'&%t^*^&^Z]M#u${/!/n9z$!/s^2$4^X^d>1^Z)M<&%3^M^Z](^X^t^e^7$A^h&o$n$)^g^J'3^0)m4Z]D=J'a^8%X^o$J=O&b{st}]I/<<@~s$G#;^[aD^3^u%#/A^u%E=B8q{,5.7!,-T,#g^>[o$.$4%4^9$o$]$x^==Q#)^!$o$G#4^W9J^t$)^H88%h$1^!/x^3e#/!$]7f$=^q'D$'$<^h$l4s^8%!^7%M<u%a^>^_/d>4[p!$7K6I^kr1!A$4/R#4^8%V=8%[$n$Q^[^h$:/x7u^#7A3x[;'v0,3b5wvc)e]c%x],3t!X^I~F&Z]fa~,G/{7;T>[}&v=/&,9[^]#N52/!/a$C[",
"U]{7*^G^I]E|v=m>,;<&g&>;mDu%:/]~'/v=.)F=%^!'q5]()!+]G5n2R@>Tn!r%1!v{y2K=]$.}{%J^ %1/C7@81/.$#$]$X8R^87)&@8M/F6{(C{Y=|,($&*t^^^p^*^P=a^[^&*-!b$k4u5V%!{o>F)0^==h$o$4^Q^*^g^x^~^4$u%t^4$]$Z)W'y<d$P<`^1^i))^R^4^`^W9d'o$!^a$d>4^V&F#[^R*w-66.#=7M/U['&n&Ma'*@-=&r;='=~w8p&F~)*[&n&rbz=.)kiJ8.b6*R<m&=>g);[ =g)O*C&%;]&fa`]03z5T/+%=~j#2$A=6^t^u)D-7$2^k)9^h$ ^V=t^99%'G#R*O^f019R#P<E)#/u%l>R*(^a$a$[^d'R#L#e*o$2$;^T^Y7a$*^M<6$w)7%O&-'Q#E$*^{$d> =Z)^=I^#/&^FE7%($7=5]$$/(f]#}(~1=u-a&u-!*v*=&Z=w~ =z-#^;[|&w8@-S*P<<&p&0&~^';J~^5f=^&h&0&K<U'@-z2l{5}9%,}>;E= aD-N&)^)^**W'***^a$19x^&^J'h^2^e^W]>[X^a$t$u%C^p$Q^)^G#X9d'D=-'&*&*//;9P]R*~^f^ au)F=*^u$w)V=M<M^o$t=&*d'd'2$+^2$*^-'t^&*)^7%8'-';/#/E=~/f^M^2$V^w^z$P=*^M#2$M#a^2$4^[^#/Z],[!$/*7%#/J^E$2$o$&['$i)#/t^)^-'#/7$C8D-1/2$4^9,U9o2*7b6)!4=T*!^a^:/t$P]4$X^&*E=7/V/,4v5#7^0,Tv4J^f^($C8-4G#)^#/Q^==4^{$2^2^8%#/a^*/t^($!/'$y<6$~${^S#4^O0').$C7x^.^t^A^j^&*J[g#4^q'~^&^N/S#O^)^q0T2o5)!@(##XaE<x^8'h$d>f$p'k)M#g$W/-#&$h^F#u$@(L41!o/O/6^K/j-D5+]C{]/b)n!b-R^R#e&O&|=d6~9,3A1&/1$u)v*d'5^P{p]h^B$2,'t",
"Lc9^n$A^%{~~&*b&**w)^*X6s/4%$8/*H8H)Z^ =P<->,5o!w/L{M{:/=8RAz;M);'$$y{t[-/*7N^.$c%g$7%N/&*p^O#~/q'O#Z]_89a&#$5b6k4c]j>}=~9j^[^u%R^)5G#8'H8z$z=A/$5$$T/V{%#f&d$X$$/8%t$a$k=8%o$7%k=&^7%g^m^+^&*W9b$&*!/k=(^m^8%{9]$x^m^4^o$/%($b$*^9^F)!^fzh5)4q/`%23<5p}u2Y423G2t[k2r[6[z2z2N2G26eW4|5z2z2Y[z2O2BE>}j}E2z2k2Q~<5p2p2={6[72a#D/v6]~^=&*Z^d'Z)&*z$%'d'a$V=R#P<o$<*(&;^`]^*u%r;X9L#G#k)&/J'^*2$0,D-)^u%g^9,%'2$d>&^+^.^E)d>f^g^S^t=a^t^`]x^-'}6//k)d^V^[^4^7%O&***)-)O#$><>p'H$m]3>p2T2z2L2E2p2T24[>}Y[j}b36[Xpr[35q2H2W4r[E2Q~>}p2E2z2r[E;|5j}:565g{4}P%~0'Ts%]$T0E$u$N&d>)5+^W9N<>^a^A/D=s^j)S*+^H89^d'd$2^O^*^P<')~/d>d^}6~^Q&V$i)v=+^u%&*%'2*X9r;^* ^G#&*'/P]J<R^.$8%5$>[Y7+^}6i=t^M#P=w)Z^2^a$E#9$d'5$)/2^]$2$s^+^J'L&h$ /5$($s^*^n^Z)8%J'u%9^z-M#b$19==e^E$&*Q^-/8%X^7%`]&*s^p$d>s^J=']X3y]b6X2e~f&X^8'e&X^b^B$b&&*w)B$%4X[q#R/<3m}@6%$t$4^s^#/.$I^e*w)X8o$*^d>1^!/f^E#u0h/M$4^!/4^d$2$B$8%X^Z]4^P#9$a^>[.$s^!/u%1^l##^87r$]$#^~/H)7%d2z9c)n!4%{$w1S%y^D^&*4^D^E'D$#/M#4^Q#l#y/-#d>4%j>4}1!ErI^E/>~b,$$<]|]E#s/j/n75$P<P=Q&|*x#s^)#)TR^k)|&#$k*`^R9j2^97$S*84",
"~C!^m9Q^&]P[;[e*u))/i=R<}7a^:/j;==f=A=kaE=f!f]K/$7H]g{|#x/g{N873c%Y'w/W5E9N&n/2%O#q'B^n^.$;0%%#/4^m^[^h$%8Ny($p!M/P%.>:5N&W/`^[$!^(^d'E$Z]K$d>A-9^Y5|###|4j2I<B$d>&^#/[/)^g$<=c'9^%)f^t=2$b$H8Z]A^V=)^[^h/P<8/($Z^d^~^t$Z]Z^&^|&,[%'+^)^E)l>$7o!j/*#|#([*#9%a# %z5n{=7x[g]D/](;'Y5z#@(@(D/W$B6W$a#x[:()!T/T@](M/C6=7j/p'D#@(4}~~*%b$;^t^Pqo$V=c'#/<^A=|&i)(&#>e*t^i)a$W9R^)^`]Q^N&8%W]+^d$d$*/E=|/J^~^e&-^~*a$C$n^Z)X^(^9$)^&^&*F)Z]P=M#E=X8i)7$~/!/R^9^#^C8=^Q#P<w^t$Q^$7,8)4t4=7/()4([U$p!R/[EP5b0a#J#x[T/.(k/]%=(46-(-(T/@(([q#)4}^=(Y5V%}rp!B^6$m#3-]%&^&**^P<n^S)**-/+^%'C/X^X^5(t$L=w) ^|&e&%'=^`^=^-'7%E)7%t^s^F)n^u%&*V^V$H8*^|&4/4^d$g^=/#/&*P<:7-)~^x^~^R^x^9^z$u%=^!/ /**F^R^'$O=K)~^w)o$a^R#*^O^]$.$=^x^X^d^L#t=A=W]a%5^7%*^=^t^]/dN`0u%W^x^R^w)h'*!`]X^2$Z]h/9^~^7%O^&*b$p'F4P9c)!T+**)N^~$8%s^q9x7E=y<[^8/c)>{D5R9I3r6X%~^4$*^%'7$-'&*4^B$m47%!^[$8%~/9^4^2$a^#/<$J<S#o^g$a^g^3^J^ /Q^H)]7b$X^2^~$M#G#[/;^#>a^&$;^C/r$E$O^E24}l/W@~TB}!7n/J^7$1^($i)s^j)&#:/[/g^m^8%z$a/r[o/*%M)x7*%{Tn{g$L/]Ta],}Q#n!8!^To&k=E)*9%};/M/>|_/J[P<R#%)O=e{w<f=a^ga't",
"/T9,E$S)@{YyL-;[5aR#J'S&Q#E#@8J&/*a$D=**';!;X'9%S/u{J)uho!O#%#(TV[B^|7.#!4p2b&C/4^1^2^%$N<m^[^h/1^#^`^Q^#/;^Wz/[j/j/+6.]S4w't^H)g^9^1^]/{9N<8%t^a~i^%6,3X%r{B5+xt$E$a^Q#~^4^u%]}&*o$!/:/d$%'Z]{/~^Z)R^!^M#`]i)P=L&'/#^}6K^R*j^>[7%O=a* 9t$!'~,0'C/ }c%x]n8C/|^x)x]2{5/1/]/wh]7q6[/'^G8X%471/M)r9H/z#p!]7o/$5s/B79'g$B^I63{.{wE9&K)';t^R#<*J'!/5^t=t^t=g&n&==*^m'a$)^F=&*Z]8&&[t=Z^a$Z^[^]$7/R^8%l>T*m>==W=B$f0=/Z^v=9,t^o$==A^/%3^|$%'o$4^&[s^n$*/t=s^o$`] /o$[*0^~$i)z&U[j#&#&$xEM)d2[/d2C/n>O#p^a/[/ %J^0'-7E#0'-4H/9sM)Idz7V6g$y#v/97+%o!H5C(w/80C^>8+4D-0,&*D=p$W<%'*^a$|/:7x^-/)^u)X6D==^q'J'%'==d'X^,^7%'/0)f^9^g82^X^4^7$2%,>k)R#z$a^z$%'**($o$e/R*4^*^R*2$9^j)#/a$g$e& ^4^N/e^S)-'.$Z)&*)^&*Z]d>(^P<1/H)*^.$H88%7$p$'$a$R^w)Z^w)&*t^[/;/-[w$a$9/7$9^f0k)!/D=a^7%o$u%2$I$9^L&U5.5<<M/p!5!)*C/H)By1//%Y9#>9^4^N&'8F4<<e]){wv4#i)#/&[u%N^K$!/!/a^o$0,l>9^o$s^a$9^L#7%M#=^(^t=P$1/2^&*7$u%O0s9D$7$8'a^s^8'G#%'h$I^-4Q#9^u$7%o$*^4/r[_T]%n>96:T~P4^D$1/x^.$W^]7M#:/A$%'J^.$B$==P$BEB^}^h$9$$$nso5q/u#0$S{o[~ex)M/=>u$k)R*2*/;@{A^T@e;X*t=R*O<Z)7ty4s5q6t$S^J]",
"g}s^s^!^k{toV=J'v&Y8 !X&u7C$yar'r$~^d'R^a$n~L5c0~7@{  .7x]+%b5w</1p4U$J5J^w5E9('s%z<L#&*!/[^#/g$&*d$1^7$,$9^]7,&j^^t=(~,c]u2`<:$yt~$~$u%u%*^m^&*8%|*&[37M/p'U~;'x^+^E#7$M#*^q'Z^!5g^a^F=t=^*~^e&R^9^v=x^;^c'd'k)[^~^b$u%Z^#/O#d'D$e^g$A^2^%'~-{5j&r!;-P!q;.qk-`qc!osr'h;l&O!f!k!D)|-<-s~!'4-g)S!i&9&y!a-r!_;X!f*0-/-M=a~Z!Nt1&~^I~X^=^e/ /`^R^t=`] ^o$d'8%W]n^e^k=w)P]/*M#7=t-D-Z^N&q'#/a$a%=^f^g^'/J-&%($w)4^*^g^l>)^($9^9^**2%z$:$t$*^d>D-2*7ti)';c'192$ =9$d'u%o$*^x^4C|w%G%;j!7;o}c~u-oDc~(;6&v94'V'1'A-S!A-f!NyR&n&s<6*!'|;=*_-6&+*t~<;m;u!ED9zc!K$M#8'M#!/0^f^4^t^u$d>D=p$ /#/a$($l> =R#a$/*g^]$d>=^!/o$!/a^o$#/ /l#d'%) ^P=Z]r;z$%'D-R#}&x^g^!/~^x^&*_/f$4^')d'x^2^M#2$z$*^a$B$-/J'//Z]C$d'-'r$w)h/=/[^l>a$1$5$#/S):$4^O&t^t^t=Y8P$X^1^^*1$g^t^M##^x^k)A=R#9^'/-4)^/%]$!/i)l{m3Y5T9M/b&e-=/($ /Q##^.$:$C8&%V=97p}h]##X{b|y<A/Q<s^4^3^0^4^J^&*~/v=Z)l>!^}6D^)5u%^9d$t^!^1^d$d$9$v<Q#L#y<o$B$8%<$b% /u%l#;^7%B$b%{$x]!^y/!/u%C/u2f]n!x7T@CEi$%'&#O#C^f^q't^&$s^v7K$x7g^$^9^y~,{G/$$M)E#S@Vsd#1/y<1!M/v{([K$U$0'%;K)`<c==={&){I^o/toD=';`uu%F<D-k4t]zbE$F)N]",
"-~1^u%%'m{h7`0f&d$<^9,U-d2n94/z=o$a$P<t^t=y* 6q/M)9{a}x01#kly~9'S/)255$7;co/<]7Ef=+$a^1/.$*^t$g^+^s^E#'$M#=^8%g^_==^z4)4[>n%15D*%%Q^R^7$2$~/5(x^{^z#G=P<b5Q/p#G4o!/%%'9^M#1^!^a^=/2*%'a$F)a^)^F=z-P<M<V=4^a$E$6/}6i)[^t^V=`]^9($~^($!/s^n^//F)n%^#h#-#]%D%F/t#_#m#)(d6W$Y@,#5].%]%D/Mt`5+v9#']~%Z$(tP%a#k45]$6]%W$+>N#L% #fto$n0t$F=+^M#g8g^-'T^~^)^l>4^ =Z^&*a$Q<J--/P]e&)}:$5$ =Z^b$a$l>m>M#~^^*f^k=o$R#P]2$N<T*<&x^ ^8%V=l>!/:7E)Z^2$z$/&D8~^t$R*k)[$h'*/%8X*P=2^2$V=n/7#X/gE^%(#v]a#0$Ve^#!(~%B61%X$h#V%]%v%,#,/D#~%v446)4{#5]b0E/H#u/W@'#+&-#^%a^R^3^L#9^u%D=2$c%=&4^G#7%2$G#8%~^t^h'o$J=^*%'#/O=F*G#a^A^e^f^m^p${/F^k=R^M#R^-/Z)a$R#X^9/m^9/(&t$!5~^X94^G#x^l>Z]o$D=a$l>5^E$t^P<E=t$>[9^/%7%t^A^R^{9>'i)'/M<i)v^2$%/t^<*e/1^l#Z]F=k=V=n$h$P#+^S*~/:[>;v=*^P<4^R^2%|&M#;^>;k{N])4=7]7k=d)[/-#y^v*u)*/[^a^^*S#q'33a#/(^(;~]$G#(^1$K^7%^9}/4^#/o$t$}/[^a$8%5$d$w)+4 ^~^b$]$h$~/L#O^R^g^X^d$-#a^&$s^h$E#)5X8a^{$f^l#Q^1^4^d>L#$/<Tc6;'n>'#|A|#2^`]0$p^4%[/(^M#M#O#.$E#;^&$2^87Y=x7Z/|#P$S@`!,387F#M)X%g^n{P{9'n8;'u!M$D=p$k=<-M{{$D/q8R#M<f=T*E)T*<<[>:7-/i^5{",
"bq5$u%6$6]GuW-l>C*!*D-n&v/E#(^=>P]>&**D-R^r~72%7s/K{{{Y'~6v/{e6$D^v/O1j>`I[$}7U{ >b2`^z<S^M#E)[/.$&*9/]^D^g^I^3^s9Q<:$M)T/z5l5>}]tj^M#7%R#E$')L#7$=^l#[TN&@(~,9%33.4d^4^a^'$=^G#F)~$%'t$-'J[&%i)[$//Q#u%x^d'm*D-^*!/&$)^.4S#)^I<h^D$W'-/#99^2/e^w)%'D=J<a$X69$7%I89/!/P<R*d'(^5a*^N<~^L#O^a$i/>[F=g^1^P=%'7%N<*^g^X^n0&*Z]L#(^la.$Z0`]O0Z^<^V=k=)^t^-''/S*a$}*!/*^2$S*.)x'>&&*]92^>;D=h^x^l>7%W]R#D=G#u%d^,92$O&i)&/w)//E=H)4^O^49>[)^P<F)79#/8%)^**7%P=.$f/]}u/b$[$S#L#n$X^a$5a0,c'7%l>Z]v&2$uu`]X9Z^P]h^ ^D=t^P=V&-'/*H8|&W]J[4^B$g8D=@/V^&*D-#/t^|&'$>';^a$z$4^F^i8m^D=;$&/u)($#/t$Z^Z]!/>;u%[^a$s^u)u%P<x^4^=^]$f^(&e&9^t$u%u)/%w)V=)^d>~/v*Q#)^o^o$]/G##^t^~^'b[^6/_/*^&^{/!/2^~^*^Z]2$>^ ^Z]<^]^D=./2$&^W]8%8%!/^*)^V=G#Z)g^2$a$2*]$*^~^c'2$Q#}*Z]E$l#e/{/R^Z^Z^g^E#**W'B6!{<<<22{U$]6K/(/o/4^~$E#d^ /~^g$j)N2D{4}^#<-r;o4#/S*h/g^a^[$9$;^8%g$#/{/y/a^E)&*9$C^M#M^#/4^Q#g^o^($h/t^Z^S*G#O^Q#*^t^x^S#a^!^J^@/n/7%[/s^[^[^D$p2<<t5C6`^x|t%x/,/<^($:/8%4^b#/b;/g^O#{/#/X^y~Z4*7,3B7a^7$zDD/,3(^j#[/&#x]<]X2%$j/c%<-d'i)F=D=S=:4A$E%PQE*p&b$*^Z]//@72]2b0)P]s7",
"Xv&^)5#^X{PQ**V&e&K&v*w8$80/8'k-h/7=}6S*]}6*C{|#.7<{t{n8<2]7.#M)y/0$q#8AG{B^x)$84}2>@-{$;^7$%5r#2^s^t$G#B^h$ 7r$v7N/=&Z]8[XC`5x[J]%;.7;^E$s^E^0^;/o^E#z#@-c=*7Y/}^65`7Y7a$R^G#k^Y9**M^a$5$3^w^8^Z]R#M<7%&*D=g^ ^7$D=X^4^Z]L#o$#^&[V=&/%'[^2$ bd>&*g^19Z]!%_rP$`^}6~^Z][^R#P]R#ua8%z$G#~^0)}6Z]G#B4 /A<)5D-P<8%O0 b($~^&*Z^M#i)M$F)($*^>&u$ /d>19!*C&B&d'W9u%&[o$%)&*>[m>w)z$^* /{^-'G#a$t=l>w)2$(^]$H8t$i)3^')F=K&>[k)[^=^'/W<7$l^o$-'d'h/>/t^{^-'c'e&F*b$g&!^>[~^o$#/a^n^Q^]$o^8%-'=^b$==*^t$#/E=X9!/1$v=3^2$~^#/J^2*)^%'Q&n9Z^**E$k=u%9,]$Z]h$-^8/O#C839m^i/2^2^3/&*^*Z]5$4^a$'/8'8%P]o$'$`]Z)d>>[D=7%&*D$G#S*Z]W]d'H8 72$w))^'$5$v*B$&%m>R*V=`]w$f$x^q'7/Z^^*)^~$P<i)V=h/a$')h$==y^)5&*7$a$D=n^a^R^O#.$j^>[f^V=X^M#V=)^o$]$a$)^!/5$d'd>V=-'6^~^)^+^9/X^i)w)0^>;4^#/_/{^4^V6T4y]$$,3Y'HbP%s^+^D^%'9^h/I$%%-'>;z3E%6)##R&-;m4a^Z]0,u%l##/6^~/4^[^%'8/8'4^'$S#*/1^J^o$!/[^Z^;^1^u% 9M^8'5$*^)^[$b$&/!/&*R^9^z<g$L#f^;^6$Q#5$)^z2}^9%-7Q/S[I/)#yt!^3/h/.$:/8%|^M#D^I^7$7%6^B7H'*%$$]7p'E*/-c%6$N/=7s^[/y$4/5]f]s^1!I/X!w$d'e^X*:&$'-#X%7;D=Z)l;Q<821(E%C{oFu%#9&A",
"5Eb$=^&#q{q8b&s&c'd^X]k=5}B^I^1'/%h^A=O&V&V'Ad|#o/M{h{y<1!$$W7g$:/8%&#o!t|W;z#}]g%k/E;6*9'S#N<S#y<.$]^M#s^)58%%$[/s^y<f^6/;'@&%]|]F]/*7$*^9^>^x^4^r$d>:/4^Ma8'<])!n!H2R^~e{/&*L#J^!^a^Q^/%d$t$H8D$>[[$i=E$/&c'O=i)D-==g^~^3^]$2^F)V=P<g/($R*=^n^Y7z-E=b$g^&*9$,>D$a$a^*^P<R*Z^G#Q# =g^t^P#**0bX9`]a$t^l>N&g^d>&$N<9^V=S*8%P<F=>[]$;^h/X9a^S*R*l>g8R*W],94^R^Ba!/&*t=O&0^S*//F)^*N&w)9$,9~^f^-'#/E)k^u%V=|&o$R*p$t=-'Z]P=o$O0&^')Z^^*t^o$1/;^a^X^4^y=Z)**n&4^0^+^#/E=t^a$>[d>Z]d^[^D-}6a$8%G# /P=z$(&n92$p9X^i)!/a^a$**9^O&t^&[**G#7$E=m' ^2^D^>;!/P]S)P#)^($s^#^;^G#w)#^-'o$9/S#%'D$n^4^y<J-`]w)z$Z^&*(/B&d*y=&*9/#^#/Z)1/B=t^|$b$7$(^==A$o&5(N/%$u%8%z-x^4^d>l>d>D-H<9'A/k){/a^V=c'b$8%F)&/*^u%8/!/R^}6(/*^B$e*2$>[>[D=6^8% =u%Z]9^R*Z^Z^k^4^C^8/]$u${/i)z$6/u%`]7$#/e^X* {H3}^0$p')4-d.$J~*/H)#^:/X^x^)5x^D=M4$]k/L%t^j-d>:^a$r$l>x^7t&^h$&*X9`^x^N<~^[^9'a^h$B$+^w)8%-/b$//($Q^)^8%7$O#!/Q^w)Z)m^g#E#!^4^($]72%.$[/J^Z]Q^U2E6.(w/Y/^fb)O/b%^*.4:/>[t${$7$Q^a^*^U$Y^ /[^L4n>z<K$d#>&]&y<O^n/F#[/]70$d#8%t]c)F#971!g>2$Z^J8.^f)m[.$T/hrG#b$%'F=Ga&^)4t]`]!/i)`4",
"buM#2a8%[{%|.)g&$-l>e&);97x]#^k-X^R#h'k=9/8*}TS/0'M{|{9$|7o/|7g^$$]%;^O#L%1v|31!Y'K$q5A2@-A/&/J[h$a^A^:/n9t$Q#h/!^F$1^n$)^*^)4##~,e{T~}&t^x^]^N/X9P=4^+^>^ /<&$-}^k4,)Y[!^>^]^*^d>&*&/d>D^x^&*F=**//*/o$k)R^%)3^{9u$7%Z^D=k)`]k^a^`^]^u)~^u%a$d^E$r^Z]u%H8L#Z^n^u%t$>;-/G#Z^R^Y7%'P<R^]9{/9^P=PqP=2^#/u)O^b$**'/)^^*D=k^9/R#w)~/W'*^*^Q^|&X6//Q^;^2^*^C8~^G#.$u%//}6G#V=Y]p$P<Z)~/2$#ba$c'X^E)t=t^+4B^d$1$7%t^C8D-)^7%c'w)J~9/Q^P<R^[^M^w)l>:/Q^Z^Z)+=j^D=-/&/u%7%7%M#)^1^*^8/d$W]Q#]$^*9^o$E=B$G#>^&*A<z<4^R^o&=/d'M^O&t^*^J'-)')z$`^7$t^.$M^H8L#Q^!^G#O^W^u%o$=^g^-^!$)^X^5$C8k^h/G#9^ ^t$!^8/!/i^s^%'Y9&***#>X^d^8/W]J=G#a$>[)^X*t=o$V=M<8'4^6^`]t^5$N<o$D=&*D-O^3^b&o$7$+^z-]$a^s^w)B$Q^8'l;P=Z^5$V=o$m^V=h/F=2$9^o$8%X^#$&*#^R^[^Z^>[}6E$d'~^[^o$t^u%^*]$2$f09$t^k=f{H]~,n[Y5F#|T,38';^&*g#a^:/l#J^2^J'9$:bT/|#d61TT@x7u$(^>[}6*^s^{/l#%'9^!/+4Q^u$s^e^9${/6/(^h/8%[^,9g^E)+^&^b$7$ ^y/.$l>8'#/t^9^x^1!d^&*]$!^x^S#]^3>K5}^M/=7vhq#b%9$f$2{M#t=a$;^u%]7g$q0B$0$g^~^v3y~z<y//^d^b*5/E#9%;^F#L/z#z#y/3/>6k4.Dz<w7b&i)O&19-&h*U[4/y6]|T*f&h$V=e>w)z51B99I^|&09",
"2Tx^E#4^z{fyv=X]x'V=>;Bax0!5A^T'^>z-A=T* =:~AdE/M5m{q{B7<2y~s^v/6$(^7%,3c%$$;go3y~*#6$7sp2(' %B^8%7$8%]^4^0^:/!^:/o/;^;^m8+)N^m/y6`@V{t3F=4^E#f^G#4/ /d>q'L/;/+*`]J5-(^#m3g^H)h$r$)^g^&*F)C^2$!/5(-/!/x^u%i)&^D=8%X^l>~/&^a^g^X9|&b$4^F)e&#/%)-[j){/t^u%)^!/A<%'=^_/x]f=t=#/x^X^E=%'B$!/F)`^H8=^0bX^w)k=_a%)`]T^9$C^>&&*P]'/Z] /[^K&}6-'u)+^m92$]9G#]91a:7 /f=obH9|&2^w^Q^//S*<^b&0bA^ /P=R*I8!/V=~^a^l>`]7%D-(aX^&*V=#/k[-/#/G##^:/{//%&*Z^5$Z^I)J[a$-'>[W]j)9^5$X^X^B$x^)^[^2$#^e&8%T^p9'&'$//**E)V&%'x^d'~^&*X^*!Z^ ^>;a$d'^*4^P<t^u$L#O04^)5u%:7u$G#3^a^Z)|$u%g^7%!/7^;^1$**.^o$b$G#a$H<o$l^1^l>4^1^h']/n^8%F)+^Z)/%Y9p$f^R^8&X^1&&*//&*1^P=J^W]`^X^9$9^E=X^V=%)G#w$h'd$l>t^t$ ^S*G#z$Q^n^h/O^L#F)G##/[^k=2$J'd>}6n9]$P=]^#/v*0/l9~^O^.$R^!/ ^T^|^*^t^Q^&* ^7%u%a*h5]{$7D/*%a#CuB4Z]Y93/*^&*j^B^d$1^x^T^T2g]%6K{>g7#($]$t$a$u)s^d$J^8%]$.$3/M#s^(^D=-#.$1^E#B&j)1^!^V=9^`^}6d>1^A/>'n/M#G#4^w)u%*^*^-^'$3^u%l>o^5$,/ >`%K/P%n!{BJ#a^.7+^J^t^{/O#J^+^B^C/!/;^)$+^h^>Ey~%%P^6$1$%~k4s^B^Q#g$3/x<U$x]S%g^g{.]d#D#E'WzZ)=^E)R^)[s[2{:0Dz8/e^P<j'a^R0V%)] /E$0,Z4",
"F~c$z<m^T~]2`=b&b&R^t=T^/8z$By-5h^J<>;-'t$d!~3p!M)r]M{,}Uz$$[${$8%4/'^1^Z/9%([b13T$$$$p'[>t;O&[^]7j^p^h$x^($s^($E#b%g$197$4/c't$E^,3^#j]X[N&:/./&*~^#$G#@8^*&$]$t&19C{F/}]Q2g$H)J^k^p$g^#/h/*/G#g$Z^a$o$o$9^Z^t^R^a^L#q'&**^D=0/E$*^R*[^a$b&j)X^4^<&N&P=s92^I^*^~^V=!^o&i)V=R#h^O^{^7%!/*^|&k)S*A^+^a^!/L&&*t=,[0^5$t^e^L&P<;9.$n^|&>[ a*^m>d>R^O^J0}a /*/>/{a!3Baa$#^z-+4V08/J~a$*^^/Z^-/2$X^P<**19k)g^P<4^J^H&9^^*c'&%6^**<$e^o$b$8%A^-'~^lSk)%'E#(,|&6^ ^Z]a^&*d>M#=^)/ ^=^4^D=($4^($a$J^8%t^*^e^2$~^d'P=9^D-V=Q#d'w)a$p$E=Z^u%t^2$z$#/~^d'z$#/2$99W^t$G#7%C8Z]u%4^=&o$5$F^Y7E#~eQ^^*`]k)G#8%~^t^^9+^8'!5]7+^($W^T^#>P< ^C'H&&%o$7%`^D-c'8/asw)3^/%:7 /*^}6**]}*!Z]h/X*R*&[a$n/')>^L#2$)^|,3/h$&4b$F^t^ =R^M#`]G#~^-4==k^O^2$z$p$,>q')^l>l#t^Z^s^w)u)q9+^6^l>+cc=']m!,)72$$R/Nv$$y^^9J=B$8%)^%51^%%m4[^7%m{S/R/-*VrO^5^A<*^@8d^J^E#g^a^1^x^{$O#X87$>'t^o9w$m^g$#/*/g8;^b%&/t^7$&*t^n$Z^9/8'd$9$]$x^s^'^D$M)!^D^Y9By>}L5X/H/a/kgtmy<:/1^Q^x]E#x^M#s^D$.$P$]$)#n/8^4>>7}7c%o!W'}'k/g#I^I^}7%$ %8%4/$7d#x0r]P5Nuy<3{~-h^9^f&a$g'63[/|#hrR^==E=i)1$3/x[<<!/8'N&H'",
"4T~/*^g^<45T-'{)}*//Z)X*M)S*&*''t= =2*h//&m;fDS%4%{]!{%$5}j^I^Q#[$.$E#!/g$&$D^z56TID~7o!O#|]b>8*(^s^<^p'.#O^%%u%S#}a0$A^{fb%o$'&j^,)o5y]&{%{F&x7#>8%7%g^E/1^G#;/)^o=h/P{k/n[U4q^0^u%Z8o$t^`^d'9^&/l>7=Z]E=9^o$#/w)2$&*P=9^Z^J^Z)T^=/%$X9O&[*%%*^2$4^r;'/W<-)($J^-/L#X^'/]/ ^G#D82^Z^G#g^G#E)T^^*T^%'a$V=**~/(^Y7+4s^&[`0G#&b[6w^0^>&+^^9)*D=M#P]V=a$O^qc>[S<Ea@K /g8K<//O^ [t^G#%)G#-'E=E):77%R#x^N/';W<*^A=a%f&4^4^($7$Z)J'3^+49$Q^8%[^.^s^d>N<>&=^#$d'+^79[/2^0^1/!^g^8')^o$f^1/R*t$*^#/k)!/V^w)&*d'e^g^&^l>O^z$!90,Z^w^W9F<+^)^o$O^5$A^X9)^o$`]4/;/2$+^>[n$3^R# a=^u%t$&*J'f^>;o$<&7%~93e)^9^)^#^8%X^*^a^P#&* /4^a$P=Z]k)E=d'=/!^8/o$F=-'k)H<7%k)<&W94^9^*/{^z$F=Q#Q^R# ^n^9^d>Z^s^;^d^>[2$X^M^&*N&L#.$ ^Z]J'g^o$W]1^>[7/.$4^#/e&a$//%'k=**>&~$8%i)2$/%&^]$R^-)z5`~x[f]*7b5zON/{/Q^U$i)d$f^;C9^N/Q^D$g$`%P{[/l{7Tw/W]($.$8%g$Z]1^P<Z]P]6$|/m^=^8%M<%$*^4^&/a$;^-'O^J^B$a^a$r;h/x^K)m^r$J^d>1$($a^(^7%$^h$t$<$!/%8s[V/F/<2,)[gV%f^y~9$9$[^a^a^h/D$1/8'x](^]/.$!/6[P%|7W@&#]^/=}^2^z#4^.${$v7p^{$n>Y5E#4/<]E%##47s0m&L#h'g*d>c*+dw/o/siD=h&h^&*@-9$y4j/Uas^`]&'",
"Xv9$H)4/Y~RtB&c&k)C&+*/*1/C/#/&;O&.)t=^6+^T'T)p',)o{q{;/k/T@M)8[:/;^J^x^t$)4d#]7h8u|8T*%,3]7}^E2|&r%$7r$d>-#s^x]g$q'J^{$(^F#h/D$(&W@)!D/|#^{c3#=Zy~9l#m^t$*^s^.4h$;^$-&*F/)4']`~M)f^Z]Q^%']$f^+^8%g^t^N&D$,[E)]/!/^*V=2$B$B$>[7%9,D=X^V=X^A^g0]$~^2ai)*^8%P<M#V^O#J-m^%)h&m't=m>P<J<#9o$~^P=d'O0 /m'm>//*^{/g8ZrQ<FFm>P=A<a$-/-[Q<r^e^w^t^,[[^%$T<K&#>n0r^A<+[x''/W9f0//';Pq:7Z0w^19n^Z^u%R*G#f^9/o&G#**t$v*g^o$.^k)7$';g^C^9/w)G#M<M^ ^g^Q^|^L&v=P=19k)t^2^F<[^8%&*g8&*n/h$5$C^o$Z]M#7%@8(/u$A/u%Z]~$+^#/b$w){$8%i)d'a^P<t=]$%'M^2^g^&*{$o$]$l;5$k) ^P<+^+^q'G#C8o$:/Q^;^*^;^{/d>*^q9R*f=*^g^&*Q^u$d$w)./f/J'g^%/~^Z^w)^*+^7%)^8'19^*Z]`]#^Y7I<d'($d>p^='+^**&*D=K&N/S*($X^Z)~^($k)&*O^o$C^J^&^V=d'j)o$h'>'z$Q^t$G#O^ ^~^*!]$Q0)5>[~^x^d$!^*^.^t$a$p$K&d'~^]^e*e]~{D5Rr)4U5kgA%~/J^x^r$L#5$8/&*|&;^a^8%R^V~s/%u,3ZyD=U$M#!/]$~/s^a^1^6^&*9^~/4^*/R^U$ ^]7A#J<`^ ^[/1^w)Z^1^M#N/4^J^9^1^7$!/'/t$;^ /%'d>!/y^g$c'q'p2a#@(A4n>i5,#[/'$x^X8T^X^b,a%n/$$g$~$s^&*u$#>k2V%6$:/d29^!~+(D8K$U$s^B^C^&#{$o!n![/9'o/u{V5K/6$S/e>w)B&o$~$2=m3.9x/hA]$l>Z)'/9/O^e{_77%3^x'K~",
"-~4^;^|^a{etn&'b';~^o$,;yd=^M#@-q*^>O&V=-':~O5*%w/)!%{Idy]{$8'l#:/[^&$*%a^U$1/b#x]{#9T%4b)1!y~Ls>}#9I^9$q'd>]$9$&*E#Z^)5Q#L#`^,/h$f*D$@(p#`@;]V{S*f^d2r$%5:/8%D$[^a^t^==z#X%c)P{F]$^C8Q#V=|^Q^G#t$)5t^m'!/t^N<c'g8a^H8d>x^4^%'k=a$#/)57%M#p$|^a$8'~^[^G#`]+47%.^k)^=//-[w)m>^>R*m>2$P<#/-/N0&*9'f0`]P<7/ =Q^a$5LyOB$ 9=/`]^/h^N<Y77%;[Oy=&>[J^^=Zr';a9d'[aFa}aL&Q<N<u)j)=/T<Y7Q0X9m^P=I<****n^l>w)$-!/J^9^*^.4J-G#G#t^x^|&0,o$N/[^R^*^J'(^Z^4^P]G#!/a$b$!/**w^7$4^s^]$r$t$F=($}69^g^#/x^9'w)A^u%d^P#^**/&*Q^&^7%2*a$7%>'k)d$s^ ^~9&*W]e^Z]t^7%^**/>'t^g^z<&*L##/g^s^t^`^h$3^u%!/4^]^K&d>g^!/x^4^!/8/2$#^i) ^%'u%&$t$}64^9^#/a^P#r$ /`^P<q9j^q'R^L#{/1^7/Z)M#4^*^%'//k)&*^*Z]Q^u%f$ ^g^X^1^y/i),>';+^x^p*3^b%2$/% ^ ^o$^*g$#/L/f$V=**7$u%-[I^#>y^G#d$d$0)F)o$T^,)V~%#$$4/=(QCK# ^G#]$.$.$#^0^t$E#h/1/)^t^^>A{o5:]o}{/1/7$7%!/s^7$]$z<|^#/]$9^~$+^y^]$&$o$]$`^S)a^k)f^l>R^m4V=]$o$&*4^&%t^ /&/Z^K$*^y^d>{/4/7$m4Q^ >`%4}*7=7*|]7[^c^-#9%a^X^1/Z]8%)^g$R^Q#1/g$G#y2c%4/*%1/L/!-h$2{:/4/:/9$J^1!p^j^Q#z4D^[/B^u{$7y<{7Z$_-|,h'k)!/|2N31/4%@} u)^2*@cD=.^~xM)S)X8&[A{",
"L61#!^{7T~>dO& =D- =l*C&8[./[^E!q9u%R*J'L&w9t]b#]7[/${%{Z]@6F$1!F#)5]7@8n$j^n/4//[4/n!zCM4;^k$K$e]W2J87$O#]$1^l#[/D^(^g$O#0^L#9$6^y<]&u%p#8[)4b{`6v=o^9$[/($s^4^6$2{)^//4-3/C/;7o53)q^==Z]P=n^[$!/*!]$D=]}a$g^&*t$R*h^;^!/J^$^Z^D=2$P<Z)X^4^i)Q<H99$d'($F<Z)h^-/8//*P<-)**!/#/0^M<V=N&<&~^r;2^^*q^K<#^2bk9Q^u)psga-[~^y/V0)/,9,92~U0N0`=T^Y0 /}aJaY7,90)n0=M/*7/-/ls<q&/`0L0Ga~/;[P=`]X^]$o$R^T^u)f0G#P=N<|$a$B$Z^G#-/J^l>e/`]t^z-5$C^&*Z^0,D$u^js8/9^=^>'&*6^d'8%J^[^n^m4d$R^r^4^D=,^M#9^#/4^&[D^-/J^d>R^)^u%t$S* /R^&/d>R^d>u%1^k) ^R^')L&`^9$1^O^~^d>^*]}#/f$i^g$`]t$ ^9^3/&*V=J'>'{9Z]Z)&^|$h$w)!/F^[/o$D=8'R^X^ ^X^I88%a$J~a$(/!/t^y=+^3^!/4^9^-/u%]$O&ysB$*^a%5^#/t^e*!/A^7^l>&*E$[^L#($4^a$u$&*A<J'P]Z9#/d^9$P<m4J'Z][^#95$G#./d$7%4^t$o$'/s^0/B$!5P]j/Q{R/h8s/8[0Tx#-4L^&/C^h$t^Z)E#9^1^!/a^s^a$^;K~7sF3{-9,x^D=6^r$4^i)9$t$3^d#2$u%P<!/5$.^8%x^Z]b%H)!5x7t^*/.$r$n9o$f^d$&*E)~/.4X^2/t=>[M#9^U$&#z$ 9r[o5`%b5,)aTV%g^7$9$R^|&3/h/;^'^4^[^8'[/d#y^2^ >_8)5D#y^V=VsW@L/x]'^[/o/8's^g$%8$$j/!^X%/(bTx{~tM)J^+%zDD=|&J[|,p&<59'=7d}ki7%p&b^*^J[[0k/_/y/Y]V2",
"R6*%d>#8Y{|~kaT=v=^*D-P]Q/F#Y7(-)^J<-/Z^h']~i]x]o!C6c);{%7o$n>&#E^Q#4/]/bx1^K$9$:/|#x^F#{|/s*%K$M/V%r[u-x]+44^u%(^ /O#+%g^M#7%E#x^@8]/c'D$S%n!+]t{@>_&E#s^ 9C/8s$/I^I^;^N^6==74%`2%7 5F<($V= ^8%Q^7$&*Q^v*8'W'x^7$u%s^>[[^X^D=D-R^9$ ^+^&*>[%;F^%'D=Z]`]d>o$w)W9m>F=5^2$&*^*i)L#T^'/7%-[7%'/Z0G#-[>/X91a /T^w^:>H9+4M0J0c^6MH9a$>&QpS)#bV=^/X9<aIF@bOb0b cP0:>haK0[au)FF:7Y7J0 a'/ [g^G# =m^.-#/7$V0X^//-'W^m*X9d$E$=^|&<&W]7%OtJ8Y7p*!/R#X9X9P]t=x^[^+^w)J[*^Q#R^2^}6f^+^%'H8H)q'.$O^!/8%l>S)~$n$#/}*;^2^g^o$0,s9G#|&7$ bS)1&3^x^a^=^D$a$x^#/P#M#2$2$2$#/a^9$a^:/u%I^E$X^9^{^/%t^-/7%&/A=c'~9^*#/X^>^2a#^g$X^5^X^R^2$&*P=*^*^t$'/&/s^Z^Z^//`]B$t^4^O&l>Z^o$&^e^R^O=%'b$D=*^#/z$C^A^ /t^E$l>S^l>}6e/t^l>a$9,J~o$u%)5d>V=D=A^+^f^2$5$G#b$g*`^~^p^5([^>'9^p;G{m0q/k4@(L/Yfb%`]:/2^h'S#w)8%)^7$i)E$x^G#u%a%U'u}K#<!<-$8o$o$g^7$9^($J^za1^4^L#Z]4//%-#9^X^&%R^&#-#+4-'Q^d08%o$~^H83///7%j)&/f^ ^a$;^(^a$g$o$[^J[s[q5M/b5y]^f46 /D^3^S#:/I^a^&$D^2^Evf^u%-#4^y~F3}^c%E/9$a*9[6$($(^[$(^;^1/y~l#6$~7Q#9'v7C/b)#{P<l^8^7%a'3'F)T^>&&^z=Y497,):G,[G#.$Z^@-)^b6j2#>z<}&95",
"od-4q'9'%3vw9/^=**P=o&^>~6L#]^MdI<[*N<f&E) ;7>O#E#%%8/;]JsX/;0D#B^x7.$b)($@8g$Q#'^D$h$l#~,U1!}C/ %X%cTO;}&T@'$D8-//(x^Q#!^U$8%3^6^f$y/ga!*4^~6S/`2N{){B=g^t$B^8'a^A#=^*^9$B^|;M/o!ZtD/#}#>D=l>(/E#z$7%d'+^k^#/O0D^M^V='/j)b%m>x^}*;^X^Z^_/5$d*{/d>&*u%Z]*^~/X^*^~^w)`]#/}67%t^}6#^k=B$w)T^laP<ha'/<a-[L0A<,[>/.)h^k8Vbw^!c89g8 c^/#bT<^/-bdTu)EaL0.RPr`9P0`0k8}bN0Fak9J0^bSyf=dN,[6M^>,/Q<7/Q^N<:7(/2$P]<**^E)W]G#J^&*t^R#P=}6'/&/)/M#*)#^~^1^^*F^t^e&f^D-&*]^4^ ^*^x^]$[/@aO^a$.^x^#/d$(^8%&%J'5$f^h$ ^2$&/T*C$ ^t^z$&/-/)^`]r$**h$ /,[t$B$b$D=&^{/>/($R^g/y/>^;^G#d>W't^}6q'x^a^L#o^E*h/t^R#4^w)L#Q&s^B$@-P=l>t$k)A^d>**w)]$wa1$9$a$)^w)//J=d>h/+^f=e*R^l>P<&*E)+^R#O=h$0^*^//d>9$R^#$#>8'!/;^]$b&P<f^i)a^>^&$T*R^N/ ^u$t^9^{/s^~^+^D-d'`^7$w)t$R^.$Z-E[%{T/P%k/9'cgl#t$2{9$3/]^*^M^C^h$B^~^Z87%t^#/V=R#q{y6o;,u{/)5y^($a^8'P<$/E$.^-#R^>[L#4^*^9^B$g^r%E'==M#a^(^K)X8m4g/E#u%*^J'b$m^u%r$~^5^x^8%)^N/G#O;[>J6b5]%7v]%:/;^q'9$;^t^D$3^*^'/2$Q^[/*/b%s^Y=([w/P%%%h/]~l#:/v^n$9Cs^|^q'6$Q#@(O#4/y/%$]7I] /p$&*)57%9%)'k)~^P=B$:'G[<^}^eT-' ^w)v=m>2$I[t]T^!^!^R~",
"fT&#'$9'gT;~#9O=^>^*p&''Ad9$I^p;x^**e^>&-*>[2*2{x]H8y< /.&j{,}!/47d2z#($'^s%B7y/y^#8B^%$s^`%hTR;{7o/J^k]z2hk>^3^Z^g^`^N/8%,9r%!^&#D$M#>^x])'4^O/+%B5%{g5X*h^&*.}4^x]g^u%%/z<7%j-X%$$M5~,n3[67%laJ^!/y/R^ 97%*^Q#9^Q^>[X^d>R#Z]o$Z^g^+^]$M#0,Z]*)#/t^8/4^t=**`]2$F)u)&b2$49}6t$B$,>A<ka$-//H9H9'bFDU/EaRbOb4bg8'b-b.a(G4b;biT#q]cQbwbCaap,[Td3q;r*'XPqcpdjJnd^/;rzc[cxb}aqcL0;[f}V0//oG'///.-R0'/X6#^P<Z^t^l>w^*)u%Z)J[-'5(g^i)u%V=d$P=t^p$&*P]Z]k=w)>[&*!/x^w^8'X82^7$&*&*<$&^u%o^0,.$!/[$M#{^E$j#]^]7#^t=}6P#>/Z]`]%'B$h/x^2^E#B^;[a$19d>4^($8%o$7$u^Z^l#w)a^{/Y'f^h/E#D=+^(^1/&*{/u%d>%'#/x^z$h/^*}6`]m^{/9^9^d>A/%'u%7%(^d>4$b^u%Q#6^J^X^B$2^#/t^($v=X8F=2$^*k)&[g$a$&4a^7$a^*/L#)^h/O^0^f^A= /T*/&//u%V=F*($d$>[t={^1^u%X^*^%''/4^N<%%V=Z^29Z^)51bz3D4>4j/9%g^krB4Z]I^m^4/d$X^G#a$9^:/*^%'g^z$2$V=E/Y]$]]%R{r;8%d>M#:/Z^]//[o^M#4^($g^;/&/Z84^L#(^!/&$w^n/!/|/f$j)s^#/X^m^k)8%%'%'}*J^.$Z^8%g$a$6^$/y2@(z6([y#kg662^g$/[l#L/;/~^[$;$&/{/7%b$:/'$l^I29%o/!70$)^S[x]d>&%E#b%v$:/j^&*A#6$%'v7x7]^n!|{f^.^J~%'e&Z]izM#H&E*#=|&d=&}~7R/cg]};[)5e&W'a$a,j/whm4K&K~",
"0D7$8'G/H{jT'*a$d^)^7$w~18D8O#kTa$e&k)|&@-L&@sZ~D$L#&*z$]}U3Y3lTP=O#9'4/J^#8y^:/Z/S#9$v/B^6^']mT*}{7n![/a,u2D'~/g^(^!^9$|^f$r#Y'l#f$O#x^<$klg/_y$7S%k/d{t{X#M#<$f^;^$^d2h$;^Y'G#]~r%f],3v5U4h$U$A^t^d$.$x^{$*/J'~$}61/Z]~^1/S)t^<^e^E'g^[^`] ^+^+a4^B$]9&$G#//t^a^X^D=X^n^N<P<V=;00)!/&/+[>/(fL0zbWcqc^/FD>GPpK0PbSyzbvb3Q8eZ0-b}czeYq+qI9(dnTV0ceoTpTvb>Qne;HFIOv c#q(DoGG^;eqT[aAbZ<r^,93e//f00)!/C&=/h^X^m4 ^~/B$0^!/($A=!/]&H8g^y<a$>[19;/Q^o$^*u$&*4^Q^[^;^i)^*&*A<t=r$h/ ^I<W9M#w)&*}*7%J^k=&^-'>;#>g^o$&*'$f$GaM^a$R^%^t^p$Z)D=]$x^!/!^!/Z^w^t^`]d>W]n^n/#^'$T^4^V=M#2$2$!/&*n/1$o$1(7$w)#/!//&+^S*&*E#R^a^'/#/]$H87$a$o$8/D^]$~/[^Q^}$=/j)m^|&Z]E=n$`]a$*^Z^e*&/a$`^R*c'd>19w$4^J';^)^a^D=.$#/t^g$a^U=}6b$p$C^E*!/J^>/&*u^2$B^|/d^s^x^o$v*~3>}j]D5I6@&^>Og9'!^&%T^E=%'x^4^[$#/.4.$B$.9P#!/P<E'}6(*$].7K3{=i)i^8'9^O^M^2^]$~$2^!$7$Q##/`]8%Z^D#[%h/x^O^!^t^)^&/]$B^h/M#d$4^J[A^//5${/8%w/l>4/E^T2y]=7T/x</|=H*/[$5$e%S#t$g$b%d' ^Y^M#Z^S#Z]g^y2T/b)u0S%**}'s0O^9'l#O#l#g$&$1^y~I^l#C/O#(^`@W~ 7P<Z]B$M#k=O#>8}&2*-'d'a$ *:5l#c)d}&4R^_/2^r;c$30~,g8M#e^cc",
"BB]7M<3e|4}Hk)RvZ^p&d^N&x]S#{7:'8'G#Q^2$&^%)%%rt:88%>'~/[^;[92/{<2E^([)#9'9$]^1^h$:/1/($g#&$%5+>rgV7&6x]%%H%03p*:/b)J^E#<^~$~7{C[^A^b%[^o^;^7%]$^=T@%#}^c)<!B=8%M#a^I^%%!^P=B^/[]^TF![w/M/](N]#>t^O#Z^j)($A^)^ ^i)o$h'`]`^7%C^E$;^&*X^;^P<4^ /~/')o$S*P=x^C^&^=^&*n'[aQ<N<`^w)m>f0'&qc--G#f0g8 cUb Gpd>QzhrT/crhnqmb!csT|aFa,etTX06b}a3cCquT1dIc'cbpvc9cFF]r-b&rvT/r2awcwT9cXb5b]cr^kaLa29m>B&pb.)|&#^=/}6X^{/ [(/a$P<)^8'V0**Q#G#P#J<7$'bd'R<.$9^x^9,7^{/c${^'/5$s^4^B$H<R#Q#J~F=9/M#d0t^T**^k))^!/V&8%M^W^t^-/// ^J'}64^W^M#C$s^V=V=E)x^g^-^./|&P<o$d$4^a^P$ ^E#g^*^]$&#19t$^*d>o$g8//u%g^X^-)W9m^%'}6]$}6`ugC#/9,Px|$-^J[J=d$//9^m^ ^a^5^')G#]$W]4^]$u$./2^]$($h$9^l>u%2a*^}6M#m^9^~$U$o$e&pAM$z$H).^$$//($E$B$g$a$h$g^Q^D$z$_/V^Z)w$a&<;b&#7 >D4']b6B6@7u)}~1!~^b$6$a^!/s^8%]$J'~/g$[^U$g^E#N<.$V=t^G&K{j/J)+*X^*/&*S)#>F#a$r%'/)#w):/V=[^R#5$Z^%82^.$H8i)2$%';^7$+4)^t$M^a^#>~/^/o$Z]9^5$3^R^N<3>t]##$7kcTvq#0^<^O#4^C^s^J^<^d'%'s^)51^4^-#Z^|5$5Z$=7p'r*$*[/;^D^L#.$9^g$s^:/s^E#H/E#4/d>6]Q{(^u$,>d>k=o$J)xT{$==i=i)P]*^-!Muj^,)MGT^]$E$d>f^u%p'k]~/$/]9-{",
"hd8%!/:/@{UB}=t^M<G#R#:~##4^9$*-Z]R^v&P]t=t^i)c*6^l>>^p9`]%'9/j>l]6)g$C/X@9'%%h$a^d#|^j^o^B^.$:/=(01'0w/y<&#l5H4A=]$!%&*C^+^l#f^j^A$J^n/&%M##/S)9/`]x))!a#u{/3 ^u%J^~e6^s^l#(^pAa^h$yT^$!74%}^+5<^D-Z]w^&^E)9^U$4^n^i)!/}64^M^d'//f#d>P]4^W]o$m'^*t$==D-w)m*o$b$u%k)Q^X^.$Pq**f^+^u):7ibg8Ncr^]cGq7hJfzT|NCNATBT}pCTDT$NET-hFT3haN_P5hGTHTETDT-hITJTKTLTdJMTNTOTIoPTQT)hRTSTMf]hONTT^bZ0g8P=w^19r^R*l^^*h^w^ /w)'/g^Z]A^**k)b$ [}6C^f^-^:^]$I^g/8&4^M/g]s5p{w<z66]q5x[p!c]z6D5j]c].][>-(n{`/T/t]z6@(L%<<~,j2<<UTa'n[k/D{q5<<t]O/}]f])!}tl/c)@(n!b6t]k]n%VT{fQ/18L5@(M);'3{,3$5J5z/n[([*%%7@(@(`2p!n!IdV69$2{y4^wF/F/<<R/H/4z!7D/$5'L-({7j/8[w/6$57y~'!x]]^C/p'w70'97:/b)47'!6$g$2{Q#x)s^;'M)o/-4B^u73{1/=7v/;'[/O/Y'w/9'#8M/A4m/<<)4,5@>,{O;530]X'$$|#b,tutol)#$[/M$n/m^!^[^P<h$9$5$I^8%J~f^E#7/-'3^,[y^d'){o5<{'&#^>'7$e&~/h/G#k)y/{$i^B^8^q'5(9$')!^9^8%!/g^n99^#/d>O^S*&*J^B$7%~/&*1^t$L#d>*u0^I4D5=(%%E/i5h%%$R/;^O#1^7%b%C^u%3/g^&%1^1^&/-[X;k4z#h$q/$0@*H#4^.#J^.$8%(^]^y/D^[/z<]78'4^b{/]0)2$*^h/-'R#O#WTf#u)*)-& /O&i)L*MD2{Q%M=='2$>[&//&';E%[>h^9^a*3)",
"XvQ#M#-4I]5t/&**&%a$t^m&:/I^2^:;R#v*W9I<m*>[Z<<&vh`@@^a$|rql*^d&[{Q{d2[^y~W$1!n$g$=/6sg$|^,}7%Q#n^v]XTZ@.7C^NuJ)<>E=7%8%39g$d>1/0^r#%'N/x]Q^&/y/K$e^)^p'J5j/|]i{W'($o$-#9$;^y^M^g^,/=^[[B6o!;cT@E2:8dbG#4^8'M<z$G#M#G#8%z^P<#/)5Z^//t^d>s^9$b&[^P<%$p&*^*/P=P<&*U'P<_/G#x^ ^w^P=i):7 [>[T0qT@bL8YTZT`T U.U/M+U@U#U$U%U&U*U=U-U;U>U,U'U)U!U>U~U{U]U~U^U/U(U_U:U<U[U}UWL/U.U|U1U)U2UXg3U0^-/,9w^U'>&^/#9a$m>R^~^ [a$V=v*p*E$9/A=/&u%Z^R#a$')M<p*,7z2C[W~^{4U.] 6x5es72l5t4P{a]p]~3e{T5z~L{E{|qz{c)P{lwh]j2G5E{&]N5p]&{z5G5c]&]N5q5']G5#]P{p]N{z{b(z]D{-]e{_{f{kb[{x{Lw%{1{z{a]a,-]T{h6lw5Uu{P{>6>]m5c]L{-]8{xdwnm{Urba:{8]j6.]8]D{G5P{_{N5u{%]u{v5~3|]&{u{s5z{6{r]b{wnI]u{Yr.>m{m{m{m5V{G{esr{q{E{w<H{r]P{!{']V{|q6]Y{G5-]c]baa]G5m5F{z~E{e]V/@(g],)4%=(F#/vO#=^RaS#E$~/l#N<{/D=Q^7$X^-/R^!/s^&/M<J^a^x^ ^M=K{&7<{9at^!/g^j)w):/Z]`]>[9^9$%$r0{$8'8%R^]7Z]J^!/|/2%X^>;s^X^($!/@8+^E)s^d>]$0^n9[^t^3>t5Y/%#w<ktl#;/h$/8.$H8:/h$F#3^&*&*==2$M#Z]]9O;.7y4*%x]V=[[X%M$G/;^F#!/v7Q#A$($w/$^C^7$G#<49{#>#/Z^2$,[-'D/+1j5R<b&r;S*E)z-^>e>a>9$E%X=9/s^V=g^L&7$k4@(%'#/';R]",
"^bM#k)1/@{L'2$p***Q<#>m&|7a^d2&9J'D-)>T*Z^7/Z]i=8/ZE}vm*o$Z^d'<^I~@>W~y<a^E#@8[^;^J^x]J^}7{$6$z<E#s^F/6U-fs/](;/~{${9/t$;^3/u%d>%'C$m49$ola^5/j^lSf^C&B$-(I/T/z{R{2&J^1^J^8%9^a^E#4^&#|^Dsg5M)T@M5W4 /+^&*o$t^z$O#F^@/&*Z][$P=K$d>E)f^R^t^{/8/T^1^k=H)V=Q&Z^[^.$k)[aT^d'`]Pq`]=^[*E!e^=/^3^&GanM7U&Q8U9U6J0UaUbUcUdUeUfUgUhUvOiUjUkUlPlU>nmUnUoUpU oqUrUsUAPtUuUvUwUxUyU~obIzUmNAUBU<dqd-b@K;[Aa';0^T^waX8#=x^X8&*+a*^P<g^//>;+^t=j^J^i=e/N&:5B]n{)!C64%H/,3w/c%X%o/.7$$5}u76A,31!v7n>M)K$g$}7*%b,x]M/$$&#W@/(%%V%.#<<,3x]+(y4T@K/](M/V%,)j/y$9%Q/I/*%z4T9*#E/0$@&9%&7y4>B$$n>w/<2n!.7X'/(%7+%C/3{B6~7K/C6j#y#=7z#B6,3,(j/K/;c4%F/.#b59%T@K/M/p'y$z7O#W@$$o/b5$$([4%z#*%T/H/](*7n>c%p#p'6$`%5}*7$$K/W@|#I/+%z#W@P86$y#j/&#|#](;c$$p#r%,3y~c%I^_8g5tlB}c|c6b$E)*^x^7$5$4^a%p^#/}7o$o${/b%o^/b!^*/ /(^Z]H)|tF{*#vsj&T^C^7%E=!5#/s^D^~$7$.4D$*^V=*^5^0^F^i):/2$($a$Z]k=+4|/P$9^&*Z]b%d$a^]$1^1^*/p2k]X/D5I[CUd#4/x0d>[$u%O^D$.$:/t$s^9$`]D#!^J<r[;'n!6$d#d^]~9';^O^&*M#l#b$X%K$d>I/0$o^&^u)c4%{W'0)E$`^';F^[$DUZ]W<%'|&H<b$o$)/I~m-b>:/M)n7~^x^S*5$8/9^h%W51/**^>*4",
"i00^9^,/h{hr|&(aF)F^9^]tC5C^z<HaZ^*^u^U0t=V=E*X^ =S*EUFsn0t^1$}*M#U-O3=}I^Q#4/N/:/{$9'D$6$s^m8n/[^6^{7w/6UReL/*%:/a]4{e&s/8%O^%$1/u#)^7%.$L#U$,/8%x^m^t=%'o!`%W$983} *D^!//[A^E$J^s^;^87&#L9Z{o/k4T@6[#>>;8% [g^~$m^'){/O^Z]9/R^u%l>+^7%X^W9a$&*9/h^&*}6>[K&/&l>*^W^g8!/!8u%m>!/!/Q^V0'b`0)b995LFUGUHUIUJUKULUMUNUOUPUQURUSUTUUUQUVU%lWUXUYUZU`U V.V+V@V#V$V%V&V*V=V-VXU;V>V,V'V)V[O!V(G{dsb]/kax^P<;/A<N&)*!/q^P]+4N<:7E=:$T^*^8'u%B$z$O^t[T)H5y~3{A4b5,3M)M)@y[/ftz<`#;'n!.7F$z49'{%$$d#U${$~DH/*%d#{4M/{$j$y/1!c%W@.9,)'!E/6$V5b6j/([)!*7O#W@;'+%R/3{k/#(Y5y#c%F#R/,)o/Q/|7,3z/y~*%%u1!#70'n!R/;'C7x]x/}])#B7D^Idw<|#|#4%+7j^$$nlH/w/I/M)<2o/o/p!x7.#n!67kDh#F/M),}p'n!nl##nlU$T@M/v$R/c%$5.}]7.#n>{7!r.4y<]7$$#7;'/(1!*%5},3x7x],3+%]7V%|0 a~VGIO#2^e/g^&/R^D=t$7%4^;^!/&[7%t^'/s^F*a$G#.$u%E)&/.$9^u~Dtt#-3<;Q^b)7%O^;^S*O#n^#/w)!/1^t^I^P<j^x^[^g$K$ ^|^&*;^]$t$a^s^z$P<Z^4^C8b$-#J'7%H2M9b6w/E%{V(#4^5/K$g$3^q'=^@8,3.$a^&%b$-4r$kaK2[> tT@a/X^$;h$;^]7S#[^f^9^D#*/g#E#B^n$W@t^l]K],[Z^)^t=^>&[ %-1w-W]e*R*+^wa&*`]k=k=l*F;q'D5T7h^3^`]Z&0)J^L%4}0^($A^qw",
"Nb;^a^s^.{c/t=v=u)C8o$_*-0)56$9*|&O&z-t^G#%)t^'/`]R#]/]VM; =F^`]~^{$R&Y=m!js]^n> %&#.$b%$$9'E#Q#($%$7%($]%K1G)]73z1!~{~{J~D$%%ju4^.$E#3/!/($]$%$S#)5f$O^2$~/y4](I/l5L4P*h/2$Q#&*d>D$:/;^E#2{+uFAS/)!D54>t^e&!^`9Z]P^D=19>'9^>[E$~^r$%)3/C^n^u%!/&*u$^>G#x^A/**H<o$2$O^'/ ^V<q'@cK0e^A=K0:7('ub^VfP/V(V_V:V<V[V}V|V1V2V3V4V5V6V7V8V9V0VaVbVcVdVeVfVgVhViVjVkVlVmVnVoVpVqVrVsV|VtVuVvVwV0bGF6M}a|&e^'/R*X^#b}6L#V=l>R***X^g*D-W]w)~^)^M<<^v3E<T@:/D5E%n$l)S!f-v*6* =J~R^k=x^o$M^d'D-C^($7$&%P<`^9^N<6^J=5$a$2/.#&[W92$C=.^#/[/&*]/8%M#x^!/g^~^i8X^#>$-X9+4t$Q#=//%-#U$M#`]7$/%-4n^U$1/M^<^8%a%b$Z]Q^ (.$8%-/B$6$a$n$8%+^{$d>|&w= !8%)^M#!$N<'$r$8%r$/%&[r$y^)5s^R=M^p$1/9^h/l#H8a%u%~e7%d$t$g$O#|$o$[^7$2^6^n98'x^'$u%{/($%'f^k[I<e%o$!&4;xVt(yVn$U$j^s^D=!/Z]==m>f^P<')P#G#x^Z]o$x^L#V=8%n/a^G#a^r#L#>[B$k)O3=716W&J^-4*^9$($d'Y7@8t^2$a^y^M#1^~^K$t$;^B$Z^($G#a$J^f^G#)^Z]a^1^Z]S)x0t^Z^~/P2K#K/q5mxj7(#1/o$K$[$4^[/[/s^.9(^E#.$s^&$~$zVp2`%~6+(W@w&c!,$K$)#x];^J^g#o^x7d>r$:/1/p^V=`~${G#*^J=-[(&k)y/j+w$`] =T*<$k)Z^t*9^Z^J^/;a>[/66!-O&=a`^9^V&D$n{}]N^.$%^.y",
">x@/.^C7){4'n&f/p;M^7%Q<Dd)#n/m&9/!/o$%'V=S*|&%)**d'%)u%4<AV!/t^%^T^)5@*H'Y=A^;^D$s^&#C^'^9$%%[$4%v7]^7$=^w%g720fFy4~/b{9x`]h/W]!/[^J^L#U$x^6^]^m4J^$7u%O^p$z$T@I/;7z{P2I~ 9r$N<x^O#8'3zh$4^H/3DG)j/$7z5H2k)>^;^g$t^&*G#t^X^N<D$V=*^2$&$(^0)g^`]5$b$]$*^&*{/~^W]w^7%c'P]S*e&9/r;-[W0T<T^g8#>)P^3Ep|cBVCVDVEVFVCIGVHVIVJV'RlN<RKV,I8pLV=QMVNVGVOVPVQVRVSV1LTVoPUVVVIoWV pXVYVbKZV`VCN Wji$/Pq 7w)|&'/T0P<P=P]R#k)';G# /x'!/W]]9X8~^X*M#}{k/1!K/;cj~ZAU!`#H69#d6_#9696]%q%<0T%)4i#/#z%j#.W%4`376%(Ls80tmVe80Y@(0`#bCLsuGk0@&o%<0N%tu3#N%+#F/+W80>(@7tm8#mx;(@W*3t%S@{#x<J%x#4%6096tm![m#8$j%T%ft2#E%E%]0{#aw66+s^%^0###Wv%}(]0-(3#V/~PL%v]$W]#o%3#q#v6mxo%I%%WT%3#=(!}lx&W/#<(0#9tXe,#o%Ve^(30T%^$j%@7`%]Tftz#D#Fr~%{0*W3#[080){3#tu^#J#!}E%c%]$0=a$A=5$X^X^H8Z^7$($ ^Q^t=R^-):/==E*l>(^E*8%c=)^d'9$-/9/.^w8#]^tY~7&a$a^!^[^J[-':$_/F);^m^>'9^Z]J^{$4^=^|&b)$/1$o$(^&*:/4^S*J^h$o$p9@/L/2^As<<s/I/m#k5([O#'^a^]7-#U$O^n$#$q'F#*/;^S)B$0&j}h6d#~7S%t^j;z#8%.$M#B$`^8%y/s^8%g$4/~9|xn0.{Y3_aA^P=8/**)^{$=W3^!/q=w)q^**d>&^Z^|&e^<&n*s[Y'a#I7]}w)D-u^R#@^w%0u;/ aw)/{",
"-W}6;04^bT+~Z^>;W'l>},Q*y~b)b)E!`]m>|&h'**v=E)t=7=E=T&e/0/S7N7';a$o$u)#^m-o;/{1/I^P%F#I^n/g$j^Y']$(^Y^t^')J^%#)2G)27Q/y<X3~{z-x^o/!^#$t$4^#$]$u%[$7$M#6^o/g^,;g^](2]=7[{L2C*J^.^I^,3:/]7o^X^a^(^A}!}@(I/F6r2'bC/l8M#*^V= /**T^u^M#a^%'W9M#D-7%//d't^U-m*l>V=Q&8/0,U''/P]!/7/ 71awa=^_a-/-/KPg8;W>W,W'W)W!W~W{W]WDN^W/W(W_W:W<W[W}W|W1W2W3W4W5W6W7WDN8WtI9W0WaWbWcWdWeWfWgWhWiWjWkWOTlWKcP0A<k87/w^0)Q<6^G^a$#^L&%'P<kiQ#F=G#8/[^d'&* >p!P%j/K6T!Q*f}2*@^a$Pqi/l;)/V^O^W'c^C80)B$'/G#N<[^+^-/wa0^ /W]l8]$&[0^~/Oy-/(^Z0'//*[a]$#>7%z$)^(^9/i)*/F7%'&**^W't^M^&*B$)^f^0^W' /P0D=7/)^Z]q^P=o$P] /l>k)M#7%J'c$a^m^{/X^ ^f0V=F=Q^i9J<*/&$!/]92^l8~9G#-'R^P<,[_/f/I^V^2^X^*/X^A^a$&*(/7$&$&[a$h^R^]/-^T^o$#/~9n/C^2^2^T^Q^]9g^4^3^G#1/&**/V=%'e/P=&/%'9,m'!/)^>;/!h^//O^9^0)7%k)a^./1^-/]^4^d>h/4^i)Z^*/*^N/a^Z-_{R/4{M=M^o4{95$!/2^(^!/6^v7.$)^D-;^t^a^^*t^A^*^R^)^;^)^E=O^-4y^9$R#h$n^Q^(^4><<)!o5x/PQ4%z<+&&#D$!/$^K$Q#M#x^8%S#>^Q^+^o$2>T@4%E/b%R#!'F/D^x]|^{$8'E#h$8'8%&#o/!$y<N*F]o;/*d$T*R#2$J-+%3C2$j)n0e&qB))**P=k=&*Q^j)k)6&L2$$}^Y!**dcd^_D<&)^f]C5=^r%k=#{",
"^b@/5([^L{m=E)A=-'==i)g}J^u%&/e>{^Z)d'l>d'Z)h^P=h^`]4^S* /A<mWnWQ&a$ a]$4^.-#{A{*^d^z#E#r%J^Y'$$E#<^M#.$%$m^j^N%z}45n!)#Y^o5Y[h&g$O##/7%M#f^.$[^s^4^W@y/7$$$*/D=]$^#`%b,z{|3#=n$*%&*d>[^z<J^l#&*C/rnp6Q%,)D/[5pn]$t^[^}6 aL#s^;^]$J-,[j)&*{/1^'/s^&*2$X^#/t=m*2w =e^ =-/,9 aP<X^x^^>'/v=P<k)Fa>&NF^coWpWqWrWsWtWuWvWwWxWyWzWAWBWCWDWEWFWGWHWIW.PJWKWLWMWNWOWzTPWShPTQWRWSW~LTWUW<cEaT0>/>bkaP]w)Q^]$%;P<P=7/4^k)H9^=#9~/F)Q00^>;]955}^z#H/}tj!V$/&G#V=~$E*P#1/T*R*^*g^W<o$w)#/7$q'*^E$-'g8+^Z]waX*d'h^M#X^E)H&T*i)}*H8Z)t^]$=^o$i)4^&*M##/g^]$ ^Z]9^Z]k)d$3/w$5^>'C8&*g^Z]P]M#F=X6k=&/P<t^b$t$>[i)J'.^ ^>[[^a^ ^E$u)O^ a%'C^8%Z)8%a$==S<]$G#V=Q^}*a^2$d'd't^R*t^7%4^)5X^D$b%,^:$D8u%D=~^19d$m*P<d'z-9,Z^&[a$n^t^a^n^($9^7$'$}6[/t^A<J^9/J'i=R^c'E=L#1&X*t=p$D-X^w)*^!^d$&*m>.$e* ^'/S<A^V=d0A^X^a^P<E=k)r;%{<<!]/=a^R^Z]i);^X^E$.$o$#^t$4^h$#/a^1/a^x^s^h/;^A^*^`^$/A<9^I^*^m8g^'$C^t[q5R/w/0'%~S#a^]%X8t^'$J^L#R#q'>'!/7%&*M#M^)^4>p'I/o!A$B&k~)#h$D$%%5/($s^8%+^87+%%'x]9$0)j>.]~^&[G9d>>;%;G0LAVW>&1&}&S*h&c'&*R*D=&*7%8%[^ *Y[z<V%$~T^-[_/1&9/D=k/P{{,7%P<03",
"Ba]$T^x^WW!-n&^*F)c=F^W'v/7$Y^D~Z)9/==t=p&W9N<z-=^d>d'5$}*X*c^XWD%*/0)2$Z]S#g)J]i4N^|^x]1!s^o/]^f^&#1/K$]$it]^`^`3YWb>3{&#;'J5,{>;%$C^x^)^;^~94/7$(^l#f^g$s^.$4/F=>^.#D/<<|]B]$-+^h/4/s^D$;/p#a^e^D/qv60n!b,@(f9]9P<D^n08%=/ /g$S*S#k^e*b$=/T^0,j)F=t^h^P<k)*^a^&*// 9>[&[t-.4.)h^k)N<'/#>f0@^P] c:r('L8V0nrQ<-->bGa@a4bK0--('X9Ub.bFDha.-=[X0rcW-sblk#bp)PrV0_q@bY0m>)bJ<J0&b^r>& G^/h&Q<//99W^P]~^g^W^7%k)h^Q^~^[^#^#^7%<^_/7/p2yd-(E#k/}=c=7%D=Q#S#*)2$o$R#a^R*u%h$D=a$#/,>d'v=9^e&b$]$g^~^d'J'D===]$d>w).^X^A<2}0,A${^A0E=P<&^b&k)9/1/7$6/7$!5w)Q^W]//5$9^1/x^5$2^Z)P<X^u%X^i)x^4/*/==P$A<k)M#G#a^P<5$x^u$w)<^N&v7f^&*w)%'E$M<~^9^t^*/7%**L#R^X^7$t$3/ ^4^4^*/*^j)Z^W]u%#88zJ^A=Q^o$^*f^~^9^8'R*u%(a#/**t^P<#/s^X^Z^~^9^I^E$x^Z)F)#$J'(aD->[V=J'b$P<d>7$**M<u$+^u%[/~/R^4/ ^|$//e/L#O^h$<&+^8%x^P<Z^k*l].(=8)*5$P#d$L#;^1^/[o$S#J^m^6^2$5$%$w$:/9$P<8%w)E##$g^d$T$Z]9^C^]$u%l8k2@(|#~7M/=1)$M#8'8%.$9$8'y<+^V=:/9^&#J^Q#&*u8t[$$K$v/}7p$|*a/n^L#a$*^_81^!^O#c%j^1^9$n/Z]%}E{`uD=X^Ot]}D-`5ZW4^b$,&%)y=p$,[|&)^R^u-'/d>,>k=/-Q;)5Y@*5b&e&%'<u*!#//(x[W'b$R#B]",
"i0D8Q#2{F{}-m*c'V=-'v=P=d2E#8'L~Z^v=+^x'**!*(&:7p$t^]$a$%'2^h&4^`W/0~^ /!/R*P$L&O3or0)1#9$4/F#y~{$A$y/*/g^N/I^]$6$']G1P3JdK/p7@7S4v*K/ ^>^{$4^B$4%19P=A^d>n/]^z$(/k*&#([$$q5~3Q~B&g$[^o/E#Q#&$h$)5C^j/c(0}b5$$n%b3M<Z]u%.$>'f$:$1^w)d$u%9^k=2bx^7%#/R*d$>[%'&*J[:7]$!/#/J[**>&f0l>a$ / =Z^w),[ X>/Z7EaFa@-Dak9CqFaobwcJ0dGvbFa9c!MCb:7>H1dCq9b8evbWbqc.XOFV^Q<>H~c-bQ0WclQ3q>&+X{aL& [A0=&b$2$ /a$r;,[f0#^f0t^:7#9r^(^w)h^9C@^H2z5n>D^D5L- *q'w)B$x^,>=^V=x^k=u%4^2bM^O&R^{/k=T**^h'J9<$&*u%o$P=y^w^~/)^7%A=~/t^ ^`]G#P]n^*^P=Z^1^#9:7t^m*2^1(k)4^r;4^|&k)t^Q^)^u%a$C/Z^*/D-`]%)G#P=7%E#u%e^m^b$7%*^4^+4-'Z^2*~e_/x^Z)8%V=G#.$P#k)Z]R^P<9$t$A^h$t^7%o$e^N<.$8/|&d>W'M#a$R^3^F^$-*/#/b$&/ ^j^R#u%o$=^a$d^&/l>J^;/i)d$.4f$A^t^a^*^w)ivu^d>~^#/-'z$,>*^d'u%|&N<B&l>!/h$G#Y7!/7$i)x^*^#/u$d$O^1a#/o$[8h$M<1^b-#{p#n2g)g88'r#7%f02^X^d$>[7$s^&/1/@8L#I^u%G#h/P<{/#/{$q'E$%'(^~/&/,>@ap2L5w/([l/UB;^#/,3.$g^z#_/L#E^.$g$ /L#&*8'E)*/t2x0K/$$}7t-7;_83/g^g^h$8%1^&*x]8%4^]$b%Q#2(#{I]{/Z]R#!/F)h'tu@Xk)S*V=J<u^-'m>8/F)P=c'E=E=^*^>t^!*#d4%*7'~F)7=1&'/^=D=y4}]^9X8n003",
"h-A$4^%$Z{6=D=3&R*k=-'Y]Z/_/N^E~z$L&9/d'R*)*V=l>E#E)T^**`]G#3^(^(^=34682t^($&^7%#X:b`4A^6^&#E#T@8%&#($O#y<L/%$b%4^[/j%=Fy3g#[6x7k6B]o&j^a%s^%'7%7%~/&$.$]$2^Z]')4/f$l&)4Zp)4/(t]]ah&t$!/g^t$s^[$4^:/+^s0@CV7k46$T@+5J<M^')]$J^2$2$W'.$f^f^#/G#7$R*P<-/&/J<//e/q6Z](&`^P=)/W]4^0)';#^P<u)^9P=u)t0n0#/-4J<>[H9$X>cwHFa>[.a%X,9L0$-Na.-^>gazcY0&XFaps`^_Fvbt0J0>b+a~bN0G#}a3qP= =ZrY09/*^e^g8:7$bK0g8m*G#u0v=A<k) [P<9/!8P$D=P]6[}]I/E#c%{^I*k=Q&H8Ex}64^0^d'l>5$9^7/*^t^7%i)t$Z]N<s^u%Z)5$>^Q^[^d$D=n9t^Z^Q^//#/{/2^w)4^]$Q^w)==S)a^/b{&R^u^)^%'2$`]E)X*G#S*!/,9s^V=h/y=~$X^X^{^;^R^d>!/~/a$*/%'e^a$b$`]x^g^w$4^v=X^O^{/W'i)J^P<m^]^a^79*/x^o$I^S*5^D-~^e/P]A=&/2^O=-'~^t=Z]B$P<d0k^e/8%u$%'k)a^c'&/p$X*n^C^*^b$ /i)M#]$0)9^t$S*E#)^R#%'e&M^F=)^>[D=>;d^W<t^u%J^l;k^7$]^a^`]P=A^g$9/t^`]&/t^J~V=8%.$t^A=7%C*<>I/{{/=4^a^t$R#&* 9L#N^4^J^&*1^g^d$u%=^4^&^r#2^($#^)5(^C^&^J^Z]&*[^4[L5]7,3F#<-**(^!$8'>[:/&*E#Q#D$ /B^1^8%Q#e%q'L2Fd1!%%u7z-(>W@E)y/+4Z/4/1/*/.$B^O^l#:/E^m>o>N57%w)<&^9==^>*X=X&$p)+ak)D=c'=&p&R*6^&*P]F<a$P=X^a$0-A3Qx~,K!='a^^/u)8/u^T@,5]90^Y8`~",
"Nds^-^TT|{|~R^+^l>7=~$^>,)E'M#[*M^+aV=O&L&:7F)t^/&2^O^2$t=**#^k)I82^-X:(R^~^)/^*!^S&~{!]Byh$m4h/$^;^.$8'O#8'49D--4~$Z/q#;X<{F#([3{t4Y=H=(^q'j^3/@/J^4^y/y/7${$[$0^($`7/-n!+&F/W$c]Y4g&.^y^x]+^;^#/#^f$o4r%)1f3%7$7,3H2a&8%f$E#i);^J'1^%'P<*^)^G#w^r$h&R*2*O=A^L#x^x^P=N<v=|&q'G#G9D=]$P<'/$-J<g^R**^+[='r;m>7/Q<YbU0J<*b+apA0^,9LaA<0^N<q^-[Y]-[J<n0`0H95b@bM0 =K0M0Wc+atb a'; =FaA<r;O&+[,[2{X9^*~/kaQ^t^&*u)M#@^~/[^2$h&z2%#.90't$D$(~#/Q^P<}6d'!/7$ ^J^u%Q<)^u%g^D^a$'/o$//>;**W^d^G#;^}6g^a$O^-'5$X^4^//d>8%;0P]W< ^_/a$X^8%G#P<Q^1/^*1^{/^>&/e&i)D=6^a^D=');^G#[ak)<&m>#/p$~^>^&*b$S)8%J^E$7$*^&/G#a$)^&*%)D=d't$p$/%u%a$,[e^#/ /C7D-f^/%x^-)d>P<E)2^X^*^D=`]+^*^1^O^^*t^(aZ)|$=^`^t^Z]J^M#**8%!/{/)^l>t$+^9$M#4^p'+^k=9$R*-/d' at--/~/&^d'R^9/X^}6c'A=C8x^%'u%&*D=G#9^P<M#P]4^s^u%**Z^d>m^a$:7]$D-N&`~4%|{r*t$a^U$f^1/Y8j^Q^{/a$H8.$ ^[^19)9'/%'k)t$9^(^P=R#M$8%B$-^r^W4)4,3x)o/F!Q#m^>^Q^%%{$t^Z]:/h$.9:/l#s^%$($=^p2t5+%6$j%b&z&:/Z].$;^q'(^I^.$o/r%P<g#;^h^>&f2N5t^h'Z]D=>;<&70>XQ%f&Z^]}p)2$d^!***2$Z)Q^&$d'N&]$A=P<}=f2%$T@pwP]X^`]U*N0J[,(D{w^4^V=,X",
"=bO^J^&[_{!-!/=*Z^t=V=:7V59$m4*-%)V=';m>}&p$+^V&t^A=2$p$F){/l>^*e&b&-/|v(80))^ ^Y8s^h&k{E[4/:/($j^c%f$9$s^J^:/8%D$o$.$#/%4{g`{0'l/z#g{`~L&x7S#G#t^&$1/M~7%+^d>g$Q#;^q'P<f&^#1!p!)!_{U3^>]$A$t^7%z#lS!/E^Z](['X-}%7=7z44>#9B$_/)^J9P<9^V=&/9/D=<*T^**)^E#f=*) /e^!/%'X^`]E=h'!/#^&*Z^i)**4/.)P<a$7%$-2^@-+aw^,[>[&*,eq^w)q^H9obPqT<@^:7f05bOF#>t0ubw^Ea~au%8e&bPdZ0(^G# /S)O0@bz-a$-/A<E$<&Pqq^A=G#**5^w)n^{ad>0^P<**_/Z=I2!4F#x]]^n>Y!)X =A<%/k)o$&*P=//7%M#8%L&%' ^u%G#P=M<J[R*!/4^)^7%d^}6t^;^q6*^a$R*k)v=!/0^9^k)J^g^J'v=/%Ra.^//q't^{^s^9^A<8%'/J^9/&[!/&*}6d'e/w)A=a/N<A$P<'))^+a(/n^}6b$w)E$z$~^!/Z]8%L) aI8Z^a$+^d^g^8%b$b$t^t$9^K&G#**d>N&]$9/G#V={/k=!/%$9/d$X^%'a^C89$B$.$M#x^b$**g^+^w^g${/==w)7$E)e^x^2^F^7%t^i)V=3^o$:77$b&,^t=t^E#&*d'e*t=Z^5$i)X^u%19o$x^n$~^3^a^#/a$+^&*t^-/Z]9^#^9$d'5$(~@{:(Z2%;q'%/~/($1/&${/t^8%-/<^7%5$//.9;^9^C^7$klI<)5 ^19(Dx^z$A=u2k/}^,3l#w*j)s^;^t$B$y/O^|^b$4^8'1/L#!/(^|$=/R7D#p##7]%T*{-}7($N/;/XEO#5(d>M#*/]/9$g^]7>;V/i]4^p$J'F=|&Z^60!XB^f$-&O&|&E)F=O&O# ^9^**2^-'**d^Z)Y7G#6*z3y/@(5tb&D-w)X^ =5$c)j]J^1/E=nD",
"EEA^M^Oy@>[-Y8_=M^>[R^**~Xt$8'5&*^|&d>('t^2$Z^d'7%p$*^j)]$6aP]R#<&S)|&8%abR;t^#/2$W]J=F=i]c{s^;/1!*%!%U$N^E#1!z<D$]$z<g^o^q#cv86Y'&#S/c]-}f&I^ity/t$6$o$j^]$O^{$E^)#[/B^o4a-W$K/&7}]o[={=&F#($9^&*g$a%0)n^'/Z$paZcq4a#+]As8&H<[$Z^]$4^h/')E$'/F^R^&/R^#!7%E)0^a$')u%F=D=M#*^P=t^m>(^9/l;^*.)O&.Xa$0)2^^*P<GaG#&G0)n^h&h&}a'/Z7ZsGa+4f=h^#^w)T<//{X 9}af0k9,9N0$-Da'b2~ 9ls*bA<#^r;g^'/-[a$Ea#>^=#>'; [*^ /G#2ac=r; [|bP2w<x797,}k4 Au%A=(^}6-/B$h/+^j^W'2$>[g^5^7$(& ^f^.$P=x^*^p$;^-/9^&/c'X^P<H9b$*^b$==a$]$4^E=d$!/&^^*X^d'u%E=7%5^x^5(8'E=OtW/Z^(/G#F)G#u%(^*/S*X9O^b^Z]k=7$V=s^V=#Bi) /7%X99/E'O&2$)/X^l>Q^7$e^19'$a$1^o$>'#/u%.$+^y<z$v&~/F<!^7%1/!^)^Z]g$7=&*{^5$ a#/u$=^R#w)X^a$F<`^d')5-/l98'a$h$@[M#1^s^B$ /&/0,!/Q#j^o$z$F=n9t^ /&*Z^-'&*&*s^R^~^l>=^J'9^P=:/%'m^0^!^m> ^g$d'4^a^M#S)S*D=P<'$T'~{M)C<e>l#&/($]$($d>O#=^i)s^9^g^T^4^Q^*/Q^M#x^%'D^J[y^~^1/.^i94[+];'[/##T7=^(^M#]7P$n$`^O#7$J^C^L#]^O#Q^7$5/P2.#=7y~c%w&|;[69^&#h$:/;^8'(^7$Z8D^C/.$($V=![T{]^{^k)c'Z^F&:b]XK$P=X*|&V<F)//P=v=O&-'r;}*P<^*+[h'v=a$)/z&y91/~,PyS*v=w8f0%^&$z5x[i)#/2(f2",
"GaN^,^R#T~V@(a#/l>L&-'R<n!4^x]C~h'k)n&P<i=^*8/E=<&1^W]F)h'J'3/9/&[u%[*+[[/_vC<Z^x^J[u)A/|,G5G3h$.$B7b51/O#]7&^($.$h/m>l80'&#=(YEi3b#n>,3m5c{O<1/&$;/E#[/9$[^6^4/X^x^1^-4C/6s|*v4s/k/w<%]BE;&9$y~>'t$1^y<)^R*4/^$D}`~D/77f]v2-&a%4^#/t$#/ /+^7%N<O&[^%'m>N& [9^4^Z]%'**[^w)7%a$X*P<X^2^W'g&3e&/'$V=e^K04/m>9'L&!/S){,q^g8//-/|&7/d'@-+4M<P<*^]9Z^T^+[z=0^;/^/h^qcJ0[a,[>[O^wa /L&7%#>`0r;P=~^m>**e/W<G#!/7%@a~9L#d9/*r[u{W7;$')e]A}9^u$_^F*[^~/2%~$T=P<`^-/`^0)b$D$ ^~^-/%'W94^&*[^Z)d'!/k=V=[^P=*/V=)^t$9^D= ^n9t^k=P</&x^C8^*K0%'8'[^h'8% ^2$^*7%Z^F)!/t^1/#/f^8'P<t=%'&*'/{9a^Z^#/R#z$<=*^R#N&o$J[g^&[($%'a$B$D=*^&*i=o$t^.^t^P<+^&%Z^X^i)g^%'9/)^9^j):/|,R^9^M^w)4^X^G#o$#/{/D=|&n^`]H<0,Z]!/=^N<X8~^O^@/t^]$F=Q^:/{/`]z$5(4^&*T^z$t=a^2bD-w)~^4^%'j)e/c'h/D88%+^Z^t$q99$H<o/P<^*;^~^5$Z^f^!/Ra6^;^.$O&s{;c){W& ^o$d>o$g^Q#b$x^C^0^(^%88%%$u$2^($o$o$]/8%J^u%4^Q#`]p2k/R9o/b6Z-l>V^E#;^J^g^#80$1^[^8%h$7$D^t$U$a$H2I/W$n!n>(9r};$]7q'8'Q^[^{$G8M#E#1/I^;^ya8&S{A{g$K&k)f/`]b&C9^X6$K<k9>&49)8O^`]Z]}*2$B$Y]G#R*M^='W]d^+ac$^8#d1!J#I!|&m^;^m>P=u%*6z6w)[/R#E[",
"vqw)f^G#`~XrF)C*2$u%t=i=a'%$E#@-s^w)w=g8>;U=&* ^S*V&Jb]^'/R^v*a$W]V&#^P]<&]$S}Z%)^2$99W'2$)^k{(3#>G#Q#3^n!9$]7!/.}9'#/C^#/a^U$p'RA^0p!z4##;]`~k=V^s^S#+&9$h$)^P$-^o$9$-#.4s^8'm;F/c)E/}]^{q[Z=gAQ^t^7%D7#/ ^B^s^](4w20W7p'L57>F),^m^:/a^($r0M$ / /k)P=u%k).$E)G#v=&*0^N<g^X^V=Q^d')^%$C^>/#/P<2$f=0,G##^d'}6N<k^A<R^O0//K09^t0O=X8,eP=m>a$.)8/O07%Q<8'G#w)Y0-/ [}6R*!/{/@-P<P]m>ka~;9/Z<2^'/e/u%l^N&0^}6q^Q<T^2$ZbD2t5%%F#h/Van}O#~^S^Q#9/*^!/C^w)M<8%o$Z)f0o$shV=u))^*^d$%)a$2$G#x^')^*<^M#)^*^!/o$6^a$D=*^4^>[P]D=V=J'!/Q^E)a^e^A<7%J-#/^*D=]$[$V0P=e*a^A=g^`^Z^}6D=d'2$5$W'%'t^a$m^D=-/}6k)u$**x^V=1^o$x^Z^a$H8e&W]]$a$ }4^J~t^'$Z)**!/0,7%4^7^&$2^L&t=@/%$b$W'~^**J'i)&*i=7$Q^~$A^L&d>v=y~sh4^M#&*{/Q^u%7%o$.$&*h^4^J^3^1/t$]$t=7%,[R#Z^t$J'Z^R^%'a^g^:r%';^~^`^)/Z^#^]^2^l>d>b$!/u%w)b%o$#/C^R^F#u%^>~]](<!b&#/O^7%x^8%1/k^0^M#D-n^!^f$7%l>0^=^M^h$/*R^g^0/($f0p2([v/[/0':-l>#/&#)^n$9^K$<$D$4/%$g#6$L#8%^%9/ >n!9%@(P%c*z!:/C^h$8'%%[/y<~$1/d#)5o/g#t$a$@>b{g#'/a$S*<*F=^$/XS@G#L&-'k=L)<***X^o$v=o$p*i)|&R#P#M^*^w)J-4^_=B3x]$7pa=^//0^]$P]-'M/p]UaN0ka/4",
"wE($l>.4U~(XX*A=t^u%d>C&A[,3}7X63^E=t=<*u%p&<*S*N<**Gam>v=L&t=Q^m>7%j)a$Z<k),6}@V7P=F)!9#/8%W=&{/{%$yts^E^($[^7%1^C^-4f^g^*/h/6$]%+gd3{7x]C/Y3}>x^+%s9g$4^{/[$h$8'($_8B$x^y/:/M#%;@#x)*7J5[]t3 *|^[^-49^S#A^9$-[a^[Ekg45](##c)f9N0J'Z)^98/C^t^`]Z]g^P=J~,[]$G#hkh^;^';]$ [j)r^5$)/X9Q^G#r^u%Z^d't^'/&^Z<t=&*%'2$8%P]t=-/+[X8Q<m>^*-[)/a$P<f^P=}6A<|,'/g&r;:7Z^A=k)$-,;N<^9m>G#f^*^,[-'9^i=X^ [k)O=)/99:7`]|&@/X0>}`%9'b)M)tm1|x7E*f^I^2$a*2$t$t^x^.^-'t^%'$/#/9$)^t^A0{/P]f^d^a$<*P]9^o$[^o$t^#/M#u%d'm'Z]G#t^R^-^o$ /`]R#!5R^ ^Z)X^!/x^x^h/=^k)**X^R^2$t^m's^V=R#V=1$|$u%9/>[%',>8&3^4^5^**+^u%&*9^7%d'u%&^3^ ^-'&*e&u%9^)^t^`^,[7$o$W]>[^*7%Q^7$R^h/l^N<g^w)=^O^m^8%^*w)B$l>**%'n^8%V=-4|&R^^*H94^X^Z^=^a^&^9^P=Q^M#R^G#]$#^d$;^q'7%w)8'd'Z)x^t$-'n^>[a^W]%'x^J' =5$Z^`]4^s%t^X^j^X^!^F^#/t^o$&*1^w^/%k*d3x6Q{g>a^6$d>u$t^E$a^q'v$L&!37%@8g^Z^P=a^x^=/#BJ[l#d$)/t[w<Y'+%@#!',*S)Q^5$D$M#Q^($7%,/)^x]G#&$#8D^X^Q~P9D5o! %2=@*V$d>1!s^L#@8s^:/'$.$F#[/Q#8%2ag{-as/e^w$O&)^`]^y_X<0F)**k)N&+ab$o&)^O&w)Z)F)^=2$!/F^R*|&O0K=%'v=W&s3;^a'Yyf=v=8/V&G#A^m])7 7Q/j)H'",
"-WR#+^E^@>4!d*v*^>i)(,,;@y3zl#P*2$'/P#k)T^'/J'M<9/t^*^X^P]u%M^l>c=&*^=R*J9w):$ /:XMDu)~$*^c${7l;^0J{8/1^<^[/3^Q^h/&*m^1!=^!$M#9^&/S@s1d8D/y< %$]E[ ^Q#[/1/[$n^Q#d$4^4^R^)^2^]^X^#$'-Z$K/Y/~,U{U4r;B$}6{7Z]($ /K$!5&*~%H775X/M5a#k2|7-'q9R^z$** /4^o$ [Q^|/^*R^ ^Z^')]$~^[^&^z$O&.$a$*^&*H8'/%'V=W'4^//&*~^S&^9#bP=w);[w^l^)/^9>[[^w^ =:7=^ ^d$|&o$P<P=X^2^(&,[O= bf&V=;/h'l>P=-/p&F)P=L#b$}6V=t^//~92*m':}r;]^v2B5~${$w/+#JED/+a&*a^]$9^J^D=V= /B$D=]${$==Z^.^~$,=K)&*7%S*+4m>'/]$&*D$)^|,T^P]9/:7Z^4^u%W/w)~9P<%'R^ ^w^2(&/7$}6-/a$t^v=5$Z]F)p*x^k^J^D=i)f^V===G#X^2$w)P<D=z$$-}6t$,^`^Z)G#%'Q^&*x^!/d'T^t^;^%'a^a$'/X^&*Q^Z^k^4$m*3^*^7%D$P<J'//2$:$49g^x^q^f^9'R*f$`^%^P<G#1&d>%$#^{/a%e^M#+^w$G#5$h/F){$*^d>o$d'f^;/a^~/t$m4&*x^D-8%]$-'O02^&*a$~^o$/&(^t^*^`^~^d'!/0${/n/%'A^{${$e^*^4^~^a$o$.$t^o$S*b{}^:4r;:$2^P<&*C$8%|&.$J[b$./9$d$*^[^G#)^|^7$[/2$&^,[2>h6j/##o5|;H*jsq'Y'1^9$(^[^7%N/8'<^($$8.$g$9/U[V%K/M/+%C~[&~$E$]^,/~/B$l#L#p^Q^g$8';^g^J<J)<!@a ^c=L&&[ =,#<X[X>&d'P6X*<=|&@^%)%']}1&z$d'D=@/A=`]R^1&R^J<L&&^t&.{&*q#!e]/juu)C*!/{/q#%6C^s^h'S3",
"^3g^E)y~=}Z}l>t-P]u^M^f*9sn/!^*)9^w)E$<&J'M<C'p$**c$i)h/D=Z)|&n^k=v=x^4^u)+aF)5a9^}Xp42$_/-'K7B$=&H{T~0/,^f$D#Q#j^7$&#3^7%7$B^2^!^g^i$K1d3w%C/]7l]Q{k=j^8'r$|#%$M^#/a^Z]@8]7%5A^u%A/%;D/s/M/e].>y[w)g^z$8'd>%'9^t$`^&^M/|Xm[[/o/W5!{u2QwJ<X8k)o$&*Z)S*b$$-,[|&9/t^i)X^Z^7%8/w)F^E)k)q9-*R#`]:7z$w)(^a$e^%/'/7%i)0/^>[6**X*'&k)*^R*ki('{, =R*<&L&R<;[(fT^^9E$P=,92^P=~^k)T^$-`]s^Z)G#q9P]W'=^9/J[{/}*F<h0)/M4G]9'E8r%-4}(B11Xd'(/&/S*.$(${^8'D=Z)o$($V^%'o$*^&*G#9/G#!^T*J'd$&[k)ys/%9/7$.$G#x^M#M#m^4^4^ ^ ^Z))^V=*^1^W9b$E$j)l>s^Z)&*M#R#-'1&t^{&7$7$+^Z^3/a$t=D=w)Q^M^D=*^P=%'Z]|$9^`]K)(^k^P]A^j))/A^Z]P=^*P<n$u%X^9$E$.$V=x^#/~^*/P<_/X^g^a^n^4^X^1/')~99^1^r;J^a^Z)[^F=r$-4R#0,9$9^2$Q<j)^*Z^m^D=&*0/o$P=`^`]O^s^S#!/K)7%u%h/&$.4&^F=h/U$*^i)$-)^A<%'J-s^|^Z]M#w)%'b$H8y~8/'$5$~^6$d'b%d^!/J^4^N<!^5*`~T@T~@-]$l>q'!^L#%$n^4^]^8%Y7%$G#7$#9s^p$n^.$F)D$;[>}u5P%,)Y/|;P<C/;^C^,/d2a^x7K$(^o$s%*^V^-#X%kap2,)W@v$Y'3-N&(^[^A^t$t$D$G8D#v$b%E#8%.$*%~^c{[]t^L^A=v&P]V^o%v U#V0D=}&&^F)&*}6<&Z)>[';&*V=t^&*0,R^Q&8%G#t^F^V=R^u&331!Ku2XC'}6X^,[2*Ra4}x5&/1/R*f2",
"wEy^n9d2X[&ur*d'^>K&l>7&Ad4/]^.)~^d^-'F*a$&aC&l>|&-'X*Z] /u)&*^*%)P=#/P=a$r*e/~^w)4^AgV%r;$-O&V=%8L&`6s{x9&$($C/#>~/*%.^#/-#*/&$r%g^O#J#||h3M/+&p'~]f2|!I^O#H<7${$//1^h/g^{$F#z$W@4/J^g);Mj//(p5o[A{r;<$!$2%~/9$#/4^;/5$F#3XN7d#.7p!U{3} >D9H~j>U~*4R{Z~k3P~m[J]B8,{F'_0<!j>L]m[L]I]b}|{V46[G]u3%})Gf2y[$'45L2A{,{R{H'V75{h3V~f2B]h9U[3)}>33[5Q~`~U3H'[5&}92V~y9H'E]b}={Q{,{F]B8o;G]22j>c{u3M4R{]{H'u2u2N2C{F#{7O#b)(0xx'^W'a^{/T^B$g^Q^t^J^8'H)2^J=J'2^-4S*!/!5';F=P<M#%'^*x^k)x^k^2$~/&*9^4^X9X^R^#^n9!/X^i)>[Z)V=t^F=F)+^B7d>Z^>[^*D=Z^5$e&w$Z]e/5(T^Z)Q#*^Z^N<k)%'a$u%&*d't=8')^k)f0~$!/D=M<-'d$P=*^<*{/a^]$D=.$g*|& /u%D-n^;^;^Z8I)8'O^M^V^a^+^a$2$ /g#t^>[Z]/%+4i)e^Z^E#X^F^w)Z]($e&t^i)J[%'f^&^Z^G#s^{^7$w)Q#2ao$]$./>'u^Z^.^h^l>%'i)[^z$&^n9K&f^#/l>[^.$7%7$-/-/L#O^h/u%M^f^5$f$t^a^~^l>7$&*=^f/Q*A{I/]TH=#/u%E$(^L#4/)^-/O#n/8%]$t$I^J'9$%%0,t^** /4>,)*%M/,)V&/*+(&*M~g^g$E#B^d>-/O#;^h$`^B^P$S&r[e69%)!O#_=s&]$H8M#'$1^9$]$(^1/8'j^n9jsc%%;h5{{M#Z]z-D==&&^]#4X~#,[T*D-1&F)2$%'w);^)/e&D-,>'$.^>&G#W^Z^k=V=//o$d$o$c&JG://(]|a$*^%'J~k9u$V5S9+[x^<&j3",
"Rc)5a^O^1{EB1&_>v*7=2$)*}7)^A^Z=R^a$8/&*(,)/&^e^W9*^-'d$!/E=G#R#G##/R#:7}6E$p$F)7$9/b$(+.{kaW'X*O=3/d*@>t6&[b5x^S#$$A^S#:/6$d>{/(^h$a^:/]%5Xb38^!^8[O{H'9/A#8%;^4^f^C^(^K$5$d>Q^*^1/t$r${;M/|#L%]7B{V3k*d>D$&*M<9^a^f^'$=/C/6X=(*7f] %Y@|#o5T5Z'n5j]v5B5k]n5~3B5E5F5t5$5)])4C{18t]u7M9<<q]m]v5K9B5u5k/c),)V5EdV6*T)!z5R/](!r,)M/x){xCd#7X5%6K60'M5W5+70'*TM/.7Ed<<k4@y3{s/B5A[B57X8X!4V62]([f],5B5G5,7}^+(1![/{9.4=(9Xr%p$C8 /g^x^V=&*u%)^*^Z^D=S#2$.^2$<$D-a^1^&^5$($o$O=,>#!g^W/8%C^&*G#u%7%f$.^G#H8C^//-#[^2$J'+[P<**B=a$u$B$&*a$X^x^t=J-d$M#L#($+^!5#/l>o$dN]}C8M#B$F)x^t^3^d>Z^b$Z^d>7$z$J'[^Z]7%^*Z)}6g^E)u%7%7%D-2&D-s$($l>4^d'a^w$~^8%D=Z8q'q9W't$#!E=w)2^X9%'z$V=G#***^l>w)8%)^d'w)J'd$-/x^7$Z]d$&$w)($ ^Q#f^!^&#I<&#$0A^4^P<a^)^k)i)%%a$F= ^P<E=4^%'L&-/7$u%*^#/3/{$G#Z^B$#/A$6^m^#>*^M^&*M#7%**&'<2-3J&a^t$;^9^t$a^o$[/4^T^7$#9Z]4^%$ ^E#+%(/&[>}+6K/v/F/ ;y&{e7%[6O#E^7%9$O#398%>/($($:/e%Q<4>C{*7%7d#j=>[x]g$]$!^[^E#4^U$F#g$)50$y<B^K&70d49$G#^&!9N&-'=(p,q#X*-'>&X^P]e&Q^)/W]N&j)`]J[/&X^#^&*// =~^X*M#W'~9t=W]H=S3,8']HER*2$|&E=;/)^4}>C]9]^J<1[",
":a<^t$29*}Guw^P]**A^>;0/G'{%F8h) /^=9/k9h']&A^X^G#t^t^i)&^i)`]2$P<d'G#`]t=2*w)_rQ&i)-/3/-1^0q^#^|&R^@8O&^4Y{`]-$%88%)$A^D$L#s^8'g$h$8%{$7%]%WAC<F#r$9'a,y{J'9$:/!$I^E$t$8%h$9$6$y<%/.$s^I^n7oi+&k]R/)]%dx&#$ ^]^d>!/(^-'4$W^b)pyTvg2,30'{%F#S%t#D#l41!+%S%n!1!G6([K/$$z5Y'z<$7)$##1!M/n>O/*%K/3{[/1/C%0$z4%%.#&#J^[/4^$$.7]7*74%%%y/{e)$9'(^4/n90X|^)#y/x]M)B^[/G/I/]7:/v7y~9'q/O#4/u#v$'!b,z#p'5/.7K$Y'.7O^%$([*7s1d#!/!/D=&^L#>[+^#>t^&/Q<x^Z)*^t^P<R^^*o$P=!/<&7$a^$-&^//j)P^F=Z)a^m^#9o$8'Z^>[>[h$#/]$u%R#d>#>X8X^&*R^#/7$|$#/2$#/)/;9P<P]~/==G#Q^t^M^g&Z]d'P=2$>;4^q'>[t$M#e/N<Q#Z]w)>[Z]D=R# ^%'R^X*{/P<!^[^#/4^&*5$>^P<Q#X^>/S#2^9'o$2$l>4/D$#/X^`]&*2$a$**M^o$7/^9a$=^%),>J't^i)t^!/e%]$.$.$b$X8R^ ^J'*^**4^u$[^>[5^t$t$O#C='/*/)^8^x^D=D-P]x^t^;^Q^ ^g^-#D$7$9$#/o$g^X^t^ /!/y/8' /{/N<4^M#t^k=82T~kDC]:'u%8'2^8'W]2^r$.$=^d>D$t$V='/U$!5[^P<x^T2q5j/b7~,'&y&x^:$J^4/b,#$8'!/D$b%E#u$a^J^[^h&v2j/z#6$z%[&t^E#C/s^Q#g^y<9^!5[/&$y<a^o/&$,[@>K~x^E=F)o$C&p;*4m({%I=^>`0-*e&*^='&*V=]$d>*^h^&%*^D=b%J[)5a^W'R##9/*|$N&~^3*W2(^|#w!^=w)-'9^e^5$q#S5`u9^#984",
"F~7$h$S)4{7;**h'Ba8/7=Q<w/4%'^);Z) ^q*^>~^&45$z$9^&*D=7%]$|&X^!/G#';J'==~/C'd>^>i)A^&[M^E#aX~0o4P</&L&1uy=`~Q{B&Q#F#1^Q^I/d>l#M#s^x0<^4^[^[$V/bXdDp'O#'^;{:]`]d>2/~$g^M#[$&#M#6$Z]:/3^s^J^D$[;<#z#T@%u+]>}{&C7M~7$g^%'7$&^M#J^s^6$#_A}V%cX43=}q{e3<4B]h5:b>(.{y{qi40J)!['4v{S{ 3_0!}p4<{X{Ixa{^(g{-}x3%4`596!}@7Z{J)%}'5L{V7[(K8G{Zc<>t4p{}]l{'8(040q5n2*(@(v{o><{30l{<{>(v4[{)7<0*3z{h]H%`3QBxs![#fy{j2T%o%4/dXy11!Q^,^>[**a$D=d'R^P<#///M^]$($a$T*&*G#q94^a$`^~$D-Q&J^c'&*j)V=5$M^o$R*7%a$4^u%&*4^')a^M#-/497%H)Z^4^L)^*[^f^D-p$d#5$D=1&|/`]d>%82$l>V=N<n^X^X^E$>;d>i)o$J[//u%D-2$C8V=7$t^-^2at$waJ^t$%'W]:/P=#^;^a$]$m**^//R^Z]f$t^^*|,{$`]8/&[d'}6~^8'~^2$Z]#^D=g^d't^g^X^!/~^o$&*.$&^{/O# [.^=^Q^)/2^Z)($#^d'}68'{$~^G#v*Q<3&u%8^P<I8Z^s9w)!/-'~^8%d'~/i^0^V=t$!^D^4^S#&*w)Z^8%D$b$q';^ /#/.^9^`7X87=J)n>T~`<%'4^t^d> /t^{$M<7$d#E)8/8%G#>[pbd$t=r[q4Q/z5U$M*C*!^b%I^A^]/X8g$[^q'J^t^9$A^8'g$F=3>&6n>c%Y/V8-&a^8'2$&%8%t$[/E#D${7[/4^0$y<f&S{2))5Z)V=s^v= /<33+g#L&A=t=>;N<Q&>;v=A=9/o$V=d'Z^K^2$)^>&]$&/F)d>Q^x^Z^x^N<-' /45r#`/R|~^<*}*c&=={^j]<<8/h$;9F3",
"Yb=^n$.4r{eX(&O&P<Q*&%h):^]7&6>bz-#^G#e*&%9/}6#/]$e& =l>y&w)W'M<W'E$ =')u^-[E)J'&/$-,[i)W'&*Y|Y/2be^V=t^~e7=g4%&%bE#y#E#Q#g$a^a/]$s^F#l>7%)5y^VeZ.Z~C/x]|# 3s]p$g$)59$($Q#F#o^;^&%j^]$M#4/g^8'('$$j#A6`@z5#}6*~/8%&$L/E# /;^q'2%{$M9+f(se@Z e fX% O+gX/@[.hXq@iX(+l1jXkXlXuCmX! nX! z,u+h<$@oXw.qC-,[ { pXqXP rX% /.O.sXe@% 1.S7^.wC#,tX' nXh+y q l+)+` ! uXmC$z>__+vXwXf.*zrX/C,.xXyXs a zXx+[ AXd_BXCXS+DXNt>[!/>;b&w)`]l>u%P<D8@ax^7%S)&*&^J<G#[^#/9$**H)Z^}6u)v=';a$!^~^E)/%i)>[&^.4X^S)2^-#($Z^v*l>Z])^S*#^ /{$Z^Z^-'t^1/j)R^^*~^)^X^7/8%%$u%//n^T*s^N<E)7%d>m>P=a$i=o$n^a^Z]t^*^r$`^Z]==5$D-W]0^m>`^t^G#p&4^u%E$Ra2*r#!*m'k9O0.$9/&*z$19 ^&*V=**2$Z]R^a$.9P=C']$8%t^T*d^ ^a$*^O#8%z< /&/$80/0^_/G#t=x^b$o$G#4^E)'b_/&*&*b$u%w^B$C^!%R*Q#b$D=T&Z]V= ^2$r$>[u$;^e&&$*/C^@/%$.^[/s^x^O^x^+^a$%'!^#/]$P]Q{t%<{/*A0Q^a^h$g^l#h$J^*^a$t^q'-4O^:/`]+[G[:{~7([$75bQ8O#Z]B^7%r#n/Q^y^M#o^:/[^8%8%&*Q<|>)!I/n!##EXf[g$r%.$7$9$h$t^Q#9$8%p']7E#u# =<{J{)^L#W]%)T*h'a0*,H#8b9/w)!/g&J[P] ^k=b$4^<*t^*)a$P]`]~^c'o$R^Z^&/O=~^D-P=a^%'6=Fs=7475tE=*)&*{/|$h/%4Z'%'B$p&E]",
"7w9/i)E#Y{vhx^x-~^v=9^+~70x]n>eq;^7=J[]$d'e/>;!/2$J[d'}*i)f0M#i)z$o&Z^A=g^X^d'R#k=&*p&)^i)R#g^`z$#~^'/&/a$X$Q&<{X3>bO#g$1^B^(^M#,^g^d>d^8'9'{$8%w4@z20C/|^K$22a,x^[/A^d$[^0^&#D88'D$&*)#4^.$y^s^}&q#V6}7R/x{U[shQ#&*)$Z^5/8%r$~/x^C^X9-/~^g8**~$R#a^D=V=i)@a'/w^+4[^G#G#~^0^*/w^~^#/:$u%~^k)i)Z<P]d'7%O=:}P6H8K&<&d^T^9/(&X^Z<v*t^ /O^t=2$+^J=+4m^j^S*5^x^O=A=W-V=A=2/X^<&5$R^b&J'j)m4W]%^9/f0Y82$f=*)R^{^`0+4)*]$($'/9/o$o$o$ ^o$7$h$1^H<o$7%w)~^~$H8Z]f^Z)[$&*w)&*l;N<w^)^ /+^d^g$S^d>!^7%~^f$W]&%x^P=9^7$u%!5-#w)e^3^9^x^x^L#f&D=9^8%)^&*Z]**{/2^8%E).$B$`]z-s^O^a$#/!/4^8%B$#^7%W]W]9,!/t^O^)5[^R^m^d$X^D-S*m'&%}*}6q97/#/G#P=|&d>o$b%E$9^ ^!/F=>^&*Z)X^D^a^i)n^t^w)&*9/8%^*#/R^t$!/~^&*i/J~5(x7R^l><^h$W=M<X^g^y~7%]^&*J^k)#^2$0^f$R^w^D$X9h$%'t^2^R^w^d>0^x^($D^n/M#b$|r!9G#9^4^%'J^#/O^ ^9^a$D$<*F=j>k/;{|&d>J^s^#/&*I^($5(O=_/[/7%{/w$X^d'={[>I/)!p#R#=*8'_/d$[^!^s^9'n9-#:/y<1/M#Q#.$R*t;g{*%+%r%m;e*y<f$A/D$F*J^8'8'!/8%2{1^7$k$l>V{:{g$E$O&D=ka ^taFXs^E=O&M#O&d'&4}6h^R#9/+^i)2$l>w)X^R*)^*)2{N&Z])^E$D=E$'$4^ ^]7/=$'u$V/!-'/d^X^u^W<b$+]m]ga~/`]GX",
"QcC/Z]9^c2n~b$^*|&w^|&z$yhZ) KP]t=G#d'S*^>l>9/#=P]S*L&2$'$^>d[ /J'f=Z]a$~^t=z-t=n^';~^m*J&'/i)!/HXd6#/j)-'a$4^(&I3#{h04%t$[^5/+48%($h/u%9$8'7$;^]/`5IXJ]z43/F/~{G{R#1/%%-#1^o/g$y<t$.$+4g^M#8%t$1^y&y{)4-7k4*]P2,[L/{/A$t^@8L#($a^R^;^j^~^X^s^n0%'**#^d'R^_/7$a^=^(^e^#/*/o$(^8^]$M#f0t^Z]d>]$}69,u$m*7%&*V=h/JbP<&*R^P<)/Z))/a$>;d>Q^*)i)2^#/[/u%/&d'K0%'2$Z)T*9/!^e>T^Q&!/T^8'Z^d^f^u%7%e&ZyJ[L)N<R#0^t^&*2^0^8%P<x^V=)^~^^*f^l>8%|rA<9/z$x^d'Z]t=N< ^=^.$-'X9d^j)#$7$&*>/1$0,'/D-A/7%P<[^u%*^]$&*-/V=9^87x^o$i)E)M#a^-/=/h$**1^Z^**r;#/G#:7D=X^//4/A<t^p$O&($z$R#`^e/8/*^**~93/t$!/O^S*#8&^E#]$&*&*4^H8t=9^V^*^w$5$M^T*($-/3/D=m>;#N&a^7%~$*)>'k)'bD=P= ^h/O0)^Z]D$;/#>Y78'w$%'I<x^#/x^M#R^//#/@/2^|,b$P<&*A^X^M^i)z<Y7)^)^#^Z]t$u)!/L&s^F^;^7%P<C/G#u$%'_/2$u#M<i)R*i)&*D-R^Z]O&|&Z^d>;^.$=/B$D$b$+^f=<4c%g{K=t^c^6^R#M~6^e%C/1/[$l^x^x^*^d't[}^eBm/y43^~- 90)0^W@z<`];^5$[/:/Q^r#3^A$&*W'C9B5o!n!]7:']&h^E#B^3^[$a^J^D#6$.$g^J^v/)#:7l{*{Q^F<#/a$L&m>-fJX4#J<P=F=j)X*M<|&>;!*y=N&t=D=m>V=w)J'#/w)*^8/G#P=z$(&8/H)1&w^a$R*}&2, ^w1J'8/!*O&8'`<4^g5N5n^x^**J{",
"h)6$H<4^k{nv7=A=%)t=k=O&9$1%I/)/p&T'T*m>L&D-8/#^9/-*)^H8R^%)l>v=!/P<W'`]!/7$e&`]p$J'%)P<R^@-/&L)>[t1Q%2bY9P<19g^*Bs{UE}&Q#g^6$%']7~$I^9^e%1!5/O^o^d>d6KXE3!%x)#7+{r]{9A$Y'2/1^K$6^[$;^ 9u%Q#9$M#/[O#*&L%w/]%^t76J3y=x]>^[^&$&*d^o$;^t$x^7%Z^8%>'49A^u$a$%'b$=/8^}6M#<^N<O^P=~^`]7$&*8''$1^&%t^ /n^D=R^x^'))^P=q'e/T*&[1&#^**0///5$**]$}6J^!9_a`]@/P=A^P]i).^%'7%-'J^-'P=|&Zs&^t=-'~/i)P=qla$i)**e/J8F=&*Z^J'd^'/F)9^o$a$<^h'a$>[u%J<R***#/Z)b$n^n^`^d'P=k)F)*^g^a$}6]$t$o${$#/N<:/+^t$o$]$3^Z]X^n$!/]$>&//o$^*{/7%e/&/%')^==[^#/t=R^I^k)L#l>_/(^G#`]Z]6^X*G#*/d$X^&^*^t$~^Z^8%s^X^-'4^d>&^.$F=b$q'2^q'G#2^2$}&2$B&)5t^d>R#,[t$Z]7$t^|&=&V=:7a$g$a$8'z$&***P]D=E$^*a^)^~$]$1(c$P<7$J^b$Z]_/&/.$A=o$w^R^2$d>>'6$R^//w^N/R*%/,Gi/.$F&S*]$2$Q^~^K&S)Q^E) /]$9^2/ /7$]^[^G#%$M#>[-^}6>[y/&*8^7%`^a$G^X8j)a^v=h)GEK6L%p*5/9/4^.$Z]h^D8s^t$t^a$Q#z<c=b3p]I/8[y#8/z&+%A^:/A^P<V=O^1^8's^E#8%g^C/J^9/G[V5;'x7LXz&E)1^9'&$7$n/~$&* %g^)5t$D$]7!%7$66i{z<8to$}*n0E*@fMXtm>&0,c'o&R&<&m>X*L&/%*)z-X*%;z$T&g/a^R^c'h^0,%;=^&[o$k=2$9/P#G#1&#/h'4xP9W'&^ )F)Z^[^($'8z~S^H82*K~",
"/T)55$q'~{YDa$1$';2$**<&Q&-/E)^*d'P<a$,[v=a^X^,[]$,&v=b$|&S*k=2^a$j)Z^k)<&q*z-6bL&X9D=v=:7.^u-e&2$}6M}r/h^:$z$k=>[k*.{tr%C1!s9u%Z^U/l#&$b%O#]^]7($#8O#_(+,s3d2c%x]|4m{R^.$;/$^9$D^}79%x^z<A^6$m^:/9^x]c!`5,39%.]X25{e&~$)^O^v$d>]$M#yt4^M^8%2$d'X^a$x^5$&*~$=/[^E$Z]g^u%^>~/7$O^{^n9h$x^')'/l>}6'$;^)^J'2^Z)g$L&&[&*t^P]~^&$0,g$Z] ^C^8%;^;^E=x^u%V=>[b$u^Q^w)**V=z-M#R^!/o$b&9^+^#/J^ =*^u%7= ^n^f^7%(^E=#/t$!/I8E)t$7%e/.$')**#/t^d^o$t$&*n$*^R#l>G#T^g^d>X*{/J^)^t^+^D-8%t$!/o$x^#/g$d>m^.$M^V0d^t^(^0^[^m^F=9$&*M#`]L&B$*^//7%$^a$a$z#5$>[Q^`^8%t^x^]$D=E#R^&*2$&[o$|&J~&[)5|&]^M^u%&*8%&*:76^N<[^m4D$P<4^>/j'l> ^%)E=9^X^J~e^;^#/~$q'Q^!/(/A^d'|^Z^%'f^&^P<]$(^:/&*p$9$h/s^P=n/7%t$*^F=0^`]g^k)E^M#f^h$D=a^=^0^4^t^J=9^5(*^]/ ^X*2/&^p^R^8^&*Q#A$@/<$S#g^#$[^h$Q^Q^d'w)]$8%[^!/g^`^d$X^l^S<M^7%8'*)o[<]n!1!f^m^T<u%w);^a$&*~/8%S^;/*^%;g2V{js*%;c9,Gs[$[/!/g#A<d>S#7$D$h$l#:/]72{;^v=p2z5w7W@9$Z-p$Z]]^($J^8%8%[/6$s^]7K$[/b#U$$-H%#]C^/*L&*)K&/*]0NX0$u)e/R#O=F=d'h/K&J<19D-]&//z-P=P=/&N&R^*^P]D=#/N-a$5$T^J'a$H)2$e*Q&P]a^o$R#i=i)|&F&k=k)e&o[u]~/!/h^b9",
"xcD^2a>^<4k}FEp$O0%)u%b$X*A=k=B=1&i=R^P=^*c'L),9z-Z]D=o$c'w)|,S*E&a$d'A=u%k)Z)p*}&]$P<R*|&d'Z^Z)L&J9t^,F2#**v<`]Q<!/F&b3m3 =O#d#{7]/[^9$d>u#%$g^4^L#9$$$![OX!f87z^1!b{D4_/r#.$L#)5[^([8'.$]7)#d$E#%8C$n/(*q#H/+(##H%F3Z]_/.$Z][$[^#$!^%$9$u%[^d'*^as-/M<t^g$y^n$(^($:/D=j^w)&*`^M^G#.$k^M#a^M#t$&^~^N<Z^>[A=u^#/v=*^Q^o$M#~$&*X^]$+^u%E)u%]7-/G#E#;^>[f0**7%4^t=O=o$k9&*t^R*9,'/#^Z^Z^d^49a${9>[a$4^R^t^]$N/8%m>4^E# ^8%%/5ad$*/E)t$+4!/Z]Q^t^M<o^S*4^X8^^C8%5e^J'R^S^)5m^V0'/O^w)y^B$&*P]4^E#E)w)o$Z^x^4^`]a$&*8%[$o$|87%!$J[B^a$F#&%*^'/b&,^8%k)*^'/~/a^p$w$,!g$a$V=`])*'/#^!/a$X^&*R^(,m^8't$8%4^a^z$9$R#g$J[z$P=j)X^t$D=d>gEd>x^q$+^E).$u%>[&$Y7r;O=y< /J^g^2^g$($u%8'D$Z]7%B^%$J'7%Z]]^h/t^V=b,a^;^~$[^9$7$a$P<9'*^#>e&x/K$>[8^f^t$y<u%f^D=X^Z)Z]H)[/2^O^B$R^s^&[t^j)M#w)~^2%;^*^l;9/N<o/{/V^D8!/t0(4##n{w*1!>[3^7$`^Z]!/+^&$;/4^;^n0s[u{3{,7Y5v*6=8[ a.#J'{7f^[^g$4^t$L#8']7&*y^X]t;5}9%3{n!s!J^6^6$9^X8m^~/]7[/8'l#6$D$g$Z$S*g]@>8't=N<e^^>K&H6{<+%}6J<f&C&~$}[F=e&X^1&R0R#|&w)o$S*9/[^g8m4F=t=L&8/5$**I)~^c'W^F)i)8%k)0).$9^b&#^S*)5+[g/R#S^v]es0/s^J<0{",
"Ybx^D$1/44]|Q&Q0g*w))/1$%'O&D=e*&*t=f&O&R#&4j)!/Z^#9l>e&<=z-2$K&e&2$8/|&h'R*E=/&V=N&h'N<9/Z^F)**:7R#w)*^j<PX /19`]k)i) *M{`4r;C$4%L#=/O^8'0^]/%$8%{$J^.$7%+>QXg36$O#/91{N55$L/&$m^8%d>g$-4&$7$j^x]3^b%9$!^%;r%jsp#*7m]<5g{T*')'$R#L#%%');^y^~^i)Z^$-&*l>B^#$o^O^&*]$D^//S^[/M#d^D^x^//%$d>m>.$d>|^<&*^#/]$m^8/#^#9o$q't=>^Z^x^D=&*o$u%u%&/Y74^J=Z]u%>;D^A^w)2$P=O^7/D-S*%'n'&*s^J'9,n^R^7%O=:/W]>^D=#/l>i)7%<^ =b^Z^;^Z^9$G#P=*^b$d$t^K$&*~/~/9,0^W9Z^~^n/u%}*Z]R#x^o$m'G#S#u)&*t$8%9^(^4^B$6^]$&/)5Z^`]g^D$!^f^%5J'2^a^R^m^f^`]]$7$]$%'O^3/`]w$)^&*G#f^:7#>O^z$&^u%)^d$Z]-)|/8%~^&$~^>^8/($C^w)t$ 7S)D$a$u%.^P<&*($2${/o$h$H<>[;^$8C^9$h/0)99}*]$s^.$h$Z]8%($[$9^8'*^.#d$d't^)^w)F^A$9^M#*^o!#!.$t^g^1^)#g^j)r$[^$-(^x^K$2^!%m^B$j)~^d'9$;^d>j^>^L#M^-'4^C8E)j)b$~^@8 7Z]I^`^X9x^%'8/n9w$T^[^P09$E={cz2.6k/I/W);/&$%$h$#/*%d>l>9^*^.$x'<!b{Y/*7%7g/M|Q#E#2^B$3/C^g$3^o$d$o/p^S)&*a^N&E;2]$7)!m8j&t=>[a%9$.9($r$($9%g$D^d2g$D$K$e/<<  t$~^<&L&|$w))4RXXOI~/&i){^V=2aD-h'>^R*z$2$t=)/R#-'X^O&`<!/u%a%C*]}2/z-5$l>b&#>}&(,Z^c'**&^2$d>X&<&i)c'R#+^V&=/![|]:/[$N&+{",
"o639'$971{E0(&';O&A=R#t^R*v=H8D-D-D=2$d>R*L=%'G#<&x^k){^ =$0R#*))^a$d'}&4^g&X^m>T^D=k=P=//D=X*m>~^C=u0-/a$'Er%V='/o$(&m4J<A3U~(x{7j^.4C/)5B$;^j^j^t$39x^s^S<_0SX-3;^F#](TX*}P<-4t$l#.$|^b%9$8'9'1^A^[^%$s^59-'},p#4%p!5}Y{T[$$T&|&c*2$D-Z]x^O^`^4^D-e/8%w/o$1u9^~^I$.$J'x^G#&$#/{9]$9$&^T^&*#/g^o$#/z#&/)/+^,^($g$Z^F)2^P=#/i)t^i)w^D^8%1^~$g05$D-P<_/0)ssb$b&u^#=E)t^a$]}u$F=E)1/,/$/~^t^2^P=4^R^s^o$X^D=D=w)5$4^T^A^#/t$J^y~{/#/2$A<Z^]$b$[^Y7-'#/]^-$*^2$d>E)Q^k)0^8%*^y^)#[6d0G#g^W]0,X^~$G^e&l;X^%8)^G#F=G#Q^b$&$n^f$R^#$z<A${/]/x^2$O=S^f^G#&^!^T^Z]D=D=Z^a^[^l^;^R^@8o^+^!/k)&*V$t^t^9^N/g$&%Ra!5o^c'5(.$,>&*%$F^/%d[9$m^g^A^!/t$E#2$O^G#9,%'~^i)4^w)#/d${$P<C^u%C7E$u%9^[$~^,^u%E=%'j^O=X^X^%%#^~^1/K$3e[/1^]}X^5$x^q6C^sse/b%r#.4n$g$v$#/*^7%O#h$l#U$8%;^Q^4/f03^/%=^~/3^B$z$&*R^//#/P#k)8%j}4}0$R/i>UX2b*/B^C^t$g^]$r^B$:/h'Q~H{O#+8O#~9@~F/!^9'.$Ed&*{$1^~$B$.$a^z<.$9$-'H2;ck/T@{e%TO=x^lc4/[^8%b$8')50$Z]8'k0y<1#l>KuY~v7E=X*c'T^)>l5/ 7s5*}*N&k)z- /w)F)F<:[<&t^}6F&**D-P6t^c'-'8/X*7=P]a*5$3&1^p&J'D=G#!/e&k)P=X^k=#=**!/)^6^&^ ='/M#G{7X7%1/k9`~",
"(fI^{/8'k6y}**M^x'h$u)d'**b&R#h&4^|&y&Z^ /X^r;>;l;0,R^D=J=R^o$A=Q&X6h'*/h'E=#/}&M#2$P=^*9/z$)^N<d'o$a$f0,[B$!2a#0^t^G#E)]$R*j>5FGa9$4^m^4%&#o/l#4^8'@8.$x7]$8'Ix^vc{v7o!9%M{I]F=-$.#x]9$.$[/l#1/9^($P$r$4/.$%/z/9|c{B6D/4%~,34#d55@>t]{7|rQ<@^.-x'R*-5Q<ASD=D=`<Y])/rP:7F~Ba>;3&f=m>#9--J<U]@^C&g8R***ki'&X6#;mjHa`=>>%;y&v=/*/*('z=]t/-U]R*Ab/*y&z=}&q;5*=&xcosx!e>k-';k-9*g>[*G&5*K0f*k-m&r'z=k=I=|&h*|bm&U]=*4TK<(&/* =N&='%;g&,;r*xw_>C&G#I=Z<w8x'W-g>m&%;ibW0W-R<S*su7'Zb:'U'^5[*p)0D.)wEfam><&d*w^Z=#-Y]>&F)p*(&5*6*iby&Q*U'/*^5T*(&%;B&3*d*5*ib';X6;[}&%)u~r;P&>;}=k)U'L~x'8&%;X6w8.--^R<p;R&=&9/qlR<8cU'x'R&S*.-C&x'Y]T==&C&n&`=='P&`qU'm&b&m&^5;[S*7=i&u~%;9&]9{&p;<&-5Org*@-P&G#R&_aL=N&p;rAm&S&kiw~U'Aa =h&u)/*qcib}=O*R*8&%;xw^>y&v*h&%;p&^>T<h&VXu~Z=ka|&r*Y)2~K0+a@^k)a&f=8/v*f= /b}G2J5v/(8,yn/E# / 9&$9'+&=/!$g$d>F)d3YpA[E<~6t$d}D#2{a^s^;^E#;/4^)^4^($0$.$J^n$P<<5B6c%v/o/M-3&D-x7[^I^M#.$!^.}O^Q#z#I^O#]^2/D5J)9't= [(&Ot-*w<WX!#>&S*E*N&A^u-|&J'D--')/V=x^==V=^=~^t^w)W]O&w$2$W9h^p;P<>;a$z$X^-'>; =%'T^D=p&|&2$}* /7='/.^1&P]c'o[baY^E$T^XX",
"1Fu%4^3/o>'av*O=R#w)t=>&R^**N&&*ka)*b&5$R^^*)^B$w)!/X^>[z*k)D=7=%'T*u$2^Q<V&}*Jbb&Z^~/'/o$>;d't^b$oai)a$%'|&)^5g)D-'9/J<`]M$N&l2Q{k=M/r$E#.$1/1^l#9$($*^q'J^[/x]<(#1t{E#z4y/&{s{f0%$>^r/3/[/D^]^:/%$g^Q#:/9't$Q#Q%J|F/)41/T@n%([j2u{k{#{13Y=I2U4>}t[L2JGE2Y[15j}'ws[<5j}15<5E2z2G2s2AsG2 >55p2#}6[55j}F3p2p2t[z2D;z2u2O;r[|5r[>}>}p2S4j}X;G2r[D9J;4>E2G[j}>}I;YXr2O;>}G[T2G[r[D93>T2p2T2N2U24>L2p235r[p2>}8>b>55H~H;N2A2r[s[>}j}55'x4[G[G[:5r[k2u2P2p2L2r[3>2>+d4[>}z9Y[r[A2z2C2U2E;p2b>T23>p2b>b>.dt2s[J;4>H2|5={3>45|>p24[H2.dr[L2r[H;>}H2p2H;6[j}|>t[p2j}534>M;t;r[Q~U2y2JGz9>}z2M;2>r[p2r[t24>3>P2u2G[u2 >H;:2G[p2H; >D2p2r[p22>Y[4>#}t;AsG2u2O;4>z2p2}5>} >|5G[T2H;p23>G[R7t[p22>2>G[2> >G[r[p2p23>:5F;fk5[4>v2<5b>p2H245[5k2Y[z2P24>I;T2r[r2p2 >G2H;E2Asp2|>4[>}t[b32>>}[54>E2H2L2L2u2s[3[w<v/J5H%!uc0!5./$87$x^J^7%Y'9/I<R*-{`6T/=(_8o/M7]%g$L#W@!^y^+^S#o^E#6$9$r$<^g$d'G[J5]/9$C6b'2*g^'^(^Z^`^x^)^E#6$u#g^v$P$M)19+%o>$$X*_a-'R^T*{#ZX{$R*o$%'9/'bj)V=l>**A=|,,[i=a$L=k^2$c'D=i)4^F=d'<&M^/*2$'&O=2*K&D-h^-'w),=-/9,-/:7D=F)(/2$/*`]P<**{/g6^7497%kaC[",
"NdJ^2$$8@>GuW'D-t=D-&[R^f&P=')D=~^P]S*{^a$7=L&2FP<g8v=Z^D=F)Z]:}u)A^&*^*V=g^t=i=+^-/)^ /E){/V=-'k)a$V=';}*P<4^3e`X76%')/d>`0`]-'44W[b&[$n8M#&$3/9$4^:/1^A49$8'~$<^@7 Y']y$1!x)~{U~&[%%:/1/a$l#9^{9x^y<t$I^4/|^s^o^]^k)#s+]70[{H5p#n5M)@(<</(<<@(d#&6S%M)r9D<T@u#X5V5y#z5D/P%4}K/J5$$A[]($$M/n>0'b5b5z#b5~%)!9%I/p#k/C6,)<2|#5}@yw/1!P%nl*TK/ %F/$7n!W@D/A[n[H5V6Q/,3d#l#.6%7z487|7d2b5d#h$/(y~C/R/y#*7.#z5,$j/8[Y/R/y4b)x<]7$7*%07([I/H5w/o5z6*7~74%*7w/E<](J5A[f],3D/n!o!n!](R/=7h%H/*7~61#kDE/p#=7)!;'](|#]%I/M5J5w]V%](Y'Y'z6IdW@M)D/uwT@,)#7+%b5o!v/K/M/H/I/y<n[4%s/]/+%n>g#r%}7b5n>%%j^c%n>o/&#C/b5n! %F/6$M)b5d#M)o!Y'[/p'-7c%y4p'snb,0X1!1#o/M/b%x0G/Q/Q/9%<2j/([R/}^;'$$$7O#M/*%0'0'z#&6S%*%T@y/,)x/$7&#D^x]j/#7l/I^y<$7b)y<y/1/~7b5E/Os]71!@(,3.#x)$7Y'.7j^M)n!yt$$p'XE }x)]/n8G/;//8,/*%5]o^kg1^P<O#g$x^.9y/O^Q#B^C$^>034{;'x7{7~tN}$$D^j^!^u%4([/b%Q#9'Q#[^A$4/l#!8>}k]j#1!'^c*k^]^A/i)n/F$J^%'u%O#h${/y^0$!$u$$7T~9% =Y8v=O&,=F/.Yn9 =/*t^|&9/V=_/a$9/J[/&G##/5$u%e&t$a$N&P<6/u%d'}* /Y9b$4^9/A=E=)>h&z-X*a$a$R*/&z$&*t^J')^`]V=e*Z^F)B$1]N5=^4^S*h4",
"r*]$n/$DG{Z!_/*!(&F=P<2$e&X*c'w)#/i)Z^V=%''/Y9V=/bP<a$m>&*,[u)9/h'd'A=2$1&l>p&2*a$d'a$S*R^t=F=F={^[^4^==|$Q^q6P]X^uX~Pl9J=%)d$8^ =[{H'kiF$y<]7o/g$A$x7&%t$&$K$&%I<|#y{a1.{y/v/;/{{F]('g#+%A$S#J^.$E#E#!%A$Z]6^c%x9@8.$E%@*m}~|>8vhAuw*7'_-Z!5t5th;F!|;a~#A^;Iue-!;f'r'A-d-k~4!6=l-y!g~.~l!X!4;)'+~8;j!jjr~Q8!~nv|;H=Gb;-+YjS9;]|j;ixb~,~g~9;zDQ8kwP[};eT$>jxq8@Y5~:G+3ZB%|jSsi#Y+||'v}$YkuYDAwZ!GsUw%Y&YA!8!/-Z!_w$cj~NwwDjSv}{'f~zx$YeFd;'~)3e~*5k~X!ZBd!r!k-@*v!T!Aw`!Juj~+~f~ml9|HEY}$cJt8!P!/~a(.KNzjcy!;3`!h7u[EDAw;~e2#~Lr$Y7~]|T!5-l!X=n~5t]|*YH!!'zD@~3'h!6!@}H-<b=Y-Y$Y7;qza-8;$Y;~]|c-}'5t!;F!H-<6c~4-Jtb!m=Z!;YX!X!%GX!EBj~HE:GH!f~3'|~g~g!>YZulbsif~j!k!$Y!-_wzD|~}H{'j;Lr%G/~{-{'8B'~c-c-<6k;d;0F4!k!;Y,Y|~@Ysis}_w'~y!k&M[!'m;Zu/-b~6-l&~-k-Nyg-9;5*!~{=k!'Y|*b-4'f!sv/-8*M*I=~-a;@t*16*H/7%h$D^==.#C^]7|^=^Z]r*a3){j/Y'9$o/)Y3{g$0^3/s^E#x][/8'Z/a^[/s9]$[^w^p2w/.7j#j$4TB=8%1(D89^[/z#%%z#A$Z]9$y^%$:/d'>7U~$$*>';5ax'}*!Y~Y[$x-t=X]'*d>-',[2$Q^7%v=|&)^a$F=1SG#L)t$**t=R#T*c$J=#/B*v=J=D=%;j)D=D=**t^;^}*k)='}*Q*-'u)<*u$O=%'}6#$]$:]yd&/d>J<t8",
"$)A^7%:/1{+~|&9,==<&P=~^*^}&^>R*G#t=N<#/L^d'f&,*x'.);9U=B$e&P=}6k=u-a$m>'/l>J'K& ^V=X9e&z$)*p&>&F)e&g&+^7=-'#/A=2$3/z8tuE*0,T**^t^}*  Q~%;u/)${${$&*]7D$]^)#4/u%9'a/o/u}wCE%V6w/u/#]A3e*g^[^g#=$+&y<6^4^J^F#h$M~9$g$;^a^8'$$t4=8Re%(80ReZc!fQev4vv[(J)^0{Yb{Zc20p6VeB3y3Pe7s!,tu`c-3+f-3!,7070bc60q7-}Z2N3 3k3qDS{]Y]aW;p4/#TetaZ~,f!}q7v4G)I3Mu5][9Teq[q7^Yq[Tev6PDaaPDe3)G>0`;5[dD]aRCv6P3mFG)'0^(E%Te-fTep6[9[0/#X~q7p4<3-3RC)0h3q[`c^Y$Wv4v6fC.&=8/Y'8g3-}>(20p6p6Mu~0FA40Re`c^0RC(Yv4h3]am[!}v6Zc30<4;f_Yq7C3J]e3>fD%:YID<( f5060+f=fQ4!0X;Z~Z2W;.{bco3!f=8<Y,fQ4q[RC{Ym[s3~0!ft3Z{i7Ve[Y10D%}Yk3RCv6p6gb|Y0>b}k3-fWe!,`e/YZ{i7PDe30>p6p6 f<3!0ID[96wMD{Y03v6&fk3!,y3=f{Yq[!,N3FAXe,fH;Q;Re50m[+dTe]a!,5{C;#da>b}cXF;a>.dQ4o3N3H;H;1Y2Y8>3Y55 f5{)0{0<(D%4Ye3JD.&s35Y4ay3_YIx,fC<RC!,SrtuZc`ez#D^s^t^8% 9d>W]L#~/B$9$T<15a,b5$$n!P/J|&(g^~$8'4^y/O#b%K$$7~/[^B^E#B$9^G[T@j/d#F$w~5aa^7$!/9^&#D^d$g^l#:8n/K$x].$t^C/<4)4o&k)k=P=%)466Yu/-'v=&*a*H)9/m4R^9^F=V=G#9/P)K&'/<&c'P=d'L&M<//l>V=&*&*E*-'e/G=<&})f&g>9/%'`aQ&W]b&0,R^|$**E$=>V^m*#!r*#=S{.>&[w)F)+{",
"yrD^C^;/e47YP=W]Z^p;&^p*G#{/-'-[u%l>F)O&p*P%X3+5j}z2P2e{wE|=&$2$5$(/<*k^/& ='/d'd'W9A=-'-'^*a*Z]t$t=^*N&**N&D=';#/Z^==8Yr5*)W<D-C^&*f=@>v3+[(^D$i$g$7%h$L#1!u%#$-#l#h/S#;]c1 ]6${7]7K5[3K).$$7d#g^A^H/K$y<O#1/O#1!8''$g$y^g^<^-$6$a^x^=/[^f$O#)^D$J'[^t^&/a^&*8z 9-#B$g^t$X$#/O#.4.$Q#e%Z^E$y<t^d>J'I^7%t^8'7%N0f$R#J^ 9iv8%]$L#t^~/S#X^b$w$[^X^)#~^($)^&*9^8%-$!^!/~/1^D$%%J^n9D==/#/.#4^o^`]n997t^1^~9i)7$3^';(^m^($u%!^3^u%E$u%*/P]7$C^4^g^(^s^z$;0=^-^198'($D$O^1^.$(^;/4^0^~$!/6^l^1^t$$83/`^7$&*t^&%c'O#;^S#;^Z][^A$k8-4pAz<O^D$E$z<8%#/&*]^a^O^;^Q#A/E#2$R^!/a^>[w^~///P<d$L#M#r$&#)^o/9Y&%`]>[4^I^4^f^ ^7%8%7$&/u%9$5$a$&$m^L#P<==+^Z]-$J[l#I^u%1^s^7%g$1^r/E$N/(^Z]g$X9*^[/4$1^L#1^8%.9{$.9s^D$9$I<L#3/;^./m4fB8%t$h$h$Q^&*Q#d$j8&%8%a^l#N/a^D$(^4^A^z$u0s^d$1/4^y~0)C/g$f#g^;^(^!^j^B$1/y<4/g$M^P$o$R#(^0)l#h$h&j3b{)!o!l4=%R}o[B$&/g/.$`]B$!/:/q'J^E#]7(^D$Z]H2y~K$|7)#(*R*3/7%7$<$Q#D$3^g$x^]7O#t$O#D$.-M)r{R/t&ByT&L&8/3#0Yc0ua]=a$*^x^d'**!/-'#/t=w) =!/D-*^o$**p$T*i)~$2$A=-/l9k=V=(,@*}^H24[r[z3m3g5j&JbF)'/E)|&1&D=&*l>`]p$Z]'/>&X^<>t] /g^-'qa",
"F~x^7$ }2)4!~^$0d'**>;e*:7k)i)}&d>i)+B]/E233a3!]|]%4 {C[j}j>*-J^D-O&)^9/<*T^p$T*r;!/t^A<&*-'>;d'**)^>;b$R*k=P<o$d'_^-'R^~sn>7=}6`]>^S^^*T{F3(&j^4^L/y<B^:/[/P$k^($&#8%x]@8v6-z30E8y<6$y{#}Q&1^O^6^j^.$[$ 8_8G/($[^;^x]!^D^C^9'h$B^A^[6D^'!d#6^I^A^)^7$J^5(x^n/$8l#1/8%b%!/!^b$S#&*;/9'P^G/d'o4O^&^($O^a^@84^S*Z^Z]Pq9'r%8'.$W/,9($F#)^&/|/8%(^g$!/9$C^t$a^x^l#!/4^7$A${^8%t^;^L#u/@8y^l>y~V=J^S<5$)5~$b%9$8%)^P$#/3/8%!^>^;^|/;^a^u%g$g^n>3^1/x^r$n$4/0^{eO^&# ^.$y^:/N<p9C/l#9$1/l#{7g$M#8%o^a^h$1/8'x]4^f#o$9^J^f^&*&$]7E))^%$)^9$D$Z][/[^w)`]j^b$N<j^aY2^u%J^Q^o^6$2^4/h$8'Z^!^9$8%6^:/J^&#V=~/9^[/f^y/a^!^>[D^t$&*G^I^1^#/C^g^9^M#u%M#(/F#)^6^&$,^Z]g^.$t^[^b%&*D^($')m^ /+^C$B$~$;^x^a/{$~*h'}6#$9^/8[$E$'/D89$&#i)#/M#E#>^Q#G#1^>'r$A<~$B$&#P8u%}6d>-#t^R^s^;^]^($:^&*(^4^g$g$]7b%8%t$%5!9[^u%]$B$B^t$(^($[^g$g$h&H2-]k/d%77V%kg<#[^g$B^,/Y'2^L/1/7%t$w/g^9'k$V=z2.79%Z/C/r&-'~/8']$7$$$&$&#.^x<E$0$.$A^F#)))!%{~,a*[^R##^Bxj%bY{&d^J<X*J'h&**o$t^O&G#*)I)R^N&**P]E=T*2/R*B$N&k)S^ =e^[^**X&@(4>h4u{){N5b{|{I]G[1!:;+^-'<*R^&*&^B=G#k=V=+^k)**70[>|r9$F&cY",
"e7]$>^G/G]9z]9z-P<e&n'/&K&h&R^.),&(,.$[3l{vyX~:{86u5F'){a]h{u2''F)t^*)T^c'l;^*Z^D'k)Z^V=(,>;k=F)*^2$R^Z^J'[*E)F=Z]J~e/ [ =dYvs&) /`^|/;^b$~5U4n&y$!%a^:/X%o$ /7$y^-$q'j^f#)5:bLv<3jsB^ 8t]*}^*87;^J^r$m^t$O#r#x^1^M#6$4/,^~$|%B^B^#8%$s9)#N/J^]7[^U$f^-4Vv{$'^%%M^;^7$9']^%$@8,/4^J^n91^q'K$d>-#-'a$u$I^~^A$t$2^n^>^K$g$i)Z]=^,/x7t^{$'$1/D=j^J=1^9^4^d2^^%'-/4^S#g^=^r$8%#/d>3/!$&*~$s^:/u%$8Q^[^h/($B^t${$a$J^&/_/J=&*n$h$X^=/I^7%0^b%D$a^*/8%[^.4J^>'F$)5L/L#[^ /o^D^]^%/D$m^*%c^m4o^#>4^1^)^8%($g^D^2%s^B$t$d>.$&*b57%H/D-)54^&$d>y<d>9^u%M#j^t$Z^n^_/_/8%4^M#x]4/!^t$o$[$9$1^3^9$M#f^]$8/a%*/($M#9^%$[/zwt$d$o$8'd>l#8%Z^t^t$1^t$==.$M#7%%'&%y<O#=/!$y~_e;^F=*^Z]4^o^u%8/:}m*]$k={9H8a^P<8%M^9,x^9^o^#/g$l#t$[^]/O#@8.$U$ aj^D$4^h//&&$s^!/~$6^a^Z/h/n9O^ ^r$s^3^E^~/u%t^b$1^M)B^y~A^L#D^&$M#~9h$9^u%1^#$a^i)($,>U[i]V/4%&#t#'2-(t^A$r$.4~$g^9$F$%$s/g$:/b%*^i)y2x]|#y~2{eqF)7%g^(^.$Z]:/(^4^Z/!^J^g$M^2{M<p#Jsn!p&9/d'7%D=y6eYp^0)e/L&J=W=V=!/E)2*Z^i=($o$D-4&`]L&R^a$e&F)]$|&y=o$t^R*N&$w!f93u{ ]#tG{!/_th{d]q{+964NyR#J<Z^P<~$V0d^Z^**O&V=R0v{)]|/)^B&B]",
"U][/d'Q#b{7~d>m'V=v=t^a$&^l>'/M^e*Z=AsT{1{g^r6J|d!*E$sfYq's72)u24~a$Q*e/(&|,k)M<w)%)^>J'2$**h/D=P]d'9,v=p$[*G#Z^[*R*)^d'm>]&Uup6 =F=S^n^Z)S^=8f9%;p^%%z<h^h$n/7$x^!/O#E#:/y<5/,3gY+].#,3T@z~!]{/b%(^!/r#&#t$4^U$!5D$[^%%J^z4%$u%8%[$x]9^&#-4x7r#.#[$[${7A$:$A^0$]7g^D^&%s^.$I^9'Q#[/Z^y^($4^o/($:/9't^J^A$//|79^7%g^;^.$;^8%!$[$J^J^.$9$.8g^C89^O^Q^i8g$~/6$&#M#L#o/;^h^&#{$M#;^1^E#;^b%z#-$#^L#1^O^39[$]7g^C/t^M#;^d#8'Q#G#/[]/9$D8s^1^!%0^r$//S%8%}7b%[^x^:/D^J^~/5(g^&$.$4/E$2{9$C^+^g^`^`^9^J^B^4/ /(^0^B^C^&#x^Q#>^B7!5t$./g$W]g$d>E#&*I^a^`]7%.$Z]2^,/8')^;^Q#Q^V=J^h^M#)5I^o$')'^M#7$#>#^q'.$z<m4x]Z^8'O^x^D=[/8%A^;^&*D$Z]8%[/.$($s^9$3^Q#7$.$($z#a^1^d>#/g$h$[^M^Q^1^R^8%b$_/M<;^!/1^J^!/;^P<A$&*x^&$`][/1^z<J^&$I^[^[/Z^t^y~a$(^x^t^d$Q#g$7%J^&*8%$^0$&*&$&$8'&%4/4/&*X^E#[/y/A$*%6$&$ a%$F$4^&$8%.#0^y^(&55o[[>s/V5Y'hYE%m4K$#>E#Q#.$:/g^2^~/]/8%b)P^$^k2T@)58[O^h;Z)b$E#O^u/O#L#l#I/r#d#0$.$[^4/&*o![{Y'X*M^o$,[}&9#-@z#O&**J''/G#X^^*X^x^^=>[t=S*a$$-W]V=F=V=e&L&V=V=e^G#},<&B$5*20@>[{Y=YfiYf1jYD}+Fu^H{q{X3I6V&E*'/<*E$Z^8/#/m>J'<*3&'4c]=/~/P]/4",
"fTQ#q'L#53T77$@c7=n'{&X^w^8/R*(^M-r[e{+]J8kYUrR]o]*{H~%#lY$$5]{3~{1=A$';d'D=i)G#A=d'w)p$*^V=|,i)t^i=R#r;T^v=e*c&h'u^b$D=i)l>w)-s'4**`]a$//a$1^c]H'=[;$)#o^-4u/F#,3s%E/-#5/)5Q#[$J#fs66]/Q/x]o>U7g^g$(^1!X^!^h$y^~$Q#!/C/]7P${$p^x]6$E=Q#o^g$1^{$&$$$Q#h$l#l#%%S#Q#[$:/8'x^8'1/7${7g#97&/t^t$&^A/D^I^M#a$M#3/X^X88%8%8'g$t${78'59N/!/I^~/o^t$1^x^X^.$9^E#J^Q#M#s^M#8%*^g^]79$6$x^.#h$6$[^39j^g$C^]7f^E#u%D^r%4/f^W^u%[/)5u%b)d>M~n/z<A^9$b)I^y~+4o$y/[/u%.$L#%5x^g^-4$/-#M#&*[^D$q'1u*^)5;^/[%% /g$]7!56^x^0^D^f^7$.$g^%$8'E#d>M/7%;^h$8%s^J^($d>s^3^5$2^J^M#8%)^{/;^{/+^g$<$*/Q#]$Z^[^8%g^o$G#.$x^Z^]$&$s^s^*/1/[$9$L#a^Z^1^r$~$Q#|/A$Z^e/A^J^+^D$7%+^9^b%g$[^r%G#a$p'8'Q^X8[^S#8%8%f^Z^u%x^d$!/8%Q^A^8%x^~$.^L##/t$A^;^8%*^.$J^.$9^.$5$Q##$3^r$J^7$u%7%!$u%J^;^&*-/:/g$q'8%h$'$&$K$t$4/[^o$l#r$M#D^[^y~~/u%!$u%O&t[mYF/,387$$$&L%@8z<x^M#h$n$t$Q#$$Z)s^g#I^1/%)N2;'%%/(x)9-^^B^Y''$W@y/7%6$Q#x^8'.${$'^g$5^)504Y'i)&^a$R#V=w%nY+^1&1&Z^T^/*R^E)!/&^b$>;i)^*g$+^*^**a$f0<*R*(,1*A='/q*|&Y-^>[/(3q4e3U,j2H'^{Y{Y~v2q~8~96%]|5h&a$&*D=e*u%8'|&R#_>C8//o{O5oYa^i)zn",
"02!% 9l#%}T!!8e*^=7=J'z-p*P=Z]{/a^24o>4/@~Ez&]W5)4,)M)=]l]pY^%G{J]Jtk)O&%)>&`=!/R*^*ki>[t=o$P]N&F)^*g*b$V=&*i)X^>;F=-'W'f=9/V=I=O}Z2Y81$~/*^')a%m]B8';a/z^-#4%7$q'i#%8.${7C^1!9^U$%4-s66|7O#p^'44{X^y^.$y^d$S#4%4^$/1^!/&$3/b#a^{${$7$h$o/j^H88'4/1/J^C^'!S#[$9$)#F#E^Q#l#`^8';^.$.#x^S#t$($*/g^y^i)M#M#>^.$;^o$I^f^l#8'U$t$Q#f^8%:/s^d$2^;^8%*/-4I^)5+^~9t^9^O#]^9^4^]^Q^m^t$a^7$G#2$n/M#S<4^($9^x]x^u%8'd$3^d>r#O#2^/[~/8'(^1/n/A^7%a^~/;^1^&%8'~/y/d$.4(^Z/8%4%]^h$d>A^I^l#b$t$4/9^t$!^;^D^8^M#&*~/~^9$-#d>3^O#8%[^E#7$3/o/==9$ /4%:/7$u%D^4^X^D$0/,^D=f^[/p^P#3^L#a$b%1^L#x^B$')8%3/t^[^&^u%g$9^a^3^:/g^h/9^.$&*M#u$~e4^]$#^1/7%')z$8'&*5(5^9$6^h$7$E)C^U$u%`^y^E#O^0^.$4/4^X^o^w)8%|^:/=^B$<$[^<$ ^>[u%s^Z^s^:/*/N/9$g^)5C^T^8%E#&/G#h$&%{$39&*($E#s^D$t$f^9'f^1^m^[$3^X^u%8'1/I^n9h$]7t$S#($t$|^1/8%h$4$f&2>a,t]#7o/^#^fY'A^8%ByJ^t^`^!${$[$x]8'.$v7Z^Pq#}|7m/K/2^f)m^1/E#]^h$[/.$:/]7F^g^h$x]A$A$A^]^%}.>c'Z^l>b&d^+W, 8'f&2aE*D-1&i)D=d'y&J-E$t=B&9^R*E=4^h^y=W]V=b$ki5$i)i=+^<=5$_=K4s5<3;5X;o[$$87x7p'R/z~u~|/[>']n!W=E*F=f^K&!/X]E)V=!/Z^@7r]F){/-'tS",
"(9Q#y^q'Y{~'J'k)D-v&k=P<>^R*F)*-U7n]G{jTW{b{D5p'z4,)17b5Z'{{Z}f]j/A{p&I~u)D-t=_/&*z-k)%'e^t=D-P<c&&*D=7% =t=X*2*5(b$d'D=E=-'o$t^>'/1m#@-w^194^f^l#H%I]i)8'~$X%v$4/F#m4O#g^($>^Q#x]]7 3J|1{%8y<D^6]l{~^!$b%u/7$d>Q#I$s^y^&##%4^v78'%$M#9$g$h$.#A$b%$^6$t$O#;^8%x^E#z<4/)5Z]%88%g$[/4^o^Q#4$.$t$N/{$1(A^y^Z]E$}7A$x^M#6^j#~$($9$d>n>j^D^9$L/%%y^]$4^[^8'g$D$o$&$]$%58'8'9^U$&$1$8'9$b%&$]^0^B$K$-$o/.$'^:/E']$r$)5v7f$~$M#o^x^4/l#!$z$8%:/(^'$o/L#,^B^N^:/U$97%%s/A$z<8%ya&#j^u$K$]$d$D-o^;/($.7r$P={$f$!$C/s^l#h/Z]a^L#!^t$#$1/<$h/'^A^&$G8n/M#4^V=J^g$O#8%a^[^d>($[/h$E#h/b#U$!/J^r%+^]/8']$[/4^u%F#d$#/!^a^P$N/]/#$59]^[/9^b%F#h/h$7%x^H<L#u%9^M#'$9^]$D$8%[/J^t$y^($9$8'.$8%K$2$7%9^u$2/&*q't$(^t^R^.#y^($o^C^U$3^u$!%%'a^d>d>!$v$a^U$!/a^&%.^<^u%9$g^4^~$b$!^o$g$u%;^K^59a$$8)#s^.#]7U$g$:/{e^#j^;$2/o$d#Bar[c4p!a/v7D/9|Q%4^9$E#y/M^]78's^[$~/v$y^J^A$8^W~Q/Y'<<%8a;z<.8]71/d$U$,$J^T$C/Z^9$P$s^b%&#q'j4/()*h/ =P<e^4%~ t^Wz%)D= ^-'Z]*^e&_/g^l>c'1&W/u$`]J[]$n&G#V=/*|$a$e/c'v*P]%'O<f=f2F/e&76Y5:/C/2{x7,}+%+77{*|&{k/G4^!A=H)P]*^7%u^t*a$F=w&y{X'W's^Q<L]",
"qYg$7%>/c{1'6*:7z$sh`0m>P<V=8/f!E[<],3M*o;)4Z/=7v/D/[/kcb7([rYK$n5G2|*u-!/t=-'9/D-t-|$l>{^v=w)W9|&O&%'L&X^e&V=t^R*$-D-k=G#b$9/R*%'j)38+#~^m*R#2^z$M/EuB8t^[$b%7$:/C/D^{$)51!B^y^I^[/.#+]sY^#f][6g$q{vyR*g^K$L/8z$$,3h/,/g$m^%%L#b%g$8'[$Z^K$M#F#o^z#]$9$.4O#{7g$x]L#I^f^7%*%#/9^%$.$D$N/3^l#[/y~J^;^9$O#{$F#:/]7K/n$E#B$x7 aO#;^L#w7!^[$h$Q#G^;^7$E#8%-#C^d#g^M#t$Z]|^)57%j^H8p'4^t$)9y/7$g$($[^l#.4!^%%~$q6I^!51^S# 9:/i/f$]^7$ /Q#]7C/q'D$S#8%&$($]7Q#z#3^l#b,l#4^M#~$h$S#e%:/&*1!o$f^!/J^D^M)b%O#d2{$eja^Z]&*)5.$f$g^]$!/E##$]79$h/9'9$8%Y'M#9$;^L#n9E#h$#/~/x]x^Z^a^t$k^=^g^Z]g$M#h$&*S#J^o$!/L#r#L/x^7$d>#8:/;^9'h$r$;^M#a^U#h$4/X^S#<^|&S#(^[^M#u%[^c0~/[/u%E'=^x^d>39-/s^%$.$O#9^x^Z^S#Q^>'4/o!7$g$O#[^h$7$L#)#*^9^m^:/m^d#7$Q#9$O#4^g^3/P^E#s^O#n$&*9^.$h$`^|^.4K$u%2{3/t^M~9'9'g${$E#f^[/z#>^f^8'd>:5k6*%a/l8*%=D8$C^v$M#[/I^a^;^D##/8%a^]7J^($.833,3G6q5g^U][$M#a^b5S#%$6$F#x^1/u%F#S<n/~$y/M<C[C{!*}*C'{//*]%tYuYp&B=W9D=J-d'd'R*<&8/*^{/M#{/X^k)%'G#X*o&**2$O&V&Z)Z^P<d'N&J'P]!%m]%(vYJ][^y~K$9$,3{$9'1!%%i&*7@yD]wYR^H)X^>&S*u$t^w)@^w)o%`57%&/f=y[",
"MaD$!/B7R~|;B=v*D-*^1/R*W]d'==n*%}z5g$c%N{.(y~A$m/.$1!]^g$z<]^G8w<.d4-`0X*k)v=Z)X^X^l>j)F)O=}&P]a$V=d>e&]$T^w)==)^)/o$R#w)w)/&~^)/0/'//v,xu)8%]$0)L&o/-]a]Q^)^s^I$!/[$E#9$b%y~s^!^F$K$[/[(L9t]*%y/&$q{;]B$h$r$'$H/&$!^t$8'I^g$P$Q#D$]/($7$:/!$J^A$E$I^C/8%g^&#W@{$.9h$u$h/x][^a^O#;^E#59l#m^.$M#8%%$n/2%]7M~:/Z]]^A^9$n959&$.$N/8%s^(eM#[/g^%89$J^$8s^S<Q#6$c%4^7%1^7$G#t$+^&*(^7%O#]7j^w/)#:/S#1/s^D^:/f%g^l#u%0^]7'^5$D$m^o^C$D$r^_83^t$Q#T$2%t$9$4^P^@/d$b%.4}7&$J^4%g$h$a^h/6$s^===$r$&%x]r#N/z^6^O#D^>'Z]N<%'C/eyO#U${/v/)^y~*/.$:/7%o$;^!/d>r$%8g^1^*^-/E$g$!^9$#$1^d'Vv9^B^&$D$,/E#($A^E$n$$$ZrK$7${$9$4^!/j^O#4^#^a$5$C$h/O^K$x^z^4^*^:$1^v$[/8%x^h$J^u$J^j^N/x^97-#s^4$9$L#%'.$[^Q#<^7$D$4^%8t^&$f$E#-#[$7$u#1^%8[/%8P$n/4^C/[^y<r$M#S#d$1/a%s^[$Z]==*^Z]&^E#;^.$4^y<S#(^M#+^g^!%Q#n/&$O##/>^-4Q^P2l5,3*%3/B^!-8$9$4/K$y<3e&*P<8'u%8%[/o^d2a^g^W~&#~7*7;^ka}7s^y^6$H8P^1!Z]7$'$1^C/!^s%s^d'd>g6g{L&p&F)T^T*&vxY~$E$F=9,,[^*`]R*F)^=d^Q^Z^t^p$|&b$T^t=^=O&v*P<F=!//&/&V&|9*)R#c'r;=}E{yYdYb5E^)54/C^M^1^B^*%;^)!K$C{g{'a{/A=u%T^i)l>a$&4^>o$H]N5d2O^~^H~",
"D~&$7%6$!{d!D-f&/!^*==v=2/P<`]g'd]j2*%J<%6j/F7%$1/Q#X%J^Z/O^q'k#N5E;8BN&-*%^t=T*{^T^`]Z^ /W]u^&*R#!*X^(&7=|&P<2$R#t-&4*^P=F#R^y&d'F=t=T0N}`#F<T*-'19Z^R^u{:]y~n0o=m*R#P=&/R#t^m>R^C^O#q'.#53Z}##a#;^x]w{&{M~f^C8A^7${9g$I^S#&$o/F/&#:/6$z#!%z<K$Z] ^7$[$39]^r$</'!:/D^D8w/]7l#x^'^Z]Q#g$67#$x]@(.$y/6$$$;^K$}77%;^:/')h$2%]$!$d#E#N/g$&#B$F#{$:/!%)^M/4^4^L#[^E#D$1^|^1^4^X^g$.48'p^]/.$4^p'x^q0t^y^0$.$[$p^5/.4l#s^w/F#J^{7g$h$D^l#&%o/a^L#1^b%M#7%M#Q#.#F^h/y^4%2^[/x^g#{fa^[$8'I/B^.$t$0$U$P$[/)#!%1!%%.$x]#$'^&$ #_86$u%d$b#9$;#1^y^%%s^|/ 8M#:/8z7$i/S#E=d#'$;$]76^~$C$h/v$)$w/g$4^]7s%D^F#&$X$#8!$|^E/.$z4z#E$>';^8'2^39&$h/O#r%r$E#F#!$r$g^K$h%A$.$[$.$r%4/#$a%6$9$;^z#s%4^C/8%l#!^J^1^D$*/n>o$M^y^H8x^>^#/Q#9$9^7%S%E#D$A$&$O#K/8'p^y/P$d#t$r%E#8'[/+8:/J^O#s^&$p#[/-$0$[$4/v/[/m^z/I/.$A$6$y^y/&3o[)!=7A^$$6*0$`7.9D^B^B^C$9^Q#V6b%b%;#-4)^n/L]!4j^w/g^<&O#x]o!E#h/m4q'&*t^Z) 7h'**P]p&W'n{z{%](&k)h^m>i=tmzYC%F)@-E&}62$D=2$%')^z$P=';d>g&**T^**o&v*t=y=}*B=0/K&e&*/P=b&0,l>c'J9.>w]53&5x[1^q6Qr9$[^>'D^6^A^:8J^|]+>:GR#`^Z=V=R#e*a$h&2$O&-{t]f^.^|&h4",
"0Df#d>9$~3|>7;k= =V=t^w)p&a***4=0}D5K8xcA5t$y^4/d>L/lcf^*%Id0-&#m]8>A- =9/d'k=R#F^e/j)|&R^4^W'T^E=Z)A^X^v&d'^=+!t^(&J'D-d' ^P]N&F^,>i)_/w^Vug%w^M#9^B$G#z-.7X'K{:bp66]Bwl5u}.]c)q5R/j/z4I6.}`4E^r#=(8'K/h]W~&{<{){l5g]c)O3$#g{X/+%V%<<+%A6-(|#^(}t%#([q5$$^#M/4#T@`%`@4}/(!#$5w<]%t7([l{<#@7$6)7l5y{$#@(`%AYJ#-()4#WM/c6]%']1#Kux[T@D# %q#C/([y6+]9%c%Y5~%`#P9-(5]T/,3D/T@)4B6/((#w<C/k/$6]%4}^#+]x[([j/T@^%KuZ$*%W$)4^%T@-(D/)4L%`%)4<]M/a#Y@`5`%46j$D/n%T@Q%)!@7a#z5D/BYD/Y/F#M9Y'=7M/&#y^<<@7F$Y/b,=7T@B69%E<E/W$K#n%1#W$D5n!s^$$F#|#P%D/ %6$a^4%M/##4%p^K/r%^#0$k/*%n!,3&#o/{eK/J6K$n>F#E/o/n!d#*7 %M)9$s/x7U$v/K/n>J#D^x/%$z#X%=7)#$$K/F#u#{$*7kDK/n>6$9$n!I/|^w/h%d239c%}^0$-(!%4})$=$o/O/O#l#y$y]M/o!D5([)4S%Y'[/D$K$4%g#]7nly^Y'y~K/)$A$r$<$4^m^8%~e:/P$+(C/P$l#]^4%6${%c%I/g^*%x66$##o/{%k$8[g{L{3/Jd[$D^L&9%$5n>&#b5F#X@X@ %p#p#Z$y#)!,$p!U{F/&$b,I^ aEb1ug$9'9'([n!s/%4V%46y{B8h5G5Hsa]720$P=s&w=kiI)+vCYL^$-P<t=;^d>-'9^i)C*4^b&X^P]R#D=~/==-'t-i)i=X*o&N&D-_aF=V=W]k)~^|,-)B&([R/){DYc]A^T^~$)^m4A4t^D$:/y&o!p!q{71H9@^<&p*Z^-'t=/ur*;/r2x{[^1$u)j3",
"Dx8%>&q'p!j{U~'-c'f^';2$)^K&a$d'`58[X2EYJ;o/x9s^2/.$E8I^w/R;<-##%7[{T^#/b&n&!*k)d'Y9&*)>|&t^%8e&D=d'W]7$%'t=t=9^a$M<.$Y]X^Z))/W9L&P<t$-'u)w)j&],t^L&R*f^r;b&^5N&h0Z=Ba'&^5@-%;[*O*b-e>g>;[8&I~T'M)7'T/%%g]z6D5]0([)!X'z6F/P9a'p'j/b6T@I/D5@(M/,3@(|#;'d#H/V%4%@(nl|#j/Q/P%4%$$M)T@w/H0w/n!c%M5n!,)u5J5o!0'S%M/[EM/R/M/p!;'k/o/*7##j/z5w/W@w/V%D/$5+%<<8[o/p!](%7|#([b5o/;'M/y4</5}M/z5n!*7+(J5I/[/X'b61!j/1!R/[$n!G/B5([|#k/,)%u,3Y'n!,)`2#7K/M/@(/(Q/j/T@|#|#n[F/j/k/q5l/}^V5a'6$|#o/T@I/V64%X%b54/w/|#](##b5`2M/)4](F/n>.}$$c%p!+(M/n!;'y/u7-7U$n>Q/,31!x]z41!p!I/f]F/}]M5}]*7/($5T@##$5M/Q/9%*%M)Cd@(*%T@$5b6p!<2.6;'n>G6M/o!J5U5|]*7b5K/w/b5P%)4k]a/ %W$T/M/8[a'p'=7F/|#z5O/M9T@9%.4T@x7V6M)##n!b5p'](j/M)p'y~G/j/x]`%n!4}o!o!$63{b6T9n>V%4}R/E/;'a#w/k/!7D/$$([([R/+(n>!!O/$5](,),)]%>4k]p!<<I/D5a#F5P%=7*%,)$5$7M)G/1!|#@(n!)!y4c%&#`#kDD/T@v{K$g^s^Z)&*&[-/:r@^8/i)#>I8e^|&gaN<w)&&|&rA=&2,m&%; =F)r;A==Hj(k=V&t-V=V=F)N&E=i)>[e^]$F=[^*^`]t^<&a$D-l>]&X^7=*!q*e*v=z-7% ^p&2%7%Z){$b&ba`/%|P~.$6^6^u/q^8'!/J^l#Q|z{R/_4FYC*k=g^>;-/V&I=&!&6Q~<]k/&4X^ =@0",
"p;s9yvR^*%1!$]a4e>i=w^T=N&k=)/-#Zbv/.]j]Wrk04/t^'/=/L/n/S/8~N<;{5}3;'/t=k)Q^b&}6t^**t=#/d''/2$}6,[v=r;>[n&d09^W]D=F)`]w)e*+^**F)X^R*x'e&L&k)f& ^GYyB(8i#/${/&$ ^9^4%d>O#D$x^z<d#x/z#=^y/1!j/K/C8u)0^<&K0w$C*b&z*`==>R<n& =R*F)<&r;H&C&-'g&^=)^.-}&t=r*R*n&6b_=d*{&>&)*C*d'O&b&7=X*Z<L&-'P&R*^=P*R<z-g&0,J<t=y&C&H=B=Q<m&5*N&r;1aX6 =[*k)j)3bR<p*n&W-@*C&wEg&HYN&L&_>@-g*W'r*V0k)f=R*%;k=z-Q<-'kaN&m-^>^>('V<r;+[+aka>;b*=&h*('c&)*@*O-('n&W0C=`=F~R&n&m-L*7=>&)&y&^=v*v=`<p*%;p&b&7=^*=&^>kaQ*d*Q<V&t=7=r;r*Y<[*l9R#n&k=W]2$G#R*^=suU0d*%;W0w8OaW-V&c&L=9&('g*+*)* =!*m&2,g*#=W0p&n&r;<*N&@-F)v=,e-'J<7=g&v=S&X&<*g>j).-P=X6';k)E!y&}=(&;[S==&W08&1b6*U'+=g&^6p&.- =2*-'I=R<n&n&f-;[+*i&H=g>='m&.-';(&h&=&m&u~<*';h&g&V&|b>b('n&K&2=L8h>'&R*b-P*)*N&='kiy=,;K=]*^>)*/*Z=e>9*G&t=P*x'&4N&.-L&P<('k=p*h&V=.-h),;faE-5'L~u-u~7=X6 =';b&b&z-N&[*y&^>I-)*S*A=#/A1F<P)M$m^H)t$F^o$[$rGH)a$#r6s1(7$)^t^g#&$0#|%((.foiIYb#w-(&K&R*n&I&X^e*w$J't=R^D=~^|,W'k=v=9/l;b$e&A=t^R*X*L&*^5$R*t^P<^*i)Z]}*c~H]j]V7f1W<J^X^P<_/u%q'.$G=8[z~Z/H8d^j)w)**V=ki<&t^L#rrs{n!@&s^7%v=C[",
"e7z$)^g&J<M/'yc{z{@*<& ====^|&-*JYR3G/`5%(t1t4N/G#9/2/70KYh^54~%z3$~t^|,e/2av=l>!/i)7^t=#/k)D=n'&[F=R#[^t^u-=^Z^Q&R^k)|&k)D-V=a$E) ^~$J'P=V=^>S=`@5g|+sCLYMYNYOY5<& E./@M@%<PY]_G M>+.QYRYSYK@TYR)($)/N& -W&R*/* =F)}*b&V=P=)//*P=W]@^E=u%w)V=V=O&|&9^v= =&[|&%).)`]|&9/i)t=P=:7L& =V=E*<&UC**W]i)X6&[^5R#c'8/shT*X*k=;99/E*l^K0c'@-/&-'o$`]2^**K=W]x'X*6/&*F<2$e&H8X*B$**#/e^hkR#}&^*E*R^**T*n'm*X*f=&^`]^*[*9/K0k=&^.-`]q*V=k)k)T*)/ =I~d'a$v=2*O=-'*)9/n0|&Cb!&m>e>F~a&,eh&c&9/*&a&^>N&~*f=P<N&Z^.)[*r*^=g&z=;&N&)*/*)*)*v*~^F)d'Q<h'p&^=X*.)i)P=h&k)%',9=&2F_>X^(&P]+^L=k='/r;%':7k)/&k)L)[eY9}**^P=2*X^Q&N&t^R*F)N&F){/`]V==^Z^B&(,~^>&)*P]Q***k=f& =n&c'z*p&J'J'D-y=@KR*<^d'/*Y0.-'&)/X*k)|rV-P*t=|&/*(&g*X*~;5*X6)/0=g>sd**P]P&e*d*]&r;i&/&P=P-I~c*^>W]e>O0kiu-v&V=//0/P]i)E*D-K&#/b$b&&*'/<&R#~^,>|&|&**'/<*p*^=**'/V=_>9/X^)^h'>;W]2$';p*F)v=+*R&!fLEUYVYWYXYYY^.N@> b !.4@]V6 T>ZY`Yi+P, Z.ZG>+Z@Zlz8^p*T^#92$)^0^u%|,f^**]$Z]c=K&X*w)==)^x^)5R#$--'u%p&w)P=_/B=P=E)n&%)g$P<q's$n&l{IrN{vbb=X%2bN<n^M~:/-5[a}BC(v{<v%;';%)*)**.$O&W'k2h{b666j)P<1^#9/4",
"k>7$b$`]qle&]%o/8]T~#Zu^R^~$o$H&D8$Z|5,)S9'{3E%ZR|$~fwyhx[j{R/,3&Zi)J<J'/&F=|&h&e^O&Q&V=F=2$2^R*;^N&h'1&Q&Q^T*O=z-X***{/X^i)F^T*d*^*t=P)>;A=P<g&='}*^>K&F)n&|&^=t-!*j)I~Z=v*c=^=n&n'C&N&n&L&&^d'VeC{n^8'D#1%ft9Ch#U$K/9%tm50>(*v-$@%^#=7*%J/^#D/E/![ra*ZW${#|%6wn%E%<<B64%P%<#$#a#H#^$L%`@*%46m#z#t%([b(/(>44}3^&*y/B^*7[$P%_8.%*#b(c)3#u%IDh%g$qiB%46^%y$8$5]5wh#-(@&-(^Oj%E<S%a#']1#W$U$X$J#~%O#E$2sr%C^(#|#D/9%O#]74%9%a#<0a#W@*#,3 #<<]%=7W$p^I/^En%f#-#D#x7[/c%n>&#[/v$u/r#)#<#N% %,#/YY/g61#;#([y$4$>#n/X@c%N#h%O#x^u#>#awO#R^t%_%E#b0n%1!D$v#+$V% %K/a#E/|%8'*%0#%8u%X@nlz# %x]D#^%Y@^%!#+${$P%@&`@C#D#P$F/o/b#+&_(^%1#$$U$k0P^$$N/>(B6H)80V/u/K^r$^%K/8'r%F/a#+%j#($J#)#$$)#x73/@7E/x7&#($L#r%E#F#X$;#(/h#-#y/h%c#b#9%X@F/D$W@9%9%W$'^./X@##.}<$X@4^,(S{&$([46U#U#E/]%a%u#s%9%~,J#]0)#<#v%C#E#N%Q%sGI/|(Y/1%^(!%g#d#o/u#-(^[F/a#]7t%I/`#@#D/d]D/s/n22$`)p&G#(aL=X*W9}*V&P=O=)*)^C&n'X*3&E=O&X*T^|^f=n& =w)N*R*J~E)E*h$<*==X*j)g^b&o$M^i)R^o$E=v=i)**t=}=&^G#k)F= ^K&#/$-J'e/p&T^T&8'U)%4Id!}e]KAS,>8'=)*Zfy$&{P{]%i58'!;X*D=%;F^B=N06eWSI/@( *#/l>u$B&}{",
"ro]}e/]$A^7/g^K/}7N5j>e=V=//k) [r* %=Zl2G'`/o2V4a]D{J{EuW{o5y)+/d**!P=e&}&B$R*p&Z)d^G#!*i)T*R#0,a*m'c*k=N&*)8/2$V=/*n&w))^`]Q&F==^Z)A=;9n&N&d'a$9/{^%'l>&/P]S*t^/&A=+*/&y=7=2$*)b&R#t=A=2*N&Q*z=x#R9o5r%v<X$q%k$]%S{768$`%}($6-Z8$l4(#6w*3S{l{p4o%[0;ZW;Xe5w>ZUe~PRe+W`@a0*fa>c><(Sr70Xe!#~T;(m#!0I3v4a0Pe3#Z2=H3#`e46{%e3tGOe]0,ZUeI%'Z>fdCID^yft,#+]_#3xw4P3)ZIDo%4q)0;Z!Zu}Oe'0>(JD]aHt![MD0#~ZJ)~T+]J%PeR4n%5w9#<#{Z*f.fmx,0<(FsW2!,(8}#![`#i#*#h#mxd>k#`3P/q#P%+vN%~0tu%4`cS{p6y3L;20ZcW2jDH6^%Xe*fSr2s;]UePe!fB;768#S@~%-f/YZc]#/#]Zu}Q3(8bc fv]^Z2#]0nW/Z9#t%00(Z<0'ZdD!fC<RC03p4_Z;((ZV;-f/#80G)M;.fg{:bv]x#d#i#t%^#a0J#![m#:/o%p4B%I%8T~f1#tuR;bA<0d6`3=7^$X@/0(t:Z]0,#awV%00(#o%Lsqi![5#FA[{yt8$u//(,$+#*3)0(t5]&vtm^$4xVe7s4}g$0#k#x$D/L%b%|0!#u#0$g#,0A#P9 t.#F#0$b%d#P$4%a^K$&$)*{$C#S%S@t%y^ #.$)#Z)+#Z%I%;#4$V%Xy;$X@@$U$z41^>$n#j5!$I^($@>}]<ZD-!&v*#/7=P-^='*(&R^n&)*8&,>eq-'c=a$W'X<n&t$R#7=i=X*M<%^d'5$3*v7p*T*n&V=y=W]A=7=Z]F)_>V=>[E*1&9/Jb9/w8d^g*N&**R#!9*^I~:[**O&X^A^#y%4V5_{]4>}<]n5Z2R~t54}u%JuA=eq-)E*u%E=!*S)Y=!][Ez6,;L/T*d>#//&84",
"byZ)%'L&h)R#t$w)([I/N{S3Gs-!o${&D=s-+>[Zt;%4u03z~%)!+]<#y< fs4S'k=2$X6!/z-b&k)P<**u^a$J'&^^>|&<qF=a*#/k=d^P<%'L=l>k)8/E='/Z)>&J-L8X^|,J-.$w)>;**S*w-9/#/9/l;N&Z^J<G9t=N&P=p*J'|&f=L&o$h&X*L&b&!*q{A5/(S{k*,[^*-'>[v=9/l>o$F=1(2$Z]S)h'J'r;**q*e^v=P<t=e*D&>&y=<qp&C*F=L&2$P=x^F=**R^p$S===P]K&]&m&F)A=n&v=L&5$m>**F=D=k)e/%'B&-[ =&*9/e*}*)*v*D-F)N*@cV=9/X*r;w)//-'c'P=&^P)z-v*d*;[Z^X&I&z=Q*t=R#e&C=W<-';&F)l*u^h'A=L#r*V=Z^t-Z)X^2*T*E)*^!*o$N<X^**|&u^;^!*C8==Z)K)^*v=k)h'R#(&t^(a%'C'z-%'P]<&3&A=v=X*T&D=#=g>c'a${/D=%)t--/(&//N&^*p*T*n'C8v*K&2*O&2$Q^k=D=E)^*W9,[)* =v*c'd^k=$-f=t=^>D=n&*^t=8%~^J'[,i=t-/&k=t=|&V&W9'/,&D=-'-^**e/!/i=3&V=c'k) =O&<*u~i=b*)^i)t^'/M#d'<*==a$**~^v=P<t=Q<t=';>;A=U-i=F=,;R#D=i)t=L&t*X*i=S*f^E=l>,[o&X^|&c'O&P<R*F)R*u%X* =(&P<t-)/-'V=Z)A=T^e&S*h'z*d'R^F^}*a$9^e^t=)/k^d^%^c*J=ibF=h'v*I^N&7%t$w))/|&p&1&O&R^L#!44%r!n$k=k=D=)^!*7%{&i)r*X*F)7&n&A=k=t*O&b$e&^*Q&e&;9z-/&X#**-'S*X^&*d'$-#>n'19)^t=X^V<g>w)2*R*>;O=)/j'l>l>';Qz`]o$Q&3*8/t$ =u%&*u)Z^]^{|}Zm]u5|ZQ9E{,7]^C/X;1Zu[P=,[D-5*z-b&[63[a{x6c]('=^X*2$a$//)/&A",
"1F|,R#h/_/`]w)^>)^K/n>@>qw=* =w-a*//n&~%&.8:[^t;]a<5t;P;7T2Z:$@^d>/&F^W]h',[F=P=)^-'P=L)p&G#&*Z]/&b$r*m*4^O&R#*^&a|&t^5$e/>;l>R^O&^*|&R^<&Q&}&O&D=kiY9b&g&D=7=t=D-t=u^R#D=`<g&w)B=o$k)(&b&/*=>n&<{3Zf]l{[&J-R*d*4^L)**J'r;^>L&e^k=9/N&s^-/d'==P=k)W]F)-';9r;}6/!b&~^e&t=<*r*C=t^B=p$X9w^<&B$(&L=J<F~*/F)**:7H<Q<E&D=-'3&y=[,N&e*P=P<)/R#k=W] /r^*^9/T^ =S*o$a$t^~^h'c'z$&[N&9^9/a*e&r;D-F)k)S)L=u%d*2$+[J'F=Y8E=d',>|,*/F)r;h&|&v*}*)/p$J=|&|&*^)^G97=e&d'/&9,g&]9J'f&*^`]X9='o$P<a$p&E=V=e&r;n0h&a$<&v*';C*=&@c8&Oa-*w^h't=7=l;Q&1&>;**F)a*lt9)R*(&e&v*2$N&k)y&k=/*]}R#{^v=U-K&N&^>9/@-&[Y)T*u)Q*d^w)2$C'Q*k=9^L&('c'2$R#m*Z]/&t-c'2$^*-'[,t^v=j)A= uZ)]9j'X<.)O&]$w)w&i)D-m*b&N&S*-'i=2*9/!*d^v*m^;[=={^-'D=^*9/t=0,O&1&R*1&J~-''/i=f>D=]}{^N&R^J<:7l>{^e/k=/&7^)^q9p$R*R^N&E)f&d>V=m&}&e&j)R#7=r*,&F*v=m*P]-&&4R#W^k)~^u^==%)|&F)^>`]i)w)+*&*V='bj)b#k/p'*Yv<3&|&S=t=`<>;,[A=e>A=Ga,[A=q*>;/&'/ =7=>;N&t=)*9^t=v*F=-/t=t=i)t=/&K&|&o&y=R*v*X^v=p$g8M#k)X*G#R*f&F=d^-'A=c'v= !W'u%&*5*<&R^3&$-4ZK U'+{J)d]JGt;L;5Z6Z`cS*1SW<t=f&=&N^H27Z$5,)T***,[a$Z]G# ^**C[",
"vF**X^v*F~w)<=l>!/I<z7j/  prK*v=v*!/p*C'Y]JBb$8Z9Z0ZaZbZM9J#7=e^-',[a$T^&^P*h'o$**d'S*n&&49/M^ ^t^-^E=u^M#w^5(o$d'X*@/|,F)t^**F=D=p$i=j)_/E)#/&^X^N&S*X8-'y&&^a*p$O&i=V&{^t$ ut^a*G#)^]}D= ^r*o&D/y]%7h{h):7P< [t^h^E$|$<=}6e/X^X^A^C^'/h'D=t^B&X^J'o$^=t=p*.^!8J=^*v=:7W'Vr2$>;8/0^t-t=-'';P<l>';2*P#|&&^7%/&n0J<^*D-I~P]R^'9.)V9w)V=J~,>ZrR#e^D=Q^R*f$2*==%^k)S*R#V=D-7%V=`]9/S*//i)~^F*Z)|&1aE=d>v=E*/&U-2$N*(&k=R#==qBO&R#F=F^D-Z)r;F<m'R#7/~^)^w^Z]e/w),[a$Y9t^)^m>Q&R#u^ ^==T*a$Z]{^k=T^K&e/&/&/j)p&F&G#7(**'/K<ibL)X^g&E*L&]$'&N&/&t=X6X*p*9/B&/&v=O&r;{^B=2(i)r*'9R^ =y={&==1&,[}&-&b$p***D=!8j)2*c'`a<*[,/&J'g&M^';k=**X^e^R^i=2$-[==X^m>m>J<';w&P<7%Z)**s^J<w)&*2$a$m>%^^*R#^*E)5a2$5^c=}ue&X*'bf02$7/}6V=V={^~*//b$i) /V=<&-/**J'F^Z^**Z)**n&Y)-'b&0=S*R#>;%'%^D-<&u%d'p$X6==R^O&2$)*';P)==V=u-I)==L&w)D-T*7/h'-'t=e&='|,@/|$')v=e/f&9^d$2$4^H5D<h-A*K&~*d'O&4(L-u=d'O&n;g&k=K=p&Q&X6p$<*`]R#N&P=e&7=R#Z^R*$-%^C*M^1a>;W9T*4*,&2$}&)^X*c&-'P=/&i=d'Q&k*e&A=(^ ^9/6/z-7%i=-'`]}6kaS*obe&`]q'_s4@Y:%<cZ]~,#+4S*C&i=E*X*<*~^W4G{](a'i)n/d'+!a$6^m*Z)f=Ez",
"|bd'X^c'N&O&l>X**^P]P<b5M5h{64=*F=9/B=~^<*R*F&k-{/w)h&d'=&f/.$}&D=2$D=>[D=@-v=I<7/2$S*|,|&`=>'G^G#&[]92b2^u)w^w^J<G#fbGals]9>^ / =[adZP]w)T^!8nM]91/#^ b|&**Q<X0G^w^^9n^T^T^F<t00/g8r^R#x0;/2^ ar]U{<<<4_*l>/&h*A=/%t=H)|$e^F^k^j)t=|,K&1&D- ^i= ^(>)>A/v=#=9/o&e&d'4^R*==h'L&2$5ac')^e&==+^,a2$f>w&/!v&O&v*)>J9M=u-D=q9J[N&X*U=V&l;c$V-w)n0V=O=X*<&i=V&F=2$h'>;e/l>-&K&Z^K&J'5e/&E*Z)F^E=Z))>)}^*c'u8t=H<Q^&%1*t=!*+^F=D=p$E=s&D=w$<&Y9^>p&k=P#t=k=T&W)t=O=t==>2$,>b$y=Z)<*t^l>)*$-V=h*A=0,M<~*5$>;o&(&X*-!v=i=)&3&Z^V=%';&2$j'D-p$^*X]I&V&F=v&4&D=2$c=p$A=D=k)b&D-L)+;O&v&>;P)s&X*b$-'V&l>V=:}L&+!y&d'a$D-X*F=z-3&c'v=p&X]-'P)-'-')/d*|e5'-'P*n'A=v*i)/=j'7=K&H8**B$2*9,_>t=k)N&i=},)&{&)}X]e&9,i=w$k=n&|$1&f&>;t=e*#*b$`)C&R#O=p&;!v*v=d'd'l;191&==e/y=n'K)L&D&n'.^I)`]c'|&T*C'|$,>Sa|,X^d'1&-)V<i=e*R^ [Z^X*:}Z)p$e/-'-'R^c'd'm'u$F)W=g/i=u$>;V&W= =G5.]X5.)0)q'L#]9n^4^eZ#> /gcq6Z0F<!/M#P0Y8#9|8//ibP=l^&[m>e^G#J<3Sa$>[w^f=ls`]**Ua#^8%u)x'O^Oy{,g8[aP<p;C^%;h&S*H8****F)i)w)G#t^|&D-E=|,}*v==>b&)/./D=@-=>^=m'O&a$3&!8l>$/H2>64}z5J[u%&*%' ^h^+4D^=^r;zn",
"osp$W]A=&*F)%'psB$f^D$G#E%o!>6a,G=-'O&5aF*R#ASH8k)t=k)-[E=S*>[v=R#!/O&G#V=!&_/,[o$|,~^Z)whY[b{t])]^{j2|Za,#]a,1])]1]8{T{<]x{q]fZ2]Z',5T)x5G5UrD{T)m{h{4}j2e{C{z6{xT)j]i]_{E{vdc)T50]p]r{H{pBa,>{r{}tw]g53!S-$=(-g)G=m;1'X&gZ3;:~&9=~(6r!k-!;hZ7'*-U!r!1'eq|-v~7&`qT6h>os~-oc/-)'R&g>i0x!1'e>h-FtV8|-h;j=4!*-~-4'T'iZG=g!/~;-#[I'!*T6'&~;g&(*:~5&k-c~ ;1,i!V'e>u!frj&U!r~j&1'3!1,c~Ha|-w**-d-l&:=)'m~;-f~1'`qm~z!XD ;b-~-u!'&c!z=k-l&l=i&h)qzF~-~h)e;0D~;c~r~/~uoA-T'=~H-4!x!)'z!l&F~.0h>r~=~6!:'%;*-!=r~z!P&Aw=~h)s'A!}~_-{>i&$=Xv.0h)e>z=U!hjK< ;e70!h>I'U!j&X!l&!;*-1'x'|;h)j=/~:~f'Z-i0M=:'->=>k&oss'X!x!h;h;2'<-);g)osk-c~onq;k-|-%~m;/- ;l=T')'{~k-}'M[''0Df-G=1'M*r!m&=&->voS!g>X!jZ&;T'=~!;i!0!*-n7D~c!eqk-|-4-WzC~T'DxA-M=&95&~>r!T'h>=44!_O=b=~v~5&h**-q)n& ;d=Z-=4s'qz=~P&^5|-f-eq ;(*g-]'M=7');N!U'[&G=;-}=Wzb-t~{=b-hj~-''s'Z-G=q;h;{r6&j;F<k]M/u{WvC{>]m{G5w5|q#64]F57272Q6kZxd8{gpa)lZ_{D{)]D{N5|q|]q4A][>e{p]T{V{a,_{N{z{s5H{WvmZn]z{I{v{G5A]6]6{xd/4oY|,c'A=}*d'k)&*-'X^t=c'p$^*X6t=**W]0,R*]$D= aW'<*F=`]h&L&7%L4@>;c,)#^t$J^e*`]8^x^L&G#v<v*J]",
"&&A=o$#/&*X^&/t-a$**2$&*w)|#D/*3J{ *T^|&{^:7^&c&u%F=B&2^T^d>u%****R#}*%)O&{/I&+4*^W]o$L&[0x)k/S%}]o/z/E<t7q#`%j/D/.(J5U5s56]M5k4B6/(]%@(@(M)x[@6j/q5r9k/T/.]$5b,l/J5!7z5[/B^I/;#n!S%y4Y52]L%.46$96T@T@k]Q[X; >j}E;G[t;t;p2E;4>p3b>4>G[M;4>p2t;z2E2u2E9G[t;G[t;4>G[ >4>4>p2<5E;E;E94>M;F;I24>T2s24>T2M;p2 >r[>}y2p2z2E2G[4>t;M;O;r[E;4>z22> >G[G[3>u2O;s[G[>}H2r[G[w2G[E;G[G24>G[3>T2p2G[4>%dr[G[G[H24>p2 >4>3>>}T22>b>T2L2G[p2O;t[2>t;3>E;u22>G[z2E;M;2>E9G[G[v23>4>O;G[u2p2r[E;t;y2O;2>4> >M;p24>G[E;3>E;u22>t;p2A2p2G[U2G[ >s2r[u2M;Y[E93>3>O;t;O;4>4>M;E;G[t;T2O;4>p2M;4>p23>p2O;3>u23> >2>O;r[U2H;p24>G[v2O;3>D; >4>4>4>:2O;3>H;2>3>4>8>u2E;2>u2v23>O;u2C;>}t;E;G[u2G[G[G[4>>}p22>3>2>O;U2O;b>3>p2p2M;y24[E;4>u2G[p2r[ >G[H;E;u24>4>3>G[O;H;G[u24>D94>E;r[4>u2AsG[L2 >O;2>F; >p24[u22>p2G[O;v2p2G[M;E9M;2><52>E2u2p22>z2%ds2>}E;4>O;s[t[ >u2p2H;C2@{w/u0P%,3c),3w/n5]7y~y$b5k/!7D53{l#w<D/g5%#q5k/V%~,n!k]X/'7<<<<o5y5[>k/b(4}e]~,D#$$([<0M)$$D/K/,)E<@(,3,}1/[/q{P]F)<*Z]'/N&Q*`]v*%)F=l;V=p&Z^|rO&%;2(p&o&#=m'&4^*f=f&n^O2t]Y5a#J':^5$k=t^l>~9l>q'b$4^C':3",
"nbn9|,y&L#O&K&T*#/X*2$%^H8/&_(y4Q{4>U)q9,&4^*)9/k)u%x^9&&* !|,D=F=J'i)<&|&~^F=&^w)i)^*i)A^--3/Q#6##$!% tM^O#M^b51^g#$$S#P$#%=^./')9^~$a%E*T*a*d'9^P]d^A$G#D-d>S#n$R^4^[$^T8'r$#$.^S#d>1^&[p*1$f%|#n>ul97{7c%Er)#s/&#y#1!s/n!1!H0s/]7y#47T@Z$n>6$.#C/,3Q#~7+&,36$B^z4o/}7z#-(,)[/d#|#n>o!w/1!b5o!Z/T@o!G/!!y4<2Q/n!o/n!]7$7&#6$C/y<}7*7F#%%9'd#M)4/w/z4n!w/o/x<n!s/1!o/o/$7.7T@j#y<47,3n!w/F#|#6$]7Y/,)F#o/v/q/z/d#.7Q/K/s/r%*%y~M/j/g$O#)$b5M/x]w/l/,)Q#y~4/n>j/B7V6Q/o/67o/1!z/,3,34/8[i$~#^%X%n> %,3{f&#K/z#a/~7T@>7*%F#P%<<Y'G/]7n>o/l#9% 8y<42w/~7Q/&#K$v/O#y<c%C/[/x]1!}7y~l#O#c%O#w/A$^E.#C/X%+%3{F#$$&#9%n>*%o!$70$&#,7s%$$D5<2K/K6$75}l/kc4%J5n>z#b5.6%7w/b5C6]7O#.7~60'>7n>b5y$Q/y4f]p'x]o/*7c%M){$-7,3y#)!27m/|7*%G/6$~7$$T@y~u#1!s/NuH/c%s/j/LX6$.#[/n8jsY'6$+%F#/(&#y~x]+%)4H/4%M)T@b5p's/.7&#Y'$7o!p'*7$$x<4%I/<297b5&#:/K/]7K/;'Q/z#4}}7y/y<b%n^B$4*:*~$&^Y-e&ayFBu8#r@/a$K)O=)>ck]}%)1^c'K)%8k=t^)#1^#/.^<$6ss9A$($z$l#3$G8.# %E#g$($g%}&F^D$&$`t|9c&2$u^d^X^k=S***k)}*0/)*o&u$+*D=i)e&%)*)E)-'#/%^R*G^V=h'm'Y[H%+%y$N<=^E)9^i)k=R^P<o$w)G#^*9/X4",
"w~D=-[t=D=^*>;-'t=&*bxS*2/w)%)o5s/>6H2rtV=r;J8O=k)h&e&n&P)%)F)r;9/A=e&e&**Q<-ct-c'l>F=/&>;8%nZ<@oZpZ~zp_> G+e,2@m+H+e<9.qZ4.H@v@u,&_/.rZsZ=@h+tZX,1 a tXuZvZh<wZxZ2_[C=+).5@=+I 1@U>e i yZh+zZ <Y3!4D#B$<3Xe!0`c-f>(`eD%G)e3!0p6Z2p4;f73`e%(K8C<~0-}~020C<=}a{:b{EVed]Zc!} &~0<(d]=8d]-3!,h5(8)ZFA2000q7dzI3V720,fOeZc!0%(3xC<(Zv4v6;]5]Ved]-f00vsC<~5C<63X~X~/sOe0}d])E-f f1{[0v4J)C<0370Zc 3d8(0I%q7dCh3~f~5<4BwYcJ)R;gbh5Z{`3k]h5+f-3D%/#d3h3!0J].&-3v620*}[943^0H~V47[20!,Z~q7y3-f`cX{Z{ 0^0]ae3I3e3G)8$~05x{EB38$p4^CJ)=}e3{0e3^4>Zy3=}53)fy3.&=850p6v6taAZ.{`cQ4~0P3Q;F'RC&f~0e3-3}YXe[(^0LsX~(8Ve50Z~/s`cX~G)+f<4p4g3!0C3!0F]X~&}-3-}B3!,`~!}f375~0q7dC5x80v6/#J]S{]0v4Zcv6I3C3o>!f.{  dCe3h3X~-})fZ~Zc.{0}p4d3!,03u}f3y3K8{E.{)0C3v4t7v6;f.{)fut<3dC75+f^0MD)f/sX~1{d]h3C3*}=8C<y3[0p6Fsp6 f=8v]{0o>;](w~f40|0/sp4`cd]){G)h{63<4+f1{Z{:b~0<0d]Y$UzR/&*BZl+CZ+zxTDZ/+EZX+FZsXFguCy(l1GZP.d y.|.q,HZ5<IZJZ zKZ,+w(&gLZMZNZOZPZLgQZ|.P.a<r c<OZ.z BX,wC.,d<RZd}H=]&|,e^P<V=`<&*R*p;N&>[X*K&^=T*u$C*v=-/o$z=p&k=L&v=#>q2a]n>4}w)9$B$}6d$-/Z^!/n$**P<g^//R#R~",
"Xv9^2$P#l>#9Z)G#T*g^5$L&R^'/t^^*y]z5F],{v-m-d'yvP=//9,X9h'X*3&l;v&2$b$e&k=`]V=P=2$m*>;F)A= =m>O^W^f^@8f$8%~$d$)(&/N<~/Q^]7(^2^s^g^Z]w^Z8s^)^0,A#=/f^{^ =.$A=y^P][^ [0^`^a^*^Q#Zr0)49t^u%t^]^&487;(c]M5>(RZ|=K*0,(&~-p)~*n&=*6a)&p*~*0=Z^2$T*v&c=h*:&&!^>v&I)w=h*<*V-},z$f&]&w-_&C&^=t-U*F=e&V-/&e*S*N&q;r-Z&{&p*k=v*{&3*1&]&<*U*t*t*d*6*z&n-G*-;B&C*m-/*K&g/P*o&U*T&t-+*|,v=,&t*c&%=W&C&)*j'`**)4&*)I&m'J~W]b$p*c=i=R*:,N=z&<*V<F&`*;!b&O<J&u=W-]5O[~&6*[*A=v=b*C&v=Z*z-6*-!^=U==*7*:*T*c*SZ;&*)p&p*e&(&Z)-)'&x->;^;L&V*;&X][*_= *C*4&6*g>g&G&:,+*#!,;z=<*1=+*d*5''&I&!&c=e[-&-&v=<*n'-&1&n*Z&-!t=<*>;P&h&7=Q*n-W&V&C*~^d'+)T&C*,>c=6*v=K&}=5*X&(&0=b*t-1&N*:&d*t*:}K&P)c=]}#=*)y&e[t*P*c*e^d&3,{&t*|,,*p*i*5&L=V&-;!*m&N&c'X*.)C*L*u-O[v*B=i*8t1*|&b&8b;&:&(&5'd*p*7==-t*{&c=])v*X&J&c*]&o&/;Z&/*F-z&y'u&U=j&;&s&d*u*PB_*V*1=(*#*/;&=a;h;.=w*B)i&{-;~;3X5)!p'}$c'';w8k)d^e^R*9,r;9/|rW'n&w)[* =j)t^<&5*|rl>-/!5n^kaW]R^S*S* =//>[G#}&2^r;^9N&O=*)O&&*S*F)q9B&W]t$a$+*C*)/y=r;T*P=W]z-}6i&t=w)';_a~;o&S*N*S*X&p$b&&^R*8%r2N5j/a',[&^-/`^!/S)g^k=m>o$A^G#Z^8'G#qa",
"my>[a$V=!/<&)^F=D=**Z)a$%'z$1^L#A0([&6'4c3t&p$3&,[ [y=L#L&k))^(&N&z--*Z)>;F^8/5$Z]9^t=K&kaP<_/e/e&e&&%w8o$('o&c'|&(&k)z--''/e/D=b&P=i)B=M^m>d^}*uaX^v=2*Z^e&P=J-k)p$t^ib[^W]w)l;o&P=c'F*w&s$p*n=$68{z58]3;P]m*W9P=N&E)}&a$)*]}$-F)k=W'~^)^)^T*d'f=m'|&h)|&-'P]^>F)&[G#K&E=='-'w^d>b&R^P<%5T^l>=>R#g>C*c't=`]n&O&kiY9Z=O&A=<&L~+a)/^>@-m&.-w)+*I~/*a*T=e/d*z-$-P=R#Z)8%/&)/X6l*x'V=S*<&l;K&**-[L&X*w8}*P]f=ib7&>;J=,&F&{&{^h*k=}*^*t^L&k)Z]h'D=m>v=*!R# /O&L&e>S*p&}69/d'%^}=J=m&-*&4b&n&S&>;=&E*E&<&k=h'**T*O=kaN&O&k)W]`0<*X6L=g*Q*L&G#7=~*(&v=5*|&a*{/-*Z^v*K&d'^*m&V&c'(&)^J[**X<k)kag&k)n&O=t=A=-')*f&v*/&O=D-X*^>l*r;<&g&_&I&@-C&5*B&>&1&Z<!*`=.)TZE&P<T*F)>;z-!*}&9/Z& =h*t^!*S^i=O&T*2(R*@-X^v=T&D= =r;r;<*@^P=`=%'';9/k)0/9)N&F=t=p;F)g&i)-/>;7=F)V=T*B=e>}&A=P=P]$-K&z=8/L~X*/*m*o&R*4^F)^=v~t=P=^*xw^>v=#=-'X*h'<&|&<*H<%)k)R*1&`]u)r*:&%)|rK<G5m]h//*6*8/ *F=y=/&R^u^F))*t=k*>; =z-)^B=~^4^P*~^e*l>o$5$K^>;G#a$!/e/';b$J[D-Z^u^v=O&X^d>9/t=*)R^n&c&#!K)/*w&e^v*2$F)7/-'k^L&B&i)d'u$G#|&F)t=7=A=R* = [h&'&m/>}>4O/a# ^g^G#Z^u%!/k))^D=^=k=d'8%i)W]q=@0",
">cx^q'a$P=v*]$k)R*e*|/0)t$2$e& =)^,^=(O/N5F31-~^N&0/>;V=T*a$9/|,k)2^X6*)d^w)J'I~J-J&c'**oF&[P=//&4n^&^}&^*($+[W]'/R*`]#bP]e^'; [%;B$:7Q&r*R^S*T^-'a$~^J8^>#/h-#^O&/&a$>&A^p*M#k=|&T^F)y=Z]2~h&V&30C{A[q{6&v=h'k9%'2$)/z$i)o$*^H) =-[H)2*>[ ^P<-'e&*^O0u)E=b$N&l>r;o&5$i=t^('R^T*';V=h&)^/&V=g*V=e^>[9^c'e^e&D=t^y&T^R#e/d&W<F) ^)^h&&[)*P=>;t=V=p$^*l>5'K& [{/i=P=2^N&g*)>a$R#k)^> ^c=Q^X]c=9^v=w&9,|,k){^Z=c=Z=A=c=(&'/B&d[D-'be/N&>[Z)>;-'L)U=!*Z^e&*&,[9^h&p$Z)R^u=#=D-V=|,(&h'v&N&1&W9Y)u^e*n'W]|9o&e&**Z^|&C&J~D-p&F&c=X*R^J'J'K&A=J'#=e/F=w&w)v<g&8/V=e&**`]u^f&O&<*#!^>8&{&T&d'Z)F=c'P<}=-5F^k=dc]}X*Q*n&*^';|,2$f&*)V&/*'&x*w&5^!*P*]$f=E$v*O[N*2*}&f&<*h'J'%;2^P=-cV&(a-'7=C*/&{^BFL)X9t=,=O=o$~^W^|&@cL&p$!*e*e/d'd^t=/&a$/&X*b&c'y=C=v*O&Z^B=v&p$.)U=k*F)c&h&o&c=d'~***2$|&}2R*k)_/O&F)u-^xv*L&%'K&X*-^E*Y9D-{^v=k=d'F),=)*D=<&19a$e*2$ ^J'P<`%j2N<**F)h'==e>-[<&<=/!9)9/H8`=1&ka`]C&P=9/#=e*2(Z)j)u-L&}6F)-'%'w^v=W'u)>;**P<h'R*;92$O&(&D=,[7%T^m>W9C&;[Z^v=P<P]%)`]v*b&N& ^v&e&#=I~%)Z= ^N&t=R#+cS=Q&R/Q2`2)4I/|&3/1$~^}6D=]$E$G#&*l>*^8/*^4^W^('92",
"7ws9u)R*h^`]o$}6=&X^b&t=A=a$)^(&i)f^u%!4g];]As6=:7)*B*F=1&v===//R*#9t=(/5$R#/*J~4^t=g&e^!/y=|&D-N&~*w^-'k9%'%^J<<&j)T&,[-'J~g&l>u%a$d'p$d*'&**^*t=D-='L&j)v=b$w)e/L&Z)#*== =k=1&w)N&1&;[1&v&-&f[L%u{C6!}~-w)k)-)`^a$X^O&<&<*d$.)**9^P]t=R#K&R#w)<=|&e*^=M#O08%p& /~*2$Z^u$t=z$*^F=-/Z]-'P=P]2$t^V=a$kaP=T*&*}&Q^2$d'A= ^P=t=-[c'm>^>-/H)V==^R#//&*-'N&o&==D=t=L& =V=//b$)^)^&*i)2$ /X^)/V=Z=m>g&t=)^-'O=t=a^x'l>a^g/ ^P]==(&)/f&**^=p&K&k=c=9^c'E=e^R#{/R*!/}&{/l>R#x'P<i)p$v*X*d'V=a^J' ^C&P<t=D-O&f&5$B&O&c'k)m>$-P=(&R^Z)Z^z$r;v=%^';**X^h'//O&v=k=w)d>%)9/D=z-!/o$k)}69/Z^m't=&*~^**k=V<9/p$b&W]p$;[<&J'7^+^v*^>K&JbH8A=r;t=D=F&==N&-' =e/^*';t^2***r*@-F)//p*F=<*b*p$t=7=F=R*h'#9P]<&'/t=d'P=-'X*k=A=`]S*O=E)E*-'e&D-K&-'Z^V=~^p$L&w$*^E)W0m'X^p&`]d'K&****e&P]d'l>F)X^E*** =5$D-o&[^d>K&m>**R#9/-'w^R*~^t=d'W97^X^J^o$>;-'M<J'z$X^N&<&R#P=a$ ^0,J^.6Z'irUZ7/2$.)i)b&g&-/m'z*e/R^K&v*)/N&EsS*v=v*-' =^*F)V=***) ^;&{^J-L&j'k)-#f&0,J'k)k9>;L&D=,a)* =c'**R^y=&*r;D-P]^>^=7/I&z-P<0,v=R*y='/$-F=(/P]`]*)n$5'B6k2[>&#f]J0==2$0^X9D=>[v=0^i)V=W]**k) ^8/n9R<'t",
"VZ#91&P=t^o$v=m>7=w)&^pAz$R^l>B$O&9^t^t^j]([;]A2f!r;v=k=`&T=`]i=R*A=X^==E)W]9//b**-'D-2$F*T*c'l;T* ^|&d$l>z-==m'<*~^h'z-u%^*R^R*}&V=<&*)t='/E)3*9/J-r;K&R#T*t$7y**^*0,F&O0z-F=w)m&O&F=m*l>%))*2=o>+>y4T%b&,[:$19r;+x|&h'm*c'd'F=/&k=D-g&';9^W/**Z)T*-'t^Q*X*l>l;k)k=8&X^k=kaa%&^7%l>t=R#a$2$v=F)&/g&X*|&!/i=}&(&i)X*>;>;V=t=5$k)d>)/J~|&**b$A^n&d'-/t$F)H8>[:,`^l>V=4^== ^e*W'd'^***F)$-v&a$K&P=<*e/Z^A=T*A=v=y&<*9,b$g&F)**H=k)Z^t=J-k)a$T&%'Z]P=^>D-5$D=$-_/X*^*D-X*o$=&)^W<5^^>O&n&e&==w) ^e^X^w)p*j'h/B=E)F=f&W9G#<&**e/**b*t=Z]e&**//T*^>K&`^d'd')^d^$-7$O<,[c'N&Z]j)@c.)^= =g&z-p$|&//V=`]D=';z-~*L&A=V=V&.)-'K&}*E=v=E)f&$-k=~*<*c'F=y&|,l*F=!*';O=]$d^}6f^8%t^d*d'>;)*p*]$P<S*k)X*c'c=W9%)T*-[b$G#S)n'^*b&D=w$^*r;N<H8**)^ ^**t=%5Z^@/a$2*F&%'T***z$v=k)p&//W<u^k=`*t=^*G#t=)*I<t^n'*^'/t=t=a$P=m^-)F) ^X^S*.^-[J'a$';m^|&9/9/ =V=a$Z^l>==!/Z^<^J5c)2]U)/=-;%^ti9/W9y=l>-)A=t^2*WZm'/&)>i)Z*-'E)==J'H)D=(/R*-)X]**z$l*|,b$;^v*0,B=M^V=^***5^Z)I)l>2$K&$-g/J=-)F^2a!/d>-)t= ^T* !a$e&8%H)k=t^//^*)>V&(&m{O2P{n>J#H8r%R^(^&*u%#9F=)^w^h/W9 / ^C8**m>d^w^`4",
"suu%e^h^k)X*<*w)')b&9/Z]t=X^S^*)%'**&*a$oF~,=7$#t[G/)]&6`2'DG5k]c)m2z6_7k]%7q5,);cJ5U5%#r54]`%([x[D5}]n{p]a'C{F/m]w<R/)]w<n%c]P9`5l5%7p]m]s8m]S%@(Z'<<9%,3n[{x{4j/y~W7p!'7p!J5M/D5[>[>B5&]4AA]#{XpU{,)7%D=a$>[R^R#D=&[f^X^N*P=A=T*4^H8J~2*//<&k=l>1&W'D=~^Q<Z^P]**^*W'J'X^G#9^~^O&p$g$W9>;k=R*P=E=R^%'u%Q&p*=^e^D-d$(&}6E=P<P=//X9b*R#2$49>;N&E$d^ ^~^^>8/a$n^@-Z]4^**@c&^c'M<P]t^{/F^T*k)p&J'|$o$ka%)v=%'L&t^4^[^R*Z^O&}&F=L)2*t=d'a$J^F)X^[**!k)b$r;+^z$ ^i)(&!/R#J-S*a$~^o$1&-['/>[j)!^R^w)K&**J~J=K&r*l>&*^=x^v=O&*^e&m'n0Z^F)O&D-k)k)s^o&k=P]X^19c'5$V===e*[^:7Z^^>{&O&P=5^E=E)D===d>|&t*@-d*';A=r*p$2$v*p*W<B=F=V&<&i=d'k=y&#=^*k=_/-*E*v*i)waD-+^/&J-)/#9R#R*)*m&i)e^|&R*2*%'&42$==-)u$]&/&l>~^o$,>L&%'b&p&L&o$**R^i))/j'V=p*wa%'2^p$==k)&/J'2*y=P=X^t^:7r;B&a^T&h&`]%)k=2$2$5*7=E=k)4^P<P]b$x^';i)2$r***V=W]^*2$t^VrL&z-g^/&0&G#R#a$Z^|$|&Z]J=~^;]t]=6I4M{Kuq5)!.6##W$b,;'<<}^u5M5nl77([n[n!18@yw]n[}^S/~,m]t]p!E53{W5M9V5}])4)!z6s/&6o/1/M)3{,7n!2{j/!r,7dye}!rhb17Y^97j/3{y~Y5p!x)M51!<2L/tEn[t],)b3E[|]M/k/u%49W]%'c^&4.).^Z^K&F=Z]W]N&Z^-/v=>&J-@^R~",
"Hwt^a$'/w^m'o$o$n&ki9/X*d^'///#/2$-'2$=/9^s^5]72Y{T~Q{K4H'B8J]E[J{`4c2d3*}`4XZB]U~X[H4E]  Q{g4%&23I]J3K~V[j>a3V2%}92W~G]<!44G]9393Y=#{5{J{H~.&43/{F]H'H~63C[B]V~64G4j3znG4B]@0`4J]o;H'=}W~]{L]]{X2o/:b#=]$P<|&O=-^Z)N&A/D$D=YzO=P]v=b$}&V=V=&*k)E)B$N<D=e&<*Z]O=J<9/E)v=V=N&e&O=D=D=H<i)&*~^u%{/t^t=)^u%';c' a//s$R^P]%'M^e&%'A=-'*)a$t=h^2$k)p$}62$k)t=X^Z)t=Jb;9,[V=w)c't=R^|&7= aR*.^V=L&k=i=o$e&X*k=>[X^E*p*P]#/ =P=<&T***o$5*R*,>V=n^/*p$#^E=1$/&D--'E*H81^#/d'a$}&1$<=(&k^`]q9V=f^l>a$d'A=#9a$M^a$R^D--'}6R#7$R#^*7=D&`]X*X^Z^|$w^b&p&)^f$5$K&E$O& ^b$C'^*q*Z]T&<&f$}6t=&*p$V=p$k=~^a$S&m&(&z-D$R^<*Z^Y)V=a$o&k=E=t=/*V=p*E$*^#=**o&c&$-v=u$D=t^V=F)r$3&X*)^o&2*~*e&$-O&~^-'e/-/V=V*t^o&z-*^L&v*d'i=o$N&,>c'8%P=c=Z)v*a$t^l>T&**V=7%F=v=F*D=Z^(,e/D-J^l*p$V=R^$-w)1&R*=^z-Z^|&h/D-2$/&F=*^A=J'-) ^R^F^<&2$<*e&o$K&[^l>o$m*O^ ^a$Z]~^3^u$7%8%W]u$S#t^'4~3L{A3V~_4E]23$}F[B8B8j36403_3A{H'H'f2%xH'H'G3H'K4H'(4j>j>}{F3L]23/{H'`~W~V~V[Q{V[H'o2S3G4E[j>H'33'{44H'K~L]*}  QEo;E[L]D]V[32p}N3&AH'*}U~`~/4'{c3>4##)4f$9/H8**>;;^#/|&V=2*a$t^F)b$!/3/w)P<d2F=2*zn",
";[z$%)d'2$X^&*c'P]F)p$+[n^O&w^{/-'k)X^Z)N<,/t^,}V6u5k/}^D5,7V5a'k]|][>;'p]k],5b6Z'N5+6 6f]R9f]Qt|]72)]Z'Q5w<D(p!)]q]R/D572}^~3)!C{k]D518<<q5T@%#H5>4o5V/}]T@t]Z'D/}]|]t]r5.]r5c]|]T)N5I[306{T5R//(}^4yM#D=|,'///A<u%R^D=D=7$e/m^ /l>+^X^J'V=!/(^u%!/M^[^4^Z^D=x^R*k=p$Z^A=W9%'*^*^X6)^{/*^*^{^2$P<19 =G#&[m'X^k=E^>&e/p$Z)R^/*c'**w)t^D=~^b$E=1$-'H)h'v=F*e&_/t^X9d'o$1&|&%'!/&*V=o$+^S^Z]Z^d'd'z-p$G#+ak=/*t^==d']9J^V=d^,[p$^>R*E)<&2$N&Z^q9%)A=k)#^F=a$-'V=R*//**Z]>;|& =%'F=}&**&^e/W9-'c=*)c'**g8D=`]R#D=z$l>r;f=h'J'D=M#K&o$3&P< ^G#**a$z$z$9^4^R^k)t-F=*^X&d>t=|&T*d^D--'-'a$r;+^p$^*t=e*N&p$/%l> [-/**|$b&I&F)g>p&3*';}61&>;**i=5$m>D-T&n'<=F=1&J'J~S*l>j)D-^>m'H8^>s$/*W]|&/&X*w&'/O&e&k=F=e/D=E=m>g*e&y=|&F)d'-'k)^*-/Z)4^{^P]M^R*~^^*v=d'R^%^B&D=3&V=k)R*p$d'>;e&F)|&r;k)J' =H8Z=w)w)2$-'t^h&a$*^b$*)K0-'J<f$9^T*G#D-!/**C8B&z$sh~^e&%)P=`]f=2$@/<<b(4}W5E5)4<]x[n{lr]#g]H5w<>4x[R5C{']U{|]E%r5m]t5P{e{i]j6u{j2C{l5B586`566>4Q5.(D5g]j2t486~,e]p]k/m{k]h6`5T5C{k/;]U{u{c]j2m]P{V%[>m].]h]y{X2`%.>j/##[/&*u%<*n4E$&^C=a$k)+^e/]$P]~^W]^9*^E=F=D=L&^=5{",
"h0+^w)F=)//&2$H){/9^V&I<9,J'k=|e)^+a&%2$y^2$x^4^t^$$!^Y'*7dyI/6$*7)4B6@(%#*7I/I/K5StV/b6*#([T/T@##n!!7o/o59%f]}rM/k4@(`%p!k/D5E%<<@(k]|#y]z5n{K/)4*7A6~,*#D/4}K/D/;'M/b6<<M/F/,3D5*7o5f]`%z#p#+&9%Zrl>t^4^c't$6^k)t^$-//`]u%asP<7%m>r;Q&z-(&u%z$O=D=R#X9.$<*W]z-d>-)T*w$2$*) ^k=^*D-&*O=J'L=P#E$B=R^2$e&X^k=%'d'%'R*^*-))>J-D&)^'/e/M^uav=2aS*J'c' af^%'5$A=t$e&2*,>|,W]v=)^**I)u)0,t=*^P=w)d^J9W]F=o$-'|9z$)/^=t^(/~$}6e/z-X*X^Z)+^d'./E=|$d'9^h'W]c'b$*),=q*R^/%|&P<k^S*9,X^d'^*/&c'q*%^ ^i=8/m>w)z0A=X*B$**^=($e^@/R*<&m'e/R^R#!/z-h'Z)t=f$k^D=o&5^2$|$R^M#L&y=u^1&-&Z^H)w$X*O=~^)*-&z$D&|,#rF*&*`<e/*^,*d'o$a$t=|,d'L&J~E=2$:,O&u-p$R*-'d't=YZc'u^p$0,P)a$l;o$O&e&8tb$k^w&e&K&l>D-T*Z^p$[^e&t* =T*J'**Y)7%V=B$>;Z),>%'t^b$D=p$+*9^c'w8&*A=Z)P<E=,><*#/Y9p$O&R#t^==v=v**)e/z$2$F&L&|,c$^*M^[$/&==F)T*X*a$|&T*R^R*J'K&p$//H8W]x^E=d'2$/&D-e/2$t= ^ !}6f^T^8'B^y~o/C6M/<<M/M58[Z'o!y4([M5!7x<V%~,y4*7<<B6j/j/R/@7x[a#}^q#,7D/Y5%#)!R/W$)4##z5P%z5##,).>##{7p'it4}R/26+%ZZb5<2Z$$7)4=(=7k/`%x[y6p!I/$$$7](X/y$c%t^&*H<E)f^2$&^2$F=`]Z^u%b$l>D-w)E*)^]$<*5$,&&4/4",
"u7g> *t0WzF&5*C*N&-& [l*@-'b/*$-N&L&**~*A=t=-'k) $c=-'P=Vv|/x^x^d2:^8'Y'9$c^_es^[^;^.$h$Vvg$y~Zr1/F/M)x0>^g^.8g$F#{7=^$/5/!^I^O#!^C/l#.$%8o^~7y~u/]7~6$$ytz5lc2{7%D^8'($C7.$d2v/I^1/:/C/x^>/n>2{0/S*E*Z<kiP=C&-!]t%)~/A=2$n'@*~*!*<*(&V&';V- uD-J'c'5*T*k=C*/&J9b&y=(,N*2,W&C&>;R^g*]&,*a$:&//b*t=t*L&r*p&m>e&b&n&p***o&L&N*%;O&~*,>]}3&}&,>f&_&e^d*Z=[*3*L*0=/&z-z-V&X&L=X*d*A=(&}=C*T*d*+bC*B*)*u-v=T&)*k={&L=v*p*!*T*!*_&v*O=A=l;c=c=O&K&[*;&Q*o&(&_6$-=>~*F&d*D-Z=C&8=P*!&d*2,-!>;b&l*~*F& *p&n&K=m&K=&a}&L=w-n&)*h&5*N&^=e=&4';x&`*<*O&J&)*9-N*C&<*)*3&c&C*p&)&z*P*,;h*6*V&]&7=f&V&[*c*y&~;g*Z=d*}&(&**n&:,(&_>**[&N*R&#-,*I&+*r*)*=&u&1&v=l*(a}=N&f&h*;&:&y=O&_*Z&p*O&;&+=}&!&,;c&`*/*h*5'b&p&n&}=B=N*(&-!n&n-<*L~x&K&W&V& *t-f=S=p*N&d*)*>;_=r*@=kauuH=na}= *9=z-V&%;z=C&t=V&N&r;v&6*X*('**K&y=X*b&z$m> [k=n'f&L&{^$-]&S*c=k=C'Q&a$L&i=8&h*kaR*P]b&R^P]i)7$.$8%{7{7A^5/C/ 9,9g^>^VvE#;#{7!^b%9$39D^]72{p^s9|^&#s^j9y<L/1/.41/%$~7q'{$@8:/1/]7o^I^Z/g$y~J^s^J^B$:8i/Q#d#D$]$4^x9O^N^f^ol=/x^m8@8W/J^4/:7K&7%I~^>O&-'>;u-c=v=c'd*8tZ&%)e/+b~a>&<*|&V&Z=~993",
"l{3}U[V[#}Q~|5V4J2N3P2={L4gsQ2H4Xp`ZH4k2V4b}$a&}j>U~#}K~f2&}V~J]/4}>.{}>T~3)m3&dj3c3J]p}N3m3X[3)j3<303[5,{j3N3g3u3m[@5Y=$'V4H~H~j3U[E]Q~Y;/4y[j3f2L]B]f2={&}33h3Y=m3U[#},{h3Y4F3$a33C9,{:5z3P~)Gp335|3I4J265I4+533j3V4I4I292m3h9m3G2p33}}53[V4U46[33L4f2={+5W4V~H2XpO235I4z2+5W2p3z2Y[6[ 5y2F3k2S4j}(46[N2U3E])GH~gs[3={P433353}553}Y[H~Y[p}O2}5P2Z4(4W4[3}5N2aaS4Q~|5U4P2I2z9j3:3={m3Y4T[H2Z4j}I4Z4I2}5z9S2z2P26[J2E]T[t[T4y2G4j}I2E2B]={55p323s[65I4E2H2q2={H~Y=j}I2N]F333N2[3U4J2H233B]P2Y[C23}Y[N2z3Q~j}B]J24[6[B]m3E2J] >I4H2Q~6[H4#}P2j}I2H2R233+515Q~t[g2H~[3Z4(4.5V4I2E2={H2}5P4f9[3z2Y=F3[3t[Y4j}N3I2P2L4}5s[k2j}}{m3L4P2P2Y[[5I4J2Q~XpP2>}I2Y4E235Y=j3z23}={m3>}33={F3F3z3}3z2W4W4q25[6[t[#}Z4H~Y=13 `6[6[33p}[3$'y2[3O2[3Q2U4Y[k2X[[3I4Q~z2Y=G36[z2N3Y=Z4v3m3B]k2L][3F3H~33U4C265q2Y4={Y[p}M3|5H4h3U[6[Z4Y=Y[Q~g2={92+5}3(43}U[={B]$'W255U[L4N3|5N2}5&Aw3f2h9m3h353F3f2W~H'G]V~5{B8C3j>E[t3A{_YL]K~035{H'H~5{`~g3,{.&/4j>5{R{.{L]V2M4W2J]x3J]M4j>*{y[A3m[o;L]j>,{h31{U[5{F]S3,{03B3J]H~5{03F'$'C<B892'd,{H~Q~b365H2O]H~znY[I2H233U[Y[m3W46[Q~3}m3.`%}"};
