/* XPM */
static char * rookiewall04_xpm[] = {
"512 512 5486 2",
"  	c #050501",
". 	c #56575A",
"+ 	c #595B5B",
"@ 	c #595C5B",
"# 	c #595B5E",
"$ 	c #636768",
"% 	c #595A5C",
"& 	c #5F6264",
"* 	c #5D5D5F",
"= 	c #636566",
"- 	c #5E6061",
"; 	c #5D6062",
"> 	c #5B605F",
", 	c #606263",
"' 	c #56595A",
") 	c #5D5E61",
"! 	c #5A5D5E",
"~ 	c #585A5C",
"{ 	c #595C5D",
"] 	c #5D5E60",
"^ 	c #545759",
"/ 	c #616264",
"( 	c #525455",
"_ 	c #515253",
": 	c #5E5D5F",
"< 	c #585A5A",
"[ 	c #5C5D60",
"} 	c #575859",
"| 	c #5F5F61",
"1 	c #58595B",
"2 	c #5C6161",
"3 	c #4B4E4F",
"4 	c #595C5C",
"5 	c #58595A",
"6 	c #616364",
"7 	c #5E6063",
"8 	c #5B5E61",
"9 	c #55565A",
"0 	c #555859",
"a 	c #5A5E60",
"b 	c #5D6164",
"c 	c #545758",
"d 	c #565858",
"e 	c #5B5D61",
"f 	c #5C6061",
"g 	c #5B5F5F",
"h 	c #575759",
"i 	c #575A5B",
"j 	c #5E5F60",
"k 	c #5A5C5E",
"l 	c #57585A",
"m 	c #595B5D",
"n 	c #626364",
"o 	c #545655",
"p 	c #606364",
"q 	c #5D5E5F",
"r 	c #6C6D6F",
"s 	c #5F6163",
"t 	c #5A5D5F",
"u 	c #626465",
"v 	c #5B5D5D",
"w 	c #5C5F61",
"x 	c #636466",
"y 	c #5C5D5D",
"z 	c #5D6061",
"A 	c #585859",
"B 	c #555759",
"C 	c #646665",
"D 	c #585959",
"E 	c #5B5D5C",
"F 	c #5D5F5F",
"G 	c #595C5F",
"H 	c #575B5C",
"I 	c #585C5E",
"J 	c #5A5B5D",
"K 	c #5E5E61",
"L 	c #595C5E",
"M 	c #55595A",
"N 	c #5F6161",
"O 	c #595A5B",
"P 	c #5B5F60",
"Q 	c #57595A",
"R 	c #565A5B",
"S 	c #575B5B",
"T 	c #525454",
"U 	c #646868",
"V 	c #656768",
"W 	c #646769",
"X 	c #606262",
"Y 	c #5A5C5D",
"Z 	c #5E5F63",
"` 	c #606162",
" .	c #606264",
"..	c #616262",
"+.	c #5E6161",
"@.	c #5C5E5F",
"#.	c #5B5E5E",
"$.	c #5B5C5D",
"%.	c #5B5E5F",
"&.	c #5D6261",
"*.	c #636567",
"=.	c #5C6060",
"-.	c #5D5F60",
";.	c #616363",
">.	c #595B5C",
",.	c #616465",
"'.	c #5E6261",
").	c #565758",
"!.	c #5E5F61",
"~.	c #666869",
"{.	c #585B5D",
"].	c #626367",
"^.	c #555758",
"/.	c #646667",
"(.	c #5B5D60",
"_.	c #5E6060",
":.	c #585B5B",
"<.	c #565859",
"[.	c #535354",
"}.	c #525656",
"|.	c #5A5D5C",
"1.	c #636769",
"2.	c #5E6163",
"3.	c #5F6263",
"4.	c #616566",
"5.	c #626365",
"6.	c #5A5B5F",
"7.	c #606164",
"8.	c #606365",
"9.	c #5B5D5F",
"0.	c #5F6063",
"a.	c #565759",
"b.	c #5B5C5E",
"c.	c #626567",
"d.	c #606060",
"e.	c #5D5E5E",
"f.	c #565A5A",
"g.	c #5B5F61",
"h.	c #5C5F60",
"i.	c #5F5F62",
"j.	c #686A6A",
"k.	c #626464",
"l.	c #5A5B5E",
"m.	c #5F6062",
"n.	c #5E6160",
"o.	c #575A5C",
"p.	c #5D5F61",
"q.	c #595B5A",
"r.	c #535757",
"s.	c #636667",
"t.	c #616665",
"u.	c #5B5E60",
"v.	c #5C5C5F",
"w.	c #56585B",
"x.	c #5D6160",
"y.	c #545756",
"z.	c #5F6162",
"A.	c #525657",
"B.	c #626466",
"C.	c #5A5D5D",
"D.	c #585A59",
"E.	c #575858",
"F.	c #626363",
"G.	c #5A5D61",
"H.	c #5F6364",
"I.	c #656566",
"J.	c #5F6061",
"K.	c #535555",
"L.	c #5D5F63",
"M.	c #5E6263",
"N.	c #616263",
"O.	c #646768",
"P.	c #606163",
"Q.	c #5E6062",
"R.	c #59595C",
"S.	c #5F6363",
"T.	c #585C5B",
"U.	c #626164",
"V.	c #535656",
"W.	c #5C5F5F",
"X.	c #636565",
"Y.	c #646668",
"Z.	c #646666",
"`.	c #5A5C5B",
" +	c #575A5A",
".+	c #626566",
"++	c #646869",
"@+	c #56585A",
"#+	c #67686B",
"$+	c #656769",
"%+	c #616367",
"&+	c #636668",
"*+	c #6E7073",
"=+	c #585C5C",
"-+	c #555658",
";+	c #636666",
">+	c #5C5E60",
",+	c #5D6162",
"'+	c #606564",
")+	c #5C5E5D",
"!+	c #65676A",
"~+	c #5B5D5E",
"{+	c #636568",
"]+	c #626264",
"^+	c #606465",
"/+	c #616366",
"(+	c #616365",
"_+	c #636669",
":+	c #5F6366",
"<+	c #616265",
"[+	c #636467",
"}+	c #656668",
"|+	c #5F6064",
"1+	c #5C5D5F",
"2+	c #5A5C5F",
"3+	c #636868",
"4+	c #616565",
"5+	c #646766",
"6+	c #575C5D",
"7+	c #656767",
"8+	c #56595B",
"9+	c #626564",
"0+	c #585A5D",
"a+	c #5C5D5E",
"b+	c #626467",
"c+	c #5F6365",
"d+	c #595E60",
"e+	c #595E5D",
"f+	c #626665",
"g+	c #585B5C",
"h+	c #686A6B",
"i+	c #606466",
"j+	c #4D5051",
"k+	c #5A5A5D",
"l+	c #575A5D",
"m+	c #545658",
"n+	c #5D6163",
"o+	c #5A5E5F",
"p+	c #505252",
"q+	c #5E6162",
"r+	c #5F6262",
"s+	c #56595C",
"t+	c #5D6060",
"u+	c #585C5F",
"v+	c #656869",
"w+	c #5E6265",
"x+	c #525554",
"y+	c #57595B",
"z+	c #555858",
"A+	c #585A5E",
"B+	c #575A5E",
"C+	c #54575A",
"D+	c #5D5F62",
"E+	c #565A5C",
"F+	c #57595C",
"G+	c #5B5E5D",
"H+	c #575758",
"I+	c #5B5B5F",
"J+	c #525557",
"K+	c #595D5D",
"L+	c #5B5C5F",
"M+	c #5C5E62",
"N+	c #626667",
"O+	c #636569",
"P+	c #595D5C",
"Q+	c #606165",
"R+	c #585B5A",
"S+	c #616162",
"T+	c #535458",
"U+	c #46484C",
"V+	c #050905",
"W+	c #303330",
"X+	c #232221",
"Y+	c #161615",
"Z+	c #151515",
"`+	c #131312",
" @	c #0E0E0E",
".@	c #141615",
"+@	c #191B17",
"@@	c #111111",
"#@	c #151414",
"$@	c #161614",
"%@	c #141311",
"&@	c #191A18",
"*@	c #141613",
"=@	c #131513",
"-@	c #191A19",
";@	c #181818",
">@	c #131514",
",@	c #10100F",
"'@	c #171617",
")@	c #141413",
"!@	c #191A1A",
"~@	c #121211",
"{@	c #131210",
"]@	c #151715",
"^@	c #10110E",
"/@	c #141614",
"(@	c #141516",
"_@	c #171816",
":@	c #121514",
"<@	c #151413",
"[@	c #111312",
"}@	c #0B0B0A",
"|@	c #191917",
"1@	c #161715",
"2@	c #111110",
"3@	c #101110",
"4@	c #171818",
"5@	c #121512",
"6@	c #161816",
"7@	c #1C1D1E",
"8@	c #121312",
"9@	c #111311",
"0@	c #111211",
"a@	c #141412",
"b@	c #151615",
"c@	c #181817",
"d@	c #161717",
"e@	c #1A1B1A",
"f@	c #191B19",
"g@	c #141514",
"h@	c #171817",
"i@	c #1A1C1B",
"j@	c #1B1C19",
"k@	c #171716",
"l@	c #141515",
"m@	c #161815",
"n@	c #171615",
"o@	c #151517",
"p@	c #161616",
"q@	c #161515",
"r@	c #0F100D",
"s@	c #171916",
"t@	c #191919",
"u@	c #0F1210",
"v@	c #151616",
"w@	c #171717",
"x@	c #151614",
"y@	c #1A1D19",
"z@	c #131413",
"A@	c #181917",
"B@	c #212120",
"C@	c #131414",
"D@	c #181819",
"E@	c #0C0F0E",
"F@	c #121310",
"G@	c #121412",
"H@	c #1D1D1B",
"I@	c #1D1E1D",
"J@	c #181918",
"K@	c #1C1D1D",
"L@	c #171815",
"M@	c #202220",
"N@	c #161917",
"O@	c #131615",
"P@	c #232425",
"Q@	c #121413",
"R@	c #101010",
"S@	c #1A1B1C",
"T@	c #131512",
"U@	c #1D1E1B",
"V@	c #191B1A",
"W@	c #1C1B19",
"X@	c #1A1919",
"Y@	c #161817",
"Z@	c #1A1A1A",
"`@	c #171A19",
" #	c #171718",
".#	c #191819",
"+#	c #191818",
"@#	c #1A1A19",
"##	c #121315",
"$#	c #161716",
"%#	c #181A18",
"&#	c #1C1D1C",
"*#	c #131412",
"=#	c #1D1F1D",
"-#	c #1C1C1A",
";#	c #131211",
">#	c #181919",
",#	c #1B1D1D",
"'#	c #1B1D1C",
")#	c #141414",
"!#	c #1F2020",
"~#	c #1A1C1A",
"{#	c #191C1B",
"]#	c #202121",
"^#	c #191918",
"/#	c #171919",
"(#	c #181816",
"_#	c #1B1C1B",
":#	c #0E0F0D",
"<#	c #1A1B18",
"[#	c #151514",
"}#	c #1E1F1E",
"|#	c #1D1E1E",
"1#	c #0F100F",
"2#	c #1C1E1D",
"3#	c #1B1D1B",
"4#	c #181B19",
"5#	c #151714",
"6#	c #171917",
"7#	c #151717",
"8#	c #171918",
"9#	c #151516",
"0#	c #1F1F1E",
"a#	c #212121",
"b#	c #1A1C1C",
"c#	c #141415",
"d#	c #171A17",
"e#	c #1F2221",
"f#	c #1C1C1B",
"g#	c #1D1F1E",
"h#	c #141513",
"i#	c #1D1D1D",
"j#	c #181A1A",
"k#	c #1A1918",
"l#	c #1F1F1F",
"m#	c #1B1B1B",
"n#	c #1B1A1B",
"o#	c #1E1E1D",
"p#	c #1F201F",
"q#	c #1A1B19",
"r#	c #101210",
"s#	c #1E1F1F",
"t#	c #161718",
"u#	c #19191A",
"v#	c #191C1C",
"w#	c #1C1C1C",
"x#	c #191A1B",
"y#	c #1B1B1C",
"z#	c #17171A",
"A#	c #141716",
"B#	c #1A1B1B",
"C#	c #151817",
"D#	c #1A1C1D",
"E#	c #111413",
"F#	c #1D1D1E",
"G#	c #191C1A",
"H#	c #161818",
"I#	c #111412",
"J#	c #171616",
"K#	c #131313",
"L#	c #161617",
"M#	c #181916",
"N#	c #121111",
"O#	c #171819",
"P#	c #1F2121",
"Q#	c #101311",
"R#	c #17191A",
"S#	c #151617",
"T#	c #11110F",
"U#	c #1B1C1C",
"V#	c #1E1E1E",
"W#	c #111212",
"X#	c #191C19",
"Y#	c #151917",
"Z#	c #121414",
"`#	c #1E1F20",
" $	c #1C1B1C",
".$	c #19191B",
"+$	c #181A19",
"@$	c #181B1A",
"#$	c #1F1F1D",
"$$	c #1B1C1A",
"%$	c #1B1C1D",
"&$	c #191718",
"*$	c #1B1B1A",
"=$	c #1A1718",
"-$	c #161714",
";$	c #1D1E1C",
">$	c #1C1D1B",
",$	c #131213",
"'$	c #18181A",
")$	c #222221",
"!$	c #131415",
"~$	c #0D0F0F",
"{$	c #1A1C19",
"]$	c #10110F",
"^$	c #131314",
"/$	c #262826",
"($	c #131311",
"_$	c #151513",
":$	c #111310",
"<$	c #161416",
"[$	c #1A1816",
"}$	c #151716",
"|$	c #1C1A1C",
"1$	c #1A181A",
"2$	c #141512",
"3$	c #141312",
"4$	c #0F1010",
"5$	c #10100C",
"6$	c #1A1819",
"7$	c #242726",
"8$	c #040400",
"9$	c #2D2D2C",
"0$	c #222422",
"a$	c #21211F",
"b$	c #222323",
"c$	c #1B1E1C",
"d$	c #1E2120",
"e$	c #222322",
"f$	c #242625",
"g$	c #212322",
"h$	c #202221",
"i$	c #222021",
"j$	c #202021",
"k$	c #212323",
"l$	c #242525",
"m$	c #1D201E",
"n$	c #1D211E",
"o$	c #272827",
"p$	c #292B2A",
"q$	c #272826",
"r$	c #242423",
"s$	c #252424",
"t$	c #20221F",
"u$	c #222223",
"v$	c #222423",
"w$	c #212221",
"x$	c #20201F",
"y$	c #252625",
"z$	c #282A28",
"A$	c #2C2E2C",
"B$	c #292927",
"C$	c #222321",
"D$	c #232423",
"E$	c #202120",
"F$	c #232322",
"G$	c #202322",
"H$	c #222425",
"I$	c #1D1F1F",
"J$	c #262627",
"K$	c #262727",
"L$	c #1E201F",
"M$	c #232525",
"N$	c #252725",
"O$	c #262829",
"P$	c #1E201D",
"Q$	c #242624",
"R$	c #232623",
"S$	c #202321",
"T$	c #1F2120",
"U$	c #1D1E1F",
"V$	c #201F1F",
"W$	c #262827",
"X$	c #26292A",
"Y$	c #1F201E",
"Z$	c #252523",
"`$	c #1F221F",
" %	c #1E201E",
".%	c #242623",
"+%	c #1D211F",
"@%	c #282A2B",
"#%	c #212422",
"$%	c #1B1E1D",
"%%	c #232424",
"&%	c #212324",
"*%	c #242424",
"=%	c #242524",
"-%	c #252525",
";%	c #292A2A",
">%	c #272929",
",%	c #1D201D",
"'%	c #1F231F",
")%	c #202423",
"!%	c #232324",
"~%	c #232323",
"{%	c #1C1E1E",
"]%	c #272928",
"^%	c #1E211F",
"/%	c #212222",
"(%	c #1B1D1A",
"_%	c #202223",
":%	c #202122",
"<%	c #222324",
"[%	c #242526",
"}%	c #262625",
"|%	c #1E211E",
"1%	c #262726",
"2%	c #202123",
"3%	c #212423",
"4%	c #1F2220",
"5%	c #1D1D1C",
"6%	c #1C1D1A",
"7%	c #232523",
"8%	c #1E1D1D",
"9%	c #1F211F",
"0%	c #292B2B",
"a%	c #2A2C2B",
"b%	c #272728",
"c%	c #1F1F20",
"d%	c #212220",
"e%	c #1E2021",
"f%	c #262828",
"g%	c #1F2021",
"h%	c #1F1E1E",
"i%	c #1A1D1B",
"j%	c #232524",
"k%	c #282828",
"l%	c #272927",
"m%	c #1E2221",
"n%	c #21201F",
"o%	c #252828",
"p%	c #1D2020",
"q%	c #252423",
"r%	c #212223",
"s%	c #222424",
"t%	c #242324",
"u%	c #222525",
"v%	c #202222",
"w%	c #212224",
"x%	c #282929",
"y%	c #202020",
"z%	c #212424",
"A%	c #222624",
"B%	c #282928",
"C%	c #191B1B",
"D%	c #1E2020",
"E%	c #262728",
"F%	c #2B2C2B",
"G%	c #222623",
"H%	c #222222",
"I%	c #242522",
"J%	c #1B1F1C",
"K%	c #222524",
"L%	c #232624",
"M%	c #20211E",
"N%	c #242425",
"O%	c #232625",
"P%	c #272828",
"Q%	c #1E2121",
"R%	c #292B2C",
"S%	c #212122",
"T%	c #252425",
"U%	c #252426",
"V%	c #1E1E1C",
"W%	c #1B1E1E",
"X%	c #232526",
"Y%	c #232325",
"Z%	c #282829",
"`%	c #2A2A2B",
" &	c #1C1E1C",
".&	c #2F312E",
"+&	c #242626",
"@&	c #252929",
"#&	c #1E2320",
"$&	c #1E2220",
"%&	c #222523",
"&&	c #282D2A",
"*&	c #20211F",
"=&	c #232422",
"-&	c #272727",
";&	c #1E1D1F",
">&	c #212321",
",&	c #292929",
"'&	c #222122",
")&	c #252524",
"!&	c #222522",
"~&	c #232222",
"{&	c #222421",
"]&	c #292827",
"^&	c #242724",
"/&	c #1F2320",
"(&	c #232426",
"_&	c #171719",
":&	c #1C1F1C",
"<&	c #1F1E1F",
"[&	c #1E1E1F",
"}&	c #000000",
"|&	c #313235",
"1&	c #232321",
"2&	c #242825",
"3&	c #1C1B1B",
"4&	c #464747",
"5&	c #3B3C3B",
"6&	c #37383A",
"7&	c #373939",
"8&	c #383B39",
"9&	c #383C3C",
"0&	c #313434",
"a&	c #343334",
"b&	c #3C3D3E",
"c&	c #3A3C3F",
"d&	c #393A3C",
"e&	c #3E4244",
"f&	c #3A3C3D",
"g&	c #333536",
"h&	c #3B3D3F",
"i&	c #313332",
"j&	c #404242",
"k&	c #383A39",
"l&	c #3C3E40",
"m&	c #3A3B3C",
"n&	c #3D3F40",
"o&	c #3D4141",
"p&	c #373738",
"q&	c #383838",
"r&	c #3B3D3C",
"s&	c #3A3B3B",
"t&	c #3C3E3E",
"u&	c #3D3E3F",
"v&	c #373838",
"w&	c #414243",
"x&	c #3E4141",
"y&	c #3A3A39",
"z&	c #3B3B3C",
"A&	c #333635",
"B&	c #3C3F3F",
"C&	c #393B3A",
"D&	c #3E3F3F",
"E&	c #3C3D3D",
"F&	c #3D403E",
"G&	c #393B3D",
"H&	c #343837",
"I&	c #3E4140",
"J&	c #343636",
"K&	c #38393A",
"L&	c #393B3C",
"M&	c #3B3E3D",
"N&	c #3F4040",
"O&	c #383938",
"P&	c #3C3D3C",
"Q&	c #3A3C3C",
"R&	c #3A3C3B",
"S&	c #3D3D3E",
"T&	c #373A3A",
"U&	c #373937",
"V&	c #363938",
"W&	c #363836",
"X&	c #3A3B3A",
"Y&	c #383A3C",
"Z&	c #383B3A",
"`&	c #3B3E3C",
" *	c #393B3B",
".*	c #373737",
"+*	c #383939",
"@*	c #414544",
"#*	c #363838",
"$*	c #343737",
"%*	c #262725",
"&*	c #292B29",
"**	c #222224",
"=*	c #252627",
"-*	c #2B2B2C",
";*	c #252927",
">*	c #252727",
",*	c #1E1D1E",
"'*	c #242627",
")*	c #252827",
"!*	c #252626",
"~*	c #1E1E20",
"{*	c #222123",
"]*	c #202422",
"^*	c #1D201F",
"/*	c #191A1C",
"(*	c #292A28",
"_*	c #262626",
":*	c #1F201D",
"<*	c #282A29",
"[*	c #252726",
"}*	c #272726",
"|*	c #1D2021",
"1*	c #1A1D1C",
"2*	c #262825",
"3*	c #252526",
"4*	c #212421",
"5*	c #2A2B2B",
"6*	c #202320",
"7*	c #222625",
"8*	c #242725",
"9*	c #222121",
"0*	c #242727",
"a*	c #202421",
"b*	c #222220",
"c*	c #272725",
"d*	c #1F211E",
"e*	c #212021",
"f*	c #252724",
"g*	c #212524",
"h*	c #353635",
"i*	c #3B3D3E",
"j*	c #343535",
"k*	c #313232",
"l*	c #393D3C",
"m*	c #343534",
"n*	c #353937",
"o*	c #363A39",
"p*	c #343637",
"q*	c #363738",
"r*	c #3B3B3E",
"s*	c #3D3E40",
"t*	c #343734",
"u*	c #353536",
"v*	c #2F3130",
"w*	c #2F3232",
"x*	c #353636",
"y*	c #3E4142",
"z*	c #414444",
"A*	c #414242",
"B*	c #414142",
"C*	c #373A39",
"D*	c #3B3C3E",
"E*	c #40403F",
"F*	c #393C3A",
"G*	c #3A3D3D",
"H*	c #3F4242",
"I*	c #3C3C3C",
"J*	c #383A3E",
"K*	c #3F3F41",
"L*	c #434544",
"M*	c #3D3F3D",
"N*	c #393D3A",
"O*	c #3D403F",
"P*	c #454746",
"Q*	c #404040",
"R*	c #434646",
"S*	c #3B3C3C",
"T*	c #3B3F3D",
"U*	c #3D4140",
"V*	c #3D4040",
"W*	c #3E3F40",
"X*	c #393C3B",
"Y*	c #3E4040",
"Z*	c #444746",
"`*	c #383B3D",
" =	c #3E4242",
".=	c #3F4241",
"+=	c #36393A",
"@=	c #2F2F2F",
"#=	c #252728",
"$=	c #2A2928",
"%=	c #000100",
"&=	c #323436",
"*=	c #222120",
"==	c #2A2A2A",
"-=	c #404241",
";=	c #0B0B08",
">=	c #090908",
",=	c #050706",
"'=	c #080908",
")=	c #090909",
"!=	c #050606",
"~=	c #0A0A09",
"{=	c #050603",
"]=	c #070704",
"^=	c #070907",
"/=	c #090907",
"(=	c #070707",
"_=	c #040603",
":=	c #070706",
"<=	c #0B0A09",
"[=	c #0A0606",
"}=	c #0C0D0A",
"|=	c #070A06",
"1=	c #0A0A0A",
"2=	c #090807",
"3=	c #0E0E0B",
"4=	c #060503",
"5=	c #090808",
"6=	c #0C0B09",
"7=	c #0A0705",
"8=	c #0A0906",
"9=	c #090A08",
"0=	c #0A0907",
"a=	c #060705",
"b=	c #080A08",
"c=	c #090A06",
"d=	c #080705",
"e=	c #0D0E09",
"f=	c #080707",
"g=	c #0C0B0C",
"h=	c #080907",
"i=	c #080A07",
"j=	c #09080A",
"k=	c #040602",
"l=	c #060603",
"m=	c #0B0707",
"n=	c #0B0A07",
"o=	c #040504",
"p=	c #090B08",
"q=	c #090A09",
"r=	c #0F0F0D",
"s=	c #080806",
"t=	c #080808",
"u=	c #080805",
"v=	c #070806",
"w=	c #070705",
"x=	c #0E0E0D",
"y=	c #0A0908",
"z=	c #0A0A07",
"A=	c #0E0D0C",
"B=	c #0E0D0D",
"C=	c #0F0F0C",
"D=	c #181614",
"E=	c #1D1C1E",
"F=	c #282927",
"G=	c #292A2B",
"H=	c #232224",
"I=	c #28292A",
"J=	c #202323",
"K=	c #262928",
"L=	c #1E1F1D",
"M=	c #252624",
"N=	c #2A292A",
"O=	c #262A28",
"P=	c #252527",
"Q=	c #282B29",
"R=	c #242523",
"S=	c #282729",
"T=	c #232522",
"U=	c #292A29",
"V=	c #262927",
"W=	c #2C2C2E",
"X=	c #29292A",
"Y=	c #2C2E2F",
"Z=	c #201F1D",
"`=	c #10100E",
" -	c #11100E",
".-	c #070604",
"+-	c #060704",
"@-	c #040301",
"#-	c #050605",
"$-	c #060604",
"%-	c #080807",
"&-	c #050705",
"*-	c #090A07",
"=-	c #070506",
"--	c #080906",
";-	c #040502",
">-	c #080606",
",-	c #080608",
"'-	c #050402",
")-	c #070603",
"!-	c #070607",
"~-	c #080604",
"{-	c #070505",
"]-	c #0D0C0A",
"^-	c #040403",
"/-	c #050604",
"(-	c #0C0A0A",
"_-	c #0B0C09",
":-	c #080706",
"<-	c #090705",
"[-	c #060602",
"}-	c #050502",
"|-	c #050804",
"1-	c #060605",
"2-	c #0B0909",
"3-	c #060805",
"4-	c #090805",
"5-	c #050503",
"6-	c #0C0D0C",
"7-	c #0B0A08",
"8-	c #090905",
"9-	c #080703",
"0-	c #0B0A0A",
"a-	c #040402",
"b-	c #0C0B0B",
"c-	c #121411",
"d-	c #111210",
"e-	c #2B2C2D",
"f-	c #20201E",
"g-	c #1F1F21",
"h-	c #1F2122",
"i-	c #272628",
"j-	c #1B1D1E",
"k-	c #010300",
"l-	c #28282A",
"m-	c #2B2C2A",
"n-	c #717677",
"o-	c #616568",
"p-	c #696C6E",
"q-	c #636767",
"r-	c #65686A",
"s-	c #67696B",
"t-	c #6A6B6F",
"u-	c #66696A",
"v-	c #6B6F71",
"w-	c #6A6E6F",
"x-	c #66686B",
"y-	c #6B6D70",
"z-	c #64686A",
"A-	c #616567",
"B-	c #676B6C",
"C-	c #686B6F",
"D-	c #717576",
"E-	c #5F6165",
"F-	c #6B6E6F",
"G-	c #63686A",
"H-	c #6A6F6F",
"I-	c #676C6D",
"J-	c #74777A",
"K-	c #6A6B71",
"L-	c #64696A",
"M-	c #6E7275",
"N-	c #65686C",
"O-	c #707376",
"P-	c #626468",
"Q-	c #686B6C",
"R-	c #676C6F",
"S-	c #626668",
"T-	c #76797C",
"U-	c #696E70",
"V-	c #66686C",
"W-	c #686B70",
"X-	c #6F7173",
"Y-	c #67696C",
"Z-	c #545456",
"`-	c #7C8183",
" ;	c #232724",
".;	c #1C1F1D",
"+;	c #1C1F1E",
"@;	c #242224",
"#;	c #27292A",
"$;	c #282728",
"%;	c #222325",
"&;	c #282B2A",
"*;	c #1D1F1C",
"=;	c #2A2D2B",
"-;	c #242223",
";;	c #272A2A",
">;	c #2A2C2C",
",;	c #252826",
"';	c #272829",
");	c #262424",
"!;	c #262628",
"~;	c #1D1F21",
"{;	c #1C1E1B",
"];	c #242826",
"^;	c #2A2C29",
"/;	c #212320",
"(;	c #171613",
"_;	c #242426",
":;	c #646568",
"<;	c #646A6A",
"[;	c #6F7274",
"};	c #666B6C",
"|;	c #64686B",
"1;	c #686E6F",
"2;	c #646466",
"3;	c #686D6F",
"4;	c #555A5B",
"5;	c #707375",
"6;	c #6E7172",
"7;	c #676A6D",
"8;	c #66696C",
"9;	c #63666A",
"0;	c #666A6B",
"a;	c #6A6D6E",
"b;	c #63676A",
"c;	c #676969",
"d;	c #676A6C",
"e;	c #5F6466",
"f;	c #565B5C",
"g;	c #696E71",
"h;	c #6E7174",
"i;	c #5D6063",
"j;	c #616666",
"k;	c #66686D",
"l;	c #717476",
"m;	c #676A6B",
"n;	c #5E6164",
"o;	c #616569",
"p;	c #6B7074",
"q;	c #666B6D",
"r;	c #696B6B",
"s;	c #6A6C6E",
"t;	c #686A6C",
"u;	c #6F7174",
"v;	c #535658",
"w;	c #696C6C",
"x;	c #6B6F70",
"y;	c #494B4D",
"z;	c #0C0C0B",
"A;	c #2D2F30",
"B;	c #262929",
"C;	c #030200",
"D;	c #333433",
"E;	c #26282A",
"F;	c #282827",
"G;	c #0F110F",
"H;	c #1B1B1D",
"I;	c #181718",
"J;	c #191717",
"K;	c #191B1C",
"L;	c #181B18",
"M;	c #191D1A",
"N;	c #1D1C1B",
"O;	c #1A1A18",
"P;	c #1C1D18",
"Q;	c #0C0D09",
"R;	c #12130F",
"S;	c #1F1E1D",
"T;	c #232626",
"U;	c #1A1A1B",
"V;	c #222124",
"W;	c #2C2E2D",
"X;	c #282A2A",
"Y;	c #262525",
"Z;	c #242628",
"`;	c #1F2222",
" >	c #2D2E2E",
".>	c #2B2D2B",
"+>	c #212020",
"@>	c #141411",
"#>	c #0F100C",
"$>	c #2A2D29",
"%>	c #1B1A1A",
"&>	c #191817",
"*>	c #171618",
"=>	c #181717",
"->	c #171A18",
";>	c #201F1E",
">>	c #101112",
",>	c #1A1B1D",
"'>	c #181716",
")>	c #1A191B",
"!>	c #191A17",
"~>	c #141714",
"{>	c #121513",
"]>	c #4D504F",
"^>	c #12120E",
"/>	c #010200",
"(>	c #141612",
"_>	c #313132",
":>	c #1E221F",
"<>	c #242323",
"[>	c #272626",
"}>	c #201E1E",
"|>	c #20211D",
"1>	c #272627",
"2>	c #2A2C2A",
"3>	c #292928",
"4>	c #0F110D",
"5>	c #171714",
"6>	c #242325",
"7>	c #202022",
"8>	c #1B1D1F",
"9>	c #2A2B29",
"0>	c #1C201E",
"a>	c #252A29",
"b>	c #252422",
"c>	c #272A29",
"d>	c #212123",
"e>	c #232727",
"f>	c #212022",
"g>	c #10120E",
"h>	c #161612",
"i>	c #292C2A",
"j>	c #292727",
"k>	c #1E1F1C",
"l>	c #414241",
"m>	c #141212",
"n>	c #2B2D2C",
"o>	c #292829",
"p>	c #020100",
"q>	c #363637",
"r>	c #262426",
"s>	c #1A1E1D",
"t>	c #232223",
"u>	c #181A17",
"v>	c #3A3A3A",
"w>	c #2C2C2C",
"x>	c #0C0A08",
"y>	c #100F0A",
"z>	c #232622",
"A>	c #222426",
"B>	c #232627",
"C>	c #27282A",
"D>	c #222225",
"E>	c #2A2A2C",
"F>	c #272528",
"G>	c #262526",
"H>	c #262B28",
"I>	c #28292B",
"J>	c #232421",
"K>	c #2A2B2A",
"L>	c #282627",
"M>	c #1E2122",
"N>	c #484A49",
"O>	c #030402",
"P>	c #2F3031",
"Q>	c #343536",
"R>	c #1E211D",
"S>	c #10100B",
"T>	c #242622",
"U>	c #232225",
"V>	c #1F2322",
"W>	c #1D1C1D",
"X>	c #282727",
"Y>	c #272625",
"Z>	c #242322",
"`>	c #1E2222",
" ,	c #1C1C1D",
".,	c #2E2F30",
"+,	c #1F2321",
"@,	c #242527",
"#,	c #242422",
"$,	c #27292C",
"%,	c #131410",
"&,	c #050301",
"*,	c #1E2022",
"=,	c #272A28",
"-,	c #0A0A03",
";,	c #0C0C07",
">,	c #0A0703",
",,	c #0A0A05",
"',	c #0B0905",
"),	c #080803",
"!,	c #070803",
"~,	c #0A0A04",
"{,	c #070804",
"],	c #070602",
"^,	c #090904",
"/,	c #0B0B06",
"(,	c #090804",
"_,	c #090A04",
":,	c #0D0B07",
"<,	c #080903",
"[,	c #090903",
"},	c #070702",
"|,	c #060601",
"1,	c #050601",
"2,	c #080904",
"3,	c #070703",
"4,	c #080603",
"5,	c #070802",
"6,	c #090A03",
"7,	c #0A0904",
"8,	c #0C0A07",
"9,	c #090803",
"0,	c #0C0C06",
"a,	c #080A04",
"b,	c #080704",
"c,	c #070A02",
"d,	c #0A0B06",
"e,	c #0D0D08",
"f,	c #080702",
"g,	c #050600",
"h,	c #090704",
"i,	c #070601",
"j,	c #020200",
"k,	c #0B0A06",
"l,	c #0B0D08",
"m,	c #0C0B06",
"n,	c #0A0A06",
"o,	c #040300",
"p,	c #0A0805",
"q,	c #0B0C07",
"r,	c #0A0905",
"s,	c #0F0E09",
"t,	c #080804",
"u,	c #060703",
"v,	c #050602",
"w,	c #0B0B05",
"x,	c #0B0C08",
"y,	c #060501",
"z,	c #060400",
"A,	c #0A0B07",
"B,	c #0D0E06",
"C,	c #080602",
"D,	c #0D0C08",
"E,	c #080701",
"F,	c #0C0B08",
"G,	c #0B0D07",
"H,	c #0C0C05",
"I,	c #0B0B07",
"J,	c #090703",
"K,	c #0D0D09",
"L,	c #0C0C08",
"M,	c #060905",
"N,	c #060500",
"O,	c #070501",
"P,	c #0B0906",
"Q,	c #050401",
"R,	c #090906",
"S,	c #090A05",
"T,	c #060702",
"U,	c #070600",
"V,	c #0D0C07",
"W,	c #070902",
"X,	c #0C0A04",
"Y,	c #060701",
"Z,	c #0B0904",
"`,	c #050300",
" '	c #080802",
".'	c #040501",
"+'	c #0C0B07",
"@'	c #090B04",
"#'	c #070A04",
"$'	c #0A0704",
"%'	c #0B0C05",
"&'	c #070502",
"*'	c #070701",
"='	c #050500",
"-'	c #0A0804",
";'	c #0B0A05",
">'	c #070904",
",'	c #080A05",
"''	c #0C0C09",
")'	c #0B0903",
"!'	c #070903",
"~'	c #0A0903",
"{'	c #0C0D05",
"]'	c #0D0C06",
"^'	c #090B07",
"/'	c #070905",
"('	c #090902",
"_'	c #050400",
":'	c #090802",
"<'	c #040500",
"['	c #353737",
"}'	c #21221F",
"|'	c #222320",
"1'	c #272A27",
"2'	c #242728",
"3'	c #252928",
"4'	c #2B2C2C",
"5'	c #0D0B06",
"6'	c #0B0C06",
"7'	c #1D1C1C",
"8'	c #181915",
"9'	c #1A191A",
"0'	c #1C1B1A",
"a'	c #1C1F1F",
"b'	c #1C1E1A",
"c'	c #1B1B19",
"d'	c #181D1B",
"e'	c #191E1B",
"f'	c #191D1C",
"g'	c #1F221E",
"h'	c #1B1B18",
"i'	c #1A1B17",
"j'	c #1A1D1E",
"k'	c #1B1E1B",
"l'	c #1C2020",
"m'	c #1C201B",
"n'	c #191B1D",
"o'	c #121311",
"p'	c #2E2F2E",
"q'	c #252824",
"r'	c #10120F",
"s'	c #010000",
"t'	c #3A393B",
"u'	c #211F1F",
"v'	c #161412",
"w'	c #323434",
"x'	c #2B2B2A",
"y'	c #1C1A1B",
"z'	c #2B2B2B",
"A'	c #0D0E0A",
"B'	c #181815",
"C'	c #161916",
"D'	c #1D1B1A",
"E'	c #1E1D1C",
"F'	c #161918",
"G'	c #1E1C1B",
"H'	c #151915",
"I'	c #1C1D19",
"J'	c #18191A",
"K'	c #1B1818",
"L'	c #1B1A19",
"M'	c #212522",
"N'	c #1A1818",
"O'	c #191816",
"P'	c #1F1D1D",
"Q'	c #201F20",
"R'	c #2D302F",
"S'	c #29282A",
"T'	c #2B2E2D",
"U'	c #000200",
"V'	c #313234",
"W'	c #252628",
"X'	c #0F0E0C",
"Y'	c #0B0C0A",
"Z'	c #101011",
"`'	c #100F0C",
" )	c #0D0C09",
".)	c #141310",
"+)	c #0B0B0B",
"@)	c #0A0C09",
"#)	c #0D0F0B",
"$)	c #10110D",
"%)	c #100E0C",
"&)	c #090806",
"*)	c #080B07",
"=)	c #0C0E0A",
"-)	c #0C0E0B",
";)	c #090B09",
">)	c #0A0B0A",
",)	c #090B0A",
"')	c #0D0E0C",
"))	c #0D0F0D",
"!)	c #0C0B0A",
"~)	c #0A0C0A",
"{)	c #0D0D0D",
"])	c #0E0E0C",
"^)	c #0D0D0B",
"/)	c #0E0D0B",
"()	c #0C0908",
"_)	c #0C0C0A",
":)	c #0A0806",
"<)	c #0D0D0A",
"[)	c #0D0C0B",
"})	c #0E0F0E",
"|)	c #0D0F0E",
"1)	c #0E100D",
"2)	c #0A0B09",
"3)	c #0E0C0C",
"4)	c #0F100E",
"5)	c #0A0808",
"6)	c #0A0C08",
"7)	c #080A06",
"8)	c #0E0F0C",
"9)	c #0D0E0B",
"0)	c #0B0B09",
"a)	c #0E0D09",
"b)	c #0F0D0C",
"c)	c #0A0A08",
"d)	c #060706",
"e)	c #0C0E0C",
"f)	c #10120D",
"g)	c #0F0E0D",
"h)	c #0B0E0B",
"i)	c #0A0B08",
"j)	c #0E0D0A",
"k)	c #0B0C0B",
"l)	c #12110E",
"m)	c #11130F",
"n)	c #10100D",
"o)	c #100F0D",
"p)	c #0E0C0B",
"q)	c #0B0D0B",
"r)	c #121213",
"s)	c #0D0D0C",
"t)	c #0B0908",
"u)	c #0D0B0B",
"v)	c #0E0C0A",
"w)	c #0F0F0F",
"x)	c #0B0907",
"y)	c #0C0D0B",
"z)	c #0A0909",
"A)	c #0D0C0C",
"B)	c #0B0D09",
"C)	c #11110E",
"D)	c #0D0C0E",
"E)	c #0C0F0D",
"F)	c #070605",
"G)	c #070807",
"H)	c #0F0D0A",
"I)	c #0F0F0B",
"J)	c #101111",
"K)	c #2E3030",
"L)	c #292C29",
"M)	c #212523",
"N)	c #212525",
"O)	c #030300",
"P)	c #353738",
"Q)	c #11120F",
"R)	c #2F3132",
"S)	c #343635",
"T)	c #191B18",
"U)	c #0F110C",
"V)	c #595A5A",
"W)	c #484D4A",
"X)	c #6C6D6E",
"Y)	c #434546",
"Z)	c #545859",
"`)	c #525555",
" !	c #616164",
".!	c #505354",
"+!	c #5A5C60",
"@!	c #4B4D4E",
"#!	c #4F4F52",
"$!	c #535557",
"%!	c #575D5D",
"&!	c #59595D",
"*!	c #4A4C4D",
"=!	c #58595C",
"-!	c #5A5E5E",
";!	c #535657",
">!	c #4A4D4E",
",!	c #515555",
"'!	c #595D5F",
")!	c #616466",
"!!	c #4D5152",
"~!	c #4E5152",
"{!	c #5B6060",
"]!	c #515457",
"^!	c #525456",
"/!	c #575B5A",
"(!	c #5A5D60",
"_!	c #575959",
":!	c #555A5C",
"<!	c #595F60",
"[!	c #515455",
"}!	c #4D5050",
"|!	c #484849",
"1!	c #545557",
"2!	c #606366",
"3!	c #67676C",
"4!	c #4F5354",
"5!	c #515254",
"6!	c #5A5F61",
"7!	c #5C5F62",
"8!	c #4F5255",
"9!	c #444747",
"0!	c #57585C",
"a!	c #505254",
"b!	c #515356",
"c!	c #646669",
"d!	c #535556",
"e!	c #626768",
"f!	c #525355",
"g!	c #5D6161",
"h!	c #5A615F",
"i!	c #505256",
"j!	c #4F5254",
"k!	c #555A5A",
"l!	c #4F5556",
"m!	c #5B5F63",
"n!	c #545558",
"o!	c #505353",
"p!	c #535558",
"q!	c #535554",
"r!	c #555958",
"s!	c #535857",
"t!	c #505255",
"u!	c #56575C",
"v!	c #4E5050",
"w!	c #545757",
"x!	c #545556",
"y!	c #4F5251",
"z!	c #5C5E5E",
"A!	c #585A5B",
"B!	c #5C5B5E",
"C!	c #5C5E61",
"D!	c #515554",
"E!	c #64676A",
"F!	c #515558",
"G!	c #5B5C60",
"H!	c #5A5E5D",
"I!	c #555558",
"J!	c #535858",
"K!	c #6B6E72",
"L!	c #4F5253",
"M!	c #57585B",
"N!	c #515658",
"O!	c #57595E",
"P!	c #45484A",
"Q!	c #4C4E4F",
"R!	c #54585A",
"S!	c #555659",
"T!	c #5E6264",
"U!	c #505555",
"V!	c #3D3F3F",
"W!	c #171715",
"X!	c #232521",
"Y!	c #20231F",
"Z!	c #212325",
"`!	c #232725",
" ~	c #272926",
".~	c #393C3C",
"+~	c #030100",
"@~	c #373938",
"#~	c #2A2B2D",
"$~	c #302E2E",
"%~	c #1F211D",
"&~	c #272B2A",
"*~	c #262629",
"=~	c #262926",
"-~	c #222521",
";~	c #262624",
">~	c #2A2D2D",
",~	c #282726",
"'~	c #242321",
")~	c #262724",
"!~	c #1D1D1F",
"~~	c #201F22",
"{~	c #292C2B",
"]~	c #1D2120",
"^~	c #191A14",
"/~	c #181914",
"(~	c #2B2E2E",
"_~	c #3C3F40",
":~	c #040200",
"<~	c #313334",
"[~	c #353739",
"}~	c #12130E",
"|~	c #060502",
"1~	c #2C2D2D",
"2~	c #313335",
"3~	c #13110E",
"4~	c #2A2B2C",
"5~	c #333337",
"6~	c #0E0E09",
"7~	c #151310",
"8~	c #3B3B39",
"9~	c #363935",
"0~	c #11120E",
"a~	c #191814",
"b~	c #252829",
"c~	c #303131",
"d~	c #272729",
"e~	c #2A2C2D",
"f~	c #2D2E2D",
"g~	c #1C1E1F",
"h~	c #11110C",
"i~	c #2A2E2E",
"j~	c #161712",
"k~	c #161613",
"l~	c #11120C",
"m~	c #0A0B05",
"n~	c #1D1C1A",
"o~	c #22231F",
"p~	c #020300",
"q~	c #393937",
"r~	c #373B3C",
"s~	c #0E0E0A",
"t~	c #181B16",
"u~	c #131411",
"v~	c #181B17",
"w~	c #1C1D1F",
"x~	c #262A29",
"y~	c #222723",
"z~	c #232726",
"A~	c #282B2B",
"B~	c #2B2D2D",
"C~	c #222020",
"D~	c #12120D",
"E~	c #111010",
"F~	c #282C2D",
"G~	c #0E1009",
"H~	c #0E0F09",
"I~	c #29292B",
"J~	c #3C3C3D",
"K~	c #1B191A",
"L~	c #353736",
"M~	c #343733",
"N~	c #181A1B",
"O~	c #25292A",
"P~	c #131310",
"Q~	c #4D4D50",
"R~	c #484A4A",
"S~	c #4E5151",
"T~	c #47484A",
"U~	c #2C2F30",
"V~	c #262729",
"W~	c #11120D",
"X~	c #100E0A",
"Y~	c #1A1E19",
"Z~	c #232825",
"`~	c #2C2F2F",
" {	c #1C211F",
".{	c #1A1D1D",
"+{	c #11130E",
"@{	c #1B1F1D",
"#{	c #121212",
"${	c #141511",
"%{	c #535455",
"&{	c #484949",
"*{	c #161713",
"={	c #0F110A",
"-{	c #3D3E3C",
";{	c #010100",
">{	c #333332",
",{	c #313333",
"'{	c #211F1E",
"){	c #13110F",
"!{	c #2C2D2C",
"~{	c #100F0E",
"{{	c #333532",
"]{	c #191915",
"^{	c #242222",
"/{	c #292A2C",
"({	c #21201E",
"_{	c #1F201C",
":{	c #29292C",
"<{	c #221F20",
"[{	c #252623",
"}{	c #1C201D",
"|{	c #0F120D",
"1{	c #1D1F20",
"2{	c #0B0E08",
"3{	c #161511",
"4{	c #10130F",
"5{	c #2B2D2F",
"6{	c #494D4B",
"7{	c #282628",
"8{	c #424343",
"9{	c #151613",
"0{	c #333437",
"a{	c #1A1916",
"b{	c #161814",
"c{	c #151612",
"d{	c #191813",
"e{	c #2D2C2E",
"f{	c #1C201F",
"g{	c #222420",
"h{	c #2E3132",
"i{	c #303231",
"j{	c #323637",
"k{	c #2B2D2E",
"l{	c #080905",
"m{	c #0F0E0A",
"n{	c #0F0D0B",
"o{	c #12120F",
"p{	c #11100F",
"q{	c #151512",
"r{	c #0D0B08",
"s{	c #0E100A",
"t{	c #14140E",
"u{	c #10110C",
"v{	c #11110D",
"w{	c #13130F",
"x{	c #171713",
"y{	c #11100C",
"z{	c #13120F",
"A{	c #0F110E",
"B{	c #0F0E0B",
"C{	c #110F0B",
"D{	c #13120E",
"E{	c #11100D",
"F{	c #0C0E09",
"G{	c #0F0E08",
"H{	c #0D0E0D",
"I{	c #0E0F0B",
"J{	c #12110F",
"K{	c #0E0F0A",
"L{	c #14130F",
"M{	c #0C0D07",
"N{	c #100F0B",
"O{	c #110F0E",
"P{	c #151511",
"Q{	c #151713",
"R{	c #141110",
"S{	c #12110D",
"T{	c #0F0F0A",
"U{	c #0E100B",
"V{	c #100E0D",
"W{	c #14120F",
"X{	c #161610",
"Y{	c #12120C",
"Z{	c #10110B",
"`{	c #121510",
" ]	c #121210",
".]	c #110F0A",
"+]	c #11100B",
"@]	c #110F0D",
"#]	c #121410",
"$]	c #0C0D08",
"%]	c #151412",
"&]	c #0F100A",
"*]	c #141510",
"=]	c #0D0F0A",
"-]	c #10120C",
";]	c #14140F",
">]	c #0F100B",
",]	c #141410",
"']	c #120F0E",
")]	c #13130E",
"!]	c #161516",
"~]	c #130F0C",
"{]	c #161513",
"]]	c #0F0D09",
"^]	c #282826",
"/]	c #424344",
"(]	c #171511",
"_]	c #323233",
":]	c #0F0F09",
"<]	c #252522",
"[]	c #0E0C08",
"}]	c #11110B",
"|]	c #12100B",
"1]	c #10110A",
"2]	c #100E0B",
"3]	c #10120A",
"4]	c #10100A",
"5]	c #12100E",
"6]	c #11110A",
"7]	c #12110C",
"8]	c #100F09",
"9]	c #13120C",
"0]	c #11130C",
"a]	c #0F110B",
"b]	c #12100C",
"c]	c #110D0A",
"d]	c #110F0C",
"e]	c #13110D",
"f]	c #13120D",
"g]	c #12130D",
"h]	c #120E0D",
"i]	c #0E1008",
"j]	c #110E0B",
"k]	c #0E0D08",
"l]	c #11120A",
"m]	c #171A16",
"n]	c #111512",
"o]	c #171814",
"p]	c #1A1A16",
"q]	c #1A1A17",
"r]	c #4E504F",
"s]	c #111411",
"t]	c #040201",
"u]	c #36383B",
"v]	c #0F0F0E",
"w]	c #37393A",
"x]	c #0C0C0D",
"y]	c #171516",
"z]	c #191916",
"A]	c #0D0F08",
"B]	c #151815",
"C]	c #0E0F08",
"D]	c #0E0E08",
"E]	c #090B05",
"F]	c #0D0D07",
"G]	c #0B0E09",
"H]	c #0D0F09",
"I]	c #0E100C",
"J]	c #0D100B",
"K]	c #0D0F0C",
"L]	c #0C0E08",
"M]	c #0D100A",
"N]	c #0F1009",
"O]	c #0E110B",
"P]	c #0D0E08",
"Q]	c #0E0E07",
"R]	c #0C0D06",
"S]	c #13140E",
"T]	c #2C2B2F",
"U]	c #141713",
"V]	c #2E2E2E",
"W]	c #141211",
"X]	c #333333",
"Y]	c #161410",
"Z]	c #2A2A2D",
"`]	c #2D2E31",
" ^	c #080601",
".^	c #0B0E06",
"+^	c #0C0A09",
"@^	c #0C0A06",
"#^	c #0B0D05",
"$^	c #080A02",
"%^	c #090B03",
"&^	c #0B0803",
"*^	c #080A03",
"=^	c #070805",
"-^	c #0B0A04",
";^	c #0B0805",
">^	c #070A05",
",^	c #0B0804",
"'^	c #0A0B04",
")^	c #080B04",
"!^	c #090B06",
"~^	c #0B0B04",
"{^	c #0A0C06",
"]^	c #0A0C07",
"^^	c #222526",
"/^	c #303232",
"(^	c #0E0B06",
"_^	c #2E2F2D",
":^	c #161310",
"<^	c #2D2F2E",
"[^	c #303133",
"}^	c #0E0C09",
"|^	c #131010",
"1^	c #0E0B09",
"2^	c #0A0D06",
"3^	c #0D0B09",
"4^	c #0C0A05",
"5^	c #0C0B05",
"6^	c #0B0F09",
"7^	c #0D0E07",
"8^	c #252A28",
"9^	c #252926",
"0^	c #2A2D2E",
"a^	c #181814",
"b^	c #373A3C",
"c^	c #191C18",
"d^	c #2C2F2D",
"e^	c #2D2D2F",
"f^	c #161514",
"g^	c #323231",
"h^	c #1B1A18",
"i^	c #070503",
"j^	c #1C1C19",
"k^	c #2E302F",
"l^	c #2C2D2F",
"m^	c #191815",
"n^	c #090603",
"o^	c #0B0E07",
"p^	c #0A0D08",
"q^	c #0C0F0A",
"r^	c #0C0E07",
"s^	c #0A0C05",
"t^	c #0A0D07",
"u^	c #0E110C",
"v^	c #0B0D0A",
"w^	c #0A0D09",
"x^	c #0E110A",
"y^	c #0D0F07",
"z^	c #0B0D06",
"A^	c #161919",
"B^	c #343537",
"C^	c #272825",
"D^	c #131611",
"E^	c #303333",
"F^	c #323230",
"G^	c #2A2A29",
"H^	c #313433",
"I^	c #1D1D1A",
"J^	c #2B2F2E",
"K^	c #12120B",
"L^	c #181714",
"M^	c #131212",
"N^	c #111510",
"O^	c #10130E",
"P^	c #0C0F0C",
"Q^	c #11130D",
"R^	c #121611",
"S^	c #12140F",
"T^	c #13140F",
"U^	c #0F130C",
"V^	c #110E0F",
"W^	c #11140F",
"X^	c #0F130D",
"Y^	c #0F120C",
"Z^	c #121110",
"`^	c #121511",
" /	c #0F120F",
"./	c #0D0D06",
"+/	c #212425",
"@/	c #2F2E2F",
"#/	c #1F1C1E",
"$/	c #323432",
"%/	c #2C2C2D",
"&/	c #3D3D3D",
"*/	c #2D2D2D",
"=/	c #0E0D07",
"-/	c #151411",
";/	c #141210",
">/	c #111410",
",/	c #11140E",
"'/	c #131511",
")/	c #0F0E0F",
"!/	c #141712",
"~/	c #151611",
"{/	c #141611",
"]/	c #0F1110",
"^/	c #090C04",
"//	c #323334",
"(/	c #151814",
"_/	c #313230",
":/	c #171614",
"</	c #444547",
"[/	c #30302F",
"}/	c #101008",
"|/	c #12100F",
"1/	c #0E110D",
"2/	c #131612",
"3/	c #131510",
"4/	c #151410",
"5/	c #151312",
"6/	c #121313",
"7/	c #151816",
"8/	c #2F3233",
"9/	c #292C2C",
"0/	c #2A2F2E",
"a/	c #333634",
"b/	c #21211E",
"c/	c #4A4B4D",
"d/	c #171915",
"e/	c #3F4343",
"f/	c #2F3032",
"g/	c #141313",
"h/	c #161711",
"i/	c #161512",
"j/	c #151712",
"k/	c #0F120E",
"l/	c #161813",
"m/	c #1D1B19",
"n/	c #100F0F",
"o/	c #0E100E",
"p/	c #191D1B",
"q/	c #050702",
"r/	c #313436",
"s/	c #333839",
"t/	c #323735",
"u/	c #3B3D3D",
"v/	c #1A1D1A",
"w/	c #020402",
"x/	c #363737",
"y/	c #474849",
"z/	c #181516",
"A/	c #4A4D4D",
"B/	c #070700",
"C/	c #080C06",
"D/	c #151311",
"E/	c #12100D",
"F/	c #161413",
"G/	c #111511",
"H/	c #0E0F0F",
"I/	c #131613",
"J/	c #121612",
"K/	c #0F1310",
"L/	c #181615",
"M/	c #191715",
"N/	c #161915",
"O/	c #222626",
"P/	c #080700",
"Q/	c #333435",
"R/	c #252825",
"S/	c #3B3E3F",
"T/	c #414344",
"U/	c #272A2B",
"V/	c #2E2F31",
"W/	c #060801",
"X/	c #121010",
"Y/	c #161414",
"Z/	c #181715",
"`/	c #12140E",
" (	c #161A16",
".(	c #1B1919",
"+(	c #181613",
"@(	c #141314",
"#(	c #1B1917",
"$(	c #1B1C18",
"%(	c #2D2F2F",
"&(	c #2C2F2E",
"*(	c #353735",
"=(	c #090D0C",
"-(	c #2F3230",
";(	c #2F3131",
">(	c #1F1E1C",
",(	c #2E312F",
"'(	c #2D2F2D",
")(	c #030301",
"!(	c #030302",
"~(	c #0C0F0B",
"{(	c #202224",
"](	c #474949",
"^(	c #222724",
"/(	c #131614",
"((	c #171515",
"_(	c #111313",
":(	c #161415",
"<(	c #1F231E",
"[(	c #1A1C18",
"}(	c #1B1D19",
"|(	c #171813",
"1(	c #262524",
"2(	c #1B1E1A",
"3(	c #363936",
"4(	c #151914",
"5(	c #171514",
"6(	c #181A16",
"7(	c #1D1E20",
"8(	c #15140F",
"9(	c #282B28",
"0(	c #525354",
"a(	c #5B6061",
"b(	c #565D5D",
"c(	c #5F6564",
"d(	c #222326",
"e(	c #333434",
"f(	c #2E3032",
"g(	c #1B1A17",
"h(	c #151813",
"i(	c #151415",
"j(	c #161A18",
"k(	c #171A15",
"l(	c #141715",
"m(	c #1A1B16",
"n(	c #101310",
"o(	c #252324",
"p(	c #21231F",
"q(	c #1B1A1C",
"r(	c #262A2A",
"s(	c #181617",
"t(	c #161618",
"u(	c #151313",
"v(	c #151510",
"w(	c #1F2022",
"x(	c #1E1C1D",
"y(	c #1A1D18",
"z(	c #141616",
"A(	c #181616",
"B(	c #171B18",
"C(	c #0D0C05",
"D(	c #323534",
"E(	c #060600",
"F(	c #181C1A",
"G(	c #151A16",
"H(	c #2E3131",
"I(	c #1D1B1C",
"J(	c #343435",
"K(	c #1F1D1C",
"L(	c #292D2D",
"M(	c #12110B",
"N(	c #181719",
"O(	c #171C1A",
"P(	c #131112",
"Q(	c #1A1817",
"R(	c #1C1B1D",
"S(	c #14150E",
"T(	c #0F0C08",
"U(	c #2D2E2F",
"V(	c #2E2F2F",
"W(	c #232326",
"X(	c #2C2D2E",
"Y(	c #0A0803",
"Z(	c #1C1A1A",
"`(	c #1E1B1B",
" _	c #181C19",
"._	c #1A1E1B",
"+_	c #141213",
"@_	c #1A1A1C",
"#_	c #1A1917",
"$_	c #151416",
"%_	c #0A0C04",
"&_	c #14120D",
"*_	c #141214",
"=_	c #2D2D2E",
"-_	c #030501",
";_	c #0D0A08",
">_	c #1A1E1C",
",_	c #191719",
"'_	c #151916",
")_	c #232122",
"!_	c #19181B",
"~_	c #19171A",
"{_	c #19181A",
"]_	c #2D302E",
"^_	c #0A0E08",
"/_	c #282825",
"(_	c #333436",
"__	c #2B2E2C",
":_	c #1D1B1D",
"<_	c #1B1819",
"[_	c #161517",
"}_	c #262A27",
"|_	c #323332",
"1_	c #191716",
"2_	c #1E1C1C",
"3_	c #1E1D20",
"4_	c #1B1918",
"5_	c #211F21",
"6_	c #1C1F1B",
"7_	c #111513",
"8_	c #0F0D08",
"9_	c #393A3B",
"0_	c #292A2E",
"a_	c #1C1A19",
"b_	c #131515",
"c_	c #1C1C1F",
"d_	c #0A0802",
"e_	c #272B29",
"f_	c #323232",
"g_	c #1E1E1B",
"h_	c #161819",
"i_	c #18191B",
"j_	c #27292B",
"k_	c #202324",
"l_	c #0D0A07",
"m_	c #201E1F",
"n_	c #1D1F1A",
"o_	c #121613",
"p_	c #1B1C1E",
"q_	c #2D2E30",
"r_	c #2F3134",
"s_	c #090A02",
"t_	c #292C2D",
"u_	c #313131",
"v_	c #080801",
"w_	c #121614",
"x_	c #1E1E21",
"y_	c #0C0F09",
"z_	c #353434",
"A_	c #17181A",
"B_	c #3C3B3C",
"C_	c #1C1C1E",
"D_	c #323433",
"E_	c #181C18",
"F_	c #1D1B1B",
"G_	c #323335",
"H_	c #262527",
"I_	c #030000",
"J_	c #323333",
"K_	c #2A2E2D",
"L_	c #2A2C2E",
"M_	c #1E1F21",
"N_	c #161A17",
"O_	c #151818",
"P_	c #1F2123",
"Q_	c #1F1E20",
"R_	c #090702",
"S_	c #242528",
"T_	c #3E3F42",
"U_	c #2E3034",
"V_	c #252325",
"W_	c #2A2E2F",
"X_	c #110E0C",
"Y_	c #131110",
"Z_	c #13100F",
"`_	c #131111",
" :	c #35383A",
".:	c #0A0801",
"+:	c #2E3130",
"@:	c #363837",
"#:	c #191C17",
"$:	c #1C1D20",
"%:	c #14120E",
"&:	c #0D100E",
"*:	c #0F120B",
"=:	c #0D100C",
"-:	c #0E0B08",
";:	c #292828",
">:	c #1B1E1F",
",:	c #3D4142",
"':	c #070801",
"):	c #12130C",
"!:	c #1E1D1B",
"~:	c #141914",
"{:	c #191A16",
"]:	c #151718",
"^:	c #181B1B",
"/:	c #38393B",
"(:	c #0F0D0D",
"_:	c #282A2C",
"::	c #373839",
"<:	c #333636",
"[:	c #121610",
"}:	c #080902",
"|:	c #171B19",
"1:	c #2D3032",
"2:	c #28282B",
"3:	c #060803",
"4:	c #040805",
"5:	c #050703",
"6:	c #050704",
"7:	c #0A0D0B",
"8:	c #050504",
"9:	c #090706",
"0:	c #040302",
"a:	c #070908",
"b:	c #060804",
"c:	c #040503",
"d:	c #060807",
"e:	c #060506",
"f:	c #070606",
"g:	c #070808",
"h:	c #020501",
"i:	c #060806",
"j:	c #050403",
"k:	c #0A0902",
"l:	c #343739",
"m:	c #0C0E0D",
"n:	c #191615",
"o:	c #0F0C09",
"p:	c #303334",
"q:	c #1D201B",
"r:	c #040401",
"s:	c #282C2A",
"t:	c #56575B",
"u:	c #525758",
"v:	c #323435",
"w:	c #3A3A3C",
"x:	c #353836",
"y:	c #363739",
"z:	c #303434",
"A:	c #2F2E30",
"B:	c #303033",
"C:	c #2E2F32",
"D:	c #2E3031",
"E:	c #313435",
"F:	c #333534",
"G:	c #313233",
"H:	c #303435",
"I:	c #333334",
"J:	c #333535",
"K:	c #3C4041",
"L:	c #353538",
"M:	c #2F2F31",
"N:	c #424446",
"O:	c #2E2D30",
"P:	c #3E3F41",
"Q:	c #363638",
"R:	c #343436",
"S:	c #353638",
"T:	c #39393A",
"U:	c #2E2C2F",
"V:	c #303032",
"W:	c #38383A",
"X:	c #343337",
"Y:	c #373739",
"Z:	c #3E3D3F",
"`:	c #3F4142",
" <	c #323234",
".<	c #323536",
"+<	c #37393B",
"@<	c #383B3C",
"#<	c #353535",
"$<	c #39393B",
"%<	c #403F42",
"&<	c #3A3A3B",
"*<	c #303234",
"=<	c #3B3C3D",
"-<	c #333336",
";<	c #3B3D40",
"><	c #353637",
",<	c #3A3B3D",
"'<	c #363839",
")<	c #3C3E41",
"!<	c #393A3E",
"~<	c #3C3B3D",
"{<	c #343335",
"]<	c #323535",
"^<	c #323537",
"/<	c #3F3F42",
"(<	c #404143",
"_<	c #35373C",
":<	c #2F3234",
"<<	c #383739",
"[<	c #3A3D3F",
"}<	c #3B3C3F",
"|<	c #303233",
"1<	c #343838",
"2<	c #3B3E3E",
"3<	c #3D3E3E",
"4<	c #343638",
"5<	c #343738",
"6<	c #404243",
"7<	c #3E3E41",
"8<	c #333638",
"9<	c #353438",
"0<	c #3E4043",
"a<	c #393D3F",
"b<	c #414245",
"c<	c #353939",
"d<	c #3A3C3E",
"e<	c #383C3B",
"f<	c #353639",
"g<	c #303130",
"h<	c #3D3D40",
"i<	c #3B3F40",
"j<	c #525457",
"k<	c #121112",
"l<	c #313336",
"m<	c #222725",
"n<	c #101211",
"o<	c #272525",
"p<	c #4E4F53",
"q<	c #1F1D1E",
"r<	c #272527",
"s<	c #232220",
"t<	c #201F21",
"u<	c #211F20",
"v<	c #1D1C1F",
"w<	c #414345",
"x<	c #1B1E19",
"y<	c #292A2D",
"z<	c #131716",
"A<	c #161A15",
"B<	c #4D4F51",
"C<	c #252323",
"D<	c #2E2E30",
"E<	c #494E4F",
"F<	c #353433",
"G<	c #3E4145",
"H<	c #0B0B03",
"I<	c #2F3133",
"J<	c #303230",
"K<	c #161611",
"L<	c #080B08",
"M<	c #464848",
"N<	c #1B191B",
"O<	c #211E1E",
"P<	c #211E1F",
"Q<	c #232123",
"R<	c #252223",
"S<	c #1F1A1A",
"T<	c #262425",
"U<	c #252322",
"V<	c #44494A",
"W<	c #313130",
"X<	c #2C2C2B",
"Y<	c #131713",
"Z<	c #191914",
"`<	c #505153",
" [	c #22211F",
".[	c #201D1E",
"+[	c #1D1A1B",
"@[	c #1E1A1D",
"#[	c #201D1F",
"$[	c #201E1D",
"%[	c #211D1C",
"&[	c #222022",
"*[	c #252225",
"=[	c #252222",
"-[	c #221F21",
";[	c #211E20",
">[	c #242121",
",[	c #3B3D41",
"'[	c #0D0B0A",
")[	c #282B2C",
"![	c #303331",
"~[	c #0F0F08",
"{[	c #494D4E",
"][	c #232120",
"^[	c #1F1C1C",
"/[	c #1F1C1D",
"([	c #1C191B",
"_[	c #1E1B1C",
":[	c #22201F",
"<[	c #1A1717",
"[[	c #252321",
"}[	c #2A2929",
"|[	c #221E1F",
"1[	c #201D1D",
"2[	c #23201E",
"3[	c #201B1C",
"4[	c #282626",
"5[	c #262324",
"6[	c #232021",
"7[	c #262423",
"8[	c #232121",
"9[	c #23211F",
"0[	c #262323",
"a[	c #242022",
"b[	c #2B2B2D",
"c[	c #393D3D",
"d[	c #2F3231",
"e[	c #1A1C1E",
"f[	c #181514",
"g[	c #0A0702",
"h[	c #0C0F08",
"i[	c #1D1E1A",
"j[	c #181D19",
"k[	c #060700",
"l[	c #47494D",
"m[	c #211D1D",
"n[	c #242221",
"o[	c #252326",
"p[	c #232020",
"q[	c #221F1E",
"r[	c #1C1A18",
"s[	c #231F20",
"t[	c #262523",
"u[	c #272526",
"v[	c #242122",
"w[	c #272323",
"x[	c #292625",
"y[	c #1C1E20",
"z[	c #1C1B1E",
"A[	c #353537",
"B[	c #080500",
"C[	c #3B403F",
"D[	c #060903",
"E[	c #070500",
"F[	c #303132",
"G[	c #20201D",
"H[	c #444446",
"I[	c #232124",
"J[	c #221E1E",
"K[	c #272425",
"L[	c #272424",
"M[	c #1E1A1B",
"N[	c #242123",
"O[	c #2C2728",
"P[	c #211D1E",
"Q[	c #282424",
"R[	c #242021",
"S[	c #272223",
"T[	c #242020",
"U[	c #252221",
"V[	c #252122",
"W[	c #211C1D",
"X[	c #221D1E",
"Y[	c #231E20",
"Z[	c #221C1E",
"`[	c #221F1D",
" }	c #1E1B1A",
".}	c #1F1D1B",
"+}	c #262222",
"@}	c #201C1C",
"#}	c #272524",
"$}	c #272322",
"%}	c #1C1919",
"&}	c #272522",
"*}	c #282526",
"=}	c #292626",
"-}	c #1E1A1A",
";}	c #232022",
">}	c #1A1B1E",
",}	c #202523",
"'}	c #1E1F1B",
")}	c #343839",
"!}	c #3A3F3F",
"~}	c #141812",
"{}	c #0F0C0B",
"]}	c #111213",
"^}	c #1E1919",
"/}	c #242124",
"(}	c #221F1F",
"_}	c #211D1F",
":}	c #262223",
"<}	c #282325",
"[}	c #231E1E",
"}}	c #282425",
"|}	c #221D1C",
"1}	c #292524",
"2}	c #1C1918",
"3}	c #2A2727",
"4}	c #252020",
"5}	c #282324",
"6}	c #221D1D",
"7}	c #272423",
"8}	c #262121",
"9}	c #201D1C",
"0}	c #261F21",
"a}	c #282223",
"b}	c #201C1E",
"c}	c #252021",
"d}	c #221D1F",
"e}	c #231D1E",
"f}	c #25211F",
"g}	c #262122",
"h}	c #272324",
"i}	c #282322",
"j}	c #272221",
"k}	c #211E1D",
"l}	c #282524",
"m}	c #231C1F",
"n}	c #242023",
"o}	c #262322",
"p}	c #464749",
"q}	c #3E4041",
"r}	c #4B4C4D",
"s}	c #262123",
"t}	c #1C1819",
"u}	c #1F1A1B",
"v}	c #292726",
"w}	c #272523",
"x}	c #241E20",
"y}	c #272122",
"z}	c #282423",
"A}	c #211C1B",
"B}	c #252120",
"C}	c #2A2526",
"D}	c #241F20",
"E}	c #241E1E",
"F}	c #262021",
"G}	c #221C1C",
"H}	c #292526",
"I}	c #252121",
"J}	c #231D1D",
"K}	c #262020",
"L}	c #231D1C",
"M}	c #2D2828",
"N}	c #2F2A2A",
"O}	c #282122",
"P}	c #251F1D",
"Q}	c #262120",
"R}	c #26201E",
"S}	c #241F1F",
"T}	c #282121",
"U}	c #221E1D",
"V}	c #201A1B",
"W}	c #292425",
"X}	c #282222",
"Y}	c #252220",
"Z}	c #1C1817",
"`}	c #1B1B1E",
" |	c #1A191C",
".|	c #090701",
"+|	c #161411",
"@|	c #464849",
"#|	c #3D3D3F",
"$|	c #2B2624",
"%|	c #262221",
"&|	c #2B2828",
"*|	c #251D1E",
"=|	c #251F1E",
"-|	c #241D1F",
";|	c #2A2626",
">|	c #2B2526",
",|	c #241E1D",
"'|	c #2A2524",
")|	c #292424",
"!|	c #272020",
"~|	c #292323",
"{|	c #26201F",
"]|	c #261E1F",
"^|	c #272222",
"/|	c #2A2625",
"(|	c #231E1F",
"_|	c #292324",
":|	c #2A2323",
"<|	c #1F1B1A",
"[|	c #261F1F",
"}|	c #292423",
"||	c #241E1F",
"1|	c #1F1C19",
"2|	c #292221",
"3|	c #221A1B",
"4|	c #272021",
"5|	c #261F20",
"6|	c #261F1E",
"7|	c #251F21",
"8|	c #201A19",
"9|	c #25201F",
"0|	c #2B2626",
"a|	c #241C1D",
"b|	c #292525",
"c|	c #121113",
"d|	c #454647",
"e|	c #070A03",
"f|	c #373B3A",
"g|	c #272125",
"h|	c #1B1717",
"i|	c #2A2525",
"j|	c #251E1F",
"k|	c #211C1C",
"l|	c #292322",
"m|	c #241E1C",
"n|	c #282021",
"o|	c #2D2625",
"p|	c #282020",
"q|	c #272121",
"r|	c #261D1E",
"s|	c #292123",
"t|	c #2A2223",
"u|	c #292022",
"v|	c #2B2524",
"w|	c #251F20",
"x|	c #241F1D",
"y|	c #292223",
"z|	c #2A2321",
"A|	c #211B1B",
"B|	c #261E20",
"C|	c #2E2528",
"D|	c #241D1E",
"E|	c #1D1616",
"F|	c #2B2323",
"G|	c #271F1F",
"H|	c #2A2423",
"I|	c #2A2122",
"J|	c #2E2525",
"K|	c #2B2223",
"L|	c #2A2222",
"M|	c #2C2324",
"N|	c #292021",
"O|	c #2E2524",
"P|	c #271F21",
"Q|	c #2D2426",
"R|	c #211B1A",
"S|	c #2D2726",
"T|	c #1F171A",
"U|	c #221B1E",
"V|	c #282123",
"W|	c #20191A",
"X|	c #272023",
"Y|	c #2E2929",
"Z|	c #3A3E3D",
"`|	c #0B0C0C",
" 1	c #424445",
".1	c #3C3E3F",
"+1	c #2D2C2D",
"@1	c #1E2023",
"#1	c #393D3B",
"$1	c #272325",
"%1	c #22201E",
"&1	c #282120",
"*1	c #2E2526",
"=1	c #231C1B",
"-1	c #292121",
";1	c #1D1717",
">1	c #241D1C",
",1	c #231C1E",
"'1	c #2C2626",
")1	c #2F2626",
"!1	c #251E1D",
"~1	c #281F21",
"{1	c #302627",
"]1	c #251E1E",
"^1	c #2B2424",
"/1	c #292120",
"(1	c #2A2120",
"_1	c #2D2624",
":1	c #332B29",
"<1	c #2B2324",
"[1	c #281F20",
"}1	c #312827",
"|1	c #261C1F",
"11	c #292222",
"21	c #27201F",
"31	c #2E2827",
"41	c #312629",
"51	c #291F20",
"61	c #2E2423",
"71	c #2E2424",
"81	c #302727",
"91	c #2E2323",
"01	c #2C2323",
"a1	c #2D2423",
"b1	c #2B2121",
"c1	c #2D2222",
"d1	c #2F2628",
"e1	c #322626",
"f1	c #251D1F",
"g1	c #261C1D",
"h1	c #241B1B",
"i1	c #2D2524",
"j1	c #251D1C",
"k1	c #262022",
"l1	c #2C2123",
"m1	c #271E1F",
"n1	c #261E1E",
"o1	c #292623",
"p1	c #3F4445",
"q1	c #25272A",
"r1	c #0C0904",
"s1	c #424645",
"t1	c #1B1F1E",
"u1	c #251E20",
"v1	c #2B2123",
"w1	c #292122",
"x1	c #2A2422",
"y1	c #2C2325",
"z1	c #2A2021",
"A1	c #28201F",
"B1	c #2B2322",
"C1	c #211A19",
"D1	c #302527",
"E1	c #281C1E",
"F1	c #292020",
"G1	c #271F20",
"H1	c #2B2020",
"I1	c #2D2221",
"J1	c #281E1F",
"K1	c #322727",
"L1	c #2D2323",
"M1	c #2D2122",
"N1	c #2D2320",
"O1	c #2A2221",
"P1	c #281D1E",
"Q1	c #221717",
"R1	c #2C2120",
"S1	c #291E1E",
"T1	c #322628",
"U1	c #2F2524",
"V1	c #322927",
"W1	c #302626",
"X1	c #332727",
"Y1	c #2F2523",
"Z1	c #281E1E",
"`1	c #332828",
" 2	c #271D1D",
".2	c #2E2325",
"+2	c #2D2123",
"@2	c #322525",
"#2	c #2C2222",
"$2	c #2B2120",
"%2	c #2D2021",
"&2	c #241A19",
"*2	c #2C2422",
"=2	c #271D1C",
"-2	c #2C1D1E",
";2	c #2C1F1F",
">2	c #332526",
",2	c #2D2220",
"'2	c #352B28",
")2	c #302426",
"!2	c #2E2021",
"~2	c #2E2121",
"{2	c #2E2223",
"]2	c #322527",
"^2	c #291E1F",
"/2	c #2C2421",
"(2	c #2A1F1D",
"_2	c #2E2422",
":2	c #271E1E",
"<2	c #261D1B",
"[2	c #201B1A",
"}2	c #282525",
"|2	c #090A0B",
"12	c #292124",
"22	c #332928",
"32	c #3D3735",
"42	c #3A2C2E",
"52	c #3F2F32",
"62	c #392A2B",
"72	c #3B2E2F",
"82	c #392929",
"92	c #382929",
"02	c #3B2C2B",
"a2	c #3E2F2E",
"b2	c #423132",
"c2	c #3B2C2A",
"d2	c #443333",
"e2	c #402E30",
"f2	c #463232",
"g2	c #453130",
"h2	c #4A3636",
"i2	c #493334",
"j2	c #433130",
"k2	c #3F302D",
"l2	c #453433",
"m2	c #3C2E2D",
"n2	c #4B3838",
"o2	c #4A3535",
"p2	c #402C2B",
"q2	c #483332",
"r2	c #463330",
"s2	c #453031",
"t2	c #473232",
"u2	c #453435",
"v2	c #433234",
"w2	c #412E2C",
"x2	c #443230",
"y2	c #4C3530",
"z2	c #433333",
"A2	c #41322F",
"B2	c #412F2E",
"C2	c #3D2E2C",
"D2	c #3B2B2A",
"E2	c #3E2929",
"F2	c #412D2B",
"G2	c #43302C",
"H2	c #473533",
"I2	c #473336",
"J2	c #3F2E2F",
"K2	c #3D2A29",
"L2	c #3E2D2B",
"M2	c #3B2A28",
"N2	c #402E2B",
"O2	c #402F30",
"P2	c #443132",
"Q2	c #3C2929",
"R2	c #483234",
"S2	c #412F31",
"T2	c #402D2E",
"U2	c #463132",
"V2	c #382626",
"W2	c #462F2F",
"X2	c #3B2728",
"Y2	c #452F2D",
"Z2	c #44302F",
"`2	c #3C2A28",
" 3	c #3D2828",
".3	c #493231",
"+3	c #422D2B",
"@3	c #442F2C",
"#3	c #45322F",
"$3	c #3C2727",
"%3	c #3B2928",
"&3	c #3F2E2D",
"*3	c #412B2A",
"=3	c #3C2625",
"-3	c #3F2A2A",
";3	c #4C3637",
">3	c #3A2925",
",3	c #3C2A27",
"'3	c #452E2C",
")3	c #483031",
"!3	c #473536",
"~3	c #3F302F",
"{3	c #3A2D2C",
"]3	c #342928",
"^3	c #2E2425",
"/3	c #444848",
"(3	c #1C1F20",
"_3	c #0F0E0E",
":3	c #151812",
"<3	c #181C1B",
"[3	c #434648",
"}3	c #271B1B",
"|3	c #120207",
"13	c #000202",
"23	c #040002",
"33	c #000300",
"43	c #000400",
"53	c #020000",
"63	c #060000",
"73	c #070000",
"83	c #050000",
"93	c #000500",
"03	c #040000",
"a3	c #060100",
"b3	c #040100",
"c3	c #020500",
"d3	c #010803",
"e3	c #040601",
"f3	c #0F0907",
"g3	c #1A1910",
"h3	c #322F30",
"i3	c #2A2627",
"j3	c #24282A",
"k3	c #444849",
"l3	c #0A0C0B",
"m3	c #2F2F32",
"n3	c #202424",
"o3	c #0B0A03",
"p3	c #424444",
"q3	c #212426",
"r3	c #282224",
"s3	c #7D271C",
"t3	c #84271B",
"u3	c #942D22",
"v3	c #9A312B",
"w3	c #9F2826",
"x3	c #9E3023",
"y3	c #9F3026",
"z3	c #9A3124",
"A3	c #A02E26",
"B3	c #A12F24",
"C3	c #A2302B",
"D3	c #A43328",
"E3	c #A4312C",
"F3	c #A23022",
"G3	c #A13229",
"H3	c #9F3425",
"I3	c #9F3226",
"J3	c #A32D24",
"K3	c #9F2D21",
"L3	c #A42F23",
"M3	c #A13024",
"N3	c #A33222",
"O3	c #A22E23",
"P3	c #A22E24",
"Q3	c #9F3029",
"R3	c #9D2F29",
"S3	c #9B2F28",
"T3	c #A13028",
"U3	c #A13025",
"V3	c #A52F26",
"W3	c #A12C21",
"X3	c #A53329",
"Y3	c #A53226",
"Z3	c #A63629",
"`3	c #A32F24",
" 4	c #9F2C25",
".4	c #9D3124",
"+4	c #A23223",
"@4	c #9C3026",
"#4	c #9D2E24",
"$4	c #9F2D25",
"%4	c #A42C27",
"&4	c #A12F26",
"*4	c #A52A23",
"=4	c #A83127",
"-4	c #9F3125",
";4	c #9F3024",
">4	c #9D2E28",
",4	c #9A2D22",
"'4	c #9C2F21",
")4	c #9C2C25",
"!4	c #9B2F26",
"~4	c #A32F27",
"{4	c #A32D27",
"]4	c #9C2E27",
"^4	c #9F2D24",
"/4	c #9B2F27",
"(4	c #9B2C24",
"_4	c #A43028",
":4	c #A23028",
"<4	c #A73325",
"[4	c #A02D26",
"}4	c #9F2F23",
"|4	c #9D3027",
"14	c #9F2E26",
"24	c #9F2D26",
"34	c #9E2E26",
"44	c #9C2D20",
"54	c #A32F23",
"64	c #A13023",
"74	c #9E2E24",
"84	c #9A2D24",
"94	c #9B2D24",
"04	c #992D26",
"a4	c #9A2820",
"b4	c #973425",
"c4	c #963224",
"d4	c #943125",
"e4	c #912C22",
"f4	c #8A2C24",
"g4	c #832C21",
"h4	c #37140B",
"i4	c #251B1B",
"j4	c #1F1F22",
"k4	c #434746",
"l4	c #2B2E2F",
"m4	c #131814",
"n4	c #2E2625",
"o4	c #150F09",
"p4	c #472B26",
"q4	c #AA2C23",
"r4	c #D2362D",
"s4	c #D73A2B",
"t4	c #E64131",
"u4	c #F34738",
"v4	c #FB4832",
"w4	c #FE4B34",
"x4	c #FB4D34",
"y4	c #FC4A37",
"z4	c #FD4937",
"A4	c #FD4F39",
"B4	c #FD4C39",
"C4	c #FA4C38",
"D4	c #FE4736",
"E4	c #FF4639",
"F4	c #FB4735",
"G4	c #FF4739",
"H4	c #FC4E33",
"I4	c #FC4B3B",
"J4	c #FA4736",
"K4	c #FB4B37",
"L4	c #FF4C36",
"M4	c #FF4C34",
"N4	c #FF4C37",
"O4	c #FE4837",
"P4	c #F94B3A",
"Q4	c #FD4B3A",
"R4	c #F34B3B",
"S4	c #F94D3A",
"T4	c #F84733",
"U4	c #FF4737",
"V4	c #FC4734",
"W4	c #FF4733",
"X4	c #F94D32",
"Y4	c #FA4A38",
"Z4	c #F94835",
"`4	c #F54C33",
" 5	c #F84D3B",
".5	c #F94833",
"+5	c #FF4B35",
"@5	c #FE4B36",
"#5	c #FD5039",
"$5	c #FC4C38",
"%5	c #FD4B34",
"&5	c #FA4B34",
"*5	c #FB4934",
"=5	c #FB4B35",
"-5	c #FF4C3A",
";5	c #FF4A39",
">5	c #FF4B3A",
",5	c #FF4B39",
"'5	c #FD4D35",
")5	c #FC4A35",
"!5	c #FD4F36",
"~5	c #FC4F37",
"{5	c #F94B37",
"]5	c #FC4F3A",
"^5	c #FA4B38",
"/5	c #F94E35",
"(5	c #FA4A33",
"_5	c #FA4C35",
":5	c #FA4C34",
"<5	c #FE4C36",
"[5	c #FD4B35",
"}5	c #FC4D39",
"|5	c #FC4D38",
"15	c #FD4D36",
"25	c #FC4E35",
"35	c #FE503B",
"45	c #FF5038",
"55	c #FC4C37",
"65	c #FE523C",
"75	c #FA4D38",
"85	c #F94732",
"95	c #FC4937",
"05	c #FA4C3A",
"a5	c #F74A36",
"b5	c #DE402C",
"c5	c #B83B32",
"d5	c #B5281E",
"e5	c #2F2122",
"f5	c #221E20",
"g5	c #090801",
"h5	c #444543",
"i5	c #26201D",
"j5	c #191610",
"k5	c #160E0E",
"l5	c #2F1919",
"m5	c #3C1E1F",
"n5	c #4C2523",
"o5	c #522328",
"p5	c #532422",
"q5	c #552626",
"r5	c #512827",
"s5	c #4C2122",
"t5	c #4E2526",
"u5	c #4E2422",
"v5	c #512222",
"w5	c #532222",
"x5	c #4C201E",
"y5	c #4E2321",
"z5	c #552723",
"A5	c #502525",
"B5	c #4B2121",
"C5	c #4F2624",
"D5	c #502824",
"E5	c #4D2824",
"F5	c #542624",
"G5	c #552925",
"H5	c #5C2727",
"I5	c #5E2826",
"J5	c #5D2A25",
"K5	c #5D2828",
"L5	c #552024",
"M5	c #571F25",
"N5	c #532529",
"O5	c #4C1F28",
"P5	c #552621",
"Q5	c #592B28",
"R5	c #562C23",
"S5	c #5A2A28",
"T5	c #612925",
"U5	c #5E2E2A",
"V5	c #522828",
"W5	c #572C29",
"X5	c #4D2622",
"Y5	c #4E2627",
"Z5	c #492925",
"`5	c #4E2C2D",
" 6	c #562B26",
".6	c #552B28",
"+6	c #522826",
"@6	c #5B2B28",
"#6	c #562B25",
"$6	c #552D29",
"%6	c #522A26",
"&6	c #572B26",
"*6	c #4C2B2B",
"=6	c #4B2B27",
"-6	c #4A2723",
";6	c #4F2726",
">6	c #532624",
",6	c #4F2725",
"'6	c #582824",
")6	c #532321",
"!6	c #542A2B",
"~6	c #532D28",
"{6	c #4E2C26",
"]6	c #592826",
"^6	c #592727",
"/6	c #562726",
"(6	c #572325",
"_6	c #532A28",
":6	c #512826",
"<6	c #502827",
"[6	c #512929",
"}6	c #592F2E",
"|6	c #5A2F29",
"16	c #582B29",
"26	c #542D27",
"36	c #5B2724",
"46	c #592926",
"56	c #552A25",
"66	c #552721",
"76	c #3C1F1D",
"86	c #401C1A",
"96	c #001712",
"06	c #393333",
"a6	c #201A1D",
"b6	c #1D1F1B",
"c6	c #1D221F",
"d6	c #414546",
"e6	c #171B1A",
"f6	c #212023",
"g6	c #353839",
"h6	c #282220",
"i6	c #4D3C3A",
"j6	c #32211F",
"k6	c #311D1D",
"l6	c #2C1E1C",
"m6	c #32211D",
"n6	c #33221E",
"o6	c #361F1B",
"p6	c #3A2121",
"q6	c #3E2123",
"r6	c #3B2223",
"s6	c #3F2422",
"t6	c #3C2222",
"u6	c #3A221D",
"v6	c #321E19",
"w6	c #311C18",
"x6	c #341D1B",
"y6	c #311B19",
"z6	c #35201C",
"A6	c #37211D",
"B6	c #371D1A",
"C6	c #391F1D",
"D6	c #3C2421",
"E6	c #31211D",
"F6	c #311C19",
"G6	c #3A2220",
"H6	c #341F1A",
"I6	c #341F1D",
"J6	c #352020",
"K6	c #372221",
"L6	c #382424",
"M6	c #3A2221",
"N6	c #3E2421",
"O6	c #402422",
"P6	c #3A1D1B",
"Q6	c #3E2521",
"R6	c #391E1D",
"S6	c #3C2624",
"T6	c #321F1B",
"U6	c #341F1C",
"V6	c #39211E",
"W6	c #3C201E",
"X6	c #331918",
"Y6	c #3B1F20",
"Z6	c #371C1B",
"`6	c #2F1B17",
" 7	c #391F1F",
".7	c #3F2220",
"+7	c #3B2020",
"@7	c #381F1C",
"#7	c #361F1D",
"$7	c #371F1D",
"%7	c #3E2822",
"&7	c #3D211F",
"*7	c #3A2321",
"=7	c #33191B",
"-7	c #311819",
";7	c #3C2323",
">7	c #3B2623",
",7	c #311E1C",
"'7	c #3B2423",
")7	c #3C2720",
"!7	c #3A231E",
"~7	c #371E19",
"{7	c #38201E",
"]7	c #412826",
"^7	c #3F2421",
"/7	c #3D221F",
"(7	c #412623",
"_7	c #422622",
":7	c #402624",
"<7	c #3C2420",
"[7	c #3B211E",
"}7	c #3D2420",
"|7	c #412926",
"17	c #3D2622",
"27	c #3A2620",
"37	c #3B2421",
"47	c #3B2320",
"57	c #452824",
"67	c #351D1B",
"77	c #32221F",
"87	c #584445",
"97	c #1F1918",
"07	c #424545",
"a7	c #222023",
"b7	c #262528",
"c7	c #212420",
"d7	c #2A2D2F",
"e7	c #221B1B",
"f7	c #2B2423",
"g7	c #221F1C",
"h7	c #1D181A",
"i7	c #231E1D",
"j7	c #271C1B",
"k7	c #241C1C",
"l7	c #211A1A",
"m7	c #231E1C",
"n7	c #281F1C",
"o7	c #27201E",
"p7	c #221C1A",
"q7	c #29201F",
"r7	c #2B2022",
"s7	c #201C1D",
"t7	c #241B1D",
"u7	c #241B1C",
"v7	c #1F1C1A",
"w7	c #312628",
"x7	c #201B1B",
"y7	c #2A2523",
"z7	c #1B1718",
"A7	c #2C2627",
"B7	c #231A1A",
"C7	c #211C1F",
"D7	c #221B1A",
"E7	c #211A1C",
"F7	c #201919",
"G7	c #231C1D",
"H7	c #2A2121",
"I7	c #211B1D",
"J7	c #231B1E",
"K7	c #1C1518",
"L7	c #1F1A1C",
"M7	c #221918",
"N7	c #1C1615",
"O7	c #201819",
"P7	c #1B1315",
"Q7	c #1B1719",
"R7	c #261E21",
"S7	c #151212",
"T7	c #201B1D",
"U7	c #1B1F1F",
"V7	c #484B4C",
"W7	c #292B2F",
"X7	c #242120",
"Y7	c #251F1F",
"Z7	c #2E2729",
"`7	c #2A2324",
" 8	c #302829",
".8	c #322B29",
"+8	c #2A2123",
"@8	c #302525",
"#8	c #2F2526",
"$8	c #271E20",
"%8	c #2D2525",
"&8	c #30292A",
"*8	c #2D2727",
"=8	c #20181A",
"-8	c #292326",
";8	c #2C2625",
">8	c #302728",
",8	c #251C1E",
"'8	c #29211F",
")8	c #2B2222",
"!8	c #2E2624",
"~8	c #211B1C",
"{8	c #33292B",
"]8	c #2C2424",
"^8	c #2C2427",
"/8	c #2D2528",
"(8	c #2C2125",
"_8	c #2C2525",
":8	c #2E2326",
"<8	c #291E21",
"[8	c #2B1E21",
"}8	c #2D2224",
"|8	c #2B2325",
"18	c #2F2729",
"28	c #2F2825",
"38	c #281F1F",
"48	c #2C2527",
"58	c #25201C",
"68	c #2F2728",
"78	c #332A2B",
"88	c #231B1D",
"98	c #272022",
"08	c #2B2726",
"a8	c #231D1F",
"b8	c #252123",
"c8	c #232527",
"d8	c #3F4243",
"e8	c #060802",
"f8	c #21211D",
"g8	c #2B2A2A",
"h8	c #0C0B04",
"i8	c #151618",
"j8	c #474A4B",
"k8	c #211E21",
"l8	c #2A2726",
"m8	c #272224",
"n8	c #1F1B19",
"o8	c #272120",
"p8	c #2D2827",
"q8	c #1F1B1B",
"r8	c #2D2529",
"s8	c #2A2224",
"t8	c #2B2224",
"u8	c #292325",
"v8	c #281F22",
"w8	c #271F22",
"x8	c #231A1B",
"y8	c #221A1C",
"z8	c #292321",
"A8	c #2A2424",
"B8	c #2E2626",
"C8	c #231C20",
"D8	c #2E2726",
"E8	c #2B2525",
"F8	c #211A1B",
"G8	c #2C2526",
"H8	c #201A1A",
"I8	c #2C2225",
"J8	c #2E2627",
"K8	c #2F2627",
"L8	c #231D20",
"M8	c #211C1E",
"N8	c #1E1F22",
"O8	c #0F130F",
"P8	c #1F2325",
"Q8	c #050701",
"R8	c #131416",
"S8	c #3E4143",
"T8	c #23201F",
"U8	c #282323",
"V8	c #292725",
"W8	c #2A2425",
"X8	c #2D2928",
"Y8	c #231F1F",
"Z8	c #231F1E",
"`8	c #2D2627",
" 9	c #272123",
".9	c #2F2C2B",
"+9	c #24201F",
"@9	c #3F4042",
"#9	c #040202",
"$9	c #282C2C",
"%9	c #2C2928",
"&9	c #282625",
"*9	c #272426",
"=9	c #241F21",
"-9	c #252022",
";9	c #2B2827",
">9	c #1E2321",
",9	c #0A0706",
"'9	c #222527",
")9	c #1F1D1F",
"!9	c #020201",
"~9	c #424544",
"{9	c #252224",
"]9	c #2A2728",
"^9	c #2C2929",
"/9	c #2B2929",
"(9	c #201C1B",
"_9	c #2E2A29",
":9	c #211D20",
"<9	c #3D3F42",
"[9	c #353436",
"}9	c #11100A",
"|9	c #141610",
"19	c #262325",
"29	c #272225",
"39	c #2C2829",
"49	c #2A2828",
"59	c #3F4041",
"69	c #131711",
"79	c #151711",
"89	c #030201",
"99	c #3A3A3D",
"09	c #1C1718",
"a9	c #1F1B1C",
"b9	c #292627",
"c9	c #2F2D2C",
"d9	c #242220",
"e9	c #0E0C07",
"f9	c #262422",
"g9	c #1E1A1C",
"h9	c #282426",
"i9	c #1E1C1E",
"j9	c #1D1A1A",
"k9	c #101212",
"l9	c #151315",
"m9	c #191B16",
"n9	c #3B3F3E",
"o9	c #1F1B1E",
"p9	c #1F2223",
"q9	c #1B1F1B",
"r9	c #141315",
"s9	c #1F2323",
"t9	c #080901",
"u9	c #151610",
"v9	c #0F1410",
"w9	c #1E201C",
"x9	c #1D1A1D",
"y9	c #232826",
"z9	c #161914",
"A9	c #090D06",
"B9	c #201E20",
"C9	c #1C201C",
"D9	c #404343",
"E9	c #2B2C2E",
"F9	c #141416",
"G9	c #4C5051",
"H9	c #1E1D1A",
"I9	c #232427",
"J9	c #171513",
"K9	c #0D100D",
"L9	c #26292B",
"M9	c #020400",
"N9	c #4F5154",
"O9	c #1F2421",
"P9	c #2A2829",
"Q9	c #0D0A05",
"R9	c #0D0A04",
"S9	c #212625",
"T9	c #252729",
"U9	c #535254",
"V9	c #100E09",
"W9	c #252528",
"X9	c #4B4C4E",
"Y9	c #0E0A06",
"Z9	c #191A1D",
"`9	c #0E1010",
" 0	c #15130F",
".0	c #2D2C2F",
"+0	c #292B28",
"@0	c #2F3030",
"#0	c #2B2A2C",
"$0	c #343433",
"%0	c #2C2D2B",
"&0	c #303030",
"*0	c #2A2D2A",
"=0	c #46494A",
"-0	c #47494B",
";0	c #46474A",
">0	c #434448",
",0	c #414447",
"'0	c #48494B",
")0	c #434447",
"!0	c #45474B",
"~0	c #434647",
"{0	c #414443",
"]0	c #3E3F43",
"^0	c #3B3E40",
"/0	c #434446",
"(0	c #404042",
"_0	c #484B4D",
":0	c #404244",
"<0	c #424245",
"[0	c #454849",
"}0	c #3D3F41",
"|0	c #3F3E41",
"10	c #434545",
"20	c #3F4143",
"30	c #181813",
"40	c #464948",
"50	c #505253",
"60	c #0E110F",
"70	c #090C02",
"80	c #1D1D20",
"90	c #2F302F",
"00	c #171A1A",
"a0	c #1C1B18",
"b0	c #505455",
"c0	c #3B3B3B",
"d0	c #313231",
"e0	c #131516",
"f0	c #030400",
"g0	c #0F0C0A",
"h0	c #151314",
"i0	c #343539",
"j0	c #090C07",
"k0	c #313032",
"l0	c #302E2F",
"m0	c #141815",
"n0	c #444846",
"o0	c #343235",
"p0	c #171B1B",
"q0	c #13130D",
"r0	c #2D2F32",
"s0	c #1E221E",
"t0	c #0A0B03",
"u0	c #373837",
"v0	c #1D1B1E",
"w0	c #101312",
"x0	c #2B2B2E",
"y0	c #1C1E21",
"z0	c #191C1D",
"A0	c #14130D",
"B0	c #1D201C",
"C0	c #2D2F31",
"D0	c #3F4140",
"E0	c #3D4042",
"F0	c #38393C",
"G0	c #1E1C1F",
"H0	c #434445",
"I0	c #343836",
"J0	c #171914",
"K0	c #444647",
"L0	c #1E2322",
"M0	c #1E2223",
"N0	c #181A14",
"O0	c #3F3F3E",
"P0	c #020301",
"Q0	c #0C0C03",
"R0	c #49494B",
"S0	c #090C06",
"T0	c #2F3333",
"U0	c #1B1A1D",
"V0	c #434444",
"W0	c #444548",
"X0	c #1C211E",
"Y0	c #242827",
"Z0	c #2E2E2F",
"`0	c #2E2E31",
" a	c #303134",
".a	c #1C191A",
"+a	c #0A0B02",
"@a	c #363635",
"#a	c #464949",
"$a	c #0E0C06",
"%a	c #0D1110",
"&a	c #2F3033",
"*a	c #272629",
"=a	c #3B3F3F",
"-a	c #3B3B3D",
";a	c #1A1C17",
">a	c #383A3A",
",a	c #0C0906",
"'a	c #070B08",
")a	c #424546",
"!a	c #333537",
"~a	c #343835",
"{a	c #2D3031",
"]a	c #0D0B05",
"^a	c #363A3A",
"/a	c #2E3230",
"(a	c #0E0C05",
"_a	c #313635",
":a	c #2C2C2F",
"<a	c #424243",
"[a	c #2D2D2B",
"}a	c #2D2D30",
"|a	c #424443",
"1a	c #4B4E4E",
"2a	c #3B3A3D",
"3a	c #171517",
"4a	c #343639",
"5a	c #181713",
"6a	c #17191B",
"7a	c #444649",
"8a	c #242326",
"9a	c #2C2E30",
"0a	c #090A01",
"aa	c #424244",
"ba	c #393D3E",
"ca	c #1C1C20",
"da	c #191E1D",
"ea	c #444749",
"fa	c #292B2D",
"ga	c #373B3B",
"ha	c #202124",
"ia	c #262529",
"ja	c #232528",
"ka	c #040703",
"la	c #202420",
"ma	c #424142",
"na	c #3C3C3E",
"oa	c #3B403D",
"pa	c #444646",
"qa	c #414445",
"ra	c #3C3D3F",
"sa	c #3C3D40",
"ta	c #383A3B",
"ua	c #3C3E3D",
"va	c #353938",
"wa	c #444648",
"xa	c #3A3E3E",
"ya	c #404142",
"za	c #2B2A2B",
"Aa	c #0C0C0C",
"Ba	c #121314",
"Ca	c #1D2121",
"Da	c #2C2E2E",
"Ea	c #212124",
"Fa	c #404041",
"Ga	c #2E302E",
"Ha	c #212526",
"Ia	c #1F1F1C",
"Ja	c #0D0A03",
"Ka	c #3E403F",
"La	c #191D1D",
"Ma	c #0F0D07",
"Na	c #49484A",
"Oa	c #2A292B",
"Pa	c #363A3B",
"Qa	c #2F2F30",
"Ra	c #383A38",
"Sa	c #1D1E21",
"Ta	c #252629",
"Ua	c #181A1C",
"Va	c #110E0A",
"Wa	c #424143",
"Xa	c #0D0B04",
"Ya	c #393C3D",
"Za	c #393839",
"`a	c #070A08",
" b	c #090901",
".b	c #434747",
"+b	c #191D19",
"@b	c #0F1211",
"#b	c #343336",
"$b	c #292E2E",
"%b	c #0D0D05",
"&b	c #2A2D2C",
"*b	c #464A49",
"=b	c #30312F",
"-b	c #131315",
";b	c #444545",
">b	c #0F0D10",
",b	c #040606",
"'b	c #21221E",
")b	c #202023",
"!b	c #2B2F2D",
"~b	c #323336",
"{b	c #070C07",
"]b	c #27282B",
"^b	c #454749",
"/b	c #474749",
"(b	c #1D2320",
"_b	c #29282B",
":b	c #393A39",
"<b	c #242427",
"[b	c #282C2B",
"}b	c #343632",
"|b	c #100E0E",
"1b	c #232320",
"2b	c #363639",
"3b	c #303433",
"4b	c #141816",
"5b	c #2A2B2E",
"6b	c #36363A",
"7b	c #272B2B",
"8b	c #1A1A1D",
"9b	c #3F4141",
"0b	c #2B2E30",
"ab	c #030500",
"bb	c #060401",
"cb	c #2E3033",
"db	c #161A19",
"eb	c #1E1B1D",
"fb	c #393A3A",
"gb	c #0C0D0D",
"hb	c #20221E",
"ib	c #454648",
"jb	c #393A3D",
"kb	c #4A4B4C",
"lb	c #2D3132",
"mb	c #313133",
"nb	c #343432",
"ob	c #181C17",
"pb	c #383839",
"qb	c #141717",
"rb	c #202521",
"sb	c #1A1E1E",
"tb	c #363939",
"ub	c #2B2F2C",
"vb	c #333637",
"wb	c #141517",
"xb	c #2C302F",
"yb	c #2C2E2B",
"zb	c #262A2B",
"Ab	c #5B6062",
"Bb	c #595A5D",
"Cb	c #515557",
"Db	c #55575B",
"Eb	c #494C4C",
"Fb	c #494A4C",
"Gb	c #4E5154",
"Hb	c #54565A",
"Ib	c #4A4E4F",
"Jb	c #4B4C4F",
"Kb	c #4B4E50",
"Lb	c #57595D",
"Mb	c #4E5153",
"Nb	c #55585A",
"Ob	c #4D5052",
"Pb	c #505357",
"Qb	c #525459",
"Rb	c #4F4E53",
"Sb	c #505355",
"Tb	c #5A5E62",
"Ub	c #535659",
"Vb	c #53565B",
"Wb	c #53575B",
"Xb	c #46484A",
"Yb	c #47494A",
"Zb	c #53565A",
"`b	c #535559",
" c	c #515556",
".c	c #48494C",
"+c	c #4D4E50",
"@c	c #5C6163",
"#c	c #5D6064",
"$c	c #55575A",
"%c	c #080B06",
"&c	c #0D0A06",
"*c	c #0B0E0A",
"=c	c #343736",
"-c	c #1D1C20",
";c	c #0E0B07",
">c	c #181618",
",c	c #444546",
"'c	c #333335",
")c	c #19161A",
"!c	c #404444",
"~c	c #050302",
"{c	c #383639",
"]c	c #404144",
"^c	c #303633",
"/c	c #0D1009",
"(c	c #060504",
"_c	c #363937",
":c	c #0E120E",
"<c	c #434543",
"[c	c #3C3F41",
"}c	c #363536",
"|c	c #202325",
"1c	c #1D211D",
"2c	c #3E3F3D",
"3c	c #2C2F32",
"4c	c #2E3232",
"5c	c #191A15",
"6c	c #3E4042",
"7c	c #353838",
"8c	c #1D2220",
"9c	c #0F0D0E",
"0c	c #3C3F3E",
"ac	c #3A3D3E",
"bc	c #222627",
"cc	c #2C2A2D",
"dc	c #363735",
"ec	c #2E2E2C",
"fc	c #313331",
"gc	c #38373A",
"hc	c #353837",
"ic	c #303031",
"jc	c #333533",
"kc	c #333235",
"lc	c #141215",
"mc	c #302F30",
"nc	c #454545",
"oc	c #080B05",
"pc	c #101410",
"qc	c #37383B",
"rc	c #373836",
"sc	c #404442",
"tc	c #141617",
"uc	c #1C1C18",
"vc	c #212326",
"wc	c #212125",
"xc	c #090A0A",
"yc	c #48494A",
"zc	c #494B4A",
"Ac	c #2E2E2D",
"Bc	c #202225",
"Cc	c #484B4A",
"Dc	c #1E211C",
"Ec	c #050700",
"Fc	c #040600",
"Gc	c #070401",
"Hc	c #4D4E51",
"Ic	c #4A4B4B",
"Jc	c #0B0C04",
"Kc	c #323133",
"Lc	c #565659",
"Mc	c #171612",
"Nc	c #434345",
"Oc	c #464648",
"Pc	c #181B1C",
"Qc	c #101412",
"Rc	c #3C3E3C",
"Sc	c #4F5051",
"Tc	c #414143",
"Uc	c #3F4244",
"Vc	c #0D0906",
"Wc	c #373636",
"Xc	c #484A4B",
"Yc	c #0F1111",
"Zc	c #0B0809",
"`c	c #3D3C3C",
" d	c #383D3C",
".d	c #454847",
"+d	c #0E110E",
"@d	c #100D0B",
"#d	c #4A4B4E",
"$d	c #1B1B17",
"%d	c #2F302E",
"&d	c #0F0F07",
"*d	c #4C4D4D",
"=d	c #111415",
"-d	c #232420",
";d	c #303034",
">d	c #0C0C04",
",d	c #4C4E4E",
"'d	c #2D3030",
")d	c #494B4C",
"!d	c #4A4C4C",
"~d	c #40403E",
"{d	c #393838",
"]d	c #1D221E",
"^d	c #2E312E",
"/d	c #363537",
"(d	c #18181B",
"_d	c #4F5152",
":d	c #242926",
"<d	c #1B1C1F",
"[d	c #454748",
"}d	c #393B39",
"|d	c #191616",
"1d	c #484C4C",
"2d	c #110F0F",
"3d	c #323636",
"4d	c #464549",
"5d	c #303332",
"6d	c #191617",
"7d	c #2F3332",
"8d	c #1A1915",
"9d	c #424345",
"0d	c #0C0B03",
"ad	c #27272A",
"bd	c #404043",
"cd	c #3F403F",
"dd	c #303536",
"ed	c #292D2C",
"fd	c #1B201E",
"gd	c #242828",
"hd	c #0A0C0C",
"id	c #313536",
"jd	c #171414",
"kd	c #120F0D",
"ld	c #141111",
"md	c #1C221E",
"nd	c #434346",
"od	c #222327",
"pd	c #2D3231",
"qd	c #181E1A",
"rd	c #262B29",
"sd	c #090900",
"td	c #2B2E2B",
"ud	c #2F2F2E",
"vd	c #171415",
"wd	c #343538",
"xd	c #2D2B2E",
"yd	c #211F22",
"zd	c #181C1C",
"Ad	c #373635",
"Bd	c #424342",
"Cd	c #2F3334",
"Dd	c #141916",
"Ed	c #141817",
"Fd	c #242428",
"Gd	c #373736",
"Hd	c #333231",
"Id	c #0F0A07",
"Jd	c #090C08",
"Kd	c #28292C",
"Ld	c #242729",
"Md	c #454747",
"Nd	c #0B0705",
"Od	c #393738",
"Pd	c #242521",
"Qd	c #080600",
"Rd	c #0A0A02",
"Sd	c #080800",
"Td	c #1E1C1A",
"Ud	c #030401",
"Vd	c #070906",
"Wd	c #1A1716",
"Xd	c #1D191A",
"Yd	c #070504",
"Zd	c #181311",
"`d	c #2C211F",
" e	c #28201B",
".e	c #302123",
"+e	c #25201D",
"@e	c #1C1816",
"#e	c #1B1715",
"$e	c #1D150E",
"%e	c #030B04",
"&e	c #100D0C",
"*e	c #231319",
"=e	c #231B1B",
"-e	c #100C09",
";e	c #040404",
">e	c #363736",
",e	c #161510",
"'e	c #454949",
")e	c #1B1614",
"!e	c #0E0907",
"~e	c #652820",
"{e	c #541613",
"]e	c #3F1910",
"^e	c #291F1A",
"/e	c #2E2628",
"(e	c #0B0502",
"_e	c #1D1A18",
":e	c #0C0907",
"<e	c #1A1A15",
"[e	c #211917",
"}e	c #231817",
"|e	c #000503",
"1e	c #96251C",
"2e	c #8C271B",
"3e	c #AC3029",
"4e	c #282419",
"5e	c #0E0A04",
"6e	c #0D0808",
"7e	c #1A1F1D",
"8e	c #232327",
"9e	c #181512",
"0e	c #1E1615",
"ae	c #1D1615",
"be	c #030604",
"ce	c #AE3C2B",
"de	c #B63A2C",
"ee	c #DE3E32",
"fe	c #2F201E",
"ge	c #2A2020",
"he	c #0E0704",
"ie	c #3F3F43",
"je	c #1B1E20",
"ke	c #14100E",
"le	c #251B1A",
"me	c #211918",
"ne	c #B6382E",
"oe	c #C3392F",
"pe	c #EB4432",
"qe	c #361A18",
"re	c #281F1D",
"se	c #130E09",
"te	c #0D0909",
"ue	c #505151",
"ve	c #282725",
"we	c #1A1815",
"xe	c #1F1716",
"ye	c #080301",
"ze	c #BF352C",
"Ae	c #CE392D",
"Be	c #F84937",
"Ce	c #321A1B",
"De	c #271D1B",
"Ee	c #2B2221",
"Fe	c #0D0905",
"Ge	c #241916",
"He	c #211A16",
"Ie	c #060001",
"Je	c #C43A2F",
"Ke	c #D84734",
"Le	c #FC4836",
"Me	c #331919",
"Ne	c #2D1C1A",
"Oe	c #110D09",
"Pe	c #0A0C03",
"Qe	c #323736",
"Re	c #23221F",
"Se	c #14110F",
"Te	c #2D2020",
"Ue	c #211716",
"Ve	c #080102",
"We	c #C33A2F",
"Xe	c #D03B31",
"Ye	c #FF4930",
"Ze	c #2B1F20",
"`e	c #0D0804",
" f	c #181513",
".f	c #2B1D1D",
"+f	c #221916",
"@f	c #090000",
"#f	c #C2372C",
"$f	c #DB4233",
"%f	c #FF4935",
"&f	c #34191D",
"*f	c #1D1312",
"=f	c #110B08",
"-f	c #383D3D",
";f	c #221715",
">f	c #090100",
",f	c #BD3628",
"'f	c #DB3D32",
")f	c #FD4837",
"!f	c #331B18",
"~f	c #322323",
"{f	c #2F2224",
"]f	c #0F0705",
"^f	c #1E1B18",
"/f	c #0E0A08",
"(f	c #20221D",
"_f	c #030502",
":f	c #363437",
"<f	c #23211E",
"[f	c #15100E",
"}f	c #241A18",
"|f	c #1E1613",
"1f	c #0C0201",
"2f	c #C2352C",
"3f	c #DF4032",
"4f	c #FE4F38",
"5f	c #351F1B",
"6f	c #2A1F1E",
"7f	c #302427",
"8f	c #130B09",
"9f	c #1A1615",
"0f	c #191614",
"af	c #0B0807",
"bf	c #1A1719",
"cf	c #3D3E42",
"df	c #262623",
"ef	c #151210",
"ff	c #251816",
"gf	c #281916",
"hf	c #080201",
"if	c #C43529",
"jf	c #DC422F",
"kf	c #FF553B",
"lf	c #3F1B1B",
"mf	c #271C1A",
"nf	c #130D0A",
"of	c #2B2A29",
"pf	c #2A2A2E",
"qf	c #0B0F0B",
"rf	c #171211",
"sf	c #251D19",
"tf	c #221A18",
"uf	c #090300",
"vf	c #C93628",
"wf	c #E64132",
"xf	c #F84E31",
"yf	c #412022",
"zf	c #2D1F1E",
"Af	c #2A1C1D",
"Bf	c #0F0804",
"Cf	c #201C1A",
"Df	c #1E1819",
"Ef	c #2A2A28",
"Ff	c #363636",
"Gf	c #2C2B2D",
"Hf	c #333438",
"If	c #140F0D",
"Jf	c #28201A",
"Kf	c #261F19",
"Lf	c #C8382D",
"Mf	c #E73B2C",
"Nf	c #FE533A",
"Of	c #2D1416",
"Pf	c #382728",
"Qf	c #2F2221",
"Rf	c #0F0906",
"Sf	c #090602",
"Tf	c #38393D",
"Uf	c #383B3B",
"Vf	c #1A1715",
"Wf	c #261D18",
"Xf	c #241C18",
"Yf	c #0C0301",
"Zf	c #CF392B",
"`f	c #E63D2E",
" g	c #FF4C33",
".g	c #43201E",
"+g	c #2C2121",
"@g	c #362829",
"#g	c #2D2A2C",
"$g	c #1D1A1C",
"%g	c #0D0A01",
"&g	c #292728",
"*g	c #16120F",
"=g	c #271A18",
"-g	c #080100",
";g	c #D3412D",
">g	c #E3492F",
",g	c #FE5640",
"'g	c #3D2021",
")g	c #342121",
"!g	c #332323",
"~g	c #150D09",
"{g	c #2A2927",
"]g	c #252427",
"^g	c #171B17",
"/g	c #454947",
"(g	c #0B0D0C",
"_g	c #171310",
":g	c #281D1B",
"<g	c #251D1A",
"[g	c #0C0502",
"}g	c #CF392A",
"|g	c #E64831",
"1g	c #FF513C",
"2g	c #3E1D1B",
"3g	c #332121",
"4g	c #342827",
"5g	c #0D0704",
"6g	c #1C1917",
"7g	c #171312",
"8g	c #161210",
"9g	c #281C1A",
"0g	c #1E1814",
"ag	c #090400",
"bg	c #D93B2E",
"cg	c #E84633",
"dg	c #FF4C3C",
"eg	c #3A1C1D",
"fg	c #291B19",
"gg	c #2D2322",
"hg	c #100A06",
"ig	c #1B1817",
"jg	c #0C0705",
"kg	c #2B2B28",
"lg	c #0E100F",
"mg	c #1C2120",
"ng	c #2E3133",
"og	c #261C18",
"pg	c #0B0402",
"qg	c #D13C2F",
"rg	c #E84532",
"sg	c #FF533A",
"tg	c #372625",
"ug	c #2F2121",
"vg	c #130907",
"wg	c #1E1A18",
"xg	c #181619",
"yg	c #383C3F",
"zg	c #414342",
"Ag	c #241A17",
"Bg	c #231715",
"Cg	c #CF422E",
"Dg	c #E6412E",
"Eg	c #FC5335",
"Fg	c #3B201B",
"Gg	c #2A1817",
"Hg	c #140C09",
"Ig	c #291E1C",
"Jg	c #CD3E2E",
"Kg	c #E4432E",
"Lg	c #FF573B",
"Mg	c #3B1F1A",
"Ng	c #342222",
"Og	c #2E2222",
"Pg	c #1B1816",
"Qg	c #171619",
"Rg	c #464746",
"Sg	c #221815",
"Tg	c #0D0402",
"Ug	c #D13E2C",
"Vg	c #E74433",
"Wg	c #FF5136",
"Xg	c #3A231F",
"Yg	c #2F1B1E",
"Zg	c #2E2022",
"`g	c #0B0601",
" h	c #1D1C19",
".h	c #0E0A07",
"+h	c #171B16",
"@h	c #333737",
"#h	c #15120D",
"$h	c #2D1D1D",
"%h	c #241716",
"&h	c #080001",
"*h	c #D2402E",
"=h	c #E94332",
"-h	c #FF523B",
";h	c #411B1D",
">h	c #2D1F1F",
",h	c #352728",
"'h	c #0E0905",
")h	c #1E1A19",
"!h	c #201E1C",
"~h	c #353435",
"{h	c #323134",
"]h	c #2E201F",
"^h	c #201918",
"/h	c #0C0402",
"(h	c #CD4332",
"_h	c #DD432D",
":h	c #361619",
"<h	c #2A1B1A",
"[h	c #2B1F1F",
"}h	c #130B07",
"|h	c #1F1917",
"1h	c #3C3B3E",
"2h	c #191413",
"3h	c #2A1E1C",
"4h	c #221615",
"5h	c #0A0303",
"6h	c #C3402A",
"7h	c #E74633",
"8h	c #FF4E36",
"9h	c #401B17",
"0h	c #261815",
"ah	c #2A1E1E",
"bh	c #0E0804",
"ch	c #0F0B08",
"dh	c #191514",
"eh	c #281B1B",
"fh	c #251A18",
"gh	c #0B0302",
"hh	c #CC3D31",
"ih	c #E74936",
"jh	c #FD4A32",
"kh	c #421B1A",
"lh	c #271819",
"mh	c #352727",
"nh	c #0F0704",
"oh	c #191412",
"ph	c #2F2E2E",
"qh	c #343434",
"rh	c #49484C",
"sh	c #35373A",
"th	c #25282A",
"uh	c #241C1A",
"vh	c #251A17",
"wh	c #0C0403",
"xh	c #CC4232",
"yh	c #DA442F",
"zh	c #FD4730",
"Ah	c #462320",
"Bh	c #302121",
"Ch	c #312322",
"Dh	c #0E0904",
"Eh	c #1C1617",
"Fh	c #100B09",
"Gh	c #26272A",
"Hh	c #202024",
"Ih	c #24272A",
"Jh	c #22211E",
"Kh	c #151010",
"Lh	c #2A1D1D",
"Mh	c #211817",
"Nh	c #070102",
"Oh	c #CF3D25",
"Ph	c #DE4631",
"Qh	c #FF5536",
"Rh	c #361F1F",
"Sh	c #2D1F1D",
"Th	c #120B09",
"Uh	c #1C181A",
"Vh	c #1C1916",
"Wh	c #120E0B",
"Xh	c #060300",
"Yh	c #444748",
"Zh	c #070300",
"`h	c #080501",
" i	c #3A3939",
".i	c #1A1517",
"+i	c #281E1C",
"@i	c #090101",
"#i	c #CC391F",
"$i	c #D9432E",
"%i	c #FB5239",
"&i	c #2E1E1F",
"*i	c #312424",
"=i	c #231F1C",
"-i	c #1B1916",
";i	c #21201D",
">i	c #151417",
",i	c #14100D",
"'i	c #29221E",
")i	c #201814",
"!i	c #0F0503",
"~i	c #D14026",
"{i	c #E14736",
"]i	c #FD553F",
"^i	c #38221D",
"/i	c #0E0906",
"(i	c #100D08",
"_i	c #0B0806",
":i	c #161213",
"<i	c #221B16",
"[i	c #080302",
"}i	c #D43D2B",
"|i	c #DD442D",
"1i	c #FF553C",
"2i	c #3F221D",
"3i	c #30211F",
"4i	c #322325",
"5i	c #0F0A04",
"6i	c #211E1C",
"7i	c #191714",
"8i	c #1D1A19",
"9i	c #080605",
"0i	c #040604",
"ai	c #050404",
"bi	c #060403",
"ci	c #030603",
"di	c #070A07",
"ei	c #040705",
"fi	c #010400",
"gi	c #060904",
"hi	c #141814",
"ii	c #373637",
"ji	c #13100D",
"ki	c #201514",
"li	c #C8392B",
"mi	c #EB4331",
"ni	c #FF5637",
"oi	c #341719",
"pi	c #362424",
"qi	c #36292A",
"ri	c #120B07",
"si	c #0F0B07",
"ti	c #1F221D",
"ui	c #3A3F3E",
"vi	c #37393C",
"wi	c #36383A",
"xi	c #383A3D",
"yi	c #4E4F51",
"zi	c #323638",
"Ai	c #34393B",
"Bi	c #343938",
"Ci	c #050906",
"Di	c #191211",
"Ei	c #291A18",
"Fi	c #0E0402",
"Gi	c #CE3A29",
"Hi	c #E2432C",
"Ii	c #FF5435",
"Ji	c #352122",
"Ki	c #100806",
"Li	c #0C0604",
"Mi	c #323131",
"Ni	c #080502",
"Oi	c #4A4A4D",
"Pi	c #1B191C",
"Qi	c #2E2B2C",
"Ri	c #161312",
"Si	c #2B201C",
"Ti	c #211713",
"Ui	c #CC3828",
"Vi	c #E94532",
"Wi	c #FF4D32",
"Xi	c #371F14",
"Yi	c #291A1A",
"Zi	c #130D09",
"`i	c #1C1A17",
" j	c #1C1717",
".j	c #0F0B09",
"+j	c #1F1F23",
"@j	c #27201D",
"#j	c #221611",
"$j	c #CB3C2A",
"%j	c #E3432D",
"&j	c #FF5135",
"*j	c #371B18",
"=j	c #291B1B",
"-j	c #352726",
";j	c #140C08",
">j	c #454645",
",j	c #261A19",
"'j	c #1D1715",
")j	c #090403",
"!j	c #DB3D2B",
"~j	c #FF523F",
"{j	c #3A2123",
"]j	c #312220",
"^j	c #110A07",
"/j	c #1B1815",
"(j	c #0D0907",
"_j	c #060402",
":j	c #0A0700",
"<j	c #262427",
"[j	c #191314",
"}j	c #291E1B",
"|j	c #201916",
"1j	c #0A0602",
"2j	c #D73928",
"3j	c #E6442F",
"4j	c #3B1E22",
"5j	c #302522",
"6j	c #291F1D",
"7j	c #171412",
"8j	c #0D0806",
"9j	c #161719",
"0j	c #1F1E21",
"aj	c #323533",
"bj	c #1D1618",
"cj	c #271C19",
"dj	c #221818",
"ej	c #0A0402",
"fj	c #D93D2E",
"gj	c #E53E30",
"hj	c #3C1C1E",
"ij	c #2F2222",
"jj	c #100A07",
"kj	c #1F1C1B",
"lj	c #323331",
"mj	c #130D0C",
"nj	c #251B17",
"oj	c #271717",
"pj	c #070201",
"qj	c #DC3E2F",
"rj	c #EA4636",
"sj	c #FF5241",
"tj	c #3F1F1B",
"uj	c #2B1B1A",
"vj	c #312525",
"wj	c #0B0602",
"xj	c #181415",
"yj	c #120D0B",
"zj	c #313031",
"Aj	c #2A292C",
"Bj	c #363535",
"Cj	c #1C1818",
"Dj	c #1A1312",
"Ej	c #291D1D",
"Fj	c #201517",
"Gj	c #D4402B",
"Hj	c #E84230",
"Ij	c #FF5537",
"Jj	c #391920",
"Kj	c #332324",
"Lj	c #2A1C1B",
"Mj	c #0F0905",
"Nj	c #100C0B",
"Oj	c #080B09",
"Pj	c #231918",
"Qj	c #281A1B",
"Rj	c #D63C2C",
"Sj	c #E44430",
"Tj	c #3B2122",
"Uj	c #281918",
"Vj	c #100A08",
"Wj	c #282527",
"Xj	c #181210",
"Yj	c #271817",
"Zj	c #070001",
"`j	c #D03625",
" k	c #E84334",
".k	c #FF5339",
"+k	c #3B2221",
"@k	c #312120",
"#k	c #2A1D1B",
"$k	c #110D08",
"%k	c #3D4043",
"&k	c #3D3B3D",
"*k	c #2C1F1E",
"=k	c #231615",
"-k	c #D03A28",
";k	c #E73C30",
">k	c #FE4E37",
",k	c #361E20",
"'k	c #271C1C",
")k	c #312526",
"!k	c #0B0603",
"~k	c #201E1B",
"{k	c #1A1616",
"]k	c #110C09",
"^k	c #15110F",
"/k	c #291C19",
"(k	c #231914",
"_k	c #0A0302",
":k	c #CC3C2B",
"<k	c #E64231",
"[k	c #FF5937",
"}k	c #3E2720",
"|k	c #342322",
"1k	c #342726",
"2k	c #1B1716",
"3k	c #261B1A",
"4k	c #251915",
"5k	c #0D0101",
"6k	c #D43D2F",
"7k	c #FF5737",
"8k	c #412924",
"9k	c #312221",
"0k	c #291E1D",
"ak	c #0A0502",
"bk	c #16191A",
"ck	c #0F1311",
"dk	c #070900",
"ek	c #474A4A",
"fk	c #0B0902",
"gk	c #281C19",
"hk	c #211814",
"ik	c #D53A2A",
"jk	c #E8402D",
"kk	c #FF5338",
"lk	c #422A26",
"mk	c #291B18",
"nk	c #332725",
"ok	c #2B2928",
"pk	c #3A3D3C",
"qk	c #151110",
"rk	c #2B1F1C",
"sk	c #271C18",
"tk	c #D63B28",
"uk	c #E83F2E",
"vk	c #FF5233",
"wk	c #3C201D",
"xk	c #2D1D1E",
"yk	c #0E0703",
"zk	c #0A0403",
"Ak	c #29272A",
"Bk	c #2A1C1C",
"Ck	c #271B19",
"Dk	c #CD3B29",
"Ek	c #E2422E",
"Fk	c #FF4D33",
"Gk	c #40201F",
"Hk	c #2D1E1F",
"Ik	c #362A29",
"Jk	c #2D2A2B",
"Kk	c #24191A",
"Lk	c #0B0300",
"Mk	c #D13C2C",
"Nk	c #E94131",
"Ok	c #FF4F39",
"Pk	c #3C221C",
"Qk	c #2B1E1D",
"Rk	c #2F2424",
"Sk	c #0E0502",
"Tk	c #090402",
"Uk	c #D3402F",
"Vk	c #E9412F",
"Wk	c #FF4B34",
"Xk	c #412521",
"Yk	c #2B1E1E",
"Zk	c #322829",
"`k	c #0D0702",
" l	c #1F1A19",
".l	c #2C292A",
"+l	c #393939",
"@l	c #2D2E2C",
"#l	c #171C19",
"$l	c #241A1A",
"%l	c #241A16",
"&l	c #D93F2F",
"*l	c #E4412E",
"=l	c #FF533B",
"-l	c #401F1D",
";l	c #312121",
">l	c #0F0904",
",l	c #1C1B17",
"'l	c #292D2B",
")l	c #494B4E",
"!l	c #120F0C",
"~l	c #CE3F27",
"{l	c #E94231",
"]l	c #412221",
"^l	c #110B07",
"/l	c #1F1818",
"(l	c #464649",
"_l	c #0E0F11",
":l	c #1B201D",
"<l	c #2E2D2E",
"[l	c #221817",
"}l	c #080101",
"|l	c #D24231",
"1l	c #EA4631",
"2l	c #FF503C",
"3l	c #421F20",
"4l	c #312423",
"5l	c #332527",
"6l	c #0E0605",
"7l	c #1D1B18",
"8l	c #1C1716",
"9l	c #0F0909",
"0l	c #1C211C",
"al	c #DA412B",
"bl	c #E6402F",
"cl	c #FF4D3C",
"dl	c #47211E",
"el	c #302424",
"fl	c #0E0503",
"gl	c #211D1B",
"hl	c #1D2122",
"il	c #323132",
"jl	c #271B1C",
"kl	c #201816",
"ll	c #D23F29",
"ml	c #FF4F3B",
"nl	c #441E1D",
"ol	c #211816",
"pl	c #2F2322",
"ql	c #110905",
"rl	c #1C1715",
"sl	c #22221F",
"tl	c #4D4D52",
"ul	c #2C2A2A",
"vl	c #1F1614",
"wl	c #D4412A",
"xl	c #E13F31",
"yl	c #FF573A",
"zl	c #49211F",
"Al	c #302223",
"Bl	c #404342",
"Cl	c #0E0D06",
"Dl	c #48484C",
"El	c #16100F",
"Fl	c #271E1D",
"Gl	c #221718",
"Hl	c #D33D2A",
"Il	c #E64634",
"Jl	c #FF4F3D",
"Kl	c #4C2828",
"Ll	c #281C1B",
"Ml	c #26191B",
"Nl	c #302E30",
"Ol	c #2F1F1F",
"Pl	c #241816",
"Ql	c #D3382B",
"Rl	c #E83E32",
"Sl	c #FF4D3A",
"Tl	c #49251E",
"Ul	c #342325",
"Vl	c #0B0703",
"Wl	c #0A0603",
"Xl	c #2B292B",
"Yl	c #15100F",
"Zl	c #261917",
"`l	c #2B1C1B",
" m	c #0B0100",
".m	c #D53C2B",
"+m	c #EA4432",
"@m	c #FF4E38",
"#m	c #4C261E",
"$m	c #2B1C1C",
"%m	c #2F2223",
"&m	c #0E0908",
"*m	c #090601",
"=m	c #0C0A03",
"-m	c #0C0905",
";m	c #070800",
">m	c #090600",
",m	c #2F312F",
"'m	c #373638",
")m	c #170F0E",
"!m	c #2C1F1D",
"~m	c #DC4033",
"{m	c #ED432D",
"]m	c #FF523C",
"^m	c #3B221E",
"/m	c #2B201E",
"(m	c #302423",
"_m	c #151211",
":m	c #424447",
"<m	c #16110F",
"[m	c #261C1A",
"}m	c #28191A",
"|m	c #D83A2F",
"1m	c #EE4332",
"2m	c #FF543D",
"3m	c #3C2320",
"4m	c #2B1F1E",
"5m	c #0F0B06",
"6m	c #251917",
"7m	c #281A19",
"8m	c #080300",
"9m	c #DC3D2E",
"0m	c #EC412F",
"am	c #402720",
"bm	c #322220",
"cm	c #321F21",
"dm	c #020202",
"em	c #020401",
"fm	c #050802",
"gm	c #181011",
"hm	c #251A1A",
"im	c #DE3F32",
"jm	c #EB412D",
"km	c #422423",
"lm	c #301E1F",
"mm	c #352624",
"nm	c #0E0805",
"om	c #171311",
"pm	c #4D4F4F",
"qm	c #4E5052",
"rm	c #4A4F4F",
"sm	c #474A4C",
"tm	c #575C5E",
"um	c #4D4F50",
"vm	c #45494B",
"wm	c #4F5155",
"xm	c #515355",
"ym	c #414545",
"zm	c #4B4E51",
"Am	c #46494B",
"Bm	c #484A4C",
"Cm	c #4C4E50",
"Dm	c #4C5052",
"Em	c #46494C",
"Fm	c #4A4C4E",
"Gm	c #4B4D50",
"Hm	c #55595B",
"Im	c #494C4D",
"Jm	c #4C4F50",
"Km	c #4D5153",
"Lm	c #474A4D",
"Mm	c #3C4140",
"Nm	c #444549",
"Om	c #4F5153",
"Pm	c #484B4B",
"Qm	c #4D4E4F",
"Rm	c #44474A",
"Sm	c #404445",
"Tm	c #494C4F",
"Um	c #474B4B",
"Vm	c #484B4F",
"Wm	c #404446",
"Xm	c #110D0B",
"Ym	c #281D1A",
"Zm	c #CB3D2E",
"`m	c #E5462F",
" n	c #FF553A",
".n	c #3C211C",
"+n	c #311F1E",
"@n	c #382B2A",
"#n	c #120D0A",
"$n	c #373536",
"%n	c #130E0B",
"&n	c #281D1D",
"*n	c #231A19",
"=n	c #D73829",
"-n	c #E04330",
";n	c #FF5538",
">n	c #40201C",
",n	c #2E2120",
"'n	c #181313",
")n	c #151918",
"!n	c #454646",
"~n	c #171A1B",
"{n	c #14100F",
"]n	c #261B19",
"^n	c #060301",
"/n	c #D4392D",
"(n	c #E84232",
"_n	c #3A211A",
":n	c #312524",
"<n	c #0C0804",
"[n	c #18161A",
"}n	c #333232",
"|n	c #291B1A",
"1n	c #211819",
"2n	c #E03D2E",
"3n	c #E53F2E",
"4n	c #FF563F",
"5n	c #42231D",
"6n	c #2A1A1B",
"7n	c #362929",
"8n	c #1D1817",
"9n	c #0C0806",
"0n	c #0B0F0A",
"an	c #0B0702",
"bn	c #261918",
"cn	c #CC3724",
"dn	c #DF4934",
"en	c #FF513A",
"fn	c #452926",
"gn	c #2E211F",
"hn	c #3B2929",
"in	c #150F10",
"jn	c #2A1F1F",
"kn	c #211714",
"ln	c #090301",
"mn	c #D03824",
"nn	c #E04939",
"on	c #402520",
"pn	c #322120",
"qn	c #0E0A05",
"rn	c #1B1F1A",
"sn	c #120F0B",
"tn	c #201716",
"un	c #0C0601",
"vn	c #D2392A",
"wn	c #E14935",
"xn	c #FF503B",
"yn	c #41201F",
"zn	c #2E1E1E",
"An	c #342627",
"Bn	c #0F0A05",
"Cn	c #1D1919",
"Dn	c #241A1B",
"En	c #D53B2D",
"Fn	c #DF4835",
"Gn	c #FF573C",
"Hn	c #41221D",
"In	c #281B1D",
"Jn	c #282D2B",
"Kn	c #2B1D1C",
"Ln	c #291C1A",
"Mn	c #0A0200",
"Nn	c #D8412E",
"On	c #E84231",
"Pn	c #4C2927",
"Qn	c #2B1A1D",
"Rn	c #2B1F21",
"Sn	c #120E08",
"Tn	c #181412",
"Un	c #2A282A",
"Vn	c #181515",
"Wn	c #1A1E1A",
"Xn	c #271D1A",
"Yn	c #0A0500",
"Zn	c #D33E2B",
"`n	c #EC4133",
" o	c #FF4A36",
".o	c #3C1F1B",
"+o	c #342525",
"@o	c #191612",
"#o	c #353534",
"$o	c #261C1B",
"%o	c #251A16",
"&o	c #0A0501",
"*o	c #C93A2B",
"=o	c #EE4233",
"-o	c #40241F",
";o	c #27191A",
">o	c #312425",
",o	c #1A1D1F",
"'o	c #333236",
")o	c #383738",
"!o	c #281B1A",
"~o	c #1D1612",
"{o	c #D13B2B",
"]o	c #E93E2C",
"^o	c #FF4E3C",
"/o	c #3F201C",
"(o	c #332223",
"_o	c #1B1814",
":o	c #0D0908",
"<o	c #110D0C",
"[o	c #251D1B",
"}o	c #1F1514",
"|o	c #050202",
"1o	c #CF3924",
"2o	c #E14330",
"3o	c #FF523A",
"4o	c #3F201F",
"5o	c #302320",
"6o	c #120A06",
"7o	c #1F1715",
"8o	c #D63E27",
"9o	c #E2432E",
"0o	c #FF573D",
"ao	c #401F1B",
"bo	c #291B1D",
"co	c #100B08",
"do	c #211E1A",
"eo	c #2A2A27",
"fo	c #D43924",
"go	c #E63B30",
"ho	c #FF4F34",
"io	c #432219",
"jo	c #2E1E20",
"ko	c #302221",
"lo	c #100906",
"mo	c #0C0D04",
"no	c #060800",
"oo	c #231B1A",
"po	c #201717",
"qo	c #D43525",
"ro	c #E94232",
"so	c #FF563A",
"to	c #492923",
"uo	c #1F1817",
"vo	c #2F1E1F",
"wo	c #100D0A",
"xo	c #120E0C",
"yo	c #241C1B",
"zo	c #1F1816",
"Ao	c #C23727",
"Bo	c #D9422A",
"Co	c #FF543A",
"Do	c #411F1A",
"Eo	c #100905",
"Fo	c #28272A",
"Go	c #2D2C2C",
"Ho	c #1F1D20",
"Io	c #D1362E",
"Jo	c #E24631",
"Ko	c #FE4E3E",
"Lo	c #462622",
"Mo	c #24211E",
"No	c #313432",
"Oo	c #151919",
"Po	c #1F1718",
"Qo	c #D53D2D",
"Ro	c #E44630",
"So	c #FF4B3E",
"To	c #3D1F1D",
"Uo	c #261C1C",
"Vo	c #100C07",
"Wo	c #1C1A1D",
"Xo	c #231C1A",
"Yo	c #070302",
"Zo	c #D2382C",
"`o	c #DD3C29",
" p	c #402622",
".p	c #261E1C",
"+p	c #2C2023",
"@p	c #140E0E",
"#p	c #030705",
"$p	c #B72924",
"%p	c #AB3126",
"&p	c #EC4838",
"*p	c #3B181C",
"=p	c #0C0805",
"-p	c #121011",
";p	c #14100C",
">p	c #201D1B",
",p	c #100C08",
"'p	c #5F1D19",
")p	c #9D3022",
"!p	c #6E1F11",
"~p	c #2B1918",
"{p	c #2B2527",
"]p	c #242226",
"^p	c #191310",
"/p	c #1C1011",
"(p	c #111D16",
"_p	c #2A1D1A",
":p	c #1E1A17",
"<p	c #473A35",
"[p	c #674447",
"}p	c #4C3E3D",
"|p	c #45373C",
"1p	c #312F2D",
"2p	c #110E0E",
"3p	c #373537",
"4p	c #212724",
"5p	c #333432",
"6p	c #37383C",
"7p	c #252723",
"8p	c #131712",
"9p	c #070B06",
"0p	c #131616",
"ap	c #444948",
"bp	c #55585B",
"cp	c #56585C",
"dp	c #5A5B60",
"ep	c #585C5D",
"fp	c #5E6262",
"gp	c #5A5F60",
"hp	c #4E5254",
"ip	c #5C6064",
"jp	c #585B5E",
"kp	c #565A5D",
"lp	c #545657",
"mp	c #525558",
"np	c #515454",
"op	c #4C4F52",
"pp	c #414343",
"qp	c #343735",
"rp	c #131714",
"sp	c #313134",
"tp	c #201E21",
"up	c #060902",
"vp	c #3A3B39",
"wp	c #373C3E",
"xp	c #393A38",
"yp	c #070402",
"zp	c #434548",
"Ap	c #343232",
"Bp	c #4B4D4F",
"Cp	c #4C4C4C",
"Dp	c #1B1F20",
"Ep	c #454448",
"Fp	c #474947",
"Gp	c #030601",
"Hp	c #343131",
"Ip	c #333733",
"Jp	c #202425",
"Kp	c #0B0E0C",
"Lp	c #4A4D4F",
"Mp	c #161B17",
"Np	c #4E4E4E",
"Op	c #1F2023",
"Pp	c #3D3E41",
"Qp	c #100D09",
"Rp	c #111113",
"Sp	c #444645",
"Tp	c #2F2E2D",
"Up	c #0D0B0D",
"Vp	c #292A27",
"Wp	c #333234",
"Xp	c #454447",
"Yp	c #373A3B",
"Zp	c #0D0C04",
"`p	c #494849",
" q	c #1F1E1B",
".q	c #111314",
"+q	c #373936",
"@q	c #323330",
"#q	c #0A0809",
"$q	c #373835",
"%q	c #323633",
"&q	c #080C07",
"*q	c #2F3431",
"=q	c #0B0C03",
"-q	c #282B2D",
";q	c #4D4E4E",
">q	c #31332F",
",q	c #0A0D0A",
"'q	c #030602",
")q	c #494A4B",
"!q	c #5F6265",
"~q	c #5F6267",
"{q	c #5C5C60",
"]q	c #4B4C50",
"^q	c #4F4F50",
"/q	c #494C4E",
"(q	c #525257",
"_q	c #4F5151",
":q	c #49494D",
"<q	c #515456",
"[q	c #505053",
"}q	c #595D61",
"|q	c #5E6165",
"1q	c #525458",
"2q	c #565A5E",
"3q	c #575A5F",
"4q	c #575B5D",
"5q	c #616267",
"6q	c #555757",
"7q	c #47494C",
"8q	c #4E5255",
"9q	c #505557",
"0q	c #494D4D",
"aq	c #3E3C3F",
"bq	c #181A15",
"cq	c #434344",
"dq	c #434245",
"eq	c #0F0C07",
"fq	c #0A0807",
"gq	c #404346",
"hq	c #17181B",
"iq	c #050801",
"jq	c #313636",
"kq	c #2A2C2F",
"lq	c #100F10",
"mq	c #141718",
"nq	c #100F11",
"oq	c #434547",
"pq	c #171416",
"qq	c #3D3C3D",
"rq	c #2B292A",
"sq	c #0E0B0A",
"tq	c #272624",
"uq	c #111011",
"vq	c #363A38",
"wq	c #39393C",
"xq	c #101411",
"yq	c #060A06",
"zq	c #1E2123",
"Aq	c #030503",
"Bq	c #030303",
"Cq	c #343333",
"Dq	c #414144",
"Eq	c #090D07",
"Fq	c #535357",
"Gq	c #4E4F52",
"Hq	c #4D5053",
"Iq	c #545455",
"Jq	c #434649",
"Kq	c #4F5456",
"Lq	c #505456",
"Mq	c #505558",
"Nq	c #4B4C51",
"Oq	c #45484B",
"Pq	c #353835",
"Qq	c #2D3130",
"Rq	c #3B393B",
"Sq	c #35393A",
"Tq	c #404344",
"Uq	c #312F30",
"Vq	c #3E3E3F",
"Wq	c #141518",
"Xq	c #1A1E1F",
"Yq	c #363534",
"Zq	c #3D3F3E",
"`q	c #454445",
" r	c #18171A",
".r	c #323235",
"+r	c #313535",
"@r	c #0D110A",
"#r	c #3C4043",
"$r	c #090C05",
"%r	c #3F4144",
"&r	c #232827",
"*r	c #2C2B2E",
"=r	c #12150F",
"-r	c #38383C",
";r	c #15120E",
">r	c #181D1A",
",r	c #050505",
"'r	c #1F2225",
")r	c #161812",
"!r	c #141316",
"~r	c #2C2B2C",
"{r	c #48484A",
"]r	c #1B1D18",
"^r	c #13100E",
"/r	c #272D2A",
"(r	c #323635",
"_r	c #19191C",
":r	c #101009",
"<r	c #343634",
"[r	c #2C2D31",
"}r	c #0C1009",
"|r	c #191F1C",
"1r	c #13150F",
"2r	c #2D2F2C",
"3r	c #31312F",
"4r	c #2F3331",
"5r	c #363734",
"6r	c #2F302D",
"7r	c #393B3E",
"8r	c #272C2A",
"9r	c #1C2021",
"0r	c #6F7073",
"ar	c #6B6D6F",
"br	c #666A6C",
"cr	c #656969",
"dr	c #6A6C6C",
"er	c #696D6D",
"fr	c #444644",
"gr	c #3E3E3D",
"hr	c #0D0E0E",
"ir	c #515353",
"jr	c #666969",
"kr	c #686C6D",
"lr	c #747779",
"mr	c #6C6F6F",
"nr	c #6A6D6D",
"or	c #535756",
"pr	c #4B4C4B",
"qr	c #424442",
"rr	c #3E413F",
"sr	c #474848",
"tr	c #11120B",
"ur	c #2B2C2F",
"vr	c #454848",
"wr	c #1D1D19",
"xr	c #464847",
"yr	c #4C4C50",
"zr	c #424643",
"Ar	c #101113",
"Br	c #474748",
"Cr	c #0D0E0F",
"Dr	c #464647",
"Er	c #10140E",
"Fr	c #313030",
"Gr	c #242723",
"Hr	c #393B38",
"Ir	c #4B4B4C",
"Jr	c #4D4E4C",
"Kr	c #0A090A",
"Lr	c #101109",
"Mr	c #111112",
"Nr	c #373A38",
"Or	c #272A2C",
"Pr	c #060900",
"Qr	c #090B02",
"Rr	c #141813",
"Sr	c #484C49",
"Tr	c #090707",
"Ur	c #313034",
"Vr	c #2E2E2B",
"Wr	c #4E4F50",
"Xr	c #4C4E4D",
"Yr	c #4C4E51",
"Zr	c #525256",
"`r	c #494E4E",
" s	c #494B4B",
".s	c #494A4A",
"+s	c #4F5053",
"@s	c #4F5052",
"#s	c #4F5356",
"$s	c #474A49",
"%s	c #414346",
"&s	c #484C4E",
"*s	c #44484A",
"=s	c #484C4D",
"-s	c #3B3A3B",
";s	c #4A4E4E",
">s	c #454546",
",s	c #444949",
"'s	c #4C4D4E",
")s	c #434645",
"!s	c #4E4E51",
"~s	c #484A4D",
"{s	c #464A4A",
"]s	c #525356",
"^s	c #434749",
"/s	c #090C0A",
"(s	c #4B4D4D",
"_s	c #0D110D",
":s	c #454945",
"<s	c #110F10",
"[s	c #4F5252",
"}s	c #090C09",
"|s	c #2F322F",
"1s	c #2F2F2D",
"2s	c #393938",
"3s	c #110E0D",
"4s	c #191D18",
"5s	c #37373A",
"6s	c #313330",
"7s	c #262824",
"8s	c #212624",
"9s	c #403F40",
"0s	c #4E4F4F",
"as	c #474847",
"bs	c #383837",
"cs	c #1A1F19",
"ds	c #4D4F53",
"es	c #393837",
"fs	c #131610",
"gs	c #161A1A",
"hs	c #494B49",
"is	c #414446",
"js	c #505152",
"ks	c #4D4F4E",
"ls	c #111012",
"ms	c #404341",
"ns	c #3D3C40",
"os	c #424242",
"ps	c #383737",
"qs	c #4B494C",
"rs	c #1B1C17",
"ss	c #1B1B16",
"ts	c #080A01",
"us	c #444544",
"vs	c #4E4E50",
"ws	c #4A4A4B",
"xs	c #4B4C4C",
"ys	c #464545",
"zs	c #404141",
"As	c #3A3D3B",
"Bs	c #212225",
"Cs	c #49494A",
"Ds	c #40413F",
"Es	c #3F4444",
"Fs	c #302E31",
"Gs	c #494C4A",
"Hs	c #4E5354",
"Is	c #333736",
"Js	c #2C2B2B",
"Ks	c #0E0E0F",
"Ls	c #131715",
"Ms	c #0D0A0A",
"Ns	c #1F2423",
"Os	c #424145",
"Ps	c #4C4F4E",
"Qs	c #454948",
"Rs	c #14150F",
"Ss	c #39383A",
"Ts	c #3A3E3F",
"Us	c #0D0D0E",
"Vs	c #0F0E07",
"Ws	c #4B4E4D",
"Xs	c #404245",
"Ys	c #4B504F",
"Zs	c #232628",
"`s	c #474545",
" t	c #343231",
".t	c #3D4041",
"+t	c #454649",
"@t	c #0E0D0E",
"#t	c #3F3F3C",
"$t	c #383C3D",
"%t	c #3B3D3B",
"&t	c #4B4A4B",
"*t	c #100F07",
"=t	c #444445",
"-t	c #4B4B4D",
";t	c #424144",
">t	c #4A4D4C",
",t	c #060505",
"'t	c #4A4C4F",
")t	c #1D1D22",
"!t	c #36393B",
"~t	c #3B3C3A",
"{t	c #080C04",
"]t	c #060906",
"^t	c #040702",
"/t	c #040803",
"(t	c #050803",
"_t	c #2B2B29",
":t	c #525453",
"<t	c #414244",
"[t	c #404140",
"}t	c #505352",
"|t	c #0D0C0D",
"1t	c #080A09",
"2t	c #0C0E0E",
"3t	c #515354",
"4t	c #555756",
"5t	c #4D5252",
"6t	c #4E5051",
"7t	c #545659",
"8t	c #535759",
"9t	c #4F4E52",
"0t	c #535456",
"at	c #4F5353",
"bt	c #636564",
"ct	c #525155",
"dt	c #515452",
"et	c #555656",
"ft	c #5A5B5C",
"gt	c #484C4B",
"ht	c #474B4A",
"it	c #525556",
"jt	c #58575C",
"kt	c #4E5053",
"lt	c #515458",
"mt	c #565958",
"nt	c #54595A",
"ot	c #4C4F51",
"pt	c #555657",
"qt	c #545355",
"rt	c #555456",
"st	c #5E6364",
"tt	c #545457",
"ut	c #58595D",
"vt	c #4E5253",
"wt	c #4F5050",
"xt	c #505454",
"yt	c #525757",
"zt	c #505655",
"At	c #454A4A",
"Bt	c #525655",
"Ct	c #565959",
"Dt	c #4C504F",
"Et	c #595A5E",
"Ft	c #535758",
"Gt	c #514F52",
"Ht	c #575659",
"It	c #4D5151",
"Jt	c #525553",
"Kt	c #4E5054",
"Lt	c #616464",
"Mt	c #4A4A4C",
"Nt	c #4B4E4C",
"Ot	c #545656",
"Pt	c #505051",
"Qt	c #313534",
"Rt	c #313033",
"St	c #2C2D30",
"Tt	c #100F08",
"Ut	c #27282C",
"Vt	c #151A17",
"Wt	c #4D4D51",
"Xt	c #2D3330",
"Yt	c #3F3F3F",
"Zt	c #585759",
"`t	c #626463",
" u	c #222125",
".u	c #090700",
"+u	c #434443",
"@u	c #464748",
"#u	c #4B4F4F",
"$u	c #4A4E4D",
"%u	c #515453",
"&u	c #585B59",
"*u	c #444847",
"=u	c #505154",
"-u	c #585D5C",
";u	c #484D4D",
">u	c #545559",
",u	c #5B5B5E",
"'u	c #555557",
")u	c #5A5B5B",
"!u	c #4B5051",
"~u	c #4F5454",
"{u	c #5F6164",
"]u	c #4D5251",
"^u	c #535457",
"/u	c #545858",
"(u	c #565A59",
"_u	c #4C5151",
":u	c #4D4F52",
"<u	c #565658",
"[u	c #545956",
"}u	c #555857",
"|u	c #515255",
"1u	c #5B5B5D",
"2u	c #545957",
"3u	c #565857",
"4u	c #4C4F4F",
"5u	c #5E5E5F",
"6u	c #535355",
"7u	c #5D605F",
"8u	c #4B5050",
"9u	c #525254",
"0u	c #464A4C",
"au	c #222622",
"bu	c #282C2E",
"cu	c #272B2C",
"du	c #292B2E",
"eu	c #2C2C30",
"fu	c #28272B",
"gu	c #222728",
"hu	c #2B2C30",
"iu	c #2D2E32",
"ju	c #28292D",
"ku	c #26282B",
"lu	c #292C2F",
"mu	c #070901",
"nu	c #070400",
"ou	c #0C0E06",
"pu	c #0E0E06",
"qu	c #252428",
"ru	c #030101",
"su	c #010201",
"  . + @ # $ % & * = - ; & > , ' ) ! ~ { ] ^ / ( _ - : < [ ) } | 1 2 3 4 { 5 _ 6 7 8 9 0 a b c d e f g | h i j k l ] m n o - p a l q r s - t u v w x y z A B C < D i k E g F w G H ] I J K L M N O P Q R S G T U V W X Y Z ! `  .k ..+ +.@.#.s $.p %.&.*.=.-.;.>.% ,.'.S t ).!.i ~.{.].^.Y Y g /.>.(._.:.Y -.<.x [.(._.}.|.1.2.3.{.>./ 4.5.6.7.8.9.0.a.b.c.5 m ,.9.d.e., f.g.!.Y s h.h.{ p J i.n < 2.- j.k.l.m.n.o.p.F q.r.s.p H 5.X #., 8.R m t.*.u.O @.v.6 F w.0.x.y.z.A.B.- C.K D.E.F.G.H.&.I.B.8.J.p %.4 { ~ K.L.=.- M.+ q #.{.:.- z.i L  .!.0.N K N.u - 3.O.4.P.B.Q.,.p -.R.S.T.|.U.! /.V.W.X.4 , Y.Q.l.Z.`.` %.p.p k 7 , /  +3..+] X S.H.++@+#+$+%+&+o.>.*+=+-+<.;+>+B.>+!.s ,+#.N ,.5.'+)+!+p.P.& ~+>+{ {+Y !.s.]+W >.m.^+w k p.W./+:.(+_._+,+z.s.!.:++.<+[+) S.}+|+1+-.2+3+H.]+4+%.T.m.5+6+z } c.7+8+C.9+0+x , a+b+! c+d+O z.s ! , e+f+g+Q. .z h+0.F.1+i+j+k+C.l+B.m+p.(+h.n+4 o+, p+q+r+W s+t t+c.u+8+; v+~ H.|./ 9.w+q+Q.x+y+2 z+C.y+S.A+~+B+m C+D+3.E+F+G+~+7.t+s H+r+I+; J+t K+F ; 4 L+M+q Y ~ -.J N+H O+#.P+Q+R+h.{+~.# w k Q.! ` S+T+(+W c./+M U+V+",
"W+X+Y+Z+`+ @`+.@+@@@#@$@`+%@&@*@=@-@;@>@,@'@;@)@!@~@{@]@^@/@(@_@:@<@[@}@|@[@1@2@3@4@5@6@7@8@9@0@.@a@-@b@c@d@e@f@g@/@h@i@j@k@2@6@l@m@n@g@e@o@p@-@q@o@r@s@h@t@u@v@w@Z+x@y@z@z@m@k@A@B@C@D@E@F@G@H@I@.@J@K@b@L@M@;@g@d@N@G@O@P@Q@R@p@S@T@U@.@V@t@$@W@k@X@Y@Z@`@ #.#h@+#k@@###J@/@$#J@K@=@1@h@%#b@&#@#*#=#-#;#>#g@e@,#K@'#t@)#J@'#!#~#{#]#Y@^#f@/#=#(#_#!@w@:#<#[#(#-@}#|#1#2#3#4#_#J@@#5#6#]@6#6#7#8#-#9#&#0#a#J@b#c#d#-@e#f#g#w@x@+#!#$#h#i#v@p@j#k#g@Y@V@=@l#%#m#n#o#p#/@q#;@r#}#s#8#1@t#u#v@!@v#w#k@x#y#8@y#@#z#A#v@B#G@C#q#D#E#-@^#9#e@X@f@_@F#q#q@G#H#v@V@-#j#`+Z@I#p#[#>@$#J#*@^#-@#@!@>#K#L#M#'#J@$@m#N#g#O#w@P#l@_@Q#R#h#S#k@~#T#_#_@;@g@)@U#Y@h#[#G@V#v@;@-@W#d@g@X#4@I#Y#Z#`#Y@ $/@l@b@Z+|@U#/#f@|#k@_@.@ #<@1@Q@H#.$+$b@@$!@s@#$$#|#$$h#A@%$g#%#(#s@^#&$l@=#t@!@'#N@*$V@;@=$Z+J@x@X@@@*#-$y#)@$#^#;$>$h#Z+n#i#S@,$'$A@[#2#~@@@z@2#2#t@4@8#@#k@u#b@g@)$+$Y@@#!$m@&@^#u@~$.@ #3#=@n@{$4@x@]$k@h#:@^$/$($I@g@A@C@]@1@K#_@]@6@_$<#:$<$~#[$L@}$b@8@$##@%$h#|$b@n@d@)#g@1$~@c@k@v@;@@$<#1#o#2$3$&#l@b@q@S#(@3@w@k@V@v@_$f#[#4$5$p@_@}#g@J@J@c@!@;@2$C#6$A@7$8$",
"9$0$a$]#b$0#c$d$e$f$g$7@h$!#i$V@p#j$k$3#l$=#i#m$n$j$k$o$p$q$r$s$t$M@)$u$0$I@v$w$w$x$y$z$A$B$C$D$B@E$|#E$|#F$G$H$I$J$K$L$2#E$M$C$N$O$P$Q$e$P#P$M@f$h$M@R$S$e$T$v$v$k$f$U$g#V$W$X$Y$B@Z$`$ %.%t$V#+%|#w$I@h$D$e$-@C$B@@%!##%$%g$%%&%!#*%=%-%;%>%5#$$*%w$,%'%)%!%`$h$h$~%g$w$i#g${%l$e@l#]%y$D$&%2#^%/%(%J$_%!%I@:%<%d$d$w$=%e$D$K@[%}%~%<%|%U$b$T$y$h$x$ $1%0#V$I@g#F$2%p#3%4%5%4%6%K$7%l#8%7%I$9%k$t$w$T$o$!#0%=#a%#%g$o#d$i#b%c%d%o#$%C$M@0$p#^%e%k$s#D$f%g%h%i%j%V@P@)$h$M$k%3#l%w$m%n%j%o%c%g$l$p%y$V#v$T$!#<%g#q%s#e$9%&#5%'#f$%%r%D$=%j%s%g#j%t%I@D$u%v%%%l$^%w%s%H@!#-%]#x%b$P#y%N$|#x$1%!%4%v$=%s%4%z%e@i@y%3%u%A%p#B%%%C%T$!#;$e$W$V#]%I$D%/%E%/%T$F%z%G%j%p#j%H%)$I%J%5%4%l$K%s%g$x%i@;%L%]#H$=#s%y%7%M@=%w$l$l$M%0#j$=%s%s%N%O%p#P%/%~%/%]#a%=#|%T$H%s#Q%G$R%t$S%K@1%T%f$U%J$V%H%W%M@E$v%u$G$0#X%Y%p#Z%B@S@g%`%E$v$s%v% &v%/$.&L$M@%%)$f%+&Q$h$@&|%E$Q%#&I@M$$&0$o#e$ %%&x$5%%%t$2#l$S$&&*&=&M@-&:%=%0#=%e$x$!#d%`$K@7%g#k$P@l$E$_#;&r%>&,&<%s%/$T$'&)&M@e$!&~&g$X#{&a#)&}#o%T$p#]&B@^&P#x$h$a#*%]%E$r%/&v$y#o#-#_%(&7%{&_&N%:&l$=%V#<&[&M@v%=#$$x#p$}&",
"|&K@1&a$D$9%O%*&M$I@p#2&0#N%&#`#d$E$ %%%i#3&/%4&5&6&7&8&9&0&a&b&c&d&e&f&g&h&i&j&k&l&m&n&h&o&p&q&r&s&t&u&r&v&w&x&y&z&A&B&C&7&D&E&F&G&H&I&J&K&n&I&L&M&7&N&O&P&Q&R&S&T&U&V&W&X&Y&Z&`& *.*+*u&@*#*$*D%L$)$q$*%0$%*p#'#s%g%}#&*:%**h$=*-*c$;%H%L$/%#%;*>*-&!%w$,*<%]#'*a#H$)*L$w$4%!*w$)*%%~*w$c%%%g#{*c%k$P%p#o%f%+%|#!#T$L${%}#!#o$d%%&Y%|#+&i@}%>&]*H%&%y$^*e@p#]#g$H%v$P%j$P#/*w%=%]# %p#-&#%d$b$L%I$l$*%D$D%K$1%g$k%A%%*(*D$i#+&[&J$l$g$R$w$]#p$p#w$:%Q$_*!%N$!*:*b$q$[%T$l%w$j%K%>%g#v$<*r%[*}*j%g%G$w#!*~*y$%%%%e$p$i%>**%M$|*1*#%2*>&k$k$-&[%_%S%H%h$K%=%!*+&7$b$!#j%Q%0$H%3*D%!#D%0$j%W$x%4*y$o%]#;%#%[&E%!*5*L$+&3%/%/%K%D$p#k$K@3*S$W$/%p%}#D%j%6*%%s%l$D%X+0$l#<%7*C$k$!*^*f$e#y$G%-&h$[%m%e$:%2#=&r%8*|#H$y$}*K@e$S$N$3%9*0*]#f$d$3%H$7@l$~%p#W$/%H$S%p#g$v$]%a*/%U$]%)$c%Y%v$_%b*c*d*9%a*I@%%H%e*U@b$b$k$T%M@P@f*K@~&w#P@v%k$0#/$`#g*g$p#v%j%[&!*v$*&v%h*i*j*k*l*m*n*o*p*q*r*s*t*u*v*A&w*o*x*y*z*A*B*C*B&D*E*t&F*G*H*I*J*K*K*I&L*I&m&M*N&N*n&G&O*K*P*Q*R*S*B&M&S*+*T*t&U*V*W*t&X*t&Y*Z*Z&`* =n&D*d&.=g&+=@=6#k$%$y$g$N%d$x%s$s%v$#=u$o$M$d$!*!#j%:%$=%=",
"&=y%*=7%c%*%/%==h$[%e$7%F$I@e#S$H%}*L$h$_#-=;=>=,='=)=!=~={=]=^=/=(=_=:=<=[=}=|=1=2=3=>=4=5=:=6=/=~=7=8=9=0=a=b=c=0=8=d=:=e=0=0=f=g=}@h=i=j=>=k=l=m=n=o=p=q=q=r=s=t=u=<=4$v=w=s=x=y=z=A=>=B=C=D=E=s#F$F=L$H%e$G=B@ %M$P@j%L$v$H=X+S%b$I=f$7%u$&#h$w$j%b$$%e$E$l$b$j%|#P#J=[%%&L$:%3#1%3%i#[%L%e*w$S@K=K%X%_*c%)*~%=%1%T$r%<%L==&l$M=[*9%>*=%w$*%N=D$g$O=P=Q=r%g$W$;$R=p#D$]#P%=#&#_#p#e$L$j%M$v$y$e$w$v$l$]#b$.%y%}#P#:%>&*%f%E$^%H%~%}#!%=%M@p#r%>&S=g#%%]#h$f% %=%T=y%7$!*P%v$**!*U=S$g$x%w$f$f$v$g%2#_#V=s#(&P#%%f$p#w$P#b%f$2*w$K$P#_*s%b#I@j%]#V#C$j%B@f$>*x%r%=%]#T$;$/%p#M$h$Q$g$g$U#h$T$W=w$)&P%!#'&<*/%j%P@8*}#u$k$M@p#P%e$S%<&K%j$v$3#!%=&1%k%v$s#g$>*r$Y$X=y%[*a#j%Q$g$S%e#D$-&w$G$T$w$g#>*D$b$*%/%%%d*l$v$=*h$Y=l$/%/%>&D%/%x$f$0#+&7%I@y$:%e$k$>*P@)$L$;%|#/% %d%b$l%w#8*W$l$k$D$T$g#)$0#z%v$k$*&u%/%e*b$e$=%s%S%T$y$>*C$9%:%G$_*_*[%D$b$*%Z=c%L=}*`= -.-+-@-#-$-%-&-)=*-/=h==---;-v=>-,-'-)-!-(=~-{-]-^-/-(-_-:-.-<-[-}-|-1-2-3-4-j=v=<=;=}-5-(=6-d=:-7-s=8-:=9-)-x=0-%-v=5=:=f=_=a-v=<=d=2=/=~=b-c-d-e-f-d$g-h-!#*%=%k$[%P#7%D$D%y$i-j-&*T$P%q$k-",
"i&E$Z@!#o$}#0#5%T$c%a#K$l-b$p#x$T$j$)$g#k*;#6@m-n-c.u.b+!+o-p-q-r-(+s-t-S.u-h.v-w-0 x-y-z-& A-B-C-W D-E-& h.F-G-J.H-~.I-L Q+J-K-^+f ,.L-M-k N-:+O-P-Q-R-S-T-4.W.U-W V-y-A-W-X-s.M-z-;+Y-Z-`-%  ;*#.;2#h%/%[%h$+;@;l$#;R=Q$u$9%$;D$[*%;!*e$%%f$J=8*~%B@k%s#r%w$>&&;K@v$4%M=v$]#~%!*K$]#}#!* %T$=%/%*%r$X%h$j$e$/%u%g$m$y%#%>*j%U#T$*;[*g-y%7%2#/%7%p#o$D$f$!*N%t%/%]#e$R=G=/%k$=#i#x$>*b$j%]#*%>&f%O%e$7$v%j%!*:%E%p#~%g$v$v$b$e$>& %W$y$3*j%h$+&:%f$D$d%Z%=;W$M@k$`#!#v$P%y%s#%&N$M@'#E$f%-;1*1%_%P#;;K$W$u$F%0$H%g%I$Z@f$W$P@U#[*B#u$>;%% %9%==6*%%v$s#]#,;%%h$O%*%[*o$';M@8*h$k%;%T$L$K=E$K$e$b$G=3%f$>&[*s%r%L%D%F$/%}#w$+;h$L$H$S$+&Q=h$);P#x$g$c%!#}#0#l$P%'*y$!;s%~;{;h$9%=%p#k%];0#>%-&*%f%R=v$+&=%w$1%g$W$2#N%|#P%h$H$v$!#K$f$b$u$v$]#g$'#]#P$%%b$^;*%[**&9%]#v%w$`#d%3%V@g% ;D$e$M$h$E$/;)*7%e$a#K$h$k$a#E$W$M$T$c%o$j%s%f$P%=%j%D$L$y$/%b$B#e$)$y#/%(;_;:;p-<;++[;};|;1;W 2;3;4;^+f.5;I-7 2.6;7; .8;9;0;a;b;c;/+/.3.d;W e;f;g;x-8;r-h;i;} Q+j;k;7;l;c+m;>+4+n;o;d;p;q;r;0+s;L Y-t;i+8.z-p 4;q;u;v;w;x;y;`=z;A;V#w$d*!#g$V%g-K%Z@B;U$4*M@q#W$D%&#w$b$C;",
"D;1%!%]#f$/%m%F$-%N%h$Q$r%)$s%L$8*|#V%E;]$(#F;m&G;f-s#5%}# %-@V#%%#$x$t%V@P#(#]@^*u$)@5%*$I@t@H;<#I;J;K;L;c#_#_@8*6@J@f#=%=#b*c@%%_@w#e@)&|#e@B@h@s@'#g@p#p@$#f#1@J@I@M;M@@#9%X@N;B@^#O;T$P;}-Q;R;P@S;H%/%Z%Y$x%=&z$N%-&0$:%)$>$M@>*L$o$v$O%l$+&T$e$)$K=^*1%1%/$s%z$D$d%H%|%v$g$D$`$w$I$B#U#/%4%5*X%b$h$s#E$U#v%)$e$S$]#h$H%F$L%B@b$]%o#0$h$`#%%M@&%[*!&e#f%=%3*5%T;~%U;P@b$h$J$z$q#P$D%H%!*/$v%M@=*D$^%^%K$e$>&L$j%v$V;7$x%x$7%1%[*=%b%+&f%v$[*O%g%`#%&w$o%>&!*3#]#l$S%0$a#z%,;+&T$g#e$-&a$x$C$W$~%h$2#M$/%_#g$[&y$F%/%[*+&E%S$+%<*v$E$W;h$p#F#D$M@5*b%0$I@c%V#b$g%%%S%T;8*O%%%k$]#+&M@h$>%0$X; %Y;v$*%8*Q$*%v%U=/$L$j%3%v$!#9%f%-&>*j%8*=& %/%M@s#=#l$N%j%)*0#w$[*e#`$R$g$**v%w$(*I@7$!#D%!#~%f$x$<*3#g$[%'#u$H%~%M$s%s#p#H%v$+&T$)$l$s%f$f$R=;*W$l${&3&h$j$-%k$l#0$y$1%*%a#E$1%=&H%g%T%D%3%V#T=V#Q$K@f$P#;*Z;!&M=B;w$>%l$T$M$k$=&`; >f$!#0*D$.>y$D$+>S%>&l#@>#>$>]$>$p#%>&@U#:*!*8#(%&>L$2#$$8#*$;@/%V%U#>#*>Q@=>~#->;>f@=%U#L$_@=%]@U#&#d%c@^#P#e@K@m% &>>,>o#:%g@U#!@'>}#'$>$L$m@h@s#*$~#)>1*+@{#g#!>~>{>@#z@]>c-^><*|#)$a#E%_*s%!*L%d$1%*%k$=%&#D%9%b$T%/>",
"k&e@7%D$y%F#w% %4*k$D%!#+;=%/;T$,&/;O=(>_@_>J&p#:>P%E$U=e$l$1%N$L$P#<*<>z%b$=%!*7$M$,& %s%[>D%P$o%P@!*E$u%>&h$W$E%}>W$b*g$/$>&O=_#}* &|>e$1>M;_*d%J$D$o$w$K%0$*%K$t@2>%%d$v$R=D$a$3>V#B$U=m-4>5>5$;$V#)&/;c%7%d%'#O%I=X;4%l$E$N%!#O%>%g$s#M$s#I$j%o%~%;%H$x$e$0$<*%%|#s%K$N%s#l%P%y$P#}#)*g$y%E$k$]#+&v%[*K%+&M@!*T;b$u$0$g$E$S$z$;$N$F=D%7%6>K=R=M$&#e$-&P$v%l#v%7>]#v$^%U$M@a#U$S%8>z%%%|#f%}#E$K%%%9>b%E%v%-%b$K@M$p%L$V#I@f$4%D$k$v%P@0>0*a$a>]#7%-%[*g$F$D%f$}%|#/$b$y$I@N%k$i@/%b$B;g#b>D$}#)*2#=#M@K$i#W$h$X;f%&#K%D$L$,;]%L$9%B@=%%%a%9%E%s%p%k$5* %h$k$#;P#T$[*w$4%l${&m#o$j%c>}#,;l$/%[%o%l$b$0$l#[*]%s#D$l$P@s%F#*=N%P@=%m$l%v$b$<*$$3%U#b$z%B#T$P@d>C$L%<%h$[%=%y%j%D$l#+&>&v$K$<%s%I$j%1%E$W$b$s#%&w$u$M@l$S@*%=%v$s%D$s%l$P%m$ %e#=%!#D$W$h$H$O%}#p#/%9%h$e>%%I@%%';E%D%>&l$I$s#p#T$f>B%$&f%j%D$M$+&s%/%b$'#L$b$3%D$x%+;L$!#E$'*%%s#c%/$j% %8*#%g>h>x%2#T$*&y$Z$9%E$E$h$[*-;r$e*/$z%g$J$U=:&Z%S$b$i>k$>*.%y$E$s%h$D$1%O%3%s#~%w$v$|#)$g#}#K@j>>&/;y$c%>&Q$M$}#L$W;0$-%V@=%k>W$s%4%~%!#3%f*K%P%%%%%P@>#l>(>m>%%f# &w$3%o#n>%%7@p#S$g$!#o$*;e$o>,;p>",
"q>p#w$>&K@]#x$ &r>s>l$t>Y$a#v%E$ %!#=@u>`;v>N$/%E$=%/;>&X;K$F#s#L=H=[*4%v$=%0$!*!*P%8*e$l$/%K$ $-%*%T$N$w$[*{#M$J=D$9*^&K@o$w$/%]#j%[*L%c%D$>*W$1%+&h$|#e$a#k$)%&%>*e*c>y%)$>&e$s$c%-%y$a#w>x>-$y>;>0$d%M=W$z>S%f$M@,;-%/%H%_#g%X=!*j%g#l$0#j%l$r$o>K%%%4@D$d$1%=*h$9%e#1%w$}#[&}#V#W$b$j%T$,#A>D$l#b$m$=%%%l#3%k$l#3%>&a#>%>&a#u$*%!%*%k$7>3*x%b$P#!*.;7$';B>v$v$]%i@%%5*e$e$X%E%h$E$w$l$E$-%g#=%!*!#=%_*I=b$/%h$~%,%8%>%D$j%k$y$t%w$3%]#N$p#w$q#p#!@<*9%%;j%_;(%s#o%D%a#w#C>d%S$Y$*%T;M=P=D>K%U$%%%%H%~*W$y%k$w$';>&g#F=r$l$J$'*v%j$G$v$]#1%`#b$b%0#O$;%~%v%!*B@E>b$x$g$l$%%%%s%a#e$v$K$v%x%s%W$s%M$D%3*`;/$/%K$l$3%B%%%F>!#[*j%D$D$/%g%%%%%j$}#J$c$b$j$%%e$#;'*`#D$i$H%*&b$!#u$!*H%E%a#=%3>)$s%v$G>+&*%w$I@H>l$<%-&/%]%h%P@v$l%g#)$=%>%S%!*P=V$M@9%I>l#~&P@,;/%p#_*J>g$P@H%e-l#=*%%>&t>K@b$G>'#!#y%l$%%T$J$6%0*z%M$X;-%N%v$0#E%r%N%Y=!%S$L$!%<>1%5%P#y$i@*;R;z@A$S%H$K>f$y#i>L>l$y$M>~%P#9%w$f$L>%&7*B@N$-@>%p#D>/%g%2#p%`$>*D$-;B@f$~%>*R=g$a#^%]#r$=%S%/%*%j%:%m$%&x$B@=%)$u$E$[&o$=%3*e$v$l$L%g- &o$/%&#'&K$>%U#N>[@x#5*S$D@%$v%O%2#m$d%^*1%E$X;]#b%$$T=O>",
"P>f@;@}#v$Q%o%!#w$r%h%h$G$c%s#B#+&g>J@f$Q>>$X+o$2#b$s%/%%%4*>%=%P#p$j%3%E$9*9%P%1%h$`;y%B@W$I$s#G$%%>&!*D%e@Q$k$K$>&y%o$H%l%l$u$e$4%u$s%/%h$R>i@S%K%y$+&v$ %<*h$D$v$D$l$-%b$K%-&x%1%l$]#_*r$:$2$S>(%P#=&/$~%{&N%E$B%Y$`#H%/%%*0$B> %N%*%[%l$r%[%-%y%f$j%>%y%l$y%!*';3*~&d%x$b$(&T$l#`$[*v$h-I@v%1%j%m#e$~%w$s#=%P@#%T>g$H%D%,%j$<%]#u$w$~%1%B@9*]%~%M$K$!@Y$#;/%E$F$r$x$y$v$k$P=I$3#*%~*~&=*l#g*e$w#t>d%{$v$-*D$*&P%)$-%*%Q$|#.%<*M@h$#=+&/%l#%;j%1%P%<%y%*%w$}%w$i@]%U>!*_*B@J$_%#%P@>&[%o$2%*=w$/%a$V>_;W>d%y%w$H@K%6*W$N$P#y$y%}*b$D$P%l$%%=&u$F$&#d*%*H@Q$:%'*5%F$[%p#l$%&!**%=%I@0$r%&#0*P%c%}#X;Y;X>w#D$P%q$a#7$d%+>M@E%L$l$9%/%Y>=%3%Q$N%D%';/%e#1%0$E$3*[%P@+&>&S$!%K@~%Z>G$P@0$N%s#k$V%f$*%Y$2#b$u$b$h$D$*&>*h$b$b$[%[*b$f$=%K=w$}%v$b$l#o#v$&#}%o$y%R=G$=*^*/%%%[*%%f%q%=*>%=%1%1>=*#$S$E$v$`>!%L$[*-%`#u$~%w$<>E%W$#;V#*&!;=&v%=;>& ,~%0#E$!%N%;$:> -=@.,f@v$H%d%]#_;L$/%7>P$j%j%-%k$]#+&>*c%T$F$R=s#-%u$g$3*)&#;=**%y%/%=%*&^%+%j%g-+,@,K$I>]%#,v$S%s#a#_*[%a%M@/%v$e$o%0*,;b%3%v$v$D$4*E$I$]#N$:%D$w$2#F=3%$,%,3&=&e*_#A>g$S%<%d%p%Y$h-`#'#e$y%f$&,",
"v&$%j%[**,;$b$G$[*|#D%L=Q$*&P=D$:$%#M=N%o$/$g$f$b$=,J$P#v$h$b$$%-%v%y%7$x$h$,&f$8*H%W$-&#%|#s%/%`$l$s%D$F$X;4%=&|#=*1%T%I@L$$%!&e$2#T$>*F==%s#0$4%j%P%l#@,m%**T$Q$v$Q$A%F$S%F$f%e#D$*;0$!*F%^>:$-,;,>,,,',),!,),~,{,],^,!,)-/,(,_,8-:,<,[,},9-^,|,8-,,1,^,],2,3,1,4,5,),6,7,8,  n=_,>,9,,,0,a,b,c,d,5,<,e,f,5,],g,h,i,a,7,[,),<,j,8=^,k,l,9,m,n,9,b,k,o,~,p,9,<,q,r,s,t,,,u,v,w,x,y,z,8-d,,,9,A,{,[-B,i,t,y,[-^,},C,),_,],f,D,2,E,F,(,u=5,n,G,,,c=i,!,H,9-I,J,K,[,L,[-M,3,N,O,9,,,(,],u=P,Q,h,<,3,R,S,T,U,9-S,V,n=h,J,i,i,8-!,(,W,,,u=<,y,t,X,i,Y,},9,[-Z,`,},C, '7,.'^,8=l={=+'2,@'#'z=/,n=<-],),{=$'9,%'~,&'n,),<,/,*'n,a-],_,/,k,~,='7, '!,-'p,;'A,P,S,,,9-{,4,8-y,f,3,>'-,!,5,P,,'q,3,9-)-''^,V,I,!,)'u=<,7,},0,L,2,T,!'~'3,6=9-(,{'{,5,},},8-2,]',,{,)-t,Y,^'  ),,,[-~, 'u,.-],b,!'f,7,3,)-!,8-b,/'('),_':'r,9-,,i,<,[-<'(,Y,N,:'5,9-W,_,l=h,/,5,!,),&'2,^@$@['Z$f-%%w$W$%*7% %Y;w$E$=%7%e$1%L$g$#%/$k$!#0#^*;%N$8*+&}'B@+&;%*%D$=%S$T$)&v%d%]#9%L=+&<%;%u%v$l$+&k$U#`#7%)*)&g$v$l$T%]#S$ %_#>$=%M$T=>&l%|'s$y$%%)$1'X%T#2#3%L$_#3%%&:*z$m#S$/%~%w#2#9%<%j,",
"d&p#j$|'m$&#e$&@Q$*%f$!#g#d%2'5$ #o>W$O%y%f-Q%1%#,/%+&M$+&N%M@/%3'T$K$/%f$e%]%(%/%&%M$|#V=3'!#0#H%>&f%V@L$2#)$e#1%_%/%M$D%j$e$%&^%j%g$1%,;<%4@%%)&j%K@h$)$B;o%1%w$j%1%0$[%4'w$l$&*7$T;>%v$F;5'h#6'>#7'I@2#O#*&%$)$6%8'b#O;e@V@&@i%'#!@~#V@_#@#o#L$&@L=p%,#C%-@U#f#*$5%1*D%I@P#K@[&Z@_#q#f#U#9'G#1*B#f@0'g#U$H@9%a'U#I@J@'#c%a' &h$x$p#K@~#3#7@d$;$s#*$$$b'B#6%;$i@&#&@$%3#&#7@_#c'-@i@.;-@}#7@'#j-K@B#=#0#w#I$T$e@F#J@2#,#4@y#;$b#'# &2#s#&#*$>$I@~#d'%$V@S@{$V@1*V@v#e'f'P#%$$$e%.$!@V@1*f#D%%#F#w#,#K@y#c',#}#1*2#1*L;m#U#e* &V#$%S@'#P$f@&#$$g'{%f@5%;$.;>$g#>$e@Z@,#I@}#,#'#c@>$B#U;&#f-n%I$h-$$h'i#P${%!@%$I$S% ,J=q#3#m$|#!@|#2#i'g$[&U#,*'#t@-@[&M>[&I$g%U$&#/#j'k'U;+$$$+$%$0#3#=#J@i@|#&#|#H;B#+$_#K@,*%#g#R#&#^%{%2#3#>$d$l'c$|#'#3#g#L$V#K@$$d$j#(#{#-@3#1*i@I$E$;$>$h$K@*$i#Y@h@->->e@}#$$i@*$y#s#1*P#&@4%0#w#U#+$F#m'w#{%,#!#T$+;0#^*'#n'!>M#|#~#o'k@p'7@)$F=]#K>j%i@b$b$s%%%}#f$P@E%e$N%w$5%P@L$M@+;^%L$#;M@7$e$}#0$x%4%,#Q==%s# ,m$H%}#&;b#l$s%h$=%~&!#8*V=r%S;q'D$/%!#%%v$*%]%%*M$1%w$b$j%%%g$j%-%&#C$!*X;4'c>r'@#G>w$b'=%!#M$L%i@w$g$d$ %Y$f%s'",
"t'I@9*=&l$L$0$J>0$}#u's#0$3*v'->f-w'x'I$]#j%^*>&J$y'h$h$M$Q$/%s%1%j%=#f#x%=%!#d$s#|#7@x%E$]% %4%f$<%b*Q%y$r%F%e$:&K=u%[*+&#=D%f$b$s%O=f$%&z'|#p#S$#%3%:&b$>*h$W$7%K@p$C$G$v$M=j%~%s#w#i>>&B%A'B'+'V@V@~#-#i@-@>$!>Z@B#~#&#&#_#U$C'e@q#L;9%!@1@^#N;i@f#i#g#0'U;t@B@{%D'2#w#2#i$!@-#3&>$6#k@q#V%b# &q#v%i@3#k@-@,#K@-#V%Z@*$i@H@i@%#'@E$f@ &&#E'~#N;m#@#N@}#^*Y+I;+>q#'#w#n@j$q#c$$$e@_#f#%#_#+@$$@#F'u>j#d%5%3#'#_#*$m#8#h$J@6#4@s#M#u>+;B#=>w#T$$$e@e@,#G'{%Y$+$H'd#Z@c$g#-@{#1*'#I';$k'j@!@*$@$@#|#_#-@|#]@J'g#N@7'*&f@L$q#Y$*;&@-@S@*;[&f-f@~#k#U#4@X@e@+$I@i#_# ,0#M#h@g$-$ &m#4@5%w#9'A@f#4#%>,#$$q#/%t@E$2#K'+;I@U#8%i%o#N;H@m#'>L;e@&#w@{$j@q#p#V@0'm#_#9%^#!@2#h@|#Z@o#G#K@0'L'-@5%s#U@&#q#|#~#&>y%W@*$j#B#c$!@l#e@^#T$~#<#k$Y+9%q#U#0#f@f#^#E$M'Y$V#f#_#f#_#}#2#*$~#}#i%e@V#;>I@O#&@N'f#O'_@P'y%;>e@N;'#2#B#&# &i#}#_#&#i@&#Z@.;Q'-@<#>$F#]#O;7@$$J#f@3=h#R'T=v$[*P%&#+&L%}#N$j%[*[*j$M$I@T$y$s#]#]#/%0$v$v$p#k$!*K@,;>%v$1%S'4%&;!#a%e$!%g#l%y%e* ,+&g$!*v$w$b$W$:%b$v$$$!*}#F$=#P%5%!#w$I$-%c>^&Q$M's%-@P%p#2*m#T'p&U#t@/#[*e@i#s%j%-@0$~%D%[%t$}#+&U'",
"V'h%]*d>b#h$x$=&=%E$w#[*';=@*@[*W'1%~&';q$&#-%<>#%9%Z%V#}#1%E$O$l$g'T$)*H%H%l#N$K@j%[>r%W%7%I$+$W$^%>%L=>*Y%/%D$C>'#P%x$!*_#H%[%N$~%W$#;]#-%>*I$S$x$f$u%+>j%H%a#}#d%x$p#k%W$!*U=o$l$P%/%=*;%X'L@m,Y'F@Z'8-2-R,z;/=_-`'_-A, )/=~=.)^#+)C=x,c=}=@)#)$)%);=&)*)v==)v=-);)*-X'A=>)y=,)')z=)),@!)b->=R,2@~)Y'{)F,}=9=l,r=])I,^)/)()8@])_)6=:)X'<)[)})Y'|)1)Y'2)_)^)2=''<=3){=4)8=u=l,A,5)}@6)7)8)h=9=9)0)u=9)>=A=x,u=a)#-0)2)C=l,8);=_-_-6=4-')0)<)*-.-b)~=c)0)_)0)s=d)e)6-2)f)''+)r@}=<=}@e=z=''0)~)8,2=~=4)})g) )_)6=>=c)7-}@/)}@h)x>3=&)@)i)>)A=2=L,j)0)^)g)d,x=n=_-k)A,l)}=0=0)]-$)[)m)@)2=n)-)C=6=o)!)--<)p)A'0)q)4)_-P,r)/=,'6-s)F@7-:#t)c)u)I,y=v)q)9=9)x><)A'}=0-]-P,4)0)[)]-w)p=9)@)z;]=k)0)i)3=~=s)x)t)3=x,>=A=c=6=*-y=y)>=/'i)z;k)p)^)9=x,+-z)_)^)`=A):#0)[)%-;=_-B)C)D)E)_)u=A=B=F)C=/)s)_)/)G)H)y=3=})3=A=Y'i)=)3=[)])0=^)Y'A'6)-)P,y)I):#2=A,y=m>J)_@:#;#K)D%D%g$!&N%e$8*7*]%v$L)w#=%v$%&k$j%&#h$=%a#c%M)v%s#r$[*H%]#j%=%h$M$T=p#)*P#2#7>-%N)}#7$9%-%=%b%S%Y;-%j%f%W>N%=%Y$!#]#f$l#_*';I$T$V%]#B%P#%%Q%N$g#/%L%+&>%]%W&_@;@@@=%'#|#g-g$d$c%P@`$H=T$f$O)",
"P)o#H$h-e$D$%%_#K%b$I@!*Q)@#R)S)l%%;!#_%v%*;M$W$T$`#E$p%!*!*)$s$M@l#0>&#y$[*}#>&f%W$1% %7$[%I$H$}'&*M$=%b$;%a#P$d$r%[*+&z%O%h$,;#,/%D$T$T$j$*%/%7$[*&#5*e@D$%%o$B@z%H%s#N$9%<*4';$l$-%h$t>+&5$T)U)V)W)X)Y),.u.Z)`)7  !^ .!L b +! .@!b+n;L #!t+$!{ K %!8.L 3.&!z M.*!=!8+-!;!-.@+>!; -!v;,!^.8+'!)!!!~!D+{!]!^!u./!t ) d;z.(!_!{.w :!i g.<![!'!G ;+}!B v;|!(+R + {.J Q.0+1!J.q-2!R i 3!J Q | %.l+4!(++ b.5!$.L /+6!W 7!%.++8!f 9!0!a!i b!c!1!D+d!S ! e!f!; D+O.Y o+g!s 2+h!+.v;w i!P.[ j!l+1.V.o.k!p.H c.>+l!%+m!h.Y ] n!Q.o!p!o-.!Y o+'!$+o.q!I+r!(.s+R h.c s!B.#.V)f {!t!& <.>+>.=+Y $!%.:..+& ^+p!@.'!' k u!8+v!i ; 3.w!r+{ Y x!~ ; M y!z!=.C.=.Z)~+A!B!i ,+C!D!< H.C!T q+9.5!0 E!& F!0 G!h.n;R+_ 2!Y H!t I!J!{ W.:.K!#*'!i;8 >.(+#.t L!&+b.p.! | H!B.' 1 M!A-)!s.. s+o.M!! N!R+~ x!O!' i;f.w C.7!@.R P!@+Q!R!j!=.S!$!~!A!y+M+Q Q v;T!=!S m+4!{ = Q r-U!V!v&#>W!v*B@&;E$X!D$7>%%h$0#K>d%g#P@P@j%<%[%8*w$S$)$v$M$b$>*|#>%8*k%j%D%o$!%o%Y!>&0#*%1%L=-%N%N$p#p#l$p#<*U$D$D$M$I@[%D$g#}#>&7%&;s#k$L%f$Z!*&=&]#)*~%l$K%&%>*`!';+& ~.~+;A@>#/$!#e$$&h$r%3%E$>*K@P@+~",
"@~L$T$m$j%s%|#H%}#s#L%R;e@#~$~w#L%K$4'%~o$v%&~*~L%[*M@v%)$&%Q$4%y$7@P%9%}#[%T$~%!#K%w$U=a#%%D%Q=j$X$%%*=&%h$P#j% &R=a%f$=%f$I=p#p#7%0#5%M@M@l$[*N$&%K%V#C$=&>*3>f$L$y$l%g#%%^*U#h$}%3%=*l$k$e=^@9-F$m$E$r$-&g$^&.;1%g#>&Q$&#M={*(*j-G$y%=~T$5%-~l#]#g$*%p#D$m#M%I$%%E$l$L$D$T$p#C$S'#,y$g#L$h$P#*&w$T$e$0$;~<%=#N)X>j$V#{;V%!#*&v$K$a#W;>~!%!#B$!#!*V#w$b%e@*&#$v$D$x$j%=%!*D$}#X+0#W'e#a#Y$r$b*l$=#C$p#,~)$H%p#T$-%Z>#$b$~%y$c*<%b$y%)$ &-***-%C$h$S$f$p#z'v%M@1%v$~%g#^*3*w$%>e$<>*%'~=&g-x$e$%&]#E%l$L=-&D$u$p#v$&*N$f$y$d%~&*&a#H%k$V#|%^%q'b$O%!#_*S$v$}#d%P%v$9*.%P#u$~%P$)$k$l#j>%%K$|#*&)~!~%%e$M@E$f-.;=%/%&#`$=,w$~~*&{~P#I>f$l$'#N$1%h$V=6%7%k$H%b$.;P#K$s%x$~%r%I$F=X=g#*&-%t>*%%%o#L$U=j$U=Z>f#J=]%e$-@e*d%C$)$a#;$)$0#v$>%]~&#l#X+w$!#)*C$l#%%K%I@v$m#=%h$E$H=e$B@L$[*l$L%H%D$j$k$v$x$g#=&_*D%]#l#e#*&V=)$;;*%U=E$K@P@E$/%t%=,9%d* &b$d$j$]#N%^~3=/~== &K@v%w$Q$b$d%X%9%*&u%l$7%;%^&-&Y$A%0#0%+%V##%]#!*3*=%f%o$L=P%]#!*=%@%K$b$_*g$<%)$V=1&I@l#h$N$W$^&P%T$l$l$w$M$*&W$:%(~y$h$h$a#O%.;G$p#G=9%[*]%^*0$%&U=Q$E$h$g#_~U;s@f@S%E$ & &l$N%s%L$s#M$:~",
"<~3%t>D$-%5%t%I@$%#$Z+t@r$[~z'4*P@L$-&V#F$}~o,o,z,|~i,A, $T%=*j%a%j%]%v%P#V#|#%%Q$T;H%T$j%+>_%>&=%g$q$l$h$l$l%j%/%v$f$7$]#;%H%w$%%b$=%g$U$f$=#u$D%E%]#b$j%k%]%`;P@f%H%a#3>[>7%0$F%}#1~<%E%2~c=3~I)I@=#M@y$'#!#7%{%e$F${;/$H%~%v%*%K$D$f$!*%%4~]%l$ %,;9%/#Q$~%h$*%{%[&P%)~P%s#z%=#v%,;L%v%w#E$A%b$]#9%!%a'0#j%0$=%5%q$%%J=h$g$b$E$w$/%9%|#P#2#w#%*r%>%>~-&_*`#7%j%!*k$o$J$!#h$w$/;^%F%j%>%:%P#`#t>=%M$b$%%v$-&x$%%r$7'==;$&#f$I@F;~*l$G$6*p#=%u$a#f$%%!#l%v$F$/%/%=#p#P#s$=#e$**|%^*d%T$K$j-h$&#h$!*W$'*]#P%Q$!#e$!*D$s%=%]#p#K%E$g$f$Z%9%>*b$e$o#j%/%h$=%i#<%f${%v$a#l$ %[%E$l#j%P%h$a%p#E%=#1>Q$F$L%Q$e$/%7%[%h$%&+&b$g$/%p#W$c%b$s#N%E$!*/%u$R=<*J$v$_#e$+&g#W$g$j%!#K$N%/%W$O%C#e$D%,* ~f%/$}#2#v$*%C%/%=%p#F$e$>&+$=%Y$;$b$>%.%H%P%e$c%2#]##%y$}#O%!#/%+&T$K=1%L$]#P#0$)$&#]#9*<%-%M=!#/%f$*&F%K$V=S$8*=%b$E$s%M$Q$j%!%F$*;y$J=w$l$!&L$!*m#C$*%b$#=k$5%q#])L@5~g%s%s$#;Q$g$i#J$i#B@T$*%/%T$=%7%I$F$)$y$3*s#%%w$%&Y$f$Y$9%L$~%b$>&H%.;]##%I%6*l$B#g%/%7%s#[*H%*%%%%%[*l#[>E$b*!%M@1'y$a%b$f%]%@#w$P>;&6~/,~,7~L=0%r$|#w$*%q%;*h$8~K@c@B#2#t$y%v$9'v$k$5%M$j,",
"x'f#=%>$R=l$)$w$P=)#|@_&9~g- &)$ &%*=,v'`,0~k@W!C'Y+|@a~-,*'X%f$}#+;/%K$w#o$~%I@%%o$}#b~z%z'+&P@v$D%v%h$X+]%7%X;b$}#0#y$d*b$k$f%:%s#<%g$)$]#f$Y%v$K$C$!#g$:*i#E%z$K$l$u%g$v$%%g$b$Z%-%l#c~*'^>n)K,-@c$|#T$x$*%e$e$g%;@x$s%G>F;I$|#/%!*]#0*|#j$k$=%u$>&w$h$M@j%:%|#p#K$b$P#s#l$G$h$D$<%F$M$M$`#H%]%/%g$u%D$=*/$~%H$L%|#N$S%G$v$V=f#1%+&r$w$s#[%f$%&v$J$I@H%<*4%%;j%>&]#!#M$r$!*g'H=3% %u$h$B%D$T$9%!*=%E%-%3#<%L%e%{$c>u$W$y%I='#N%l%s%>*E$,;J$/%7%h$K@M$y%P@g$H$v%/%K=';>&_;=%]*h%=%!#K$3* %T$W$c>=%%*M$I$J=j$==*%]#b$p#7%R=l$/%=%N$/%Z%%%e$d~>*]#!*l$9*e$v$T$ %g$B>w%Q$x%^%l$|#I@b$[&t>b%R=>*M@b$=*J$E$b$/%K=>&e$0%y$`#(*]#[%e$]#~%/%c%s#<%N$=%]#`#d%e~P@D%f~~%i@=*g%B%D$M$K@1%%&e$p#K$=%=&/%y%S%b%<%g$H%s#B@m#T$/%7%s%_#!#g~6%p#1%h$%$g$0$P$/%v%[*i@6*S%p# %T$N$*&/%T$j%h$>*~%H%b$y$p#G$e$X;y$]#`#H$U#=&g$_#*&&;)*0$!@r%#%)&/%M$=#{%';/%K$C$X%[%w$*%/%4#D%6%h~F@^)!*g$M$g#=~p#*%a#v%K$p#[*8*g$]#Q%J$M@=%$;g#-@r%)$j%>*!%L$K$P#h%O%P#]#s%e$s%u$%;!%<%v%1%D$K$Q$k$k$e$%%b$]#J$:%8*)$p#-&s%%%_#f$j%i~j~`,9-g>x@k~l~m~y,4%>*!*L$M$R=^%7$S)n~*#(#o~j%V@}#V#p#&#3*p~",
"q~T=b*M@D$U#b%!**@ $~&r~E$7%b$D$v$W's~0,t~f#2${=[-9-u~6@v~m)o,]#l$7@e#K$N$u$/%B@g$M@;%!*D$<%l$w~_*=*s%N%x~B%S$y~&%y%S% %z~E$]#=&%%g$]#b$E$d>e$[&q$2>}%P=L$`#&;!*O$F$[%P#W$@%A~,;s%3%-&w><'3~s~(,>#f@V#/%|%f*Y!Z%}#l$b$B@S%p#!# %Z$w$!#|#g$h$y%p#[* %!#Q$l$w#y%-%B%!#i#!*>&>;I@3%p$o%=%!# %S'1%f$Q$B~3%e$%%`#3#!#J$E$l$/;/%e%I$u$v$T=I@s#K>w$W$e* %s#]%I@9%]%g$s%7%x%$$k$2#w$!%h$w$Q$=&+&/%/%k$r%M@j%f$l$g%h$Q$V==&~%J=g$F$h$T$g$%%I@!*|#b$%#'*j%k$l-/%M$W$M@b$y%M=*&j$T$z%e$=%a#I@y$!#P%H%H%b$B%L$D$4%I@P=d%v%P#p#y$+>p#D$j$~%Z>*$s#/%5%s%f$#=_#V=_*y%u$D$f#*%J$M$E$+&k$S$b$2%v%&%_*~%)*a#e$l%l$}#x$Q$g$y$!*B@[*g#s%E$9%E$p# %B~h$o$l$d%L%f>K@a#0#s%f$Z%>&s#N%=%[*l#5%%%%%J$%;b$I=%%/%K@d*r$%&p#N$E$C~f$j% &Q$_#~%]~-%Q%*&L$g$e$&#w#y%k% &3*7%#% %P#>;9*l$3*T$3%e@0#<%3#l#>$x$O%i#g$S$y%T$}#p#l$g$,&P%r$~%x%8*j%;*H%H%T$<%3&!~)*|#X%7$E$W$%&E$W$G$]#`;;$=&m$D$#>/)D~E~V=7@O$Q$o$D$J==%E$[*+&f%s#H%c%h-L$[* &2&y%0'+&F$0#K=E$F$Q'+&=*E$a%1%J$S%s%/$P#y$b$^%y$=%[%^%W$K$p$M@k$d%u%#%L$j%d$x%D$<*V%F~4-G~w@*$|@c@<#<#h@$@H~,,I~>;B%A$a#y%,;J~n#*;K~}'|#I$g%M@w$%%C;",
"L~-@e$V@!#p#G$5#*#6>M~ ,U=P@]#N~O~ -]'e@P~0=Q~|!R~S~T~l,<#h@u~:'U~[%e$N$`$W$_#K$8*M$m$7$g#3%j%=&L$l$L%,&;*f$W%V~9%B%[*0$3%!*;>^&h$%%D$%*J$h$*&f%h$>*L$V>A~e$ %0$D$f$5*M=+;]#9*{~p#%#!*|~W~X~c=Y~&@i#$$N$U#E$U#0$7$/%s#e$h$d$~&Z~p#v%=%#%4%g$e$k$g#X%*%&*o#&%f$1%'#%%]#D%Z;=#I@I$v%j%B$e$f%)&V#r$w$!#^*T$2#J=y$e$b$H$!%d%t$`~/%+&|#R=v$v$<%b$K=j%E%l#/%=*]#l$[*H=_;f$S%.; %!#9%b$C$T$y%s%V#k$w$w#u$j%D$E$N$*%T;<%-%f$S$T=I=j%e$9%N$h$,#V=g%H%w$[*/%!%r$*&/%k%j$0#x$P@>*1%>*D%]#/$-%]#j%L$g$M@1%|#,#T$%%X;S%k$v$7$g$e%y$ $c>M@l$g$1%r%I$T$V=f$f$]#E$9%x%v$V#P@E$e#d%*%y$7%p#q$D%D$v%b$]*-%h$K$%%W$h$I=L$-&>&j%>&j%P%y%w$!*`$!%s%!*v%H$%%E$E$a#>&l$!# {!*v%^%D$/%j%4%$$p$p$O%+&k$*&/%<%V#L%!*r%g$D$T$>*g$/%e$D%M$}#d%p#o%O%j%_#)$>%B@B@P%*&!*u$o$D$k$h$]#0*M@,;i%%%f%]#Y;-&:%V$%%=%}#J$B@g#q$D%l$s%,%p@@%p#K$>&B~1%^%G=h%y$0${%>*#%.{D$u$O%2%c%*%r%v$M$a*]%$%$$h$V%d,+{0~9)^& %{%z%^%s%H%_*0$j%6>y$V#<>o#*%e$w$g#K%9%P%!#7% %b#l$B@e$s%5*h$g$l$>*K=D$=*k$v$p#`%%&v$J@~%j%@{f%!%f$B%M$g%>*L%H%a#L=i~<'#{O'${a-c'%{&{5#j,*{A@={6'(&l$l#=,j%i#f$-{-@k~&@s%H%b'r% &F;;{",
">{1@!*g#Z$g%[#}$y%,{U#K$b$>&`$E$'{I,4#){!{$*},a@a@~{{-{{V'n)]{P~S>;;`%h$N%D$=%v$=%S$B@9%P@l#E$T$-%x%!*7%^{)%a#7%:%}#,;I$w$M$h$e$9*e$9%]#e$v$W$F$K>P#P%b$Z%e$Z@:%!*%%T$/{I@[*0*{&(~s#Z,y> )W,{#I@_#{%L=@#H%0#L$=#3*#%(&-@l#I@b$*=p#}'p#g$L=d%M@|%>&u$P#g$~%<&N%`#!*V#]#<%*$~&j%~%E'Y$w$#,3>s#h$.;S%]#*%G>!#p#e$j$k$]#M=,#V#|#W$L=a#d%9%e*c'h$=#*&b$r%h%({x$S'V$j$E'J$K$*%a#!;f->$a#f$n%d%9%f$a#K@=%w%s# ,r>E$!%h$!#9*U$D$*%l#)&h$f-j$x%|#b$V$V$7'p$B#A@^&S%3*7%g#L$@#v%F$}#D$x%u#l#%%L=}#!#|#]#)*J=H%p#/%3>T$F$a#=%[*x$)$7']#^%x$o#j%f%s$X+D$U=]##$B@;> %W>g$*%e$*%P@i@H=<>!*g%:%n%~%!# ,s$<&l$g#X>i#l$h$w$-&L$<%L%.;,%!#U@v$U$u$Y$*&Z=h$ %=*#$i# ,#;s%_{x$>$a#u$=&[&r%o#E$}#j$!%!#:{E$w$l#&#w$P@U#[&x$&#/;C$W$n%L=b%)$B@M@r$/;=#I%/%*&>%P%;$E$2*V#b${$I@/$y%e$e*t@s%t%t%<{r$K$e@Z>!##$G$V%)$-%d%0#E$/;}#[{g$Y$e$T%>&t$9*)$>$g$x$[&7%2#3%g#=%_#}{K$V#k'/%)$h%s#V#)$A,|{${+{f>1{D%a$ %/%a%:%!*]#|#e$b$t%b$S%{%v$B@0%-#f%0$_;d$t$d%1%+$1%R=r$l%`#=,l$>%e%(%j$]~N;-%P%!*j%b$w$X%>*j%e$/%b%A%K@X%5*2{3{-$4{5{6{>=+-_-2)c E$#{5>A'5>7{w$v$B%8*P%!@8{3@9{|#^*->!@I$%%8$",
"['<& %|%V%H@^#E%0{2#D%]#b$D$=&L$ )a{(#C%1&q@h#b{9{9{c{d{0'S;Y+Y@I,e{<*D$T$W$q$%%p#=%e$E%D%a#K$D$e$%%/%f$~%s%g$f{j%r%%*G$7>H%y$D$k$ &#%9%9*c%l#y$g{D$h$4%=%4'y%W;h{i{j{k{f-f#_$$)l{6'n)m{r,<)t,n{o{''p{,@ -`=l)q{3~n)r{r=q,3=;=S>h~H~C=%@X's{$)5$`'4>Q)`'U)P~t{C)u{v{}~C)w{j)#>%,8)I)S>n{x{^@v{y{W~z{`+C=.)2@A{T#v{`=o)^>W~%)s~C) -`=W~n)0~B{5$9)6~C)8)n)z;C=`=C{D{v{E{F{G{B)C)H{`=I{I)3=o)c)P~J{s~n)#>P~])~{K{%)L{v{^>$)m)o)o{B{){3~A=M{ -B{X':$C=])0~R;N{3=_$%)h~F@5$.) -n)`'u~O{){5$u~r'P~^)n)P{/)o)j)g)I{`'Q{I)%,0~%,R{v{z{Q)S{T{y{0~`= ) )J{$)G;T#,@U{r@V{3=5$0~W{9)a)z{T#w{W~d-n)s~u{R;v{l)X{ -h>')*@I).)v{Y{Z{v{I{o{`{o{R; ] ]I)`'h~C=U)h~o{]).]n)C)v{o{P~v{+]2@ -m{s~''c{v{<)E{@]B{$)T#0~#]r@~@o{6~T#n)l)I)P~v{($$)u~K{$]4>I{2@J{l)=@4>3$@>v{o'%]&]l)a@#>*]T#=]4>-]}= -;]#>o{m{s,F@>]P~^)^@o)v{I)3~6=e, -o{])l)v{y{F@$)C),]a)2@]) -']`=)] -%]!]~]{]]]C=a)h@~#D,4)^>^>Y=f$`;Q$x$c%h-[%!*)*v$X%`#m#W$D$~%K=y$x$Q%<*e#j%L$P#U#>*T=H=%&/%F$k$;%s#j$L%y$v$';[&T$K%e$P%E%I@s#k%=%V=x%p#`#M)v$n,%>2$F%d@6@c@|@O;V#^#=*x%9{'@[,f$7%p#]#';[%r$c$Q 6#0@u>D%E$T$=%O>",
"j*=%B@S;>&W!^]i*h$.%h$i#/%0$-%(~*'A@C)/]q{(]^@*#x{)@ ]2@2$_]:]N'@#x@T$_*W$)*g$7$)&+&x$N%,;=*M$]#j%p#l$p#w$K%]#b$]#=*[*Q$J$7%*%&#g$w$<>>%{~~%>*3%A%K=<]b$R=`~A@j,+~i,9-/,>]3=u{Z{S>A'a)8-A,[]0,>]E{$)n)5$B{5$j)h~={W~>])]N{N{y>U)I)Z{0~^>>]K{X~~{l~U{E{`=^>}]5$S>#>D~E{}~>]S>l~y{l~C)S>$)o{`'u{>]#>|]$)y{D~s~f)C)1]y>+]v{v{D~2]5$Z{u{u{#>T{v{}]C{3]y{I)5$N{I)^>S>W~S{S>I)+]I)Z{}]Z{S>m{4]C=v{u{y{5]:#S>B{>]m{l)+]$)W~N{B{4]}]v{$)N{$)n)C)v{v{I)6]S>r@7]y{K{S{&]a)u{S>8]S>K{5$U)X~4]y{5$w{T{#>K,,@4]5$Z{9]S>S>C)C{o)0~B{h~0]X~y{S{+]N{h~@]Z{m{$)+]m{ )S>C)S{m{N{a]b]S>@]I)Y{Z{C)c]>]`'S>y{v{d]m{d]5$S{#>m{v{`'e]#>C)={C)W~g>`'s~}]Y{I)f]e]N{Z{N{^>y{`',]K{>]l)+]g]5$])v{$)r=7]y{>]#)s,3~N{2]E{K{s~^@h]3=Z{v{N{N{i]1)y{b]l)y{j)j];]S{C)l)#>S>N{&]I)4>h~#>Y{b]l~W~v{#>5$l~m{>]r@B{^>C)5$5$N{>]E{S>v{N{$)m{I)4]I)6~S>I)l)D~y{I)5$}]d]s~n)`=S>C)C=D~5$u{B{+]v{5$U)U{6~''k]R;K,=]l]n@d$]#D%b$3*9%y%j%%%7$0#N$F$s#]#}%O%G$h$%%=*l$!#f%O%s#=*;%3%l$7%<%`;=#<%l$S%g$g#&#&;R$w$v$K%j%W$s#y$2#j%s%l#[*:%I)@#m]0~O$`+n]k#A@o]u>p];>=&c)q]j~B#]#-%v$e$_*Z%K%,#r]8@s]L=V#e$l$t]",
"u]4%{;&@v]f$w]~%k%5%I$]%w$)*w#&#($k@x]P{y]q#_@o'%,*@z]9{%#w@A]'#B]T{7% %P@D$j%)$l#r$/;h$#%P#%%!#&~E$9%g$_*x%]#h$G$j%f$L)g$3*G=0$S$y$L$T$v$[%l$7%L=e$l$h$X=J,v{A'C]K,q,]'D]D,$]e,E] )m,+'F]6~T{e=>]/)e,1]G~j)K,A'a)I)B{G]A'A'C=4>#>S>K{#>H]U)#>K{u{A'I]y>u{#)U)#>=]I)9)I)n{C=m{6~U)&]s~4]U)T{U{v{$)C=K{5$e,I)8)I)G~I{8)A'Q;6~I)#>5$H~B{I{<)o)A'#)-]8)K{I)3=K,U{W~$)5$T{H~C]A'S{]]I{1]I)K{I{m{I{C=])H~v{y{s{J]K{#>s{C=T{K{T{j)H]T{6~I)&]H]T{H]s,H~s{s)<)H~T{9)A'n)N{I]4]:]s~I{B{T{=)e=s~H]#>e=e=:]5$N{o)H]s~A'j)6~6~e=A'4]e=T{=]6~A'9)H~K{=)a)=]m{j)I)3=&]T{j)u{A'&]I{I)=]e,n)C]K]e=s~K{6~a)I{e=&]6~m{K{T{D]T{e=T{C=9)s~K{y>#>y>I)#>B{`'8)$)m{F]=]y>K{v)y>K{#)C]C=C=T{`'K{e=X'<)j)S>G~3=6~:]L]s~C=K{<)K{y{2{5$I{&]K{B{^)H~A]$)A]K{V,T{H~K,H~a)s~q,M]s~s,<)K,s~k]S>n)N]S>O]8)a]y>A'e=B{N{}]N{T{`'P]s~K,m{&]=]e,K,I{F{s~T{T{K{s,6~&]H]s~Q]T{ )I)I{D]F]$]a)L]Q;T{R]''G,@'s~S]/,K{F]w$1*[*U$_*8*l#g$&#}#`#l#g$N$S%M@M$%%y$P@!*E$h$h$8*e$M$A%y%%&g#!*^*{&=%=%a*s%Q%0$S$f%D$g##;u%%%>*I@)&#;c>]#M)T]Q,s@6#_](,4#$#d#U]#$Z@K@ %O;D&d-L@m{0*!#g$!*h$%%=&V]%>]%W]%@~#M@E$o,",
"X]S%:*=%v{q{L$e-z$!@T$v$l#y%_#<%k~L'Y]h>M#-@U)q#1@,$&>Y+|@'>Y+^#/@/,R'!*=%E$S%g-n>`;T;f$y$b$2#V#l$w%f%e$b$x%r%~%Z]a$J>Z%B@t>L%d*/%7%~&g#D$]%l$)$H;B#:&`] ^u{Z{9)s~Q;D,K,6~.^m,+'+';,+^S,+'E]m~~,[,6',,/,_,+'~,w,@^*-;,;,#^;'7,y=~,~,>'S,n,',9,_,r,8=n,r,t,2,7,m~7,~,),n,',_,a,;'p,8-(,@'$'(,',_,$^h,<-},<,a,^,S,d,2,^,&)n,Z,,,d,^,2,k,,,8-<,%^^,[,&^*^2,~,t,_,^,^,8=S,^,S,9,!,@'7,8-2,,,),,,t,_,w,k,,,-,p,r,k,,,[,b,,,[,),=^r,m~^,9,m~,,S,r,t,),_,,,_,_,,'9,8-d,m~,,r,_,^,,,-,/,('-'(,_,n,h,l{^'~,8-,,,,k,,,',w,',_,@'a,d,8=~'S,,,n,M{*^m~;'*-S,r,,,;'k,k,n=%^E]-,-^r,S,k,n,^,S,2,4-/,I,-^;^z=^,k,$]n,$^),n=-'8-4-8-[,^,^'r,^,E]r,l{/,7,n=(,,'7,E]7,,,<,7,S,r,[,/,R,>^t,7,(,S,8-,^r,),7,8-t,8-^,8-,,'^,'c=7,J,A,^,I,/,6,8-_,n,)^^,;'p,%^n=S,~,E]n,8-0,u=m,(,a,f,',-,r,E]8=P,m~!^E]r,2,8-;',,!^/,_,8-_,/,8-/,d,]';,n,9,@'m,~^/,~'7,n,E]n,E]A,d,{^~,A,S,G,m~;'A,w,]^0,;=>]%@;,v{j):*^^_*p$7%+&h$K$f%n%c$7$a#3%b$%%~%0*E$0*e$p%L%N$M$~%e$!*j%/%>*<*w$I@v$N$|#y$R=J$-%L$H$o$g$!#7%D%z$o#0$!*j%_*D,M#4{q*Z+}$ $c$&@4@5%;@V%o#/^4]-@(^&;%%r$k$&%W${&f%H$h@u~_$!#[&P%/>",
"_^V##$-#:^%@Q$9%u$h$H%j%P%!#'#A~L@p@')o@X@'>^#.@h@X@8#-@^#,]c@<#b@m~<^~%A~b$V~g#3*!%v$!#f$P@-%-@/%b$>&s%y$N;j%l#;*!%O$H%y%0%y%z$y$7#J$g$j$j%k$<*k%d%[^5,C=e=,,v)0,0,}^N{h~3=|^4{-^;'6'D,I,n=A,;,I,r,q,''L];,/,q,6)x,z=r{V,m,L,L,x,;,q,/,q,I,{^I,A,G,L,m~;,K,0,+':,m,I,;,;=''$]L,;,6'c)6=6~D,L]L,V,;=q,;=''{^A,I,I,V,D,q,Q;a)n,<)K,;=L,q,k,r{P]+'x,1^7-q,6~q,w,m~L,+'L,e,F,L,L,I,2^I,$]$]L,/,3^;=q,0)/,x,d,M{x,;,6'L,E]e=;,]^l,d,F]D,2{$]M{;,R];=M{;=q,]-+'k,;,S,d,k,L,V,Q;+'n=$]q,I,4^Q;_-F{x,{^5';=z=I,;=q,V,,,$]q,G,6'$];=r{;=m,q,0,;=x,/,;=m~;=H,q,e,K,i)F,6';,8,e,D,q,n,6'n=$]L,/,n=I,n=D,6'D,]^n=L,$]5^D]q,x,x,Q;L,x,L,6^]-;,$]I,L,L,e,z=+'x,q,0,I,8,;,;=x,q,q,r{Q;z=+'0,q,$]A,6'L,5'z=;,H]e,$]$]Q;0)+'L]6' )M{L,q,+'L,F,!);,i)x,K,F,I,+'D,6';,/,_-x,x,q,F,n=]^L,;=q,R,7^L,m,L,;=z=A,/,+'%';,:,+'}=i)$]6)L,e,F,M{k,2{V,A,G,;,x,l,n=0,}=z=/,e,c=F{L,6'L,+'d,:,z=q,l,F@Q)I)=]G{c'E%u$8^E$!%!#c%-&e#r%9^s%)*_#l$b$*%h$S$J$-%g#i#>&%*z>M@v%_%b$=%K>N%p#%%g#s%7%!*b$7>r$M$e$D$W$j%v%K${%J$0^o)&@a^b^w@{$S;_@6#U#f#x$|#8#.~x>c^w,d^+&M@!*P%+&f$=%e^9{f^x{D@p#K%O)",
"g^&#y%h%_$2$]#'&f$t>I$-&.;j$H%Q>h~m@/,k%b@_#$$e@H@x$O;c'h^[*i^f@j^;#k^S%!*e$N$K%p#]#e#&%/%4%/%K%M$!%K$S$`$s$_*!%M=W$)*y$Z%:>k$h$-%_%=&I@!%F%+&!*e$l^8$B{6~L,w{m^A@h#_$^#i@1@&#n^''@^/,d,D,''<)6~%'n{''@)l,E];,P]n=V,''x,w,L,^)*- )^'D]e=7^I{}=F{I)e=G,o^9)p^e,l,K{{^s~3=s~o^d,q^d,K,A'Q;Q;n,<)<)N{}=P]6)$]l,q)T{O]L,P]I{r^_)]-Q;>]A'I,K,$]9)A'A'))e,j)@)=)K,m{s^=]]-3==]+'}=z=Y'K,L,2)x,x,#)}=F{H]]-z;x,I{C=>]F,6)B)<)l,e=D,B{P]q,0,0)>]q,e,l,@)Q;s~''$]q,&]n=e=3=I{s~=]t^D,')$)l,I);=L,6~K{[)K{I)p)6~~{x,m{$]K,e,Q;e,T{''Q;6~3=')/)A'C=u^F,I{x=A'C=I{D,v^K{Q;}=6~H]k]$]n)_)r=I)e=q,Q; )C=2{U{F{e=w^e={^I{''L,i)=]A'F{K{s~T{T{Q;6~]^A'Q;k]^)''=)I)M{^)L,I,A'6~3=G]e=e==]Q;j)3=s~B)+'e=e,#)D]j)Q;}=6'B)F{]^H]i=L,e,6~L,K,K,L,r{I,_)m{+'s~x,`'P]K]I,K{6';,$]L,9)$]f)c=L,+'I,x,%'U)<)x^I,3=A'T{K,_-K,H)6~K{=]2];=<)I{8]P,q,L],,x,q,w,c=G,''y^0)H]B)C=s~e,]^e,7-6~C]I)F{n,n=z^T@F{$]8)a) &v$Q=f$e$M$v%7@1%U#L%e#M$w$>*)*A^d%9%g#S%F#v$_*j%%%A%;>l$T$6*g#b$>%S@=%X%E$J=7%p#j%s%v%[*!#v%T$D%7%C$B^`'&@l)k*,>L$J@$%e@V#s#w#h$b$C^D^-#$^E^T$)*r$S%w$b$[%0$#]*@o{c@Z@{%t]",
"F^V#c@Y$*{{]-&G^g$E%b$2#!%L=#%H^  S@B'<*>$y%_@h$K@1*}#y%I^!*7-a~V@==4#!{3%1%w$l$)*c>%%=,;;g$[%N$P%P%v$#%u$o$L=f#W$^%]#D$&;l#4*/$M$%%d$w$;*p$M$D%J^z,K^5^0,[#L^_@6#_@c'c'e@0$t,6~''I,A,K,l)5$o{1#4>9)R;r'|{r'^@A]#>])U)}=g>u^T#|{+{o)5$s{f)`'S] -4>F@>]]$r=M^($I]5$3@}~N^r@S{O^l)x=n)O^W~4>r=Q)`=$)]$r@g>P^g>T{0~#),] ]X'#>z{w{U)^@l~w{^>F@C=B{Q^B{z{1)0~,@R;={q{C)P~K,%,C=n)R;Q)1)n)R; -W{6~Q)>]#]^@0~z{@@B{o{f)$)}~a@}~8)C=C)^>R^:$$)+{C)P~y{v{4>^@S^w{5$n)f)^@3=o{3=T^#]I]J{^@$)5$%,0~#>d-#>#>r@4>4>X'U{+{h~ ]])^@r=<)R;2@$)#]#>`+v{`=8)o'0~/)1)0~o{p{l)v{U^r'4>V^J{n)-]`=W^U{0~f)U)5$X^P~r=g) -u~){n)0~0@h~a@`= ]v{0~=]T#}~I{8) ]C)@@C)]$#>4]v{2$6~`'+{^>F@})Y^p{4)I{^@C=0~l)g>u{n)$)K{g)0~o)|)E{h>n)n)a@R;Z^$)n)-]@>d-$)B{f)`^m)4>=]$)g>^>v{f)|{J{ /C=m)J{u{Q)=>!^=]H]B{F,./)]o{f]$)#>`+($;#6~0~I]0~$)^@0~s]U)d--$M{s~1)K,6':#5$Q)`{D^]$]$.)r=I]I{r@A{n)8)Q;`=2$ ),,K,;'${T^6~])K,H$h$/$Y$8*:%s#<%=%=%v%m$#=h$!#9>g$D$K$R=e$=%]#N$!#/%+/j%|#l%b$l$w$B%>%H%T;_#T$I@>&l$j$L$=&7%>%&#l$h$@/x)O'V@e$3*m#|#F')$E$P@K%M@3%D,N;h'U{m%_#P@]*!%}#h$[*#/v@u~P{g#l#e$j,",
"$/&#m$;@{]#@|#k'f>L$]#[*C^e$b$m@L%O;s@f,%/_#!%l$>$p#*$g$[*],&#%#C)&/f-G$3%7%k%T=[>%%3%T=D$y%-%'*I%!%j%g$e$g$/%e@G^S$o$7%J=L$*/v$J#%%L=!#>%/%_%R'@-S>L,M{c{&@_$6@A@j@L;n@7>*'r@=/q,/,F,u{^@C=3=G@P~;#W^I{E{m)q{^@8)}~ ]Q)@>3@r@o{%]J{o{S^^>Q)^@Z^5$u~K,c-#]9{-/Q)r@{@;#`=Q)~@^>$)r@$)d-C)F@^@:$1#R;C=`=$),@g>%@T@p{>]#>2@A{^@F@5$;] /8)c-p{u~r=x=;/0~-]I{.)f) ]p{,@#]^>2@%@;/w{g>q{%]I)F@F@2$Q)T##>;#]$-/:#${s~g>>/;#J{u{T#^@,/0~g>#>`+T#F@z{3=`=C)%,>/U)S^D~C)5$Z^^> ]C)F@'/0~ ]u~T{S{T#X' ]I]5$8@R;T#9@v{F@*#r# ]o{$)@>p{;# -r'F@c-c{`=D~P~C=b@)])/A{R;`=l)G@`'!/0~,@~/*]o)n)S^A{P~J{R;%@[@o)4)a@,@^@u{^@+{F@z{>/r@z{ @{@v{f)%,C)o'r#($n)J{($n)`=P~ -`=^@]$#>Z^l)u^F@_$/){/T#~@%,`=z{0~W^o{r@A{c{%,8)E{ -b)r'g>y{k~z{C=0~B{*#Q)P~a@Q)n)F@Q)T^d-2$o'S{g>o'P~~@R;@>}~_$0)B{K]j)$]d,1@f)g@;#8@P{*@u~v{^@0@G@l)}~]/P~4)I)9{s~Q)F@5$^/g>@>G@($`=R;_$d-=@`=J{$)F@5$Q)o{#>Z^$)~,6=~,5#3~>]C{D]^#j%X=S$y%e$U$h$W$D$8>w$%%n$l$v% &p$E$&%`;N%3%_*j$!*L$1%l$<*X@]%O%`$r%N$3*P@f$i@o$%&%%d%]#M$l$%&B%3#w#z]N;8=//l#A~>;z%T$W$R=[*T=),|@@#L%U#N%/%K$e$_*E$w#V$9{(/1@A@!>O%}&",
"_/_#3&A@:/[#b$*&<*}#]#/%b$7$p#B;</8='>z]|~b$%%Y%|#p#)$8*],|@`+h@[/j%_*z'l$]%/%j%>%H%A~N%I$s%o$_*W>#%P@s%y$2#=%~%X%P%&;p#=%[&T$a%D$E%;$}#M$8*&=R,E{j)k]M#o]$#'>@#@#i@T)j%4,}/e=I,{^C)w{,]^@f)5$R;Q)($R;u~Q)P~,]%]5$o{@>z@|/g>5$C),@^@r''/8@Q)($o'c-($c-${;#0~1/C)^@T#0@ ]s~h#C)3$,@o{c-0~${d-T#Q)]$4>:$'/($ ]a@+{#]{@E{%@r'F@`+1#u~r'Z^F@=]R;T@v]($@>*#Y+J{$)(>2$u{P~W~($z{m)[#~@)@U)h#2/@>^>2$#{2@3/5#Z^ ]T#P~ ]G@){C)D{3@{@1#1#Q)C)S>F@h#;#c{<@m) ] ]%@r=4/d-,@^>|/9{o{%,T@%@5$5$u~l)^>A{Q)w{*#R;-$8)#>d-a@{@[#G@d-N^X' ]4>^@F@*@F@r'%,($Q)R;v{8)`=u~d-4)*@u~a@9{g>|/{@d-r')@R;){z{4)'/^@K#a@#]o'd-m)@@r'h#u~5/)@9@3/ -$)|/%,x@{@T@}~=@T#|/n)_$F@J{^@2$d-o{w{ ]g>R;~{ ]a@o{F@T#,@Q)T@${o{{@C)^@;#{@~@*]Z^o{/)2$;#3=%,F@*#r@]$0~^@1@L{o'2$c{q{${)@o]J]r@F@4)Q)q{2/A{d-k@9)0~D~r=3=L,8#^@p{^@R; ]*@3$c{%,,]6/P~F@`+^>7/0~&@3=s{C)`=-,D,P~%,E{o{q{1@z{Q) -5@o{3$J{ -R;`=`=T#n,]^(,h>@]D,I{y>S;I@0$x$B%3'V~)$h$>*l#>&[*=~h$R=g$M$y%j%f$Q%3*)$B@b%O%!#-%K=v$0#3%L=o$s#<*j%e$m#s%[*7%h$d$[*s#o#!#D&v^n#z]z=8/E^9/)~i{4'0/%%|~w@m#=^a/9%b$h$&%k$P#L%v%b/g>*@ -T)4%7>p>",
"[/E$A@0#P~;#}#=,h$f%8*T=Q=L$t%l$4$c/ )^#L=,,3,y{y@d/V,g,!>8#N@z@e/]#2#V#7*r$1%w$o$F=K$4%-~s%k$Q$Q%-%T$R=z~l$<%S%o#_*]#!#w$v$X=l#>% %1%>*m%f/1,5$A'x,T@C#*$f@6@-#c'e@y$f,Z{l,c)S,r@f)G@}]%,v{F@r'T@,]@>c-u~_$9{${n)c-d-w{I)P{F@Z^o'($f^F@4> ](>-$o)r#9{c{*@x@($$)u~,]a@u~T#9{9{}~}~)#q{ ]*]$)2$${'/x@(>d-#],@z@:$k~2$d-*#${f^^>Z+c-z@T#F@u~r=*#^>Q)o'_$F@*#^>c{N#u~x@`={@P~4{h#R;c-^@c-$#9{g/%@,@2$^@@>x@h/o'q{R;i/@>~/a@2$o'T^j/_$<@x@C)u~4)c#($f)Q)x@Q)F@F@:${@P~R;F@h#B{a@P~#]T#v{Z+$)*#@>n)a@A{'/-$,@5#~@${C)#][#Q)C)#]0@($1@Q)x@[#@>%,2$($>/_$z@*#F@q@2@o{C=T#Y+T@r#u~'/G@'/G@u~5#a@/@M^ ]k/c{c- ]9{2$*{z@P~9{L@{@,]m)k~n)a@b@a@$)2/o'J{Z^P~f^0~$##{k~,@*#s@T@9{{@i/0~($d-{@0~@>9)T@w{v{,]*#*@ -c{q{5/P~})L@%@9{($F@^>x@[#_$*#%]g>9{{>_${@1@`{R;%@%,*#_$<@I{%,W]-$b@}#A'o{)]r@m{0,q#U]($*@L@$@k~$@2$(#*{m@${F@h>%,+@l/m/n)0~n/K]/,I{q@,]F@^@@>u~v'1@D^`{T^o/F@Z^.)u~g>4{E]Q;:'B'$)3=I{8]}#p/n$+><%;$K$s$ >v$m$M$]#e$W$=#U=]#I=f$P#D$=#Y=I$&#N%M=*&s#k%3%/%f$w$}%f$G$g#a%K=&#l$L$v$f%[&W$#$4''>J'*{q/<#r/s/t/d^X'<,+$4#p{u/f#4%B#[*M$+,j%+&N%}#<#}$3$v/M%e*w/",
"x/H@I$*$q{^#<%d%v$e$P$7$l$H%E$=,r$:$y/}-1@*#w@z/~{0~J'>$B'@#(>A/X@[%C$d$8*N@P@9%L%9%1%O%k$v$S$9%w$k$>%]%g%7'K$3%D$g#2#M@3*l$M)|#b$3%|#e$/{y,W~M{_,;@J@q#!>y#>#%#6#b$B/7^C/G,,,D/~@4>^> ]R;E/Q{)@R;u~Q)-$'/o'^@#]*#5$F@T#Q) ]C)4{B]]$F/x@d-k@h#($*#(>3$(>s@d-_$~>h#v{n@P~%,u~n)l/F@d-q{2$/@`{*@a@a@I]j/~@P~]@*@#@z@g/'/%@G@}$(#:$R;G@q{F@$)b@n)6@%,=@*#h#2$r@9{o'/@F@[#x@Q{{/o')@Y+x@4{P~0@_$$)F@q{4{3$(/'/h#G/k~*#s][@x@H/$@g/R;^@o{($;#K#%,(> ]<@_$#@u~a@n)8'J{c{r'2/Q)2$P~F@*#T@f^*#u~^>G@]@{@k@($g@g@'/:$Y+m@${l)Q@*##]a@o{x@m)q{r#(>I/`+@>($u~_$z@x@o{$@F@u~:$g)9{Z^a@;#z@:$U]8@,]a@*@8@ -h@)@`+k~x@1@k@w@2$_$9@7/*@*@3@M^a@*#3$)@`+*@)@g@|{ ]{>F@q{G@_$J/]$ ]$#d@Q)a@q{-@P~($x@%@u~Y+T@o'`=-$z@u~2$:$w@Q@h#=@#@ ]1@z@g@Q):$h#_$_@0~(>(>R;k~$@`+${2$q{x@h#5>^>Y+d/&@K/$##>o{r@E~/)]'A@-@n@'/G@_$q#L/_$$@*#h#b{R;Y+5#A@M/@#`^q{5$#{F{C]j#M^N/U]@>2@#]~@>@Q{/@m)%@+{5$P~o)d-t,C][,o{Z{s~C=6'O/y$#%%%J$g#b$e#0#)*E$M@*%;%<%)&T$/%j%%%K@!**&F$X$=#P#l$x$S$s%>%#%O%]#k$s#k$ %b$=%G$G=^%v$h$e$%%B%d#&>m#l#F@&':~P/8=<#h@B'c@Q/_#*%l#x%E%k$)*R/*&K$#%:$]@o{k>_#!*;{",
"_>U#|#Y$$@h^q#S%7$/%#;}#!*P@!*f#T$_*.@m;^)R;F#_#N@h@F#`=5-S/T/!#U/=*2#/%B@k$M=I$b$j%M$K@/%[%D$/%O%b$_#p#N%w$g$]#l#k$=%)*/$/%0#P@%%(~F$V/_'`']-/,j@f#o]m#~*(#&#!@*%W/>]D,V,r,o'v]*@a@u~r'Y+${=@r'_@(/k~%,p@o{a@6#X/2$($($f^O'Q),]$@`+@>2$5# ]8#*@F/5#`+%,=@%#_@Q@G@1@Y/W]2@Z+$@Y+3$u~5>/@f^c{Z/z@)@ -W!}$q{C)h#h#-/i/d-*{-$*#`/5$)@=@q{6@w@$@(#4)Y+M#f^q{x@;#:$<@$@g@z@*@)@F/T#a@3$9{z@%,_$%@<@$@c-`=${3$k@(>h>2$L/=@)@6/x@*#/@o'_$<@x@h#W!G@`^$@$@q@x@@>f^Z+5#_$($($ (Y+q{F@T@L@[#c{*#.(v]n@*#h#6/(#9{h#f^h@^#k~0@/@k@d-{]h#=@`+a@8@[#>@u~[#)#=@-/l)N^`='>[#0~/@P{a@<@g/)@M^=@O;0@Z+z@k~-@g@5#k@+(4@@(L@(/`+c-m@;@a@t@L#Z/c@F@m@($`+r@o'q@/@x@$@h@`^r#z@,@($c{b@w@($Z+3$g/*@b@($h#%]3$T#@@z@B'q{-$`=_$%@O'$@=@g@l@1@J@c-$#9{W!a@n@9{u~/@`+{]F@5#b@;@P~Y+#{q@z@*@#{u~[#1@n@f^y%I{{@w{@>H]I,-@'>k@v/_$h@Y+*{!>a@+$c@f^u>x@#(O^5>z{C=r#($r@M{2,u>$#^>m>{@*#K#T^0@#]c{%]o',]c-0~o{(>L,q,_,@>v{y>E{y>$(*%w$>*,#%(s%'*[%#%w$h$<%r%Q$K=^*O%$%y$d%K$l%>$!#c%g$N$y$%&G%b$t%]#_*l#!*=*E%%*]#v%w$W$D$>*7%b$&(*(=(i@0'c'I@+$[#c'0#}=-(;(0$v$k$E%f>7%V#c%3>w%~%C)A@o]-@ &L$j,",
"c~ &I@>((;(#y%U=[&v$=#k$h$=*=%*%W$d%e~`@,(B-'()(!(~({(L+](~@:%]%R=U$:%j%L$P@f$*%>&a$7%#%J$w$s%^({&';_*x%f$>#1%w$1%E%P%U$h-~%/%l%K$E$8/|,E{X'S,D@W!6#t@>#c@v/R#0$9-~($]$] '@>o)q@$@o{Q)P~d-h#~@*#c{x@*@[#P{c{W!=@[#~@c@o'$)[#W!!>&>K#Y+.@_@/(m@C'm@$#1@~@h@J@_@1@)#.@b@J#q#-$5#l)0@)@A@h#6@;#h@$#9#h#$#`+1@@>P{$#%@k@T)q@d-l@R;;@2@)@L@f^_$-${@x@@>;#8@9#g@Q{@>a@8@$@x@5/o{b@2$`+b@t#7/<@u~3$a@b@b@5>>#g@c-#{f^n@c^z@g@$#h#1@h#Q)x@*@($=@/@$@9{T#x@:/'/:$o'i#Y+Y+0'($/@3@&@%@v@M#_$-$x@9{T@G@$#5#((~@7#6@h@*#u~ #<@h@2$x@g@h@G@+$.@6#]@8@z@p{T#Z/1@-$_(`+(/b@s@{/k@9{h#o/-$J@M^^#Q@a@Z+O'W!l@:(m@_$%@f^[#u~*#^#7/x@J#G;0@z]G@T@J#z@k@m@|@*{W!T#$#$#_$u~g@J@h#$#`+~@Y+>/L;o{@>($q{[#b@q@p@L@Y+k@Y+[#J@0@M#.)z@8'x@L@;@q@;@v@g/o'*@z@^#`+'/Y+Q{F@.@R;f@]@Z/&@1@1@B'J'[#-$$#($x@d-<(<@`'w{*#U{m~L=m])@h^_@6#^#d-j@A@'>e@i#F@I;q]5>[(h@Q)w{Q)o'3^e=}(q{`@{]'/O; ]*{u~ -`'@>r@u~l/@>A'q{-'D,#^|( -]-r@E{m#j%^*w$w$';+$H%1( &T$P#/%!*%%X%g$%%l$C$l#V=|#8*v%S%%%>%e#W$h$x~D$g$e$b$0$D$]##=I@a'!#C$;$w$]%X%d@W 3#}&]$3/2(p{t]Y;(.-& &#=]#<*l#0#Q$f-K%X;B%K=y]x@i/V#5%+&)(",
"J&%$<#E$($;@#$l$7$7$J$;$<*>*!*R=1%!%I%D$7%|@~{k*3(*(2%s@i#f%f#>&#=%%v$~#M$1%P% %/%I@b/s$P@T$4%R=}%U#)*P#h$@%=%e$[*~%}#)%h$X;<%B@9%`~z,o)s~w,A@>$h'*$o#}$d*M#e$i,6~D,0,),*#Q)T^{/~>-/h@*{$@/(s@9{P~$#q{)@6#^#$@<@Z@@>T#'>4(x@M#Y+a@x@j@w@9{{]k~4@x@g@k#_@d/$@#@_@g@*{!>D@%#;#z]o'w@k@)@u~c'l@($#{$@L^${Z+G@f^=><@/@=>:${]c@#]!>]@m@`=e@_@*@,@&@&>C'_$u~h#N/$@{@W!6@*#*$5#B#k@G@_@(>)#6#1@f@_@n@r#|@b{:/g@1@Y+,$0@`+u~1@=>_@k@A@5#B'Z+s@M/x@)@]@@#!@c@0@^#2$#]Y+:$]@Y+j@5@u>1@j^1@d/9{k@Y+6#$#c@a@m@A@$@)@L#^$Q{#@c@5@_@d/[#@>n@x@h#m@x@n@1@]@h@*#l/Q{(#i@2$h#=>m@w@k@z@1@Y+/@c@T@q{*#-$_$e@]@[#%,%#q@(#O;h#6#[#$@b{b@5(J@/@2$y#g/1@h#5>W!k@1@9{q@(/w@}$D/1@w@$#]@_@k@/@$@1@_$J@2/1@+#B]c{x@*#6#x@=@,$3@h#2$$@_@`+c@&>Z+{$&@6#h#6(x@$@d@!>a@+@!]g@+$z@)@g@o]Y+6@W!A@@#x@y]M#1@L'6(7(g>=@0~*#K,s~u>A@`+-@J#{$H;7#T)X#T)`@[#g@$#Y@m@ ,x@:$#]>/>@$]#>.;F@%#q@A@5(R;%,+{F@v@8(G@%)($o{U)r'4^P]w,{/Y{F,N{1]k#w$_*2#8*g$=*L$>*M$]%R=<%&#z$f%I~D${&k$S%$%e$(*y$f$h$}*~#f~'#&;!&[*p#>*y$[*1%U#>*I$>*l$N$D%i#9()$y#0(T!a(b(c(@.g#>$-%o$M=S%d(V$S%7%9^P$I@/%s#2$&>;/ &|#)$8$",
"e(.#;$I@{]k#~#S%g$>*&#>&E$+>)*[*h$L$$;e#P@N$}*u%%%=%e$)$,#+$v/e$l$/%l#h$N$r%g$j%g$e$%%z$C$B@=%W$e$7@c$4~j%w#T=9%r%[%P@%%>&W$L=^%f(o,B{T{/,<#g(V@m@=#M@ %U@U#h,I{=)K,R,s@z]$)`+@>s@_@a@8'g@k~]@_$m@q@z@(#d#*#~@[#P~w@s@b@~>-@h#L^1@O;W!(>c#^#8#k@B]^#c@c@v@@#+$#@A#9{f#f@6#b@6@h(g@6@O;p@9{k@_@(#w@A@x@_$b@~#[#M#w@i(c@5>5%m@$#{$A@Q@%]s@$#@@a@g@C@A@&@W!!@h#O;A@-@8%*$9{k@z@b@f@A@=@&@&>W!A@f^O;c{l@*$<@$#Z@*#~>x@5#1@x@$#;@u~$#$#w@=@(>~>$#x@$@=@b@j(/@$@m@A@k@u>&>Y+*$o'w$z@k(/(%#e@8#m@J#$#Z++#&##]d@J#%@X@x@+$s@m]-$w@/@8#n@Y@W!;@@>%#p@*$m@Z@q]t@u~_@&>_$o{h#J@k@n@m@h@_@s@>/t#I'_$>$z@J#f^c@=@J'$$_@'@_$_@@#h#_$u~A@{$-$^#b@a@A@u>@#/@W!q{)@t@h#_@($J#_@k#=@)#%#x@(#k@d/3#g@w@A@c{$#$@8#W!>#@#6@l(z@q#`+k@c@z]c@&@-@k#5#!>@#&@-@W!b@h@_@|@u>Z+z@-@~@g@^#_@5#U#&>@#h@i%m(q# $*&l)]$A{T@D,2$w#m#Z/w@6@m#L@b@x@h@c{$#c'/(b@T)u>}%$#F@o'u~d-n=V,,#U]@>1@h#_$n(k@:$T@@@J{8@P~@>o{*#4{~^_-7)a@)]a)I{H);$N$K$d%V= %l$0>h$m$o(C$K%]#y$N$d*p(/%=*o$*&0%1&L$-%!*+&]#0$E$>&P%v$P@v$P@M@&%H%M@V%e$]#i@%% ,|#>%a%y%i%}=-#)*N$R=+&r$*=1(+&[*1{W$ &<%0$[*x% ]h>_$_#q({&p~",
"w'W@*$f#:/E'c%b$]#G>x%s%1%E$H%0$h$)&2#)$g$!;P#'*M$&#7%v$-%j%)&i@a$5*!#|#f$!#P#H%P%S%U#D$]#M$^*B%r(%%D$K$p$g$3%!*l$k$s#z%e@p#L$a%5-o{j);'(#*@$@-$5%)$k>Y$Y$~,m{C];,<,%,u~W{(>#{W!)@f^6@$#A@($)#]@h@%#O'4@6#c@a@@#x@($0@+$s(O'l(c-Y+(#I#5#J#k@e@m)h@m@$@d/Z@($$%~#Y+5%7'*#Z@M#e@x@g@%#q@U#'@L@|@@#u~_@o'|@%]+$L@-$9#:$L'-@]@n@*#$#:/I;:/$#_@Y@Y+($(#$@L@$#k@;@k@H@@#(>p@!@_#i#V@m@<@(#;@;@)#l@^%_@;@8@*$c'Y+^#@#s@u>8#$@h@i@J@k~z@u>w@c@x@m@e@ #5#Y+[#M#s@J@u>q#w@-@x@6#1@S%2@t@)@t@b{$@k@c@h@b@@#c@h#b@9{m#*{@#9{=>u>Y+f@k@c-3&t(c@v@1@s@e@^#&>(/k@$#t@u>_@&@-@L@$#;@O'[#~#K#[#x@(#]@d@d#>$*#k@L@c@x@[#_$a@1@$@~@Z@%>k@!]k@m@c-@#f@I;d/d@z@k@_@;$*$q]&@-@<@M#6@x@%>#{A@m#^#H#`+[#4@o'^#8@K#[#h#'>b#l(m@|@1@_$A@A@q@c@k@T)C@s@((6#x@)@^#!]L'9{&@[#B#%>u(T)<@e@@#i@6${$o#d@n@D@A@i#}$i@>$)@z{C)x@_,#)l#^#_#H@c$^#Z@Y$&@J@6@=#t@X@5#o]p@!*c@n).)d-T@Q;K{ ,6@a@+#,]9{$@2@@>h#'/]@(>$@2$^@C) ]+'7-r,v(]$C]#>s,@#E$s%H>o$M'X;k$H%X%&#y%7%7$9%*%%%M@0$7%E%;$p#h$C^1%~&0%a#w$!#v$D$o#1%w$[*e$T$7'e*l$D$5*P#3%[%9%!*l$p#%%g$k%I@|%b$N$!*#%f$y$T$**C${%=&;$#,4>B]C)W!!%]#k-",
"H^`$f#Y$u~w@l#l$r$d$*&*&w(D$g$y%*&I@Q$N$<%S$]#v$=%E$/%]#=%l$'&J=2*J$>%g$h$r%5%y$M@h$[%:%p#v$U%]#!#0#U=V$9%e#K==*l$Q%/%!#I=u$V/o,]-j)2,f@f@c{c'U#l@-%x(r%f,o)$]0,S,q{d-o{3=k@@>!>2@/@@@f#5#2#h@c@5#($g@;@O;<#z@k@d@Y+b{c@*@J@a@(#(>w@1@-@6@Z+;@+$$#}$c@J@6(0#1@>#$$m#$@k@y(w@t@$$h@>$*$8#/@e@O;7#J@5>Z@$@;@6@6#_@*@-@Z+*$q#!@{$^#+#w@I@1@8@J@w@J@1@l(p@X@$$L@X@7/B#G#)@d@6#b@[#m#;@>$m#A^;#I@Y+D@6@b@$#h#(#h@A@ &Z+$#'>p@*;z(c#m@((4@O'c@ #g@J#t@>#A(5@U;3&x@4@K@B#L#B(Y$,@.#^#,*b@;@C%J'L/%#V%W!}$F##@k@~#J@h@+;B#v@W!y@V@6@1@!@j@+$}$(#@>J@K#&@;@Q{u#,#I/*@g#h@K@Y@x@9' #k#|@x#~#t@K@f#H#>#}$@#1@Y@K@k@N@}$[#e@p@W!B#f^&@~@_#k@U$o'X@W!|@h@$$b@$@[#-@[#!@-@!>X@h@Y@t@_#6(X@6@J@h@w#$#_@4@@#T)&@;@!@W!A@C)z@_@w@t@%#&>5>B#i@=>9#>$-@U#k@t@$$9{$#*$I/B'&#6@$$m#+$:/8#U;F'k@1*N@;@t@1$S@k@c{~@T^$@@^B{_%X@+#q#@#3&K@Z@)@4@W!K@c@;@k@8#x#;;,#Z^9@c{`+C( -^#;@8#2$q@W!H#M#_$C@]@($R;F@@(~@ /f);,L,q,${5]A'N] ))$i@f$W$]%]#y$[*}%h$v$`%n#|%=#b$3*_#F;p#K$j%,#e$r$<&=#~%e$y$!*>&e$H;e#s%S%;%!#b$9%D%6#!&j%b$4'1%=%l$Q$=%b$;%_*h$,;s#E$<*%%h$f$W$~%g#*%d$9{(#$@{$L=O$o,",
"D(9'R=>&*@k~d%f$T$s#I~>*g$6*+&Y$g$C$y%d%I$E$K$B%h$g$K$G^l$e$C$)$l$g#u%x$m$~&J$>&f%H=8*x$[*-%b$P#j%f%B@P@=%>%*%C$w$!**%P#Y~:{C;y{F,m,(%f@f^6#h^t$S;L@)&E(`'&];=@'`^m)T#[#Q){$<@*#x@`+A@-@M#k~k~t@W!h#g@+$y#:$^#6(j^L@*$*@e@[(6@q@9'J@%#8#Z+h@^#A@N/J@@#'#((y#%$e@W!6@y%*$w#8%L#O;O;n~{%$#y%$@p@w@!>7#J@,#*{*#8%&@V@k@9#O;$#{;4#+$E$g#g@}(M#J'q@J@e@w@6#X@7/t@A@$@+#V@>$e@$@i@4@=>@#e@$#p#I@1@e@W!n@>$m@e@F(C%_$k@~#=>t@]@+$[#6#&>Y+^#b@Z+@#+$1@_@+$L=d@@#5%1@m#q#O'p/S@x@'#G#h@A@($9'_@&#+#!@p@!>b#J@g#A@&@A@=>(#}#5#J#&#V@=>@#6#=>f@_$-@i@t@k@X@5%V#b@|@!@H#^#&@^#6#Y@O;i@[#k#-@_@%#B#_#D%O;w@Y@i#;@Y@W>1@u#e@-@w@w@_#C'$#%]I;^#1@3#Z+*$L;w@0'c@s@v@W@x# &p@O;I$(>}$_@;@4@[#_@'#W!Z+A@G#B#I;J@L#G#*$d@Z+&@&@.#-@^#~#-#B#t@!]t@Y+~#m#;@-@_$e@L#e@h@E'h@M#*$&#;@$#^%o'w#i@_#;$K@*$V@(#G(d$g~:$W^$@W#6~w{7@p#*$I@W!%#*$H@J#-@>#t@l#A^-@u>K@e$h#q@%]5#h#k]w{v@A@ ]1@W!o'$#`{A{){$@l)F@C)n/v{m)T@d,l,S,(/=@r{L]4]p#7**&m$f$-%&#a#I=p#L$}*v%b$M@I@_*k$P=v$o#L%G%/%!*-%*%E$s%u$0%1{P#l$e>>;'#M)]%T$f$K@K$y%I=S%T$K%|#o#S$B%g$P#[*=%4%%&g-E$!#g#9%7%e$b%=#k@L@T^5%c'V#j,",
"H( %X@V%g@{]]%]#b$T$>&,;V@%(E$T$:%P#W$U=3%r$N%&#l#M$*&b$.;-&w$7%7$!#1%V~o$B@B#>&T$f${;T$E$T$M@9%z%+>P#k$=%y$T$v%B%+&k$c@]%i,C)I)e,f@e@a^6#p#$#_#v/J$3,={$]L,n=q{@>d-$@(>;@L@^$6(B''#_@_#W!J@k@4#p@h#6#_$@>>#{$/@M#U#@$*@D@Y+_@&@f@+;~#c'X#K@|@5#&>_$q@h@+#J@k@e@f#m#;@[#f#_#J@[#_#d@C%s%h@ ,c@;$v~}#1@*#d#-@!@4@c#b#-#f#+$ #f@'#j#!@f@=>h#!>m@L@%#b@q#d#i#(#[(w@h$6@Y+c@8#;@i%g# & #<#*@!@@#B]*{$$e@c@x@`+h@!@G#6@$%n@q#8#Z/$#c@j#H#6#5#l(J'-@J@L@$@5>i#Z@w@d#&@s#&@A@4#3&+#e@s@7'A@B#6(M@;@f@o#f@5>i@X#&#d@.$9%{](%Q);@$#w#1@_#$#+$>@*$.#O;_#s@c@g@i@_#-$y#^#Y$c@$$!@%#}#`+V@f@A@Z@x@3&A@!~h@7/d#A@}$-@|@s@t@(#h@I(#{e@d#d@&@$#>#M#Y@e@-@h@-@f@;@@#*$(#4@_#8's@i@p@J@_#z@z]k@q#c@A@8#y%b@l@Z@X@>$+#f@c^~#}$c'6@i@.{1@~#%#;@^#A@U#*$X#1@T)k@_@A@I@X@7/e@L#6#0'o#A@J@e@9{h@4@H#J@q]&#Y+ #+$w(f)z@5#0@Q]s{b@i%h@T)~#e@X@U#A@3&!@q{1*C%u>m#f@7%#{5#O^`^@>L]F@9{^#+$6#{]%#_$2$%]Z/6@*#~@@>z{r@ ]($_,x,~,q{)]s{3=M{P#g$d%<*n>M$P#D%a%Q=P%m$+&I@f$-%f$]%s%#, %+&+>_%%%D$%& %u$M@X%K>G=+&[*%%M@X+c>5*g$B@|#z%J%W$^%c>i>b#|#K$+,P#}#X%}#K%<%b$R/*&z$[*K$;;L@s@v'T$ &[%k-",
"J(_#;>3#;#L'$%/%>&y$9%h$F;>*a#H$l$ %d%3*w$B%C$ &^%f$K(>*Q=8*>%5%y%e$)&L$}#V#}#]#b%D$e$R%p#v%7>P%T$j%]#w$W$M$I>h$j%K@/%L(*'M(K{Z,-@]$e@$$j@y%o#B#G>l{G~<)<)),T){@f^F@h#d-a@c@-$^#X@L't@&@m#_@@#J@y#&@1@g@1@{>$(U#U;i#%#-@!@_@q#~#J@U#*$%#&>B#-#4@6%-@Y+8#u~w#U#$$J@m@i@K@K@'#i#*$|#9#E$@#N(A@&#J#%>j^+$=>l@n@_@t@|#^#C%s@G#V#-@>#^#B#y'h@Y+^%/@_#0#e@k@i@i@f@-@K~t@v@-@&#-@K@_#}#!#p@Z@e$O(J#5%~#$$4@&@Z@P(V#f@i%Z@'>&#'#@#*$&#>#k@=>6#%>Z@B#J@[#Y+'#^#2$h@Q(`+c~8@_@c@C';$;@_#;@2#A@-@K@&>4@!@g@w@I@J@~#f#w@8'+$q#[&h@_&'>-@R(U#_#i@h@J@X@c@-@X@_#%>+#w@L@B''#'>i@f#i#V@4@D@&@_#c@$@j#(#Z@+$m#M#U#@$w#h@$$M^e@+$Z@=>f#'@h@2#Z@I@5%+#@#f#N@N@w#-@q#6#%#!@^#_@-@U#z]&@Z@q#w$B#$#B#&#c@[#J@e@a#/@=#&@4@=>b{m#U#_#6#&@i@;$t@p/U#J@t@U$e@S#e@&#t@2#_@@#~#J@e@t@I;U#k#c'h@$$>#,*}$6#m#&#&#9'U#I@)>a%])o''>o]$^s~**%#-@p#X#(#&#f#L@e@_#8%>#A@0#X@_@A~X/n(>@5#2$G,*#D@m@&@-#*$*{c@9{r'(;l@1@v{*@}~u{F@3/5^''&)b{S(T(I]8,#%h$>%3%b$c$-%[*%>P%P#v%j%{%w$+$]#h$L$W$%%%%E$8*'&e$o$[*2#7%v$e@=%p$e$w$W$P#j%g$.>X%S$[*Y$U(h$f{}%+&*%L$e@u$f$K@B%V#`%S$-#!#7%l$%%n)J@2$U#b$e*j,",
"V(p#U#i@q{+#g#N%W$!#W( %[&s%-&g$1>U=`#e#J$}#D%%&M$|#k$H%D%c$+&H%&#7$/%b$M=g$9%w$u$`!t%~%0$F$*%h$*&K@3*a#S%}#Y$f%|#*=X(Y(]$a)I,h@Z/>$_@&@g#}#W@p#},^>K,k,w,x@-$2$t{T#_@_$p@{/Z($@+$F#g@n#H#*$@#h@)#U#7'4@T#B#1@-@(%<#@#>$1@Z@B#%>|#7#!>_#c'|#m#k@t#m#t@I@y@4@f#3#q#x@|#i#$#;$$$A@3#(%6@q#B#g#%#3&^#*$@#g@q#%#*$*$^#!@>#_#M@O;^#$$V#q(i#+$i#=>>#-@h@c%<#V@F#+$x#e@^*H#!@9#Z@A@U#'@-@+>V@W>-@;@J@-@J@-@`(t@w@&@-@e@w#K@^#P'6% _)@_#L';@A@>$;>>#h@._Z@W@J@e*k@8@z>v@6#>$Y@n@|@l@>$Z@_@H@_$c'j@8%{%8#&#%>K#2#x$h@v/-@d@(#v/>@3#t@}$-@&@@#V@+_%#_#n#J@*$g#~#*;u>_#_#Y@j-w@i@}#5%|#Z@(%%#*${%{$w@K@|@7@6#i#}#I@&@>#!@i%^#B#/#t@!@q#4@V@}#3#u#>#-@t@5>U#/# &U#4@e@{%u>Z@3#C%w#&#'#z@5%_$7'[&-@h@_#i@U# &9'W!H@_@>$>#A@!>f#@_'#w#i@^#&@f@J@m$->t@#_-@q#V@f#U#C%b#(# ,_#g#H@B#|%p@@#!#@#*$&#-@}#=>V%N;8#**Y+[#%>_$),l)|#!@o#*$c@N(I$e@[&,%y#)>|#*$h@h@$_4'@@m@($*@i/%_&_%$c@T#%#k~Z@B'A@+$5#o]*_)@i/l)`+o{C)I,*-k,k~m)=/l)F]K%m%D%[&P%M@g$x%C$!#C$X;+&D$]%K$b$!*w$D$!*l$L$B%3%=_e@!;y%[%e$~%b$]#~%%*5*g$%*x%K$j%T' ~y$K>>**%[&P#s%l$K>l#f${~!*0*D$0$5%4%{~V$b{x@4/A@T$}#/>",
"w*L=9%d%a@w#B%w$~#3#R/j%6*g#^%U#c%E$P#^%l%#=F$>$a#j%!#/%o# &^%h$=%l#}%+&d$D$<*_;9%y$X+s#g%*%b$t%|#D$f%L$:%h%]#v$#$R%-_F@;_',$@k@t@<#&@|#}'3&;%-,^>x,L,u=P~v{))a@b{P{A(&#6@Z+9{{]H%$$m#K@^#'#%#U$+$6#R#,>>_Y+Z@Z+U$B#+>m#+$!@+#f#Y@Z@$$@#K@I^,**$s@R(I@g#f@{%-@*$f#7'x(m#Z@_#o#!%3#s#3#2#V@X@'#]@&#+$^#*$c'%#H@M#J@*;x$@#&@a' &t@w@ #p@i#J#$%V#*$B@Z@l#f@T$h@-@D%c'&@m@-@h-x@c'H#d*J@L=c%i#[&4@&#+$9{+$i@Z@p#J@K@[(S@=#f@)$o#U;'@-#;@B#c$+$e@i@/#u#&@_#&>+;o#,_N(J@V#S;1@$#'_V#@#p#[#|@5%$$-@K@+$3#O;H@8#k@;&%>B#4@C%l#d#w#-@(#_@_#e@2#2#N'-@f^7'6@J@$#@#U$1*$$e@O';$2#I/&#=@)_'>^# ,w#N'-@m#J@H;(%.;K@c'y#q#$$Y$t@'#Z+W!b#.$p@3##_+#'@i#h@^#%>x@!_t@x#J@Z@7@`+K@f@@#B#f@V#3&J@3#3#d@2#!@i#m#<@~_p#S;_#{#x#>$m]=#U#i#{_-@I$O;l#%#'>-@g~3#L=U;u>B#-@S;=#f@U;Z@l#-@n#*$&#>#]@f@w#0#o#&#V#w#u>3&-#t%*&2$o'g@$#./O^X%.;e@/%d@t@=#&#e@6#+$t@f@i@6@j#%>]_o{q{@>*@Q@m~W!e@^#@#9{^#Z^C']@k@J{_$0~]$9{($c-0~^@A,6)#^{]P~^_K{R]%%#=J=K%K%_#S$l$7$8*h$W$>%j%8*v$w(/$V#)&v$R=[*t%,*o$N$9%K$u%l$J=/_H%l$s#I@s%N$|#,#e$s%u%%&4%p#w$%%0${&w$Q$e$v$-&!#w$S%$$*&o%b$ ]-@h> %|#P#O)",
"(_*$+#j#F@y#L$0$j%,#o$6*<%/%f$e$P#j%k$1%b$-%I@x%+;[**%7$3%>%b$z%g$';+;>$c$I$y%w#l#P@5%}#j%g$r%#%[*+&i@=%W$%%H$v/__n,v{e=%'|@c'6%*$}#q#!#q#r%Y(e,N{B)),/@T^Q)k~Q)M#&@a@O'w#7'@#/%h@p#'#i@h@D@-@!>^#e@X@M#&#!$U#o#m]Y+$$!#f@-@^#h@w#>#N'q#_#7'=#V@K@+#*$K#*>K@e@m$U#E= $!@/%T$h^!@}#'>y#T);$u#+#-@4%J@x@.;U;5%h@!@6@B#0#k'h@t@>$O;~#:_p#e@u#B#h@2#G#5#J@7'>$P$<_.(;@N@m#s#->I$l#w@w#;@;@J@!#&#{$q#{;u#j@U#`@e@U#$@T$(#j$k> &,*q]h@J@Y$->Z@c%!>-@t@V%!@#@u$a@D@-#*$q#N@*$c@-@I@i%3#'#X#%#W!*$g%9{(#|#K~>#I@+;.$=#%>^*U#e@m#}# ,u#g#+$6#w#w@ %}#t@e@U;4@j$->I;V@,#h@'#g$u#f@d@6@f#{#[(k@}#>$g#3#f#&#,_e@k'!@~#x$M@+$(%U#K@^#$$S@;$u#X#!@e@(%$#G@w#@#2#U#7'}#;@B#M@x@x#{;t@$@f@9'a$(#@$/*$#+$'#h@i%i@B@!#&#i@~#m#d@ ,&@%$m#i@H@i@q#*&K@}#I@q@6@j#%>{#q#0#c%w#'#f#7@1@~#g#[_*$&#c$s#J@@#U#U;@#Q%c$K~$$D$h-o'`+x@Y+~'o{w#B#U$C$&#c%]#W!k>&#6@^#O;G#M#X#3#P>r'_$m@$#!$u=3/{;k@M#T@*#m@A@t@x@u~*#2/Q#l)T#u~_$}=$]$];,f^w{H~v{w,p$]*{%h%0%2#/%<%E$s%Q'f$R=[%f%o$,;/%K%i%!&!%f%B~h$j%'*o$T;>*`#y$g$O%%%#;g#!*h$=#=#L$7$4'Q$h$7$M@0$%&g$X>/$';e$s$e$7*e%}_H%[&-$J#${]@-@b$O)",
"|_E$~#I@${.;^%u$f$P@p#!*<%**-%r$K%f$y$i#l$e$/%Q$b$!*D$Q$e$j%|',&d%g#j%W$E$9%+&I$]#p$D%j-=%@=I==*b$s%p#!#$%]%|'X;9-r@#>0,$$M#5#c@i'A@m#&#>*J,h~Q;;'t,x@%]q{($z@C@6@D@{]!@ ,U#e@h@@$-@>$~#J@D@5%P$v#7'Z@H@A@,%1@@#y#=>|#2#L=!@K@s#=>g#P'I@=>Y$@#f#i#V#N;&#_#m#H%0#_@a#C%h@t@!#!>m#U;-@@#w#w#$#@#D@O;.#J@W!w@1_i@L=U;^#m#Z@Z@2#I@s#5%g%_#6#K@U$I@=@U#I@|#!#h@B#`$y%Z+Z@@#A@0#o#[#C$5%I;}#>$B#2_W>U#L=B#L'J@L'K@m#L$j@L$*$T$h@c'J@=>i#K@q#U#c@1@c@V@k@#@W$8@j@T$i@e@A(~&w#-#e#U;~#i%e@{$i#i@^#B#i#G#(%J'/#e@_@y#Z@w@=>'#3_w#9'g%o#&@&#i#q#(#(#|#U#x$2#f#4_y#b#%#O;k@7( $f#c'k@w#}#}$U;[&%#2#w#F#U@Z@Y@-@!@!@i#J@_#V#v#E$]@A@^#_#k@3&e@%$1@5%x@Z@+#b@U#d@e@5_n#h@H@_@$#h@_#L#f#&#'#l#m#B#+$u#V@D@6_i#N;>_$#4@m# ,d>f@V#i@5%8%X@q#*$7'b#@#*$b@t@;@0#m#U;2#p#p@{$^#y%]#x$5%$#{%n#-@g@}#i@9%)$u#y%M@I@U#d@/{Z+z@'>@(7_!,a@v%+$t@_#_#@#0#o#u#f#=#I$D@/%*$@_w#i{I{5#x@*#c@E]k@i#B#c'$$=@K#h'/#2$P{c@9@N#~@($Q)3/K]8_q,B)5/o{H)^@^,e^T$B#|# ~P#}#-&]#H%%~{~D$l$*&R$k$L$k%-&>*%%_;1%g$w$/$^%;;g#b*S$h$g#z$]#M$'&w$s#%%r$x$%%U=J$]#`$5%r%+&S% %f$s%l$/%I@9*g$D%'/6#,]{;f#)$j,",
"9_W>*&.;b@^#L$%%)$0*=%j-|#K=L$J$V#K$U$K=>&r%)*M$l$g$5*`#[**%m#b$]#/%y$/%|%w#5*K$S$S%~&l$!*s#-&7$y$X;P@D%F$p$0_%'m{C{q,i'-$h@_@a#f#y%q#]~7,S>K,G,n=_$Q@8@T@)@$@&>g@Z@Q{Z/$([#Y@`#[#D#e@V@Z@c'@$O#e@y#+$w#L;%#3& &d$+$F(a#|#|#k#_#2#i@B#a#W>h@{%V#s#>#e#0#K@;$-@{%&@s#!@m#f*f#x%V#$$7'%>_#c'i#I@p#C%=#q#*$V@c@Z+f-L$_@}$%>^#>$L@;$;$3#2#&#^#;$|#0$6@L'|#o#%#!# $p#]#e@*$s#a_q#W$i#'&_#b# &7@g%B@!#_#y#_#7@!@B#I$4@g#J@0#I@5%w#y#p#h@.#%#h^ ,e@F#!@J>f#U;y%~%e@k~'#u#b_g#q#l# &T).#3#I@I@>$|#l#V#3#>#m#'#'#|@f@>#X@i@K@m#%$I@h@j@@#N@/@a#+$U$w#%>~#U;n#F#N;&>7@u#!# #k#>#v% &[#E'I@_#t@9'k#q#U#U#!#J@-@I@Z@U#h#<%K@m#p#t@I;-@*$^*q#c'D%v@m#B#B#X@S@>#m#t@L;2#@#4#<#'>p#J@I@2#e@C%B#P#U;O;;$-@5%6#L;s#|@U#&#d#!@c__@o#'#g#I$K@J@&>%>_#c'w@_#c$K@J'b#,>h@!@$$-@_#=>$#;@w$w#e#3#J@;@d$~#%>q({;!@>#L$!#$$!#f~ _`+/#d->#Z,W!d>'@I$6@L$3&V@m#D%*$+$4*V$;@V#^#<&E^T@/@[#C'F@d_J@5>t@b{$@k#(#p@h#b@*{I/=@a@D^<@Z^8(s~,,F,A'${y{V,n)Y,_;/%;;g#l$[*y$/%g%g$^*g$q$j%]#c%r%J=!#**_%w$N$U$e_h$g$}#h$Y$Q$`#0$!#K=X;=%v$0#<*g~D%/%s#3%m$f$>*y%<%p#/;e$V#G%{&=#p#P#e$${Y+Q)m#N;y%j,",
"f_y%h@[&(><#B@~%]#H%C$S%O%w$g$>&R=u$R=/%y%~%b$P#b$g$m#l#a#M%w$V#7%F$:%T;R=!#M'g%Q$f$1%C$b%!#t>%%g$j%]#M$w$,&v,N{Q;Z,(>&>]@_#o#D@/;I;q%m~$)g)L,a,*@${n]q@,]h#b@(#Y+t@Y+Z(t@.#$$.@Z>-@e@H#h@c%^#+#g_!@$$>$k'H@h%A@A@i@9'i@V@B#_#^#3#-@=#E'9{J@w@`@,%m#$$U$:&A@P#|#f#m#6%S%y# %m@!*k@m#h_5%>#K@u>~#c'&@e@6#+$}$T)y#-@V#@#m#=#t>i@$$m#!@O;g#]@&#@#s#i@L$Z@O;_#}#d>*$=@f#z]k>$#x%+$J'h@f#}#8%_#I@f#*;{#U#m#'>w#t@}#4#'>B#>#I$t@~*>#=>t@|#k#!>B#4@|#+&_@9'3&3&=#;@B#F#-@7'n#&@'$o#:%i@^#w#&#W%,#_#d@/#c%^#o#E$&#j$i_Z@L@p#j#x$I@9*q#,#q#!@{%I@i#U#L$B@+$'#b@I@y#t@K@$$}#~#;@n#i@*$V@f#8# ,|#_#6#]@/%q#w@N@m#f-f@`#*$>#g#B@f#Z@x@!>D$6@n#e@;@'#^#e@e@6#|#{_w#^#6#-@c$d%K@c@m#=>*#I$%>U;&@~#c'&@i@N;h@O;f@{;{%e@_#`#w#d%K@I$n#3&T)3_0#_#1@f#i#%$I@D#^#i#k@i@4@_#*$f#y$e@/%w#I@_#e%I@,#w#&#G#>#I@5%~#5%'#_@L$~#@%v/r=*@%@T@s^q#b#+; %~*!@H@Y!o#h@m$$@V@*$+@u>@#^#U&0@]@8@k~n(-^/#:/$#^#c@>#u>1@Q{;@h# ]n@T#%@R;%)($K,;,+'e=P~p{e=m{[,5*;$]#R$j_Q$K%X;@&*%}%]#&#b>z~M==;U=k$2#L$b$'#)*!*v$j$P%0#4'y$|#]%!#j%%&#%Z>L=w$l#l$9*S$>*[*0$'&I$M$M@x%K%k_g$U=Q$r%M$1)$#k~3#^#[%@-",
"<~q#o#g$U]|@{%r%*&/%M@=,G$u$e$!#=,`#v$|#!%v$3%M@l$L$x%I(^%%&j%M=d$g$}#i#`;`$3*=%9%3%P%R/L$J$E$K@S$;;2#x%B%l_C=6~6'M#[(b{{$Z@;$L=V@=#m~s~K{P]m~s@[#@@k@d#(>Y+G@@>5#g@_$w@Z@p@w#U#[#t@9'b@]@b#x#v/'#7@&#i@V#I$g#5%i#C%V@O;E$m_i%@#q#p#U#-#F#B#l#*$5% %+#k@I@!#L=e@q#{&d$%$[&@$i@~#0#%>b#'#b#J@g#n@D@{#p#=#+$_@~#*$2#&@w#L'@#;$e@w$h$b$7@5>;$;$>#n_y%A@g$ &c%B#{%:_u>->_#v%S$i@i%5%y%H;$$ _]#6$!@]#$%[#@#I@$#w#l# &=#>#E$L'^%[&%$*$;&'@t@j@}$L$j$d@f@9'&>(#i#k'b@}#q#C%f#V%q#B#i#M=_#D%6$~#L$s#i#%]|#7@f@~#s@&@&#l#!~2#@#{$.{S$o_f^ &)$B#s#2#L$&#}$d%|#7@%$J@m#e@w#+$_@'#~#k'>$5%m@_#m#5%t@0#w#5%T)-@w#Y@o#A@ &B#{$_@J@7@>#->}#e$_@p#d@J@9'b@^#i@B#6#@#;@F#`#%$&#j#|#n#C%%$C%(#a#}#B#I@!@;$s#9#7@;@M@J'f#h@b_K@ &@#w#;$I@L=!@D%-@&#3#U;!@3#b@p#e@w#2#+$%>|@U#)>r$M@e@-@s#A@f@+#%#-@&#`@c$y#h$I@M@c%L$p_$$h'q_h$_${]${x@H,%$3%B#g#h$_#k#v/q#l#]#p@3#|#6#*$a#h@r_;#8@]@:/*{s_Y+4@b@.;h#+$i'B#1@#@m]J#'/a@Q)C)U)7_j)6'@^C=;]Q^e,r@9,t_9%L=e$f$'#7$+&I@I$p##%q$;*g$b$+&v%N%f$B%N$#%#%I=M@l$P@]#b$O=Q$3%H%s%>*g%]#4'T$a#]%v% ~Y$K$S$G$=#7%i#x%b$[*G$,;Q$g#0~m^C)U; %'&s'",
"u_l#U#p#z@@#*$X@2*D$w$=**$o$S%b%F$!*E$h$F$!*c%%%L$I@N%/$e$l#>&#%=%g%f#f>}#0*S%+&v$P%h$S$)&N%g#J$w%%%#,Z;^>m{%);,~#C)S@$$9'D%#$_##=v_}/3=+',,x@o'2$#@0@1@b@($-@p@-@Z+B#Z@Y+m#(#v@I@e@;@o#K@w#l#j#q#>#,#3#m# ,t@ ,_#~#!@|#s#I@V#7@T$w#J@l#:&i#m#w$k#e@U#@$t@f#&@&@X;p@M@i@%>|#c%`#I@h@5%-@M@Z@B#K@B#i%J#S@Y+o]Z@$#I@h$*$w@L=}#q#F$h%i@!#D@S;,*s#>#V#Z@f#*$i#e*Z@_#-@H%2#=>@#_@i#n@m#3#x${%Z@|#>#;$ ,M#J@K@l#>$T$e@@#S@w#0#3#Y+w$V#u#m#'#;@h@E'U#=#i@K@e@}#,*4#!@3%Y$F#q#;$m#Z(&@P#w_c'i% & #u#K@:&&>t@G#1&}#j#s#|#^%s#V@k',*t@_#-#-@>$F#c@U#D@f#I@J'm#$#H%a_f#5%$#7( &e@8#V%V$'#f@S;H#k@K@8%j#Z@B#^#3#@#|#&#h@%#+;*$A@1*o#+#/%}#0#s#V@s#f^k@5%^#-@*%d@w#m$B@g-_#6@a#^#&#g#A@I@~#@#0#E$-@f@@#`#@# ,V#L$s#=#W>]#7''#=$s#Z@B#X@m#e$$$o#E$i#-@B#p#3#U$I$;$;$i@!#A@$$V#A@b*$$g->#_#c$f#]#X@O;U#g#s#7@X@8%@# &w$3#W$%>%, ](#d-,,!# %U$*=l#f#$#x_,*x@9%@#e@c@ &->_#$#<~r#u~T@J#^@X,o'a'9{&#$@`+-$-$1@3$($k~P~9{0@q@r'L@K,]^+'y_-$}~+'#>-,P>:%#;/%s#o$s%f%5*!*g%P%W$';a%p$r%l$e@=%j$>*x$/%K@f$[*y%#={%*%i@h%l#>&=*}#w$H%1&T$P$!#%&G=)%`#R=)&!%%%h$0#Q$P%k$S;9{L@)#V#*$f$_'",
"z_2#w$~#d/Y/t%+&M@L%H%y$!%V#L$T$s$E$]%d%K$'#b$T$O/$&0$D$d%D$>*R=+&;$E$;%e@~%H%#%i$=%S%:%2#v$#;`%o#p#S'o{S> )~^-$;@N;;@%#}$j^I@y%,'C=3=;,),#@u@]@@>)@_$9{J@[#i@h@&@h#$@w@Z@O#b@I@Y@@#o#O#6#U;p# &3#:%&>g~T$b#j#2#h@K@V#V@U$b$|#%>k's# &f#7'c%G$c% %3#i@|#-@V#Y%L=~#8%!~|#Y$*&d#}# &/%b#P# ,~#m#A@F#c@I@}#K~y#K@@#>$F#G#t@y#&#Y%~#I@g%e#y#E$P#U$y%s#.#,*e@&>9%/#T$|#{;$@T$F#Z@H%U#V#I@U#3&_#m# #8%w$!#Z@_#!@}#>#U$w#F#w#B#5%V@S@p#8%p#X@l$m#i@w@B#>$-@<&7'U#!#f@*;>$e@g#I@I@w#V@f@B@.$i#g#~*I$8%(#0#w#p@8#;@_#!@J'%>K@,#I@k#_#P@*$|#m#W>J@!@L=i@!@i#F#l$x#w#d@}#>$/%Z(e@w#Z(2#`@^#Y+U#H@A_1@V@}#w#_#I@^#I@;$U;&#>#N;%>V#L$m#~#-@p#L=-@m_i#i%C%:%c@I@9%K@Q'K@_@_#s#^#'#_#1{>$[&&@,#U$|#|# ,X@m#w#_#e@I@|#l#q#_#y%T$E$2#;&$$I@F#J@b$I@>&8%3#J@ $&#e@G#^#&#2#o#t@K@!#V#!@}#g# $%#N@-@I@%$N@~#}#F#3#r%,*,#g#b$-@U@)*%#o'%@9@H'6,'#d%~#p#y$m#.#q#H@Z@L$4#E$ %I@f#'#q#B_v]*@_$/@%,',($C_2/h@L#.#n@i(c@L@J#c@<@ ]${P~6/Q@s~0,8-I)=@)]}=`=},z' &I=f%H%x%M=a#)$=%W$E$]#*%0#h$I@]#];D$%>k$4#D_E$s%P@=*t$s%x%Y$p#G^%%!~b$e#c% %K$M$1&i%l$9%h$!%v$M$>_N%f$&#g$5%k@:/8'k>8%_#5-",
"J(9*(%p#@>_@&#s%T%%%T$P#i#;$l$v$y$[*E$U$*%E%C$A~%>[&G>m$D$/%]#j%|'y$!*/%3%^*3*u$>&e$]#g#G=V#]#j$/%B%z=8]v{r^(#$#e@|@f#|@<#V$=#i,$)#>;=;'_$)@(/G@t@L@=>6#5>F@Z@+#=>Z@w@U;c$>$!@u>=#f#A@@$V#U#;$-$Z@7@q#b#w#E_i@ # $.#'#E$m#&#K@!# %E$s#g@L$^*^%h$A@J@*$e@s#L'p#g#A@ &w#!@}#x$k@&#t#B#I@K@!@I@c@0#_#s#G#6#s@7>_#w#_%`@I@%#3#L=+#%#q#d@>$4#K@I@e@J@I@F_o#!@%$q#D%j@-@T$V@L$e@k@u>4@*&j$h@U#K@}#7/b@2# &%#@#h-k#p#i%~#f#3#E$e@b@3# %|@e*n~1@V%U$d$&#c'o#V$`#B@i#w(g$u>w#F#b#m#&#,# ,h$i@s#i@b@[&c'v%A@x$/#-@!#F#@#_#K@e@|#O;=#K%D%]#2#)@ %e$<#y%@#U$&@i#e@D%'#w@-@B#]#-@I@%#h$0'U#Y@-@Z@[#i@G#I@!#m#}#2#l#c%|@F#B#4@I$Z@u>t@7'6#8#$$I$0#K@2#^*c@e@j#p#B#d%Y%V$L#~#-@s#U#e@c@_#m#r$ %{%|#_#;$k$$$3#]#c'.@U$U;`@s#p#m#4@o#[&Z@j#9'&#c%&#m#-@l#M#U#c@U#`#e@*&V@U;@#G#_@B@t@4@D%-@F#}#j@g#|#}#i#,#>$/%x# &7@p/Y@X$!#C%3*%]{]]@`+q{[,H#b$_@c@I@d% %J@f@i#I@f@*$i@1@[&y#J#G_t)$@Q)Y@Z^n,(>f'x@Y+Z/c@k@_$'#)@_@_$#];#(>8@'/_$I,L,[]D]2$O]I,$)^,w*F$y$H_P@T$f$a#s%^%{%2#G^L$!%P#7$=#k$]#|#D(o#h$>&-%C$v%]#9*O%X%e$w$E$n>/%i>T$(&k$=#4~>%D$f$g$f$=%u%T$*&~%B@a#R;z][#%#/;1%I_",
"J_&@(%H@B]5#0#y$>$,%3#D$l%y$>&g#c%<%K_g$P#K$+&q$L=B;v%M=%&#=P%v$}{s%<%I@=%K@E$=%p#g$3#]#g%f%e#P#L_#>B,4]E]m#o'c'1@$$h%Y$e@h%~,W~./L,m~p]*#*#c-J@2@e@c-_$5>v@'>g@w@z@5%A@w#~#h@g#w@ %5%M#p%i@-@t@-@m#4#T)`#Y$6%_@k@!@N;;$$#P#~*~#4#|#|#C_J'%#T$Z@b'h$$&1@2#v%;$_#=#E$I@ &]#s#!#I$M_K@{%f-B(O;y#|#;$->w#!#K@K@c%C_z]U$I@*$M_,#O;U#2#!#q]i#c%#$w$0#I@L$'#>$+;.#]#U#!#N_ &O_4#i@/%;$-@D%]@8%i@I@}#B#i%U#U#U#]#p#`@c@g%4*0# &T$e@n%/@j$_#L=#%F#K@X@i#i#=#6%^%i#m#=#j@l(V#U#5%f#;@&#}#_#3#=#G#$$'#U#H@V@b#F#w@^*6#i@i#9%U#d#*${%B#V#o# ,p#f#~#'&D@O;-@ $Z@K@A@6%-@J'w#c'2#`#.{F# $e@>$p#'#d#;@L;s#,#B#)$y#B#{#!@B#r%h% %6#{%C%I$d$K@g# &T$V@Q%3#t@}$$$D%1{6%s#`;x$,#'#-@c%K@=%P#x#V#}#g#0'[&+$4#P_,#U#e#C_y#Q%8%$%e@i% %%$d@ &&@i#y%e@W@I;c%i#A^Q_D%t@I@>#->i%n$C_!@8#s#W%p#>#~#e@{]i@U;c%}$+$i%]#|#f#G#C%I@|#}$U#i#8#k^|#u~c@h@${R_S_7@w#V@m$!@q(p#&#s#.; % %{#>#3%c@&#T_^)w_b@O^'/<,P~&>&@I@u>-@n@o{Q)v@a@5#h#o{(${]F@9{A,I,6'9)}~u{I{T#[,U_L%v$H%1&l#]%h$y$a#!#s#p$g'/%X+y$>*M$i&|#/$-@*=I$v$!%v$%&W%l#M@_*U#[**%9%7%*&P%8*B@!#x$W$n%X;b$%&1%f$}#S$>;P~-/*]I@U#`;y,",
"e(U#$# &:/6%b$L$l#h$F$)$%%{*=%[*k$%%9%g$e$s#`#j%s%a#g$%*K>l-=%j%]%}%7>-%w$k%k$B;H%V_x$s%a#g#1%W_#)>]I)E]&>'>$@q#;$V#f#q#L=^,o)Q;8,&):/_$x@o'g@2/]@o'o]($;@q#Z+*$m#k#c#i@e@m#c$;&|#i#e@ &8#T$e@@_q#&#/#,%b#E=l#$$~#,*Z+:%m#I@M@U#D%[&=**$f#'#!@]#;@D%|#T$_#g~-#e$L$^#_@Z^X_^>V,0,E{B{r=n)h~5$C=F{I)n)@>T{I)}=K,5$|/C)y{C)W{%@o{R;I)I)T#n)S{C)5$z{v{ ]L{^>;/E{U)R;u~D{#>3@Y_{]Z^~@z{^@v{^>($o{_$Z^C)Q)@>q@`/ -W~~@:/Q)u~f]W]x@B{q{])($n)N{4)@>R;B{[#a@o)c-Z_d]3=n)S{I)s{F@S{@]D{T^o)+]n)]$]$%@h~5$5$v]V{2])@]-0@z{5$($,]%,a)@>I)4/&]P~*#B{r=^>^>v{,]q{H]$)-$5$o'j)P~4]C)r@z{o)$)5$$)`=]$;#d-w{v{S]~>$){]q{{@Z^ ]`'^)n)I)P~3{0~C)W~C)l)m{D{T#8)C)R;v)2]])r'n)5$)]W~4>,]$)K{o)n)#>o{s~%@5$~@0~3=U)^@B{T#'/C)E{~@p{^@v{3=s~o{h#_$R;C=@>])o{Q)#>J{r@($*#d-^>a@g>;/`_T@L{r@P~@>e@Y+e#=#A@L$_#:&I@@#3#,#^#&#D%!#@#_#}#~#{#-%J@h#x@}$)#P/(#8#}#j$ ,1*E$ ,v/U;I@!@!@.{,# %w#x@ :))@>9{q{'/5^k@M#W!t@B#5>Z^n#n@h@]@a@z@L@_$a@5]{@`=/,+'I{2$I)]]{@.:+:`$(&`!)$h$y$v$T%G$K%5*j%v$#~T$x$@:;@U=M@w$>&*=a#L$4'>%K%v$[*%$j%%%]#D$]#b*s$>%v$v%b$j%`%d%~%g$!%M@f$v%y%$)2$%]k#a#s#+~",
"u_H@q#c%o'1@-#f#w#e#Z%T%L$s%w$v$%%M$%%k$g$T%7%-%K=`#N%G$f$b$M@j@{&s%j%M_9^=%y%b$M$}#L%e$0#3*`#m{>]k]w,#:6(s@~>q#E__#f@K%@'`']-*-x,@>^>1@o'I/'>7/k@c@n@%#0'6@;@*$e@/@F#&#U#i@Z+k@x@`@-@e@_#i#}#_@B#B#@#^#D%s#n#w#c'&# ,A@]#2#~#e$L;B#># %;@B#U#K@V#0#e@3&S%$:${:'*'D,}^e=F@F@=]N{I)o)^@s~Q)%:T{Q;8)=)$)I)0~$)h~I]}~1)#>I)r@y{9)T##>4)E{o{T^o)}^/)5$d-v{#>$)C)E{C=o{:#`'r@&:L]x=0~N{G]w{']+]5$4]I)y{8)n)d]E{o)h~:#'/<)`'C)n)o{C=C=D, -j)j)&]8)r@v{]-K{5$v{#)e=4>4>f)u~A,X'K]K,I{4>z{l)B{>]3@z{2{C)C=E{0~R;5$]),@e=P~])C)T#n)$)^@8)O]T{2]n)C=T{U)8)#>u{T{*:5$T#I{s~o)I{s,#>4)=:R;:#T{8)3=v{$)`'e,#>W~r@^@A=I{3=o{n)C=C=m{n{n)9)5$T{h~l)3=#>k]C=U{-:h~5$<)C{^@a)v{X' -/)y{C)I)e=b)T{~{n)~{>]A's~z{4>0~g>h~v{a]@]J{3)$)#>s~N]^@A'/)r@0~8)-/ -%,`' -I{H~I)H~C)#>v{v{V,#>Q)Q;+'<,%'='^,C)I$1{u#5%i@V@m#V@[&&#i%c%V#j$]#^*-@;:L#_$g@5#c-6'a#c%>:k>5%c@U#&@Z@t@~%{#@#v%g#&#g#J#,:]$2$_$_$W!':%>@#%#H#n@$@q{A@W!8@6@*#g@o{@>o' ]c-j)''n=n{*{r@r{^>),T'v$!#U=%%>&3*2#G>s%q$M@v$`#C$i*J@*%M)h$E$`;s#I$0$L=(*-&e#j$1%7%M$j%%%v$y%!*a#7@l$T$'#g$l$>*=&J$x%!#9%S$s]^#($*;_@)$)(",
",{&#g$E$a@4@y$L$b#)$%*C$o$0$>*l$ %a#8%d%p#D$p#P%K$K$P#M@l#g#-%j%]#v$N%K=[*k%O;>$a#0#y$0#H%-~%@m{8)%'n@d#$$ &{;b{y#3#H$P/):F{5']^x@P~ ]b@${g/W!C)<#W!f#s@+$F#A@w@3#B#h@i@(%W@`@^#5%o#w@_#V#*$V@c'+$2#U$U#%#P#I@E_-@h$W>a#*&f#p#!:U#W%~*e*&#{#l#5%-@7@g%x@/,U,C=((N@[#6#2$P{Q)_$2$b{;#$)L@:/b@2$P{($o{%],]-$Q)i/ ]])g@ #-$a@~@.):/<@x@{]:$_$b@i/O'a@b@M#g@W!2$F@=@r@~@8'b{N#_$'>}~k~k~c'J{'/[#&@${_@a@W!{>{@,]I)($l)(>|@F@_@#{<@z@~:h>-$o{z]J#'>-$9{o'!>,/{:[#$#x@j#3@T)d#,]q{f^c{_$<@!>q{]:c-]@^@h#_@*#`+8@1@Q{b@$@%,,]2@Q{$#'/(/4@{@P~1@5>W!#]j~P{${(>_$($5#_@W!x@$#7/$#h#_@|@B''/h#A@o'h@($($%]a@_$$)q{h#p@%,5#o]0~j##@2$h#]@1@x@W!_$G@_@%@`+_$x{-$}$]@*@z@C@Q)9{x@9{-$)@_$c@8@1@n@I{J@^#v@2$-/b@k#_$a@($w@B'|@6@(#k@2$|@@#T@;#D^9{z]9{{/!>g@(#1@z@%]k#Q@W!(#2$b#r#`+Z+Y+L@h@T^K,Y,E]T$#$&>*$4@U#E$e@/%w$V$&#y#0#I@i#p*h@o'1@x@D~E]$%0#o#_#u$o#$$_#I$F$,#]#b#-@e$^:'#*{/:(:w@1@}$T@-^u#w@6@O;/@->k@Y+/@-$k#:$T@q#9@`=Q)Z^e=*-n=e,$@Y{e,W~7,_:;$#%Y;t$e$K%#,P#[%+&=%j%::1*!*{%s#K%H%s#v$.;h$/$D$b$Y%v$p#.;X;P#=&.;!*K$<%4%w#j$j%M$!%b$w$/%F$v$/%<^]-L@c-_#&#p#j,",
"<:_#f-/%2${]:%b$b$p#}'f$S$Q$w$E$e#P@v%g$K%<%y$e$Q$[&Y$f%L$]#K=}#Z@O%)%d$r%p#l$h$l$4'~#!%$,4>5$0,q,Y+j@1@%#-$&@i#-@P#2,s~L]0,8=m)[:,$*#u~k~k@2@&#+$-@h@D#Y+t@c'3#k@L$i#&#@#J'C%U#7@B#&#g#B#e@_#L@f#+#U@|#%#3#6*3#&#l#*$g$s#o#*$v#k$]#7'&#4#T$f#L$$%}$e,}:]@T)l)B]H#[#9@S#i@@#J@!>4@_@4@6#[@l@B#t#W!_@h#4@`+k@f@l@e@[@Z@6#6@e@_@A@b_;@_@9'm#w#*$w@$@L@*@-$Y@p@k@-$e@;@9{1@=@Y+c@*#6#!>=>!>_#3&m]6#C#V@1_6#(#'#W!h@ &h#h#J@(#^#-@3&J@J#c@8#*#[#1@m@Z@e@c@-@ %V#f@%#]@K#X@^#=>_#8#@#h@$#c@$$e@(#2$i@A@q#&@A@<#L@)@;@/@y#B#^#X@z@n@4@O;W!O@_@8#J@o]-@]@~#Z@*@h@0@b@G#!@8#9@/*f^ ]D@=@z@U;d@9{f^t@^$8#f'J@g#@#-@/@ ,g@-@c$8#4@>@}#>#A(c@|:!@Z@8@)#1@->/#^$G@t@.@p@J@2$x@f@T@C'u>-@'@J@J@L#k@1@b_=>D@u#8#Z@$#$$G@-@-@>#4@'#J;6@+$8@t@-$T$}#-$m$-@q#>$e@>#U#3#}$e@I@t@7/*@!@6#N~$#J@b{Z/g@Y@n)9,2]{%:&f#h$K@i@K@ $w#|#&#h@v%L=d%1:`+2/m@/(n)),7$ &2#7%U#f$;@K@9%2#b#|#j#j#m$q#D$k@G_`'9{u>l/Z+':(#D@5#6#*@b@|@s@/@3$9{x@%,%@(/J{ ]Q{M{I)p^6~c{z{P]k/i,`~Q%*$Q$<**%K$Z@e$3%e*%(:%e#*&/$l#{%`%m#l$0$f$1%O%e#M$E$V%T$0*J=D$L%v$T$9%/%,&I=!#`$#%#%f$M$J$f$=%a${@$#u~~#!@<%p~",
"e(D$C$a$v'k@[*M$e$a#[%3**$T$c%h$S%j%D$>%~%l$3%1%-&.;l$';!*h$T$]#F$u$*&*%<%2#E$r%/%T$b$X>2]B{a)A,]@@#q#H@u(+$3&F_2:[,>]s~D,w,u~$@~>'>*@T@c@m@k@ #=>h@!@(#h@c@$#'>|@f@_#S#J@j@|#m#;#N~V%o#s#_#B# &4#}#&@9'q#6#[&E$^#0'%$j$i#V#D%e@'#<&L$a#7@5%;&E$+' '/@m@)@Y+/@]@@#@@q=]=6=l=6-:=R,3:*-n,;-a=)--_:=4:o=q=c=o=#-5:c=F)I,6:S,3=3-u=0=l=q=i=2=p=.-d=w=A'9=s=l=6)t,]=p>s=0-+-s=t,_=c)]=u,h=)=]=]=F)@)}=i)7:w=8:--b-s)p=h=/=i=A,/)I]9=9:.-0:2)x=k)'-c)6:~)v=:#<=x=]=%-i=u=v={,y):=<=0=s)t,=^9=a:>)z;s=8-l=l{c=s=b:3-c=a=c:d:2)b:&)$]z=5:k=@)+-$-=^k)e:5-&)i)6)u=l,q=/,u,i)''$]9=d=l=^=--u=>=(=F{&);=s=E]a=L,v,3:6)3-8)o)+-a-.-{=6:8=z=5-a=F)+-n,_-0=~=w,{,{,/=z=f:6-g:)=f=0:Z^{,/=]=5-3^*-4=n)n,h:Y'{,=^z=3-o=:=--9={,z=3-i:_=k,1-2=/=6:w={,:-l=$];-j:=).'G)s=R,<=')+-s=[)t,3-R;J@8#}$d@)@z@z]./r{|#w$R({%+&v/a#=#w(U#_#g%!# &L@., #-$W!1@y{k:>#!#K@L$5%i#m#l#s#_#K@,#e@2%|#1{$%z@l:m:*#6#q@ ]-^-@!@q@t@m#$#+$n:Z/*#_$1@2$k~x@R;J{Q)X',,L,o:-$C) )D{),p:M@`$l#!&O#w$M$I=E$}#g#!#+&w#s%x(P%s%I$w$[%Y$e$9*c>D%8*=%i~K$v%j%g$x$[*+&s%H%h-f%0$v$[*~%}#M@=&I@($4@k@q:}#L$r:",
"D;x$c'}#A@k@p#D$^%h$E''& %&*k$!#s:c%k$R=L$%%y%j%j%>&{%b$4%1%)*>&g$p#%%V#P@D$K$k%'*]#!#Z+6~6~-'h@Z/k@$@3&_@l#/@o$9,+]P]G{m~3$2$F@g@z@#]6@W!J@x@A@A@Z@L@(#c@@#3#~#i@+#L$`@-@+$^#>#n~7(m#U#D%&#7@V#^%7(@#~#K@|#s@&#L=h@I$I@i#y#W>&#2#g#D$G#&#+$M_4^B{$#g@8#_@7@($6:h@t:u:n&T&s*//v:/:w:x:G&v&0%w]y:z:.~f&A:g&G&B:&=C:y:D:E:F:J&G:H:_>g&W*B^w>(_J&I:x*J:G_R)P>K:U(S*L:x/M:N:u/O:P:Q:.*R:j*S:I&s*T:_>U:V:I:u*O&&=P)c~W:X:Y:D*Z:P).,q*Q/`:w'K& <;(9_D&+=D:V*X;p*.<+<G: <@<T/#<K&J:A:V'G_$<<~0%`:e(%(%<_~&<B^v:@:W:w]G_6&*<=<p&F:`*m&8/O*T&%(-<z&;<><,<Y&B^'<A;R))<!<Y=d&<~~<{<]<^<u/v&6&.<U(f/D_/<q_(<_<G&:<K&*(<: <U(x%Q/$*R)<<4'C&x/[<8/}<|<$*u]1</:,{l^2<~<y:3<4<5<6<G*L&B~W*w'7<8<0&::q&9<@:6<K&d&0<z'b^a<b&b<q_/:(<S/c<@<+:+<d<e<G*[<(_!<_~k{i*&<f<@<,<y:S/::g<h<P:f<i<( j<@=q);#6%6#c@h#b@*#9,%%@#T$/%N~D@I;m#I@I@&#s#Z@`#&#;(/@2@C@t@J{^,v%f#w#M_c%3#F'!@&#~#F#J@ %'#W>J#.;b@8{z;G@k<A@I/m~9'f#6@3#L@k@1@u>1@f^/(a@($a@%]a@o'g>D]D,/,^@v(S>]-r=Y,l<:%+&4%7%y%K@N$v$l#D$g%h$e$n%w$=%)$M$}#e@x%e$8*P#,#y$)*W$s#=%T$>&X>H%b%w$7$F$y$>*M=j%K$*%b$v$1%4{_$ ]^#5%1{@-",
"D(y'U#H%k~1@K@/%f$h$v$c%R/g#]%V@%%B@T$>%_#Q'V=p#L%=*j%Q$f%j%K%/%w$K$v$m<I@L$#=7@M=D$''a)e,6'e@h@i%n@q#o#2$u#r$!,^>[]+'m~n<%,k@b@*@a@]@$@|@_$b@-$o'h@w#@#I@;@F# &4@*{_#$$w@&@i#D%f@+;!#|#'#V@l#I@i#&#^*i#h%9'*$l#;@@_e$I;2#h$7'H%C%W>l#y%N;B@~'g>_$Y@m@e@ -o<p<T~K@Z+U#,*G$p#j$U#a#c%b$'& &x%&#|#*%3*E=q<%%c%<&D$!*g$H%r<j#-%E$&#<&s<E$H;1>W>]#b$g$D$/%f%s%t<H%i$T%!*p#+>Q'!*r%%%H%S%b$M$%&t%=&~&M$Q'6>)$@_!*u$$;X>Q'[*5_X=1>[>5_x$w#y$u<+&/%e*E''&n#-@u$a#F#u%w$[*E$g%X%S%9*g#*& %[&7@g#l#Q_L$D$E$2'&#+>e#P@3*k$a#x$r%v%_#*%Y%-%$$f%=%k$>*N%l$g-Y$h$&#k$l#g#H%R(S%%%_%b$K@`#J$J$M@h$u$S%d>,*r%`#P=g~a#&%L=@,J=]%h$w$<%v<k$r%t><%'#l$>*p%W$g%P@=*T%j$H%b$w$|#v%g-v$P#]#[%%%b$j$D${&[&P#P%P#5%B#%%l#j%]#v$|#H%d>3*>*y%t>J=g$j$~*D%[%y%**U#x$H$F#d>E%i#L$+&P#';u$%%W$w#e$E$)@})w<R~*@[#@>q@x@$@G@('3%B#p#I@$$K@ &j%~%T$y%/%x<2%*;y<C%$#$#4@c-r,H$T$I^D%>$C%L$'#s#g$*;g#I@x#Q%_#A@_$f&I,k@2$*#s)_,m#@#o'*;Z+5#c'A@g@(#2@m>{] ]_$F@@>8@z=e,;=a]%,3~e=z{1,e-!#P%`%7%L=4~F$d%P@m#0%s#p#<*M@O%b$%%e$y%%&,;]*u%!#<^9%=%B;g%>;#;g$|#B@9%]#T$+>!#s#/%f$}%S%i%T@L/9{_#Z@b$p~",
"J:^#~#L$z@*{j%/;~%L$=%i@s#i#+;L%U$-&+&r%[*!%^*f$g#Q%=%K@y$%&s#N$%&-%=%>&w$[%N%P@f%C'5$Q]d,_$'>2$G#/@Y+c'&#E%f,A'K{$]6,@>($b@P~A@$@m@x@}$8'q@h>V@v/c@O'h@@#6#}#7'd@&#'>_@|@2#'#3#'#K@'# %g#}#g~B#g#K@f#*$T$L$c@_#|#U#&@f@I@D%&#P@b@!#i@'#@_3,m@z<P~>$J#A<B<y#]$N;*&U;<&2#D%M@I$=#m#~*]#y%J@L={%l$$$!~=&B%B#'&h%}#b$7'.(f#V#*$v$6%L=%%W$_;0#w#l#0#B@V#3&0'd> &p#C<$$%&|#}#<>~*V$&#>$b$0'Q'E$5%#$B@F$X@w#y%e*Z@d%<> %<>w#w#w@!%k$w$|#U#i#B@c*,#M@l#%%%>g#y%>&w#:%m#0#v$w$|#'#i#e$m#*&[&l#!@@#;@D$F$L$]#9*y%y$>#U#q#s#7@p#Y@b$2#h@e$n#'#W>7'F(s#l#>$I$U$P#'#x$9'B@r%e%{%V#P#]#~#y%e@`#*$E$5%f@s#>$!#>$m#=#j$L$j-G#<%[&U#~;g$g#|#D%S;~&x#&#v%+$p#e#~#v$K@%$k@E$7/ ,o#U#7@h@Z@ &D%y%D%G%=%u#=#d$T;4%}#m#v%!@5#g#3&V@%$,#f#U#{$/%C%d*M%-@.;s#C%P#I@B#s#V@i# %m$Z@K@V#-@!@g#2#B@g-t>l#f)D<E<s=6#;@ ]$@M#_,W>U;2#M@E$f#}#g%k$&#T$!#f#0#|#F<L'A@o]H#{@-^t@j$f@B@=* $l#f#y%&#I@E$>$I@S%_#p%E#G<x,U]r'9{;#H<Z@;#V%*;$$D@>#%@>/-$9{r@q{2$${{/P~_$6'M{I,>]r@&]3=n)Y,I<L%]#2#J<!*<&v$i#y$S%~%g%d$*%T$e$b$%%b$R=k$#;L$P@g%7*/%R=d%>~-% ~j%X;+&j%0$g$N$2#W$=%K=V#!#o'K<)]c$P$d$O)",
"v:C$,#p#_@(>j-+&*% &)_}#*%]#D$b$g$!*;$}#T$b$)&]#k$-%b$7$e$w$%&=%T$L%)$f$b*P@d%4'>]5$7^m,^#c@'>W>*$c'>$$$P%4=#>m{$]_,u~5/>@1@>@2$k@W!)@p@J@9{f#x#O;A@C#f@|#^#7'!@K~J@q#i%i@g%L''#L$ ,0#!@7#K@P#]#s#i#{#$$$%V#>$E$Z@t@%>p#g#Z@}#-@4@%%%&p]J,~@@#->;@L<M<x$5%V#'#F#c% %X@E$I@i#&#F#l#i#7'w$y#s%|#e*V%l#Q'n%b%P'm#N<S;x$-&+>x$C~V$B@O<j$p#P<s$Q<;$s#i$i#*%<&x(u'<>i$u'Q'R<X+q<X+S<T<u'Q'G'i$,*y%V$u<2_S;9*+>N;U<q<Z(P<W>0$'&U<2_^{V#i$-;}>,*J;w#>$i#!#F;|#]#[&{;v$t@u#K@l#k#H%y%L=`@>&f#~#Z@~#3#s#=#L$e*!#g#g$b$/%m#8%L$E$%$l#s#_*g#f@^*L$4%L$]#&#i#I@y%B# ,~%_#5%!#d%F#u<h-U#U$._/%L=m#f-&#w#$%E$_@V#|#2#p#g~>$s#e@E$p@3&>#3%L$E$g#E'S@B#i@I@3&d$U#7'S%U#m#%$ &i#K@D%u$'#%>P#_#o#[&K@2#*$.;@#v#~>g%D$V#V#U$|#|#:&J@9%]#p#>$*$I@}#m#y#c%&#O;i#B#V@U#}#+>.;K@T$/%V@3#b$h%d@|#l#8#!# %d$K#V<Y@T@7#u>6#W!Y,%;q#=#m#U#,#}#+;N%C%|#=&8#I@%%W<6#w@U]v@C)!'k$N;5%~*]#|@x$U#7@-@3&|# $!# $'#H%6#c<v^x@5#o{<@f,S;7#g/F#*@A@_@]$u>$#2$h#5#($A{(>2@q]I,i)''W~;#S>`'W~g,V(I=G$Q%e$/%D$X<_#j%i#n#c%L$%*v$g$~%y$3*o$g#I=`$K=e#x%Y$[*T%/$p#z$|#'*3'+&*&=%R=L$p#;$M$#%`^t@J{W!@#e#0:",
"p**&=#}#q{Z@I@2#v$[*9%~%[&0%%%M$0$|#|#l#r%]#j%v%D$s#0$|#d*%&D%D$m#4%D%^*v$f$e~`'5$K,7,(#h@*#*$_$i#x$&@j$9,E{0~;,/,c-o'c-u(=@9#o'6#%#Y<n@-@b#C%k@Z@I@q@;@k@s#H@;$$@Y+ #$$i@i@_@|#*$-@o#w$t@S@}#A@D%L=U#J@t@B#5%V#+,'#q#:%f@I@V@7@i@&#Z<8=*@t@_@U;w=`<G@%%b#I$c%0$~*!@V#^#V#}# %V#y#i#P'<>0'B#V#I@ [Z@T$[%^{r$!#a#.[7'%>5%+[)_k#u<%>,~K@o$-%q%P<!*x$h%e$-;V$8%n~8%@[o(c%t>*=9*F_h%R<u'~&m_#[$[x$S;%[&[S;*[=[-[x(+>u'x(;[x(x$N;>[S;;>}>Q'^{P@|#)$X+u$F#0#E=U$i#`#*${%B#<>h$Z@l# %s#P#!%s# &5%|#j#}#c%a# $T$w#!%i#S%H%!#2#0#}#!#i#&#k$`#>&l#%%]#i@Q%b#y%`#s#%$V#&#!# ,}#+$$%0$_#.;f#-@@#B#*%}#`#|#c%!##%&#D$c$B#i%S%u#u$i#p#Z@S@h$_#p#U;g#h@w#h%P_&#S%]#,#I$I@e%u#'#U#g%`#w$*$M_=#_#L=K@D%L#i#E$w#P#w$8%i@K@'#}#_#~#L$0#:%7@]#h$2#;&0#&#!#i@c%Q%}#5%&#f@V$v$Z@V#|#,#g%4%M@@$M@2#>#U$n#g%g#U=B~b@.@x@6#@>f,u$>&g$i#F#`#]#5_C%g# &V$I(5%y#L~@(X@q@g@3/_,%>f#P#W%d%g@i#]#Y@B#E$0#'#*&c@H;[&x@,['[%#g/-/Y+<,O#=>_$^#Z+O'u>%,9{z{@>8@x@9{q{k~*#C)''L,n,S{P~y{])5$]=)[j%7%v%K$K=`#J$!#K$G%~%%*!#b$w#H%W$M=-%w$l$F=j%L$P@}#l#W$k$N%T;=%K@!*y%]#+&b$f$e$[%h$f#$#b{f^b@5%D$O)",
"![X@>$E$q{9{r>[*&%i#O$'#4%*$w$!#9^x%B@)*v$f$0$[*R=b$M@)*^*M$y$e#=%7%j$[*K>w%.)C]~[w,|@-@s@^#<#j@=#}#<%./5$`'z^I, ]r#'/z]:$+#2$f^m@L'$$[#6#}$($_@I@y%1@A@@$>#X#;$h@m#o#q#G#-@U#L$ #m#i#m#B#U#I$!#&@x(G#7@L$(%-@B#f#J;K@m#'#+$U#a#5*($E]k@6@;@5(j){[a@V$I@}#M_M$K@2#c%w#!#J%9*D@T%x$/%][V#y'h%I(;>7'w#Q<L'Z(^[/[y%s#([2_G'H%_[)&#,:[C<*=/[R<<><[w#T<[[[[x$'{f--;P<}[|[1[+[F_j>m_E'2[3[P'4[>[~&.[r$o#*=5[2_0'a_P'P'*=-;6['{y#}>-;7[8[9[x(0[V$a[t><{l#H@%>f#]#E$;$ %!#}#K$c%o#p#c%r%G#+$}#U#g$l#!#V@T$U#j$L=P@[&/%_#g#'#w$7@q(!~!>s#x$]#'#l#j#Z@@#s#&#F#p#U#.;'#i@H%f# %]#0#&#3&l#V#w$ #{*`#g#|#*$g#s%b#5%<&v/s#)$|#f@w$f@ ,!#'#!@s#}#I$r%w#L$&#U#V#s#b#m#s#*$x#7@U$K;g%d%m#p#m$y$0'b$I([&g#>* #I$&#=#7' ,L$K@r%E$'#,*~#p@w#}#Z@/#|#J@&#*$I@,# $V#B#w$I@3&A@>$I$f#U#<&P#B#/%|#C$,*&#%%_#2#&#b[c[[)^#&@ #1@T,]#3#%% &'#2#I$P@_*x$t@_% &a#|#d[g@,$A@9#G@2,e[4#g$<#G$T$$$D%&#3* ,#%1{_#M@Y@i#-$f&X'q{h#P{d-('M$`#]@f^O;=@*$ ]L@%]}${].)P~r@T@~@F@q,A,r,s,:$4>a)l~Y(T'H%}#f~d$j%I@R%!#:%!#1%v$:%%&E$d*C$>$T$e$y$T$=%1%M$g#b$B%g#w$/$9%P#h$B~M@l$}#%%=%M$^*a@f[a@S;t@9%)(",
".< %U#*&d-F@b$v$7$d$(%P=g-!*9%l$z%T$K@y%I@D$o#S$*&a#M@K$<*i#j$w$=%O/K$P#P%R;[]m{(,_$#_@#%#!@~#_#<#S_g[I)h[0,n,a@P~F@($2$x@*{*#i[A@;@w@!@+$J@V#u>U#i@B#L=h@V@U#,#j['@B#c@!@W!M@E$-#>#$$f#'#g#w#_#H%]@e@~#e@*$}#{%J@U;&#=#^*|'_#^##$k[h#M#%#/#r@l[%#g#|#0$x#;:M_p#h$Z@i#q$t@f#s#;@F$.[][V$|#f#E'Y$V#2_!%q%e*L=h%]#8%<&f>0#S;+>-%s<_[#[P$Y;m[n%a$;>P'1[n[)_F$o[}>f#a[p[q<m[Y>q[8[L/r[s[|[P's$*=C<t[u[i$v[9*8%p[1[-;^{w[O<*=a$R<x[t%}#W>$[({o(+>'{e*]#e*5%1%Q' ,s#L$w$y%@#_#T$H%e*l#:&_@g#%%T$1@)$H$g#V#I@Z@g#o#s#]*E$!#g$u$D% &-@g'd$!%f$`$#%]#}#K@}#0#o#:%[*E$i@3%.;D$,#Z@^%F#o#p#F#t@U#)>]#J$]#E$e$[&p#2#]~v%D%e$K@&#4%3%C%v%h$!#s%s#>$V@p#g$i@^#m$,#I$c$D%e%K@I@i@T$p#}#w$9%4@;$_@h$,>I@I$(&g%l$D%U#H;U$+/b$w#%#r%j$I$}# &M$t@g#C%w$p#h%U#b$]#,#]#>&%$}#w$i@U#v%1*j$E$J=|#`#V#f@%;y[K@4%b$]@_~!^!>^#${P{),P@J@+;5%g#D%T$!#e#|#m#0$z[y$k@A[L@A@5#c@]@B[~*V#@_/%.#i#Y@'#L=Z@`#U#_#g#+>y%&#w@C[$]p@_$6/2@D[g@Y@Z/2@%#d/m@[#=@6@D@a@F@($F@$)w{%,I]L,5'X~3{Y{e,^@E[q_e$c'<>y$M$g%>*/%,&I@7$F#7$%%5%P@'#!#j%|#0$=*H%:* &h$h$N$%%!#a#/%e$)*e$H(f$&%*%P#3%%,$@x@h$i@$$O)",
"F[{$3#9%2$<#~%b$G[K$D%$$b$=*}%f$}*U$f$g%3*7%%%Q_K$E%T$!#b#4~l#b$%%a#!&-%P]4]y>E]w@'#9%U#*$>#k$[&:%[,X'I)z=,'2$T@a@b@a@p@h@{]3$+#h@~#{%Z/W>(#&>8#>#b@&#6#&>%#~#>#*$q#U#b#_#+$A@M@e@B#J@i@w#*$Y@.;|#j$$$f-5%-@<&_#_#>$I@9*c%L$p#c'5^{]J@;$w@W!H[Y$a#I$w#g#b$K%l#T$o#V%!%R(+>3&h%a#/[B@H%@_I[k#N;=%~&u$n[Q'O<J[o#K[.(L[}>G'C~8%i$M[N[<>m_7[O[8['~|[P[Q[R[S[T[U[C<u'V[`(R[6[W[-[K~$=X[Y[P<Z[R[O<w[`[ }0[.}+}@}#}$}L[%}*=6[C<&}_[3[*}=}x[L[q<*=}>-}K(Z=;}N%w$F_E'i#w$_#}#h@t>4%D$9%E$I@[*b$ &`#|#V$}#g$e*K@T$L$L$E$2#E$'#!#-@s#K@g%*$U#K@s#!%`;*${%b#h@]~7@e$,#>}>$y%*$I@m#g$/%I$f@e$e@K@ &&#}#~#t$_#]#U#i@]# &H$V@L$}$E$*&P#V$U$@_T$+;;$,},#]#}#E$w#;>E$g@e$]#e@b#m$J'K@0#'#U#0$T$}#]#&#<%{#'}{%V#{*}#f#m#i#S%v%/%7@y%|#M@*&/#k_&#Q'D%T$,#}{~#d> ,v%y%U;{%;>f@H%L$F#l#Y$U#'&,%g#9%P#c$_#g#g# ,T$h#p+9=c@J@Y+%]':-%B#B#j$7'6%^*U;H%L$e$`#P#}#(#)}3@c@^#<@2$9-|#e*s#J'b$C%I@t<p#I$!#:>:%%%:%i#w%`+!}8-o]*#~}A,){c@p@Y+f^T@L@x@*#o'*#2/${o')@4@@>W~*#B{$]l,{}%@B{P]e]|,B~!#[&**=%=&%%1'#$s%y$T$k%K$h$e#:%/%p#f$B~s#g$}#h$>*0$h$L$K%,&p#C$v$p#l$<%q$M=M$g$L^1@W~i#h%y%p~",
"P>V%o#s%R^A@g$l#P%k$=*G>*%s%P%S%}#w$}*~%i@g#J$v$%%&#l$V#o$P@D%#%b$e$>*`'a]E{l,+#Z/5%8#*#.#5%y%.%  `=y>/,t,{@)@q{;#-$h@;@_@A@2/Y+>$z@f^#$^#,#L#}$L'_#c@&@o#t@3#]#'#$$b#e@p#X@U#h$K@;@U#2#T)e@h@9{0'V@^#A@C$a#=>L=L@L=m#%#7'!@k@.:w@e@n@Y+]}](s#Z@Z@v%5%f-0#@#y#`#v%_#7@E$;>}>*$8%F#R<,*x(^};>/}m_n[0[J[(}_}>[%}.[)_'{9[.[:}5[8[X+(}<}0[@}v[[}5[}}|}1}O<2}3}4}5};[6}7}0[8}R<9}i$][0}m[a}b}c}4}d}e}f}R<g}h}i}Q[Y;j}k}w[5}|$p[>[l}P'm}9*J[|[n[a[n}o}/[n%a#B@;>x$=%V$<%g$w$j$y%E%y%L$g$x%5%^%g%8#&%s#|%5%7@p#,#D%j$S%*&c%Z@U#4%v%I@H%j#-%s#b#h$p#I@e#e#t>C%e$&@I@H%+$`@/%5%!#k$T$_#[*p#%>.{/%U$g%|#!#U$-@U#]#|#-@s#_%w$@#>&`#J@U#C%|#M@[&j$m#P#T$s#!%C_s#Q']#X@@#l$&#%%e*,*K%3&F#I@|#g#m#Q_D%K@U$S;g$W%K%T$j@^#@#7@h$*&$%3#p#_#I@2#L$p#>$B@t@=*T$K@I$g$I@r%Y$e$g#F#V#0#E$t@F#f#&#5%T$i@P#j%j%<%$$f$C@p}X'^#D@!]$@(,'*g%w$j$H%t@6#M$'#%#i#U#a#2#b@r*]$T#}$~@h@^,5#F#-@w~}#%#B#B#|#y#l#i@A@K@/%&#e@ -q}u=5#_@[#5^M#A@_#-$!@.@n@_$[#-${@s@B'P~2$)@F@'/C)A{+'0,L,9{4]s,D{='';';;$l#_*E$d$f$H$/%+&a#=%x$v$p#u$]#b$T$-%+>~%%&-%u%_*,%v$i#,; %r%;%!*=%[*l$H%l$*#z@o'@#&@i#j,",
"p'e@@#c%){(#6*_*k>b$g%=&v$s%g$P@f$*%Y$o$!%$%b$g%%&_*L$u%l#y%:%y%o$W>_$~[&]d,f^:/]@-@(%-@2#w#r$9,/)>] )',a@/@P~#{x@_$'/J@$@$#f@^#B#6#h@|@p@e@q#'#$$q#|@0'L@q#(%q#b#R#3#X#I@B#!#X@i#4%I;-@H%~#k#2#e@&#l#U#k'[&8#C%h$c% %w$&@e@[,9{v@h@-#o/r}{%=#;$9%>$L$r%)$!%S%h-{%|#<>g#)_8%+>p#q[2_=[<}s}1(>[<{!:s[>[N; }q[t}u}O<#/v}X[7'w}T[P'a}m[x}O<>[y}z}/[A}B}C}D}E}R[F}G}K'H}I}I}P[u}H}V[B}J}y}$}K}L}M}S[N}g}H}=[O}R[f}P}Q}R}S}T}U}w[V}W}.}X}Y}S},~w[2_u'2_X+Z}p[!:M@.#[&F#)>!#T$e$V#P#i#D%**c%B#T$l#i#U#3%D$}#>$f@&#T)!#v%u%U#D$c%j$>$!#9%`}]#>&Y@s#9%0'^% &g%%#g#Y$S%I@l#s#}#s#s#s#-@w#t%U#y%8%-@,*D%K@*$h$K@w$!#l#_#c%a'K@E$I@h$!# ,b$e#:*/#%%-@K@k$:%$$;@U$h%{%&#K%w#s#K@C%o#0$_# ,p#s# ,c@I$%$}#s%2# ,b$|#|#v#l#)$]#h${%x(D$&%!#g-g%@{}#.#|#9%m#9'h%M_B@;> |h$/%F#j$t@i@}'<&s%v%&#p#^%v%[&0$w#p#x#i#J#M<6-`@h#l()].|l$`;w#p#J@.;}#/%v/e@p#!#/%e%O;c&{)=>W!9@+|0,d>|@U#a#l#L$T$|#I$C%K~K@s#m#U;'#U#)@@|q=-$h#q@E,_%%@q#)#$#'>)@W!a@_$o{1@A@`+o'2@^@V{W]#>;=D, ]|^y>s{5$[-K)=%h$ &>%!#P@3*N%j$=#e$8*W$]#g$p#D$y$]#v%P#x%v$N%t$T$_*v$e#h-P@~#!*+&y%v%O%g#%,n@%]i@f#/%o,",
"::a# &x$T@3{%%P$p#D%l$f%T;F#~%U#P@2&D$V#9%%%1%W%]#b$f$_*=#[&=%P%)*!>+'e=2,k#k@3#X#&@w#:&@$b$5^a)u{/,~,[#]@~{6#1@$@5>(#_@3#(#i@q{I@8@J@*$b@1*p@Y+3#L#$$^#A@&>'#L@-@Y+i@K@~#I@-@2#G#(%u>'#_#K@U#7@U#0#o#I@D%2#|#)*o#U#V#:%d/J,O#|@Y@e@L/#|V%F${;{&l'3#8%J@d%K@p#Q$c%B%I$e$l$'{(}f-O<V_/[>[ [J[q['~C<6[|[$[s[S<$|s[%|&|*||}5}s}X[=|O<Y[-|[}S};|>|M}4}y},|>[l}'|)|%|Q[!|~|{|]|^|g}/|(|_|:|<|[|}|||1|G}2|3|[}4|!|y}5|6|7|8|9|g}/|0|z}a|b|X[0[U}U<6}4}$}p[$[@};&h%e*h-}#H=e*{;H%Q'~#e$+$=%p#m$2#p#c%M@`#S%D%U#D$<%y%<&5%_#V#h-_%K@]#]#{%F#a'=#c%]#<&2#h$+&m#P@a#7>c%I@U$D% %p#y%S@e%m#K$$%v%!# ,L$h$L=a'p#o#I$Q%h$n#;$I$**2#$$0$|#~*}#i@B@y%F#I@/%&#b#r%|#F'q#I@Z@v$U#`>3*s#H@d$Q_g#9% &t@}#h$l#%%!#3#_#,#'#9%;$L$y#s#C%V$m#[&,#{%g#y%.;p%D$w$!#{%e%j% %2#e@f-U#B@U$E$s%+$B#2#]#I@]#2#j%h$ ,&@w$|#}#]#w$c|d|b)4#d/8#S{,,#%=#2#D%V@|#j%K@P@T;-@y$I$v$^#m&F@!@g@^@i(},a@.;N%(%2#C%0$/%5%T$g%.;|#+;S@T$I@h@J:<)5#T^r)'^'#s@q]u>&>f#C@l@d-$#W!($'/'//@R;W!n)d-F{P]s^0~)@N{H]E{4^l^B@_#9%!*v$P@h$g~g$|#0$M$!#B@/%h$g$g%=%(~0#&%g$$&E$U#M$=&!#j#x%F$l$x$P%N$=#2$b@o';$h@k$p~",
"Q/[&e@R=:/x@)$K_F$P$I@R=T$K%M_}#%% %`#h$f$I$u#S%!*+&l$)$!*W'a#4~r=8]m{V,c@o](;V%3#}#}$m@s%~,D,r=m,e|F/P{u~#(9@Y+i(M#%#q#_$x@ (A@q#J@u#q#J@c@U#c@J@4@m#h$x(-@A@Z@-#t@e@;$F#L=$$w#!]g#&@m#P@>$L$8%B#g#2#K@l#_#h$3&~*U#*&C@O,->]@&$g@ [f|*$.;-@x$*&|#[% %g$K@~*!~V@8%,#9*d%S%N[C~g|P[][h|`(4}i|$}v[j|3[S[g}_|X}k|>|/|<|O}l|X}6}O}m|n|7|o|S}x}p|j|f}q|1}r|s|t|u|v|w|F}x|y|z|A|B|C|y}D|E|F|=|4|G|P}S}H|I|J|K|L|M|N|X}O|P|Q|R|S|T|T}J}S|F}0|U|F}V|W|X|Y|_|U[_}t<a#F$u#/%4%e$|#V#2%`#v%!@F$U#=%7@E$H%F#]#U$E$u$4%&#T$!#3&U#E$v%T$t<P#e@k$e@k$`;w$v%V#E$e$i#I$E$L$x$]#F# #j%H%3&b$J@f#K@f@{%p#L=v%y$g#s#;&D%V#l$<>e%2#>&f#l#!%I@ &G$7@%%L$/%%;C%I@N%B#|#!;w#j$P#{%V#>*~**$D%f#L$l#i#G$s#g%T$B@i#i%-#i#->T$v$v$F$S%[&|#:%s#h$i@P#w#{%p#j@L$e#x#%% ,g%!]=%s#b#y%j$r%1{k$K@x$3&7@8>4%v$B#s%L=7@D%[&|#P%m#!@l# ,J)Z|`|Y#f^2$5$m~P%|@/%H=I@w@[&2# &<%F#E$p#{#Y@ 1n,t#1@C'L@S,f#<%U#V#y$7@1{U$0#p#Y$l#D$&#V$>#j$J#.1Z^h@.)<)6#d@t@L@6#@>6#${~@O;`+f^B'z@l@3=*#T^g>l)q,6=^,P{3/l)T{Z{[,+1H%>%V@s%b$w$1%y%E%<%#%-%-%|'K%+#&%o$L$=%B#&#d*v%M$%&1%0#g$f$o%e#Q$]#v$%%(;5>z{e@q#C<:~",
"O&s#!#n% ]n@>(u$D$T$f$x$!%j$r$p#3%[%a%L==&%%y$E%'*g%_*%*e$*%]%R]y>2]D,m)$(^#'>^#c'U;2#@1{,a)=]n,n,2$=@9{_@J{=>L@_#[#w@-@w#@#X@>$8%m#V@*#j@>#-@/%'$s#N'l#L;J@c@n#u>+#i@f^4@!#Y+>$B#}#J@s#B#+$I$e$;$p#y#c$=%a#H@K@a#O%h#b,^#b@J@i@;@#11%&@I@|#t%5%c%K@!#Q'K$V#U#p#Q'G'~%**I}7{n[i$$1s[)|W}a}[}%1G}&1*1=1-1!|;1;|>18}2|,1'1q|)1!1~1i|!|e}{1t|n|]1^1/1(1_1:1t|<1:|[1}1|1N|K|I|11213141516171819101a1N|b161c1d1e1G|f191g1N|c1h1z|i1j1k1l1[1[}m12|:|p|n1k1o1o}+}+>w$u$O;!#d%w#+>f-v%Q'l#$$ &,#]#I@y$7'Q$7>T$w#&#g#g#|#E$|@s#K@L$+; $C%/%x$+&.{D%`#x$d$w$K@P#M$S%2#s#Q%%&^%!#[&w#s#h$T$=>E'q#]#!#!#`$V>L=U#p#/;V#!#'#g%$%}#^:L$p#V@!@<&!@.{M$7%p#i#|#S%/%L$5%+>P@<%l#~%d$(&t%*$j%7@u%%%f#D%T$h%t%H%}#'#p#V#Q'g#E$c%s#T$p#v$|#J@2#T$7>D%>&0#q<U#P@K@I$ $@_g$0$]#=*,#a#!@T$g%E$g~c%.#{%j$0#K@_#%%'#j-/%|#&#:%!#8@p1}@z@h@f^X'w,[%t@)>R>e$I@$$v$B#E$%>Y$b$a#J#h</)Y+W!-@c{7=;#S$q(]#H%o#E'!#'#b$h$;@|#!#i# ,g#[#%(v]z@g/7,|#K#q]q#h@K#+$^#T#+#i((#2/^@p{_$P~%,;#@><)M{L,T@d-S><)]$),q1g#v$l$3*r%-&h$b$/$g$-%!*I=]#-&+/**=~T;=#P@b$-%]#x%.;S%1%!%z$=%d%[%N%j$a@c@u~>@}'>&C;",
"J_A@E$B@S#}$o#*%w$I$w%z$W$g$b$~#;%0$y$g$!&P%}*]#0#b$ $)$5%';P,I)T{X,L{B#6#2#V@c@j@^#B>4,8]X'a)-^9{*@m>d-2$2$1@9{c{+$#@x@@#J#=#&@~#$#L$f@@#_$K#5#4#W!S%P$+&w#B#m#{#m#@#@#i@]#*$w@4@^#Z@;@e$K@/%'#g#Z@,% %:*L=|#2#a$.@r1d/!>!>|@_$s1l@j%Y$4*&@{%t1h$Z@T$`#|#8* [!#j%a#<>e$u'T[u1G|v1w1v1x1q|y1O}H|t|z1A1B1C1D1E1F1G1H1M|b1I1J1K1L1K|I|a1D1*1M1N1O1P1Q101R1S1T1U1V1W1X191)1Y1Z1`1 2.2+2@2#2$2%2a1&2*2L1b1=2H1-2;2>2,2'2)2M1!2~2{2]2^201N1/2(2_2:2<2n1q|[2}2(}F;%>X>E'L=c%K@s#B#D%y%v$g#N;w$g~<%*$|#h%~%]#e$h$ #[%M$I@!#<%T$1&#;t@|:L$G#.%l#{%e%2#v$=#a'D%/%%&*&m%%>&#I$9%{%a#D%L$e$'#`#9%y%f$K%T$j$j%i@T$L=>&g$v%:&C%V@_#^*b$|#k$T$7@c%j$_#6(P#r%*&M@v%D%!#k#%;P#P#x$}#/%d$8#i#y%B#&#-@g#]#|#~%l#.{+;E$9%%#}#U$T$e%I@F#,#w$}#I@e%$%p#0#p#/%j%&#g#y#k$i@o#!*s#s#3%w#=*t@7(F#%&E$<&`;=#x(/%,#^# %i%V#0#2#)$Z@>/L~3@6#6@^#I)@^k$}#V$*;%#b$e$S;J@p#]#i@g#E$1@y;|2k@%@h@a@8-{;~#L$m#1%U#`#_#L$S@f#U#Z@U# %V$,*9#V$u~q{l)2$b#+;l@k@t@m@J@f#3$>@)#-/W!h@u~T^@>o'o'C=m{V,k,h~w{S>e,C)2,G=B;Y$l#p$e$4%r%w$~%[%f#>&*%#%M@[*/%:%)*r%_#+>f*%&9%*%W'f$B%P#H%~%f%%& ]Z+(>J@s#T%:~",
"x*h%K@;>*#5#I@G$N%c'E$=%]&&%S$[*g$t$P@P@ ;F$]%l$K$%&/%3#!;h#]]e=!^%]@#|(f@!>e$q#>_j$8-2)5$'^2,l/x@F@#@s@p@&@)@O;2$#@/@(%C%3#.{l#w@v%m#X@-#m#q#@$e@_#$$Z>K@s#M;8';@D#f#k'u>J#7@m#5%~#_@2#!@g#k$i#Z@d%e@x$U#S@.;+&=@7,b@/(y#[(d@[<6#/%%%>$=>L%U;V#H%l$r$p%f#}#`#p#9*y%)_h%T%12223242526272829202a2b2c2d2e2f2g2h2i2j2k2l2m2n2o2p2q2r2s2t2u2v2w2x2y2z2m2A2B2C2D2E2F2G2H2I2J2K2L2M2N2O2P2Q2R2S2T2U2V2W2X2Y2Z2`2 3.3+3@3#3$3%3&3*3=3-3M2;3>3,3'3*3)3!3~3{3]3^3'~v[!:>[[&Q'm_`#>&t>e@B@e@p#9*>$.#%&l$v%B@j%l#I@U$!*^*!#K@I$*&0*P@ %`$4%V#|#*;~#j%|#U;:>S$%$v%g$m#2#4@&#U;l${#h$%$+$p#a#f%]#g#I@B#%$l#]#W%;>v$/%2#%>{;4%=#)$ %V@U#3% % %g%s#i#h-e$^*l#>#Z@n#d$M@@{U$V@k$!#E$v$J@_%P#_#U$E=4%#$&#P#I$=#&#h$P#r$K@h-T$U$E$@#T$B#[%f#T$U$s#$#~;B#m$]#'#e*{%K@S%I@s#K@g$9'H%!@c%s#d@!#t@+;o#E$U;!@c%h$P#*&0$K@}$a$h$=#r)/3d-b{_@^#6~u,#=~#o#y@%$I$$%M$>$D$+$(3I$}#}) 1_3x@o{:3b{ 'N%T$V#I@^%}#_#m$ %U#2#%;_#c@>$V#5#(*{))@n@<,K@b@m#!@U#[#5#A@B'@#g@1@h#*$`+s@a@P{;]G@%,m~e,d,@>Q)#>s{E{]]o$;$=*g$0$s#U#F$T$e>[*=*g#j$!%h$p#V@:%G$=#!*)$/%l$]~y%f$!#d$B%%%w$,%(#L^D= &(%&#_'",
".,+>Z@y#c{v~I@T$a#s%b%S%y$<%#=I@)$w$e$/%!*s#+&P@{&)$F=t>''S>B{%_<#@#O;m#k'&@|#U@d%!'I]I)m,;'.)$@9{i/(;-@_@*@<3^#O'c'>#Z+&>6@@#L'F#|@&@5%t@i@&#+$4@-@T)_#m#l#[&g#V#%#w#~#%#L=5%K@>&m$6#r%8#b$J@H;f#8#y%e@L$&#b#n)m,(%!>x@_#->[3+$T%j%i@y%f@j%7@s%[&S%]#[&r%n#j%M@B@h%x(V_u'}3|3C;13}&:~23s'}&33}&}&U';{I_33%=}&}&}&%=43}&}&}&}&}&}&%=33}&}&}&%=}&}&53}&}&}&5363}&5373I_83U'%=}&930373a3a3p>s';{}&}&%=%=}&}&%=%=}&}&s'}&U'}&}&}&}&I_b3}&03}&c33393d3e3f3g3h31(i3$[&[y%|#r$j>l#m#'#Q'P#D%H_W>=%!%W>b$F$v%=#g#E%3_B#g%F#e$!~U#w$L$M@U;j$:%b$U#|#|#,#g#V$T$C%4%*$g$y#E$%$y%]#$%g#|#e@8*l#y%m$%${%#$v%q(K@v%g#}#M_f{'&g$i#{%T$M$j$p#%&}#f%2#c%Q'&#L$[%g#p#[&L$T$y#4%/%%$!#e$`#3#U$`#D%b$`$y%h%P#{%H;g$a#f#y%)*x#F#'&[&h$<>2#{%D%s#!@!#)$'&]#^#e%2#t@+$K@h$5%P#7@{*e*y#l#(&~&e@M@V@-@l#h%,*H%%#e$s#@_M%L$c$ %^#>$g$6-@~]$@#t@(#D~!,j3*&5%+>l$Z@G$W%$$L$k$e$I@F$3@k3l3w@K#(#@>B/D%g%'&8#l#5%=#!_$$U#I$V#x$@#:&+;># ,3$l)k~g>*$v@b@S@-#d/_@|@=>5@A@m@r'h#u~($c@2$q{($D^D,V,6'0~(;0~s~$)[,m3G[.,u$a#l$D$b$*$h$g$w$y$M$l#w$~%*%4'a#=#n3j%%%T$f$T$)*E$K$k$<*f@c{!>.)J@0#L$.'",
"-<0$]#B@:$q{o#K=b$y%!#L%w#E$<&j$g$~%K%!*3'R=I=1%~&v$~&-$F,m{o3P~_$M#X@;$L'N;n@d$^,6~o)/,/'W!`=k~M^Z/z{*#^#!>@#%#'/.@[#;@*$^#V#L$W!I@U#B#U#c@@#t@t@_#U#]#%$.;6#U@I@u#m#w@ &V#I@h@B#Z@4%V%-@a'h$*$5%0#e*l$(%a#*]7,2#n@>#-@i#p36%s#w#H#]#7'T$q33#H$H%U#[#|#v%|#!*r%o#C$;}u<Y|.|r3s3t3u3v3w3x3y3z3A3B3C3D3E3F3G3H3I3J3B3K3L3M3N3O3P3Q3R3S3T3U3V3W3X3Y3Z3`3 4.4+4@4#4$4%4&4*4=4-4;4>4,4'4)4!4~4{4]4^4/4(4_4:4<4[4M3}4|414243444546474849404a4b4c4d4e4f4g4h4[2i4(}$[q%a# $Z@g#c@g#9%w#b#a#g%F#F#]#a#i#M$s#Z@M@>$7@V>|#+,}#8%P#!#8%s#M@m$T)Q'I$|#E$!#]*w#+$]#2#S%r%`#v/0$g%w$c$>*!#w$`;q#X%]#k>j%s#V#W>P#g%/%}#V#I$E$<#}#`#L$b$&#a#F#^*f%i#<%9%#=p%!#h%I$D%:%|#,%3&j4|#j%f%c%k$[&E$j$=*b$]#-@H@D$ %P_o#L$o#I@g%s#D%J@;$w(}#4@E$Q_h$U;D$i#r%l$7>s$C%|#v$L$I@w$`$}#H$v%L$x$i@l$}#I$N%;$c$]#)%^%O%_@c%c%V@[%H$/%}#s%e%[&i@9! @.@Y+-$H)m,>;l#h-b#`#]~i#&@&#i@p#^%|@A@q@k43@w@K#[#o{@^/%7%s#]#L$7@m#[*}#>#p#e[i#d>F#D$y<n,f^z@),W(n#4@_@&#8#;@[#_@;@J#}$&@k@~@=@)@{]5#${~{ -L,{^,,w{+{C]C=Q);'l4]%g$v%K$,&x$0#V#3*l#w#'*=%p#x$y%v%-%f$'*H%|#O%g#N)*%j%|#x%L% %:/$@x@p#}#T$r:",
"c~6%N;y$4>6( ;g$/%K$L$l#v$D$|#k$_%y%d^w#k$!&~%H%>%R=W!:,s{;,f^|@:*1@W!>$(#(%#=~,D]b)/,'^-$`+u~{]:$L@c@u>c@q(M^C@Y+h@;@(%k@J@V@&#e$B#e@ %L= $(%@#+$n#{%'#Z@9%_%!@+>,#m4A@P$Y$+$0'/#J@c@U#%$q#/#P$f@=&i#S@g'3$s_k@c'V@1@Q)X*h@{$b$e@A@U#]#2%;><%7>M$V#Q_g%m#V$&#u$Q<u'C<8[n4o4p4q4r4s4t4u4v4w4x4y4z4A4B4C4D4E4F4G4H4I4J4K4L4M4N4O4P4Q4R4S4T4U4V4W4X4x4Y4Z4K4`4 5.5+5@5#5$5%5&5*5=5-5;5>5,5'5)5!5B4~5{5]5^5/5(5_5:5<5[5}5|515)5253545556575859505a5b5c5d5e5([w[a$8[f5a_p#h%g%p#L=j$%$&#o#m#3#w#*$!#g#V#L$3&c%~%L'e$=#p#P#P#Q$Z@'#J@/%u$%%e$2#7$L=f#$$c%6@[&/%1{3%2#`#S@$$+;@$r%U$ ,_#0#/%5%k$=#i#c%;$p#a#/%L%p#V#+$_#-@o#'#3%w$T$m#$%e*h$C_B@,#s#+,I$I@ %U$'#a#X@s#}#|#2#~%^%}#u$g#G$m#{&s#@#T$C_&#3#g$v%r$b$j#V#^*j-~%2#F#9%<%W$7'L$,*_#$%'#%%j$Y$.;9'o#k$,#{%K@L$,#g#!#&#2#s#i#}#j%E$p#j#+;l#N$g$g$B#b${%=@U#B@E$E~j&<)f^Q{;@T^c=E%d$ $p#.;*&w$s#:%.#a#D% %0#p@P:;=G@a@)@%,x)I$!#v%.(L$&#J@_#]#{%J@m#_%`@V@/@R=.)[#0~f^l(_@5%%#6$a@$(p@M#J@p@&>c@9@_@Q)p@c{r@n)[#~@m{7,d,`'{]5$&]$)!,,{Z%7%7%3%a#W$e@C$r%f%L$=&:_f$]#I$+&X<b$7%H%a#]#C$h$w#K$]#1%M@)@Q{0~J@L=b$p~",
"Q/B@c@-#T@1@]#Q$7$=%W$>*#%)&*%K>H%s%_#g$g$>*l$<%a#5>6'D]w,{@+@u>A@>#&#x#o#[%f,a)T{z=S,Z/h#F@A@%)L@@>c-u~*@`@h@w@K@O;~#!@&@i#U# &f@o#o#&@9'K@B#>#%#c@m$e@f@+$L$'#v%+$ &}$$#7( &7@h$f#+%g#1{m$m$}#_#w%c%h$Q^g5a@5#$$k'b@h5_#I@p#j$T$~%S%m#U#s#$$U#T$j$f-&#f>[&|#^#[&j$*%R<P'i5j5k5l5m5n5o5p5q5r5q5s5t5u5v5w5x5y5z5A5B5q5C5D5E5F5G5H5I5J5K5L5M5N5O5P5Q5R5S5T5U5V5W5X5Y5Z5`5 6.6+6@6#6$6%6&6*6=6-6;6>6,6'6z5)6!6~6{6]6^6/6(6_6:6<6[6}6|6162636465666768696L$06w$a6S@*%}%~%Q$H%*%Z@y%S$s#V#b$f#!~U#g%+&b$|#g%,*[#>*v/e#I@!*e@=#.;s%[&V#h-P#e$h$:%&@:%#%g#i@a#w$L$g$L$|#i@x$F$:>e@&#N%p#v$H#&#!@U$2#;@v%D%}#_#b6g%*$P$P#l#}#c67$+;/&w$G$K@W>/%g$+&r%j$8#7@B#:%g%!@P#4%v%w#I$}#m$M$g$K%,#p#'#v$]#w$y#^*e@Q',#E$7@l#B# %L$y%U#E$T$e#l#{%S%+>v%2#r%s%j$K$u#;$~&<&c%7@!#y%i@+;I@k'U$~*s# %]#}#s#2#I@K@!@!#p#'#}#x$}#~#,#*$g$~>d6n/^#Y@S@I)e,H%}#2#4%V#g#]#-@E%f@I@{%K@t@&>[3e)-$F/G@C=6,E$e6~#C$s#(3T$t(f6^*/#p/2#m$5%b%(,8@w@('%$N/3&&@6#%$J@5%f@h@u~)#h#x@<@|@o{]@R;@>r'`{$)A'z=+'4>*#D~3=5$C,[~#%_#K@M@-#:%d$}#h$z%s%)*_%v$h$%%3%/%I%j%K%b$Y$>&a#e%%%l%M@Y+5#}~i@o#-%8$",
" <m#:*>&M#w@/%|#k$/%0%M$/%!#v$]%u$d~f%>*-%a#e$l$~%I,~[I,x@k@a^A@1@f@;$_##=8-T{C];,)-_$z{a@2$u~h#n@ ]k#M^g@!@G@ &_@Z@u>3&L'B#;@g@*$$%w#&@5%X@/#8%i@W>i#T$S@w#;$g$W!e@5%@_!@>#y%p#^*U$c%}#;$M@8#;&3*E$*%${ ^h#P~V@]@7@g6]@}#)$=#&;~%m$e@{%2#H=a#w$~*!#.#i# ,%$H%B@5%)&h%^[(}h6i6j6k6l6m6n6o6p6q6r6s6t6u6v6w6x6y6z6A6B6C6D6E6F6G6H6I6J6K6L6M6N6O6P6C6Q6o6R6S6T6U6V6W6X6Y6Z6`6 7.7+7@7#7$7%7&7*7=7-7;7>7,7'7)7!7~7{7]7^7/7(7_7:7<7[7}7|7172737A647375767778797U<t[q<s$7'E'V#y%=#;@s#P#I@a#{%,#F#e@_;:%h%|#7%M@&# ,h-8%M@=#}#7'&#p#s#p#P_p_2#w$)$2#S%m$<%>#K@]#[*U;2#G$c$a#s#D%%$<%x$w$w#E$u%s#s#S@!~_#j$D@P#-@[&D#v%w$g%}#$%H%K@I$F$`# ,&#%%h%e@j$}#F#t>0# &[&`#I@p#K@G$B@|#m#%%E$W>y#L$**k$|#W$O;s#:%i#b#p#];v$*%p_k@|#_#y%T$w##$)$s#w$D%`#M@I$l$P#s#[%$$w(T$s#f#9*!#e$v$s#/%H%T$w#`#w$%%I$B#0#+>|#%%i$S%C%@#%>y$&%y%}#H/07-)Z@_@a@I{k,a7;$_;'#v@r$e$h%_#*&J@U$+$~#Z+h&C=6@_@&@>];/b7K@9%s%k$f#~#1*-@g#a#!#+$V@^#*$5>#{q,g~m#D%e@-#4@n#=#A@;@6#B'9{)@'>g@g@h#E~(>Q);#r'F@9)x,;,)]^>I)y{W~v_C:]#=*>*B%3%2#w$c*<*P#[%g#k$!*G$=%X;u$p#e$Y$D$P#P%x$o$%%s% ]L^n)-@J@-;C;",
",{,*-@s#)@3&}#S%Y$1>!*P@=%%%N%s#b* $B%r$c7J>k>d7w,k]F];]O;3&k#&#q#$%L=A~)-H~}^,,^,@>#]$@($z@Y+[#>#&@#{>$9'$#8#h@8#x#5%J@x@K@B#l#'#w@v%K@ $i#Y+>#,#B#7'|#%#'#g~K;i@X@3#c@*$W>H#c$ $/%J@f#:%&#U;D#P$k$c{*'-#A@J@%>_#5&_#;@e$u$W>y#i#c%_#K@K@@# %F$!~(&a'$%v%a#Z@N;/%8%I();=[V$(#D'e7][f7U[j}g7h7t}y}k1H|i7j7k7l7k7m7n7o7p7q7[|r7_[s7y|a}v[t7t|u7f1V$(}Y[%[[2v7/1w7x7y7z7A7/1{2B7C7D7L|[}E7p|p7F75|G7*|H7I7J7K7X@L7M7N7F||1:2n1A|=1X}~14|O7P7h|Q7R7<_1[S7^}[}T7u<O<;~Y$e$-%N$P@s#%%L=b$P#P#j$}#i@s#N%i%^*`#l#Z@s%S@0$P#,*Y$b$L$@,d@>#b$.;y%W$L$p@h$P%]#!#_#e@!#P@s%/%j-q#c$L$}#K@=*7@g#s#C$L#h-S@b$%%L$2#%#v%m$U$0#w$K@X@7@e$i#s#2#I$K@]#w#'&y$2#_#%#K@C%]#E$;$g%I;f#U#<%*%b$s#P@D%v%l#S@k#U7Z@O% &F#&#y#h$l#]#g#P#!#&#b${%K@U;*%i#C%7(I@g#K@_;J@%%!**%]#d$I@R$e%g$!# &E$j$e%T$s#T$=#2#v/g~v$s#R=*$m$3#U#a#K%]#>$>$e$D%2'N#V7|)$#5@$#C)@^(&s#S;V%b# ,j$o##%h%!#D@T$S%~@`*~=p{|@$@4-*{!~V#_%!@l#$%J@k'K@3#+&[&e@s#G^[#z{)@)@|#.#j@g@4@,%._B#|@b@4@1@W!3&_$g/8@h@%]($v@;#>/a@6=D,n,a@($+]^)Z{v,W7s%f#m$m#Y%S%a$T$G$%;!*~%'#w$Q'a%V#o$<*T$3*f%2#i-L>s%>*#>p@}~q#H;g%='",
"V]7'u#&#0~;$=%2#`!l$L$b$3#k%G$w$P#7%_*[*b$=%D(y,8]:]3/e@*$u#q#z]g/e@X=~,$)6~%'m~~/+{_$c-P{J{s@A@Y+v@6@A@e@(#@#_@n@!@c@*$(#f#$$i#H%}#_#e@f#B#h@/%c@%$y#&#,#.;;$|$l# $q#j@>$U@q#/@{#V#K@f@ &>#]#n@]#${/,i(#>w@e@c'H*o#K@B@]#_#T$y%^*e@&#x$!*&#U#w$;%[&I$7'!@f#4@o#t>B#N;^[6[X7s[O}F|Y7q|[14}Z7E}_|i1-1`7 8.8n4+8@8#8$8%8z1R}^1&8n|*8=8-8W}G701~1n1;8j|>8j|,871>|]|'8F|F})8!8~8p|W1p|{8]8^8e}/8n|(8_8]|+8:8<8[8}8`7|8b1182838G7F|p|485868I|78L188L|J|9808a8b8u'P'P'w$|#*%w$l#S%P@j#}#9%&@<&!#e@6>y%h%g# %_&B@F#7>+;+;y%V#S%T$b$U;a#L$|#~%u$L$k$r%w$:%~#!#|#B#c%0#^%m#e#S%g#K%v$M$O;7%B#+$U#s>E$Y+s#F#!>g$c8@#[&h$g#,#y#k$7@h$s%E$E$C>!%'&i@=#s#]#U#'#K%J=H%i#!#!#P#u$e$O#W$/%p#Y%U;s#s%%&_#V@l#H$9%k$v@B#|#g-4*U;D$e@3*2# %I@T$U;V$h$K@d%B@;&~%7@!%F${#u$a$1*>$|#I@ &3*&#=#,#e*o#`#y%[&a#t@E$}#1*y%h%W>U#I$b$E$&@y%;$y#7(y$9#U&6-^#:$J'T{~'A>|#P#~#[%:%g~}#7/_#s#h$y#1{=>d89)p@b@(#!,d%k@I@U%b#7@/%c$'#'#-@f$K~B#=#A,-@k@e8M@^#L=K@X#U$1@~#p@_@I#*#L@J#q{4@<@h#:$k@z@*#f)C)F@S,;,d,j~T@h~T{($Q;Y=f8+&>*e%-%(#9/g$v$_*h$9%0$7$S;f$9%S$M@^%p#+&]#}#l$7%-$5#u~y#&@0$j,",
"&= %3#!#Y+9{-#+&J=%%b$D$X;_#f$W$*&p#7%Q$g8X;n,N{;,C)M#A@k~@#>#d#_@>%<'s,I)2,7,P{T#K#Q{Z^a@c@*@*]k@V@*{k@v@f@=#'#U#T$u>6#4@<@}#w#i#U$U#I$_#l#h@(#w#b#p#f@8%i#2#5%u#g$w#B#]#%$C%I@A@B#}#I$Y@0#A@'#$@h8~>W!J#i8s#j8^#h$&#v$7$<&2#b%^*u$m$I$s#d$}#O%7>*$T$[&}#a#i#8%!#y%)&H=k8u[l8f5m8n8:|:|S[S}o8-|p8q8L|b|F}r30}(|r8=1s8B|-1j|t8q|u8v84}q|^|K}-8u8w|w|g}=1w8x8y811h118T}z8q|<1A8S[B8y|)|G112C8B}D8n|E8F8>|G8G1k1H8F|I8~|v8J8O}d1%8y8#851_|`7D||8G|K8[}X7L8M8u'n[r>h%E$x$~%.;.{o#*%%%!#s#/%I$!#u$s#y%V#[&b$~%l'g~h$|# %U#S$V#>#b$-@'#k$&#M@g#l#K$ &v$T$|#p#g#M$0$/%~%k$K@y#{#D$h$h- $@#`#[&h$ &}#&@4%]#m#6#U#~%h$U$!#v$>&[&M@,# %>#+;B#d%h$i#T$|#/%1{]#s#F$ &l$-@#$e@K@ ;D%+;s%w#e%&@!#T$g#M@h%b$Y$d%P#=*0$'#U$k$Y$ &w$M@a'&#Y%m$f#}#g#a#s#,#g# %l$2#V#%>j#a#[&f$I@/%4%7@V@9%4@o#I@!#`;y#h$T$`#g#2#7@k$D$c%$%p#`@`$-@N8i#p#I$C@Y&,@J@9#q##>;,H$d$&#V#`;!#|%{# %f$D% &l#e$}(x/>]O8;@{@a):%K@T$h-{%w$l#E$h%}#t@y$2#!#n)_@F@I,P8Z(+$(@3#^*A@k@>$L=z@%>O_-@(#k~5#:$$#W!u~#>*#o'U)r']'e,!^:/k/m)I{C=5:C:)$*%D$6*j%b$>%b$i#k$f%y%I$g%f$#%K@j$i#K%j%y$b*e$L'9{-/{@!@!@>&U'",
"><_#_@|%_$E'p#9%M$v%C$/%p#l$l#9%v$%%f$3%w%n>$)l)2]c@Q(a@p@Z@ , ,1~Q83=C=r,^,-${@o{h#c@2$$@=>1@T)2$~#Y+&>J@!@Z@b@^#w#^#-@>$Y+1@p%%#t@K@A@e@-@w#6#$$t@i@}#w#K@e@x#e@7/7@7#V#I;5%m#L'u#3#)$%%M#-%.)J,'@B]b@x@R8S8Z@w$W>K@|#*#N%i%A@S%!#;@h$g$s#0$=*y%D%b$]#d$n#@#V#E'm$,*}#s$x(8[<{H}T8R[<>s[E')|6}b|X7}}D|S[$1Q}%|9|5[x7(|[[h}m[+}M8U8V[T[U}X7v|g}F}:}V8Y[y}s[W8@}5|X8<|R<0[Y8=[}|(|%|C}<|'13}Q[%[=[5|[}_|Z8s}A|u8q|y}`8D} 9%[`7X}_8E}V[Q}.9:}X[R[6}+9R[][6[Q'y%n%i$V$U;S%}#w#g#v%h$D%V#_*e@l#!#g%1{/%&#g#u$+;g#f@I$g$_#e$>#I$h%I$!#e$I$&@/%5%w$e$]#-%!@~#T$y%3*5%e$i#]#@#s#g$-#!#U;P##%.;/%c@g#h$&%g#:%J@!#w$w$N~+$/%S%{%l#<%J's%i$w$V#@#G$p#P#{;_%j$*={*:%~%3#P@g#U$t%K@d@E$o#e$P#V#=#b$L$Z@`$g%:%;$&#9%%#L$*$g%B]l#|#K=Y%!@p#s#~%-@_#k$C_]%g%E$i@p#~#!#w#l$F#]#l#c%2#T$E$P#a#C%:%m#}#P#s#Q%D%b$`$|#D$C%K@!#3#;>6>b$F(V#7>w$F#@9c-]@A@-@D]9,{(I@y%c%T$g#e$T$R(g%V#I@S;a#r@!*o'T@4@7,C_.#W$y#9%f#K@T$ %E$t%l#g%2#H%g@l(A{g#@#n@f@>$=&D/i@e@_@c@m#^#^#*{B'1_A@1@7#I/g@z@C)P($)9{x,x>'^@>{@C=e,z{,,/{0$7$B@I@a#G#/%c>!#!*w$v%_%/%X%g$D$P@/%=%)&-%I@f$#@k~T#|#o#p##9",
"$/e$(#X+x@Z+4@j$L;b$L$}*P#P#~&L$0$5*k$e$*$$9E{`'W~_@L'p@{$o#*$A$[-5$e=I,s^c-x@@>d-[#%@:/_@h#Y+h#-$J@A@u>t#&>W!I@_@;@q#!@$#!#_@K@H%I@e%B#i@ $g$#{i%$#g#w$H%i#0#!~p#b#^%!#*$_# $&#>#0'<%e$_#h$x@},&@f^7@G#6#9_@#-&s#T$w$+;&%L'!%n#w$y#M>1*K>!#e@b$D%3_V$V@k$]#~#0'm#y%}#H%6$C<S;6[);+[K[(}h}>[a[@}&|f5%[U8%9|[H}m_V[[}*}X[I}-[+}#}V[Q[:[S[K[&90[+}Z[m80[*9X7^{I}=9S}m8P<-9U}K[l}-9 9F}08i|V[b|L[}2K}}2b|~|+[=9U8<}w[K}i3[};9)|y}U}C}7}y|I}J[Q[0[4|=['{^[s[L>q% [3&I$f#]#u<'#U#s%s#]#u$E$w$>#y#I$g#`;!#!#V#Z@H$=%v$]#)$K@`#g$r%^*e%u#v%G$!%~*H%%>i#X#Y%H%e*_%C%$#L=H%**[&C$m# &G$v%.;L$q#g#d$j$7'F#%$e%9%D$G$w$&#e$i#y%i@`#1{v%8#:%s#L${%y%&#[%[% ,|#2#e#m$l#K;I$>&p#!#y%|#v%/%`@S@p#+;g%^%e@T$D%i#|%!#b#,#K@g%`;i%9%h$`#$$V@V$7$`#.(y#~*a#^*I@y%B@>9v$h-w#U#:%h- %'#I@<%u#j%E$p#,#,#K@Q'`#P$T$,#b#|#~#w$^%K@]#L$o#D%9%U#J@9%{%!*C@l<o'k@O;1@v{9,k$v$a#i@u$-@f>C%l#,*p#!#w$g$Q$n)=>M##@m~]#+$w~s#{%Z@F#K$'#K@w$U$f#B;3=p{a@j@2#=#*$;@&@y#m#f@x#!@Y+W!A@'>-@Z/Z+)@_@ -($x@_$c-J{*#Q{^'''4-v(){T{3=P~,9P%[%'97>>*p#y$y$a#w$}%~%E$]%z~G$b$0$**e$d*f$~%l#p{n@C)}()9I@!9",
"D(a# &%$a@|@M@c%&#0$g$>$=#D$0*>&y$O%c%w$E%i~z{E{o'2$3#M#(%O'K$y,G~`'z=k,S^9{C)J{g@2$)@s]W!)#;@^#;@_@n@x@3&_@l@J@i#x#m#3#(#m#)@3& &e@_#U;s#`_&@@#V#j#f#B#s#=#B@&#>#i$q#h@i#i#g#T$~#(%^#T$7%p@],}$}$>$l@|@~9p#P$E$I@g$C%g#a#+;i#%#}#g%!#i@'#N%T;V#w#D%H%=#g#n3<&I$i#l#u$$$<>S;5_D$=[^{C<q[6['{=[4[{9h}]9-[^9n[U[p[q8W}C<s77[m[R[T[=[_[Y8T%X+$[=9*}=}(};[(}n[4});h};9O<8}V[s}O<s[<{%|m[v[/9][<|s[7[L[~|}}5}L[B}R[T['{(9s[=}x[o}3[}}_9'{:};9i$5[R<a#:9I}D'H}B@i#;$a$ [!#y%c%9'U;G>%$S%*$2#[%B@&#D$v$p%l#[&!#!%O#&#/%h$m#}{I@M@7(0$M$>& &/%>&0#W>S%<%^*,%8#y%~#`#{*E=~#T$V#E$O%/%/%I@/&~%E$r%$$x$S@p#J'1{b#D%y%m#i%V~h$B#I@m$B@a't>w$3%v#b$4#D$s#L=3%u%7@=%L$r%g#v$E$d%L$$%2%|#]#}>L=L$@#D%f>g#V@T$H;s#B@d$k$G$Q%!#]#M_w$ %V#4@m$2#/%S%u$Y$j%y%I%g#g#g#K@k$h%.;Z@=%]#,#w$|#->:%s#I$,#`#h$F#H%=#D%E$s#i%!#`#'#]#s%w(y%^*K@|*g$]@e$U$*%/@<9^)8'+$9{X/:'L$L$j$q#P#|#}#V#}#a#o#=#O;+$[9j)r't@}9Z@F#p#9*J@p#D@_#B@.;}#B#i#d>0=k@Y+$@g#`#&#m#%]$$J@4@J@(#A@U;1@l@_#a@$#_@g@x@($x@c-o]:/0~g>[#d,z^6'P{S]=]N{y{O,l4f$B~v%o$L$Q$W>!#_;v$K%L$D%Q$D$d%v%>*]#y%s#*;x@2$|9k@D%u%p~",
"v*o#I@E$%]n@M=w$%%y%P@K%f%E$<%2#)*+&<*v$!@(~I) -c-d#h^3#$%!*9,U{B{'^,'|@`^Z^v'c-b{A@h#*#$@v@_@2$|#_@@#k@V@_@!>[&f@(#o#_@-@!~k#=>&#b@G$L=h# ,^#6#&>F$*$'#l#W>8%I@@${$<&f@$%a'2#.@m#V@x$Y$C)f,X@k#/#f^=@w<=@b$C%7@l#Y$s#s#U#e@v$N$^%U;-@=#v$E$v%9%s#r%i@]#)*]#s#J@c'a#p#J$S;!%;>'&+>8%v[9*a[>[9*L>7[9*Z>0[K(191(b*$=s$29|[:}s$i$V$R<K[&[Z>b8i$^{8[)_-;n[=}O<U[}>39+}6[T[}}19a[Y;f5p[s$(}0[+}$[4}#}P[V[Y85[495[0[S}v}5}w[Y8)_8[);7}x(T<^{Y}C~1>r<=}8[*=:[e*B@m_+><>~%I@4%c@:%`#o#e@p#l#p#v%5%_#p#+;}#s#3#M@w#[*S$L$]#{%c%6#f@p%B#P%U#&#e#}#+&!#D$%%'#v%/%J=T$p#h-9%g-b$2#0>$&]#|#D%L$e%v$s%L$g%e#L$%%l#~#[&9%[%Y%`$*%s#b$L$h$|#l#3%V>!#*%K@E$Q__%j#I$t%g#I@`#c%p#:%{%_%t$D%E$K@!#g#%%s#M@&#T$*&I@'#W%!#)&T$%%[&-%G$k$p#g%3#|@g%]#c$f-=#s#L$T$}#S@c%k$T$b#E$=*R#H%0#/%!#r$C$^*g$s%L$~%s#D% &%#=%[&D%)$>&O_2#+;r%,#=#I@r%L$[*+;Z@E'p#P$[_591)%>_$@>${2,P#I@V$h@F#G$S$G$Z@b%3#w$S%691@h@<@n@w,v%c%$$@#%$7@-@f@V$s#s#g#T=Q;>@u~H~/%U#$$&#4@B#7@_@h#Z@^#]@e@-$6@5>g@Y@>@:/d@!>-$W~F@:$a@^@c{/,]^n,o'z{T{N{y{t)4'r%z%]#j%O%s%K$P@a#e$]#w$E$]*Q$/%O%K%K%B@K$o{79$)V#i#=#89",
"+:2#|@p#@>6( &M$s$K$9%e[]#R=^%=%e$3*b%g$#%_]+'d]@>}#Z=^#p#6'N{2]d,z=z@r=[#o'*@1@n@2$G@$@*#t@*#f@3$m#'$*;A@$#U#A@j$J@j$'$/%U#A@7@w$J@_#f@9%$$!@!#-@]@d%s#l@t<h$|#K@-@^*2($#U#7'b@H@{;E$u~.|@#_#[@M#p#99i@'>_#=*m#U#I@`;=%/%E$c$B@K@!~-@=%{%l#f$y%Y$p#/%/%2#p#'#j$}#u$B@~&Q'u$P'!*f>u<C~)$K[&$h%)_[>o(.[C~X+[>U<Z><{^{_[^{i$5[8%m_;><&09F;i$0[u'&9U<.[a9E$b>6[#/$[v[:}s[u':}u'O<(|X7-[[[>[}[o<P'~%p[+[P'b9u'-[);a[6[0[Q[;}c91[e*F_d9(}7[b8a[F$s$,*T%H%*%n%k#!%5%5%:%L$w$_#V#s#j$,#x$/%I;x$5%b*l#-#i@t<,*:%8*7'S%e%h${%v%!~';{%R$ &E$P@w#I$%$!@:%|#I@0$%;_#i#L$i#6>e$7@e$o#/%!%f#d$!* %g#c%h$Y+l#i#t@A(!#f$I@7$w$e$=>S%,#D%7%i%/% &&#g#K%'*w#~#<&I;v%a#U;~%g#D$3#H;{%H%%% %t@';D$%%'&w#|@_#7%c%N%0$i@/%_%[&S%'#D%|#L=V%U#s%N%F#E$*;!%A@(&-@S$1%b$j40#W>M@`#w#s#|#T$X@I@g#l#o#C$s#M@3% ,+$U#Q'l#b$'&t@,*x$g#K@Z@p%8#y%U#K@k'4%j#[&9%}#<&.@u/])C@I/_@($;'S%!#V#2#&#U#h$3&V#~&;@f#}$R)`=6/x@I,e$.{V#Z@l#Q%|#&#U#b$s#/%L=I,u>]@e9}#5%|@$%~#$(m#i@U#_@-@&#&>9{Z+b@g@n~m)t@%] ]2$n)*#5#u~P{g>d-L, )/,S],]D]6~w{7,J$V$l$|#>*C_'&V=s#X;3*v%e*:%u$/%L=[*-%U=D$g@1@r@D@M@r$o,",
"j*&#|@3#4/`+L=[*p#M$#$0$g#]#~%%%+&M$k$L$7%>; -$)2$k#c-X=-,@]A=_,a,1_`=Z+'#|@k@q{1@&@g@}$Z+v@5%x@U#4#V@6#>#m#%>l# # &J'>$L=I@&>>$-@+$2#!@6#S@U#m#o#,#L=i#K@v%K@_#V#>:&#[&B#e@Z@O%u$h$<@4--@((.@h#%#Y&6$.;s#g#0*V@s#V@G#Z@I$L=Z@/%@#{%<%Y${%*&~#e#v%!#>*/%f# ,e@y#m#O%7@]#n#F#c%-%,*P<T%Q'f-p#<>:[m_7'~&o(+>u<t%u<C~'{x$e*I(}>8%a#+>f5u'l#}>+>|#P's<m_f9^[7{g90[1[Z>a9h9Y;s$-;}>V_o(i9z'q%~&S;7[b9/[u'>(Q'-;i$(}H%Y;<>*=~&Y;6[e*B@Q<$[T<9*m#0#P's$^{&#j98%Z>g-_#}#s#y%w#*$c%s#D%K@_#w$g~[&h-^%U$>*d>,*&#[%@$]#-@S$I@ $K@Q'K@G$`#H;_#w#I@l#H$e*]#4%v$H%C%T$l#e$|%&#>&%&C%P@S@i#S%T$I$|#+;>&M@T$V#r%E$*/V#)$c%;$L%]%v$I@~*U#7>j$_#t@ %F#K@[&D$E$l#s# $S%!#g$I@U$h$,;j%.#b$G#p#I@P@1{c%]#%%0*F$_;]#S%I@K@D%u$m#r%D%v$C$u$]~i@}#-@}#8%K@J@%;2#Q'U#Y$r%!&)&1*5%}#/%g-N@B#/%I$>#S@g#+;w$^#h-!#g~K;k$l$=%J=]#j#L$&#g#C%M_<&g#[&h%S$7%L$9%2#T$|@$%'<N#B'k99#|^;,B@E$D%;$2#2#)$I@>#I@t$e@|#}=!@;##]R;K@E$2#X@{;L$D#i@|#6#s#!#')o'/@9,)*|#V#m#h@_@T)|@0#V@b' ,;$$#s@k~U;2$n#l9Z@_@h@)@*#x@u~r'($^@($I];,L,#]T^;,s~P~$]>%(&!*a%l#=#p#>*S%W$f$l%_%,;4%>&E$h-P#i#g@J@p{i[V%~%)(",
"J_5%h%^#${k@=%D$f$e$F;T$^%x%'#k$D%+&u$=%[*/^+'5$W!m91%*'>]I)x,!^(#;]k~o{8#'/`+h@F@5( #h#T)k@($;@c@D@|@_#y#_$ ,J@~#K@J@%#f@Z@/#W!'#!#n#!#t@J@&#K@%#c%s# &%$_#g#|#_#e@!#_#H@g$q#*$'#a{g5^#)#k#J@'>n9~%f#,%|#L$e#s#I$d$~%P#L$c%3%B#w$f#D%]#e#7@U#K@=#/%U$!@ ,w$!@t@]#!#*$y%W%D$I@F#p#);<%V$~%;>u$s$*=;><>t>*=f>)&a#<>Q'<&b/W>1&t<i9q%~&|[V_D$F_Y>X+#$v[_[C<0[+>19@;C<);5[s$C~~&F_T%=%o9v[u')&u$5[t>;>y%^{)_#,J[1[d99*^{P<C~V#V_+>n~q<i9s$K~V$u<^{s#)$0#5%t%h%D$V#<&e%_#<&!#K@U#y$s#j%!#N'p#$& %L$h$t@D>7@9%p9E$7@ &K@T$s#@$E$r%S#p#L$=%[&D$ %T;k$|#w$+$e$&#v$K@_#p#L$v%{%'&%$.{}#^*U#~%D%7@K@p#9%2#s#q93%!#+@e$y#[*v$=*b$I@8#M@n#^*U;i@*$]#f#2#w$2',#S;r%8['#V#<%K@&@_*=#O$g%V#d*h$*$U$g$g#+;S%B@|#g$%%/%)& ,%%i@{#I@&#E$e%{%L=g$2#y%{%x#B@!#&#E'L$6*4#v#]#e@F#[&Q$V#P#H%s#%$i%k$c%t@I@%&r%H_k@e#x#m#^%,&I@N%E$5%2#y#L$!#I@I@/%@$U$|#M@s%6#r9C&#@9{j~Y+P]^@A>:&~#0#/%l#x$F#s9I@h%A@&%x@:/$@t9f%u>s#_#d%[%Z@)$U$3#J@g$<)8#Y+v^o>]#K@B#;@2#}#y#f@U$*$`+c@i%$#Y+d@<#J@_#$@$#z@k~)@*#J{'>C)h#v{4>$]A,k,u9F@K,I{,]>,&(O%g$-%L$R=!%'*r$]#-%7$v$e$7@]#}#~%I@L@9{Q)-#5%V#+~",
"0&K@=#+>q{w@[*[%>%]#+&K$y$b#0$p#8*g$]#!#W$#~<)N{6@*%8$S>8);,#^$)v9@>1)g/F@g@9{s@$@k@A@b@)@e@=>$#^#X@e@L@i#~#j#U#;$&#i#V@m#U#u#m#'#f#V@A@w9;$_#5%f#2#;$^#q#i@@{w# %&#o#w#i#2#]#I@D^f,+$%#.@X@x#i*2#S%<&u#P#B# ,}#_%D#}#b$I@g#!#E$0$T$`#b$!#V#7@i#T$K;V#!#[&{%8%'#s#R(8#Z@|#<&h%}#&#D$&#l$o#w$T<C$7'T<.(F;/%C~!#~%0#j$Z@n%B@I@$[i$,*-&s<I(c%a#b%~&8[r>l$~%9*a$C<~&X><{*%;>H=Q'-%1&o(n%)_}%~&W>r$<><&t%^{s$8%x$a7-;8[<{'&e$);o#~*p#P<~%U@R<B@e*<&F_x$b$x9<>b$J'i#5%g#e$9'L$H%v%9%'# &`#W% %B#$%|#}#!#d>^%s#d>U#c%L=&#e%`#e$<&J@!#}#;;d#.;s%T$e@s#V;y9c%L$v$&%w#s#w$k${%^*b$$$r%3&c$(&[&^*S%`;M_0#H%w$V>T$'#I${%j$i#5%c%I$~%,;w#K@~*k$!#@#m_B#1{}#c@L=Z!t>x$1{u$%%e#>$_%P#w$M@=%+>[&p/M$L$J=d$#=h$d$l#l#*;P#z%+;H$p#m$4%a'u%$%L$^%3#K@p#L${%{%w$<% %.;k_^*Z@3%d*v%w$4*!#3&_#s#~*>$G$^*K%&#9%I@';/%s#T$<%_#p#g#{#e%D%m$Z@!#=#p#!@i#p#P$S%!#2#U#&#y*v)=>T@h@_,2_4%t>*;C$%%%${;$%b$;$&@>;y)z(6@z=Q%L'&#`#|#;$)$c$]#y#I@$%o)]@{]l{5{5%f@`#j#U#H@S@o#+@;@e@x$>#%#F#(#k@!>_$Z+6@!>h@h#[#l@($x@.) ]r'T@,,;,E]@>T#T{@]9@1,z:*%<%w$u%V=3%g%Y$]#%%~%l$#=j$&%D$+&Q@9{Q^;$V@K@O)",
"C*^#*&E$_@z9p#r%f$]#e*K$l$g#)$&*#%=*s%E$r%X(4-C)+#N,e,D]<)A9T#$@`+:/`+8@k@W!Y@m@k@k@j/f@c@t@q#e@)#*#=>$#v~!>W!i#E$<&i#c$~#|@+$^#f#4#i#4@5%k#a#G#v@_@F$m#<&0'B9|#_#U#}# %D$f@v%Z@9-B'b@h#m@*_U*C9e@3#J@G#N_ ,[&e@<&T$d$]#P@@#k$'#g$f##$7@g%L$i@{%3&j%m#!%*$}#|#>&s%o#$$k$]#T%/%]#/%T%'>!#`#e$9*u<l#'&7>b$H%j%T%,*p#~&,*S%h%q%K@)$<>H%}>#,j$E'*=<>B@y%S;Y%H_t>5%~&N%Q' ,_*7>_*G>9')_t%o#~&t>F#<>)9}>l#@#<>i$)_<>0')_X+I@/[F#9*E$S%u'H%2_V#v$u$@,]#-%Q'e*<>l#=#x$L=U;[&L=b$g%e$w$'#y%_#&#d$v$V#H;D%|#%$h$l#&#[&p#|#i#K@U$`#s#b$_#y%=% %`#u$!#y%T$D%Q'!#/%!@w$T$s%|#p@*$V#}#p#D%`#%%]#>*~*'#T$H%V#-%0'B>$#1{d(}#E$g#v%k$I@P@V#H%w#e@j$/%+$`#f$r%J@x%s%c%:%_;w#{*[%>:'#l#c%P#i#)$I@[&h$'#l#a#_#%%4@J'Q_p#v%[*d$<%s#T$E$|#}#T;K@i@J$s%<&j$>$F##%-@e#0#|#_#2#_#|#H%]#&@M$P=8#F$F#e*Z@o%g$p#j$Q%@_]#j%_#'#0>&[F#&#[%_#p%|#a#h-K@f$9%|#-@j$l#I$9%P@]#T@D9^)1@3/[#9,2#&#V#a#w@>$g~l#B#7@V%**j)>$k~a@`#Z@p#4@c%i#T$}#9*&#U;v$6)*@[#6~E9K@:%A@f#J@3#-@3#_#Y@((-@ #s@L@O;4@>#+#k~k~g@d/Y+)#@>r'($h#^@g>>@w)d,D,6,z{@>y>m{P~K,V~[%D%h-Y$~%y$,#!#5%S$e$g#S%E$A%L$Y/:/]) &o#E$p~",
"G: &!#H@q{w@J$]#M_f%/%C9O%d~=%g$v%~%[*[*T$k^ -T^E{E/s~h8m~r@u~m>N#*#c{#]2@|@p@t@b@h#]@g@4@W!U#_@b#h#-@j#-@m#-@U#&#U#U#m#`#s#_#&#}#3#5%3#[&K@V#f@;$[&Y+}#}#U#>#>$p#i#v%_#[&,%[#^,<#(@P{J@F9G9J'U#i@}$L$y%{%=>!#]#b$~#a#g#7%_#3&e$)_!#a#i#t@^*!#}#7@G$U$U$ %5%W%-@U#Q%0#`#E$Z@T$u$|#g#a#r$g$D$7'L=-&p#0#a#|#}#b$y%S%*%)$H%V#j$=%-%l#F$B90#n# %s#G>x$&[l#x$h%u'j$1>+&n@2_<&B#5%k#|@[$N;'#;$d/e@y%x$'#h^!>8%#$H9V%>$#$w#3&V$y%[$>(S;,~C~%%5%!#I9V$i#<%B@0#N;,*-%F#{%c%L$ $U#s#:%b#D% &D%/%p#.;S;F$*;E$Y$I@a#8*~%}#j$i%/%O;a#v%w$R/g$L=$%]#~%|#h$i#E$3%&#L$j%w#C%`#B#I$,#9%a#F#s%=#s#=&g%b$C%a~o{W~#>L^-$e@+#6@h#_@_@[##@5>r9|@$$L@!>5>[#+$&>6%!>&@A@t@%>1@k#|@J9h>>$M$7@,#I$D%C%Y$ &a#h$|#&#%%j$L$V$p#e$P@T$<%I^]#i#^*i#v%Z@h-y#f>k$*$ ,C_d$h$D%g%V${%K@`#b7e@K@m#s#w(|#a#U$=&b$&#s#s#L$M$/%g$/%s#-@b$c%w#]#!#F#s#2#&#.;}#c%e%b#x#1{ #0#!#}#X#0#:%[#O&1@x@1@5]($z%I@2#'#|#L$y#I@S@'#E$J@!@;@q#4>L=x$o#<&S@J@Y$8#I@V#L$I,x@($*-P%w#c%%$x#w#I@&#x#<@!@5%U$!#.@$$9{i@A@A@k@%#W!h@b@Y+b@u~$#h#($T@])m)r'd,L][,q{E{v{K9C).]L9>*~%>*Q$P#>%$&3*>*e*!%/%*%v%%%.@2$Q) ,>#x$M9",
"J_L$f#}#-/3$M@u$]#y%+&K%^&7%~*U;0$ %M$D$u$]#m{e,r,T@D,q,#>`/}~o{[#[#($o'c{~>X@>@Q)u>6@W!m@O#*$>$J@-#X@f@A@(#K@L@>#m$J@L@q#<&6@]#g#f{h$1@t@U#p#I@4#h$v/k@'#l#e@$#>#l#I@~#4%@>@'k@1@D@V@9=N9l@$$5%l$D%>#V=1*o#m#*&_#Y%l#f>0#<%|#v%g#e*p#^*S$u$+$F#/%*=5%s#f#-@D$T$:%3#=# &k$!#i@b#T$P#l#&#$%1%J$Q'H%`#/%m#O9f-F#0#A@r$u$*=l#=%-#)$y$~&b$P9y%**/%%>E$6$_*E$0#q<H%:^o38-8=d,~^m,H,8-@^,,m,;'V,-':,',7,3=D,7^w,V,^,4^Q9s,<,6,[,7,m,~,k]~'R9!^U,J9e%S;f#c%g%V#~%`#j#'&I;D%H%~#+&v#y%a#>$:&l#e#I@r$j$H%M@y% %g-9'}#h$j#<%y%a#g#S9`#t@*%'*[%!#f#=*h$T$u$I$w$&>I@r%;&i@P@a#+$#=U#G#j@I$!@h$w$l{R_V,])x,3^_)6~F]d, )I,s~m{K,j) )K,s~e,6~I,P]6'e,L,C=j);=r{X~7-K,$]T{ -}=z=-^B;]#{%F#}#]#H% %M@/%e$L$i%J=!#9%I@U#i@4*w#M@E$h$}#g$P#c$K@c%l#E$h%Z>.;&#2#V#g#D%g%^%I@V$g%3%C$M@2%I@q#9%I@I@i#]#K$O%)$g~5%H%~#g#B#]#L=t$t@0$F${%G$V#T9;$;$v$>#r%}#e$v$D@7@_#b6$@[@F@h#1@c=s#t@V#K@,#]#C%e@o#>#%$X=]-c@c-h~w(i#y%u#!~->]#c%s#m#>&6=%#*@'^K=|#%$6@,*-@#_)$I@I$8#U#-#1@m#M#e@>$w@9{U;*#*{J@c#%#w@($&@*#4>m@5$I{F@S^',q,k,>]+{I{I{Q^T#I=v$p#k$h%*%b$T$v$h-G$'#s%x%K$I)#]n)m#R(n%p>",
"0{O'w~0$,]b]}%v$=%J=U$7%p$e#~&!*;$[*I@q$T'[-#>Q;h#8#5^P,c-$@(>s]{]h#h#g/9{)#b@C'm#$#(#_@Y+>$q#1@A@'#L@7/v#)#w$6@I$$#J'm#i% ,^#w@F#*$s#C%x$-@v%-@@#%#2# &_#U#m#&#&#'#Q%d@h#-^.$p@m@A@4>U9O#t>t>*=%#{%<%B#=#]#h$p%g$g%e#I@)$0#k$g~:%m#I$p#v%3_8*K@p%]#w#y#L$[&'#|#%$+&]#6*F#h$l#v$D%7@K@[%!#H%8%l$H@}#b$+>v%=&v%p#F=l#8%~%*%u$|#}#y%+#Z%Q'2%c%k$f*u$y%f>,*-#W>W>Y,T@L@m@_$>#l@m@G@1@9{x@A@1@q@o'f@9{1@-$1@d-6#(#z]L#Z+_@1@'/$#7'=@N@ #W!(>:$t9_$=%a#w@Q'|#!#Q_v%!#y%%$V@^*|#g$e@o#d$c%u$&#3%2# ,K@g~1*:%U;=*s%^%4%K@[%9%D% &=&D%j%K@L$o$H%]#d>B#!#&#x$!#T$I$`#}#Z@s#v$~#c$L$/%|#=#P#a)V98#]@9@n@$#_@^#k@k@6#e@Y@$#`+g/(#M#=>[@%]-$]@:$>#d/6@x@#@8@c-p@8#(>9@Z+1@u~3^q{,;n%]~&#T$`#'#}{g$D$s#c$L$D%.{]#W>v$a'`>n#*$x#g%{%g$h$b$C_d$'#Y%s#c%1{U#7@ &b$g#`#U#!#D@m$h$T$B@3%_#Q%j$`#l#I@{#y#=#P_.;g#x#2#e@>$s#g#E$&@I@j%v$|#a'_%U$V#v#D%!%L$-#F#~%'#l#:*V/6)u>*#o{2#K%v%&#U;i@Y$C$I@5%i%G=u{G@%#A'/:|#$#K@*$2#g~W%c$f@^*D,&@m)_)W9&#a'3#J@J@4#&#6@e@}$|:!@_#6@e@Z@z@d@i@8#d/_@X#[#&>c{1@B]@>z@]$2$@@=):#)]6'$]x,m)-$K{f)%,v(B;T$!*I$[%V=1%E$c$I$'*s%;%<#K{H)${Y$j$_#;{",
"e(U#O;e$-^)]),K=j%u$L%c%0#9*g%+;>$|#;><*],E{k]9)[#$#w,f,x@8@R;Y@<@[#f^k~A@s@h#$#($A@B'A@-@|@,$f#f#^#~#O@u#q#[#0#c$-@K@s@8%N(y#&# ,q#'#b#_#*$J@g#t$x$Z(i#F#d@_#;$V#%>3#!@b,2$%#6@A@u~X9j#h%-@/#S%T$k$;$y#s#c%L$v% %}#<&/%#%o$w#+&0#k$t>U#{%)$y'j%9*B#j$L=Q' ,`#_%b#g#p#f>w$|#I@k$Q'9'b$V@`#I$]#]# ,2#~&f#_#E$j$|# &,*U#x(H%*&9*1%t>V#)$m_B%B#!#M$W>K~a#E$N;H%Y9$);#g@p@@#c@f^l@~#7/>$c'@#6(U#L#1@^#z@^#G@f@)@N;h'^#+#J@ $Y+t@-#p@p@J@9'#@i(i/[,%%r%Q_H%l$v$D%3&1{}#V#/%Y;D%k$L%g~`#j%$#*& #e#/%!#5%F#H%k$i@B#!#p#s#w$a#K@:%!@V#{%0#!*z%a#{%}#g%c$D$v$p#0$$$2%0#h-U;w#T$g$>#d><%8*u>[,/#A@d#z@$#Y+m@Y+h@$#w@k@m^n@l/6@Y@u>p@b@e@J@q@I;#@v@Z@O'A@A@#_U;6@d/n@Y+k@2$$@'^$%3%'#D% ,u#[#l$3#j%D%U;f$T$0#&#w$}#o#s#j$L$<%,#g#%$Y$U;[%=#!#I@3%I@B@U;p#~%D$n#E$>_I@~% ,h${$i%[&~%,*7@]#p#g$g%T$>$g$T$}#!#T$ %~%p#%%I@E$,#I@b${%s#!#d$7@-%o$ &e%U$K@=#k@h$e*~#.%@(i( #3,t<7's#C'r%I@i@B#K@d>3%I,B';#S>B^B#7@U#B#f#Z@e@}#B@P%L]{>m@u=P>V$Z9Z/.#0#g#(#l#}#'#'#|#{;p@+#'#`9!#L@k@C'>#T@$$)@6##_+#*#u~5>b@F@%,r'T#c-L,8,c=5##]I,l~ 0_$t_y%I@._q#H_v$r$Y$J=f%f$1^r@^/B#8%>&]#M9",
"<~V%l#p#*#<)$)O,h>r=r@m)E{)@w{K{q]P{z]t,v{s~-^-@)@{:d,y=J{%]Y+@>/@P~g@F'3&a@'>Z@-@&@c@O#U#=>/@&@!@q#I@S$K@<@@#!@w#i@Y$~*i@H@3#g-h@C%!#I@g#T$^%}$e@*$U$;$e@}#>#w#9'L=-@(,Q(e@G@K~})D9'>%$o#2#P#W!,*T$9%U#V#E%w$~%<&x$s#s#w#M$C%s#S%d$T$v%~%x${% %;>_#P#f#f@|#l#}#!#H=s%w#w${%&#9'{%e$+>p#l#J@F#U$i#D$g$@_b$7(5%H%x$p#I$V$S@U#]#x$b%V$F#+>g$ &|#C$+&)$;@~%w$-$V,)@3$H{D$K$.0.>.,%(_/+0k^4~';!{@0a%1~v:#0;%$0P>%0&0z'}[J:V/=_;(c~*04'0&D(p#Z+-@d-e=%> ,!%U$V@!;1{}#5%w$v$+$!#|#]#Q%F#V#T$c%h$I@<%D%k':&e#U#u%h-l#4%m_]#,#`#)$a#p#X@e%Y%j%h$D%!%g#g$i%L=1{^*]#f@c$]#i@}#@#L$g#|#c%j#S,-$2$k~Y==0-0;0q}I&>0,0p<T_3<T/'0)0!0~0{0]0n&^0/0(0_0c[:0p}<0R*[0}0|01020d<x#x#1@f^'[g%i#>&M$y#<%s#s#x$g$0$o#K@D%_%K$:%-#$$p#l#I@`#.;{%_#_#b#!#v%'#I$}#';-@S$]#K@$%+;~#b# &e@I@P#I$'#V#|#e@s#+; &m#6>M$]#]#y%t@s#U$n%I$L$u>s%u$'# &T$>#l$}#7'i@5%2#p#`#3#!@I@a#[&y%W$X''>f^#>*%U#h$+;g#m#->/%L$i@D$Z,4@$#r=.> $^#i@i#X#i@K@g# &}#q,h@_$$-;%v$/(j%c@i#!@m#l#f^g#t@&#c@5%$#*@M#j#J@c@-#8@1@d/l(c@x@2$/@ ]2$o'$#u~o{{@_3`+E]p,L@0~{${,B{C)(,P~m@c{30%]<@L@|@R;_-m~T{6~p@'#o#O;h$&,",
"#*H%9%(%-#;/F,r'j)6~.]5$5$+]C{y{P]:]S>D,0,}:[$<&+@{:d,~,'/c{>@J@6%9{Z+5>c')@&@A@/#4@0'U;q{Z+J@6@Y+*$+#'#;$&>I@Z@i#u#3#[#-@c@c$_# &&@V#&#8% $C%&#D%c$]@o#/@B#p#h%L=j#6,&>n@5#m#2@40$#J@ %I@h$_#!#j#F#T$]#'>S%k$w#'#K$=#L=%%h$y%_#|#L$I@p#H%s#/$I$E$0$!#9%G$Z@T$p#$$l#q#h$_#Z@w#r$s%8[_#g#c%]#}#>*]*w$T$M> %I$-@T$_#Z>N; &-%o#<%i@T$c%B%y$Y$|#a#V#)$!#k${#*,',d-L@6=50Z+(#o'#{>@<@@#v]u~[#v@)@J{n<$@_@2@>@($:#h@[#b@)#`+1@o'W!]$v]`=_3{]1&r@A@*#7,b$u$+&g%#$+%P@*%g#h-%$%%e@s#S%k$e#w~>$f@j$'#l#|#b$D$p#)$s#j$z%0#2#3*,#h$v$d$S%B#D$^*w$ &{;h$w%h$D$p_s%]#I@D%v%B#w$J=a#>&`#g$/%M/D]W!h@_#|%`=q)#@Q)Y+*#|)607_y)T@]$P~p{z;s)r#@#r)~@q@a@B=3@~@o{8@)#n<)#d-9@`|Z&4)@>f^;'|@g%K@D#u$s#r%f#<%w$V#x$O%_#_%I$I@e@T$W%>$c@}#:%`#0#!#j$e@<%~*]#r%K@u$2#r%|#*;j$>&0#m_|#D#,#&#/#{%0#S%p#s#y%^**$;&v%_#d%B#:%n%y% %g#T$y%%$,#B#>#t>%%p#+&}#`#!#g#!#i@(%*$`#L=0#q#j@n@x@F@N$+$H%M$,*]#&#l$^%U#S$=:B'x@a@W$i#e$_#i@L;h@p#E$D%u%y>s@Q)Q;j%_@y#f#M@$@*$@#k'T)A@I@J@h@Z@U;h@}$L#c@h'O#x@f@B'L@_@m>9{v@x@9{h#*#$@Q)a@'/b@n,{,&#o{e@T$<,>]I{8]r@j)v{K{I{Z{S>I)6~I)+'0~h$f#&> %[%p~",
"t/>$O%,#.;*;/@!,Y,*'},3,I,k,I,S,^,^,Y,('),e@.#0'P~,%/,!^4)E~b@*@T@;@&@-$+$'>&>Y/7/%#K@'$1@*@V#a@e@B#1@h^S@9'->8%w@7@2#q#F':&*$k@$$3&;$>_~@$%5%5%J@y#+$>#:&K~'# &.@70<@x@Z+)#Y+d|@#Y$b$>$C%I@K@T$g#l$f#T$s%]#C$C_T$&#t@V#b$K@P#0$3%v%0$-#l#w#O;K@v%F#w#@#X@I$m#2#]*V#E$I@F$B#w$K@z%y%5%s#0#|#w#V#h$!*d$_#D$I@)$i#,#U$)9M@P$S%*$)$y%Z>3&K@!#/%<&>&D%,*h$Q$*]s~8#(#;(k<6>3#T$80=#V#l#}#1%>$E$/%L$w$y$-@l#*&2#l#s#L$!#=%}#I@a#p#[&+&+&!# &s#90g@C@C)F]X=E'^*_;@,V#V$L$E$I@3#i@U>0$E$g#|#q#D$d$g%k$,#_#y%!#/%g$t@**p#1*U$J'/%E%]#|#7@ %e% %y%c%!#m$p#e$~%&# &s#P#y%p#p#h#*%I@T$%;g#~^5#9{/)(<00|%T$k$v#,#3#3#;$a'I@g$v%M@=*b#g%&#K@x$V@=&S%4%E$t<}#f-h@B#U$ &|#J@*#i&=@[#{]6,r%v#y$e*v$I@ $V$0$d>g#&@%$y$!*L$0$c%W%p#p#0${%6%}#&#!*v%/%V#&#!%:%|#b$b$%$f%H%C%-@d$]#d%+$U$!#e$e%m$h-T$p#w#M@w$s# &Q%V#{$U;~&'#e#c'g#h$^%g#`#E$5%I@=&F#F#=%K%i%]#j$s#5%0>2#:%_^f)@>Y+k@c$i#U$P$ ,v%T$p#+;v%={2$k@@>k^9%K;j$q#*$:&,*%$f#p#q,a@W!#)=*g~f#C%>$~#~#V@C_V@U#4%K@L#q#z@U$;@X@V@B#f@6@h@($_$u>~>Y+n<f@4@h#h#a@q@ -0~9@l,d,g_9)~& %a0%_;,k,<,n,6',,x,m~5,7,&)],Q;x$&#_#:%e*j$)(",
"#<M@~;L$L;N;{;&#f#w#8%{$E/Q)^@Q;9%U#n~{;I@e@l# ,k#$$[,!'^#%,Q)*@N/$$z]s@L'a@Z@u>e@{]_@W!|#:$1@O;b@V#x@[#y#b@,#Z+w#/%Z@|#{#U#O'7'y#t#$$w#|#:%>#_#w$@#B#w$U; %9't@m,($T)X@'>=@b0p@ &y%B#2#5%x(j$[&V#!#2#l#_;Q$s#>#8#x$'#e%m#D$K@g~e$B#;@'#S%b#3%d>C_ &W%}#5%L$2#p#e@}#I@[&T$v$]#;>E$9%:%4%W>y%y%H$y#@;$$g$v$H%F#|#9*m#&#z%,&s#f${%|#y%-%e$n#~%S%}#8%]#!* ,7, #h#%-c0%>7%E$~*i#[&%$/%_#V#Z@U#g#I$L%d$t@}'!#l#]#g$C%C$/%/#M@W>V#>$w#7@i@4@P#U;1@6@5#H~K@e*I$U$_#!#|#]# &j%I@S%g#e@e$b$]#I@E%I@5%i#t> %4*2#C%y[,#2#g%U;L${%{%S%|#7>U#h%~*s#N%Y@E$g$e$e*D%e#&#!%L$d%H%E$x#P#!#x#b~e,h#s@X@d0e0j%]#D%r%+#E$V#h$9%K@4%'#%>p#y%s#f$:%>$p#<&g#b@e$m#i@<&B#$$0#l#T$6@l$b$n>:#Y+@>%)_$,#<&F#K@[&/%g-H%a#-%W$E$P%L$2#U;T$U$c%V#a#'#h$L$Q'U#L$[&v$S%-%J=b$L=8*:%h$V@s#I@^%c%!~~%]#W>o#<&@_w$V@}%]#2#F#b#a*g~I@^*m#3%B@a#s%p#h$9%i#9*U$H%g%;@h$=#t@*=D%h%&#B#/%w@i#L$e~d,p@x@g>#=e@'*%$,*I@N%}#r%c$ -1*O'J{V(;$}#3#p#2#O;a#X@p%u<7,J@F@x)U% ,w#&#i#t@i#u#;@x@`#m#S#}#%>0'/@+#;@6$n#t@f@|@m#{]/@A@w@1@&@c@a@5(8'`{9@J{Y+/,5,o#e,F;z%I@7%Y$Y@k$e= -S>O;,%I@7@&#x$q]f@y#h$!@y%u%f0",
"p&P$@#/%7>=%7'w$I$ %$$/&+'x@a^g0>&0#i@s#V#3*q#(#B'L$),;=h0Z^]@2$x@a@z@$$R@6#-@9{V@!@h@c@(#f@5%$#T)J@t@w$!@@#*{K@@#e@e@ &c_w#y#^:i@U#!#$#!#m#I@j$b$I@c%&#~%'#L@{'_$L;8#2#8@V7i#L$&# &Q'P#L=B#{%|#P#i@d>L$u$K#!@e$H%U$<*(3 ,w$d*u%g%g# [j$W%a#<&D%T$g-g#s#'&2#g#p#I@v$K@&#y#'#}#w$m#%%t@0#!*U#3%S%a#E$s#K@3%K@|#D%'&w$V@:*8#l#!#F$/%E'e$V#2_b$a#y%!#T$P@k]<)/@${q*B#|#E$_#V#V#w$y%@#`#%&9%>&i#b#y%}%e$}#c%L$}#L$s#D$V@T$@#'#l$}#<%;$|#s% ,+;i0A'`+Z+|~X;3#>$f#!#Q%W%M$^*~~k$U#1{C_B#7@h@D%]#m#B@D$]#/%/%~#|#H%U$|#U#>#1{J=y%s#@#P@)$!#3#;$w$I$&#/%7@)$S%B#D%L$[&y%f@0#s#r%>$I@,,u>$#^)G=V#s%v% ,y%}#k$f#b#o#8%:%B@;%p#P@h-{%]#g%2#`#D%U$g~E$h$I@e$|#K@$%w$g$3&!#y%S/v]d-u#4^X>g$~*Y$;$3%O%v%J=2%I@P#{%`#D$=&,*m$l#2#Z%7>U#L==#d>b#i#h$)$g$g#c%H%L$9%d$l#g$m#%%{%@#2#j$)$I$}>/%S%y%x#i@%%=#v$q#Y$K@S@>$D> ,m#&#I$p#H;f@y%*%P#w$E$B#I@~#e%{$]#=#e*+;E$&#]#T$s~q#{]j0k0D# %:%;$l#I@e$E'8%`'q{$@k@l0F#2%0>j#+;X=f@V#>$Z@M{6$.)n,W'}#2#L$h- &g@_#-@p#!>p#$$%#1@5%w#J@B#[&f-;@S@+$`+q#-@q#M%v@T)D@6#)@P{Y+9{K#;#6'<,$$0)>*>$w$-@'>`$;>l,`+${$$C'A@{;4@A@H%-@f#U#t%S$o$C;",
"><>&}'{*_*Y$E$V#[#[&3#+;H,W]_$<)f$<&;$*$!>b*f#@#'}f-,,g,h#k~@>m0{@p@7/6@-@c@Y+J@~#U;'>1@(#)@+$'>@#+$p#h@X@@##$%#3%/#w#y%-@{*L$9'-@7@U$&#i@v/w#Z@p#!#x$-@c$->S,*#x@_@ #2#n0D@G#]#H%4%u%}#=#q@I$(%C$%&s%0#g$;$w(!@l#g$b#b#A@'#7>F9'#B#;$s#M@f@a#H%h$G$Q$J@^*V#V#f#s#U#y%t>{%}#@#>*E$h$j%=#J@p#I@&#v%w(>&K@Y$w$b$}#=&S%V#g%f#D%u$K@0''&w$L=h$u$7'g-y%T$.(4^_@W!''o0V@|#7@,#I$0$I$|#!#P@O;E$#%+$~%I@g%]#|#0#L$=#E$Q'2#s#w#l#w$|#V#**!@s# &r%T$|#2:`+_@I)#@p0D%u$g%^*7@b#[*I$!@i#d$g$Y%a$L$g$a#l$,#9*t$r%+&3&!#m$B#,#s#!#P@.{l$F#*&|%'#S%H%6_+$K$I@}#,#v%,#s%V#V#P#j-K$s#c%L=<%q,R@^#W#p3i8Y$2#b#H%~#/%Q'E$c$}#}#3*T$7''*c$5% &{%|#I$I@I@V@Z@+&S%P#E$l$w#s#3#B@s#1*!#n#t@{]g@q0U{L$:%g#L$s#E$C$x#3#`#b$I$K$h$A@~%,#=#v%'#!%l#f$2#K%j$w$P#c%g$N$y%a#M@t<g$w$h$/%E$I@6*{%g$l#B@$%h@V%t<p#D#)*,#]#<&`#x$e@[*+$N8+;^*3&U#b$&[U$p#*$;$*&7>=>w$Z@P#1{T${%b#V#C%:%{;y{U#$#a)r0=%P#=%p#'#!@b$.;P#w{$#F@D/2~.#_#a#_@f$+;w$V#x$O#8-<@`+e=*%N~'@e$>#Z@&#W!j%h# ,e@=#@#(#Q'=#>$.;*$I/b@ #1@D%V#Z@@_A(F@O;#{q{b@6#{]>@%,x@L,t,g#!^>&z>_#k@y$|#&#n,q]B']@I@=#5%|@<&w$g#s09%0#;$P@'-",
"S:p#a$t$w$m#`# %i#:>6%g$/,f@B'`={&_#%%w@E$s#;$c'5>r%/,r, ])@Y+d/Y+c{W!)@$#%#6#6(-#Y+4@I@N/w@*@i%e@t@-@U#d@_@m@N;y#&#m#E=j#_#K@[&S@w#*$o#c'i#^*V@T%Q'q#S%f#t0)@9{>#L;o#u0'#'#^%!#0$[&d$2#k@2#$#5% &s#,#K@I@&#w$9%D%{%}#P$D%._2#f$p#V#w#C$V@v%U70#g#x$T),#{%T$_##%I@+;[&^%L$X%r%&#$$!@V%o#g$`#e@2#s#M$g$+$=%~%W>b$Z@!#[&S$}#p#p/y%0#j$a#L$h$|#%&(%w$'*./T@$#e)N&g@J=l#|#S$U#p#{%J=s#i#i#!#J'A%o$-@C$!#U#)&m$I$]#>$=#v0S@D%i#a#]#4@7%}#s#+#%$F#a%~{J@&@|,}#%&E$B#0#i#g%b$I@g#~*,* ,%$^*r%L$V#=#K%M@2#y%>$|#!#x$&@)*u$L${%L$3*/%_#D$i@3%g#b$x#0#]#e%g$Y$g$B#(&l#t$^*{%2#!#c%l/j)$@h#J@+&h$&#s#b$_;b#j#[&h$4%s#D%I$`$8%8#U#-@P#7@c%&% ,x$5%L$B@|#=%-@I$U#7'v$_#/%X%=%V@G&Q;]@n][,**d*|#t<u$1{V#=#c$I$1@H$*$+;9%I@2#d$%$b$9%~#w(T$-@g$2#w@w#p#f$D#%%P#&@{%5%2#T$|#w# &z%`#!#k$D%-@C$c%p#U$c%j%^*5%_#g#+;j$s#I$=%B#h$7@5%P#g%f$|#=%O; %%%i@I@&@H%b$a#w#c%c%g$!#@>I;=>L,e-;$!*c@=#!#G$S@3#&@K,F'h#W!w%&#*$ ,K@U@p@v@I$T$S%L,Y+9{k,O$f>I@Q'_#U#x#x$*$P$Y@w0I$6@3#7@e@w$8#k@-@e@t$ ,1@g@e@}#J@A@g@g@1@g/z@p@Y_u~`+6'R,i%2=[*0*P$e$M@~#M%/,@#1@=#f@i#s#x$d*w#U# %4*7@!#x0C;",
"(_i#+$!*E$E$=&'#`#-#y%p#^>;>Q{5$l$}#|#e#s#v$A( &@#w#^/k,h#9{a@z@2@(#<#$#J#/@k#q#[#g@'>>#B#V#I;$@L=$@8%~#p@'$/%>#n#B#<#Z@i#_#w@i@&#w#X@!#w$V#[&C%j$!@,#6@}:_@d@)@)@$$c[ #@#_#<%;$[&D$M@K@<%i#[%w~w#j-'#a#j#|#e@!#!*i@|#|#i#w#.;.{u#Y$%$V#E$;$a#!@Q%I@T$L$5%U$m#g$;&B@!{U#7>Q_m#y0g#v$&#>$d$Q$|#w$K@F#D%:%}# &e${%F$'&k%!#%$**+;f#K@U#p# ,f>g$+&>*Z;#@T{&>O'e@k@E%n#|#s#%#{%p#]#*%}#O#x$g$]#z%f$e@y%l#9%V@I@y%U#S$~#a#K@1*M_c%g$*&E$|#x$g#H%u$F_V'W]6@D/r@:%~%w#c@2#+;s#@_q#r%W%:%A%9%b#,#:%&#h$c@!@!#d$K@_#S@&@%%g%-@1%!*r%s#k$J=^%]#!#i#g$!#j#%#j$+;V#e#t<D%2#&#V#e#g%2#[,-$k@9=Y)k$e@%$Z@E$Z@y%M$V#U#L$w$b#7@>&g$W%}#/%U;[%i#f{M$i@V;V@*%,*S@h$s#*$|#h%&#0#W>s#g%Y+K>(#l@J@$]P8h@]%D$D%&#&#c%]#S%c%&%E$v%,#z0g$L${%K@T$i#Q%I@c%w$!%P#m_.;F#f-x#F#&#O%D%v$!#h$R$}#!#e@}#e$~#b$D$/%i#p#L$!#y%5%g#T$y%p#F#w#D%5%>$`#c%y%b$s$S$[&+;5%I$T%l#y#q(V@B@(%3#n#h$6=L@$@A0w*D$/%M@a# ,w# $;@<&J{H#A@q{Y=<#+$|#T$K@~*u$H=p#H%P,@#;#d,>~R(I$i#:%9%p#-#j#V#m#<#7'f#<#B0t@&@V@!@J@*#&@;$/@.(X@-@X@j//@=>_@o'*@9{c{^@{];=+'l#G]C0v$b$l$i#}#/$S,I@L^~#8%_#w#~%~#g%L=%%s#!#P%b$@-",
"W:;$r%3&b$V#D$~%f-v%s#E$F,z]E$v{g$T=s9e@w$w$p#v/)#b$z=,,<@&@d-q@$@Z+=>/@O;g/k@O;m#n#f#[&x#L'e@c@!@ $L=B#P#/%.@X#;@H%m#V#3#&#l#i@i#@$<%'#]#%$T)-#K@C_v/<,f^Y+6@$#R8h<l@!@W>g#L$>#e@P$y%}#E$T$1*C_6#=#D%g#2#a'J'&#L$b#I$]*P#{%F#i#v%;@4@e$w$I@U# %v%d@w#g%7@g~w$_@9*_;_#{#:%2#|#]~L$/%<%X%i@p#w#w#B@!#,#+,Y;s%}#!%g#L=p#d@%%I$w$D%l#e@s#K@T$T$]#G#w#-^7/($8)D0t$r%s#v%/%`#j-M@e@`#T$Y%T$i@ ,I@P#}#8*b$U#l#y#C%s%/;I${%t@[&l$/%T$]#Z@|#g#s#L$K@U$h$4)}$_@t,i@o#9%s#!#q#k$T$k$s%=#r%K@<% %3#L$^*r%M@;&$%E$3%s%~#$%';y%a#K@g$F#4%h$[&:%b#^*s#s#U$g%]#j$e#8%i#!%*%h$k$k$[&>*I)$@L@q(>&h#U$v$+/2#l#j$3&.;l#u%s%b$;$!@y#$;{%H; ,l#V$/%I@{#N$+%v%W>s%E$g%[&&#K%^*&#l#V#u$]#!#h{Q;k~`+R]-#=*c$`#o#/%s# %]#m#v%g-u$`#[& &:%L$%%=#[&8%,*+%L$s#s#K@s#[&}*M@P@F#j$V#b$0${%e%e$v$B@U$l#b@m$%&+&&#V;I@!#B#g$g%d%=>a#h$c%e%c@Q'^*]#P#b$y%[&b#T$%%e#K@]#V#Q_!@y%w~!@t#]#j-;,(#6@%,U(d*E$F$Y+]#b#T)h$;$Q)4@m@s(U(V@L$!#=#i@>&j% % ,U$~,d@f^q,l$*$'#E$f@.#K@{$&#7@e@|#V@p@L'I@i#4@4@2#(@p##@*#w#m@.;9'g#Z@d/2@$$p@]@8@8@x@Z+0,;^w#K{';L$T$w$2#K$=;,,{$O;-@=#}'k$b$S%>$1%C$y%r$&%X%C;",
"x/5%>_g$=*=%w$I@5%u%x$;*6~&@0#+'>*g*y$!@a$v%x$O;<#u$F{8-i/^@<#u~]@[#(#6#)@t#e@#@5#_@A@&@3#e@$#a'8#J@e@V@P$d>~#7@.{d@m$~>!>Z@!# ,I@0#%#f#@#c% &E$}#g#R_h#4@p@&@($E02$K~#%q#L$M@M@7@e%N$K@$% ,m$L$2#~%|#!~ &;$2#_#>$$#i$}#I$K;/%w$5%g#F#3#R=U#R(|@V#K@&@u%'#m#y#U#2#}#@#s#2#g$f@e@l$!%6%Q'%%D%]#g$h$U#=#U# %H%_#p_^%T$D%e@c$';i@c$,%S%&#y%m# &s%f$;,+]:(/@N%Y+g#]#v$s#s#j%b$O%^*i#E$+,U$p#v$:>1*K${;!@$%O%]#T$o#h%W%s#t<j%H%h$[&G#g$y%w#P#}#0#h$L$F0J)$#<@E,r%_#G0e@I@_#'#f#/%E$!~=#U;b#D#a#L=P#D%Y$x%O;b$}#*&[&K@s#M@~*H%E$t<s9v$|#D%/%u$i@H; &g$m$e%j-2#i#g$i@p#-%!@y@:'1@6@=^H0f@<>g#B@I$i#Q',#<3U%2#t>&@&#|#l$D$j%&#7(:&u$T$)&r%v%]#E'#$a#j%9%3#d%|#J%f{E$v%K@7%m#c'z:I{<@t~8-D%`#'#}#S@*=-@E$j#w$%$]#2#%%#%`#}#F#i%k$#%D%^#s#$%H%9%t<`; %F#g#_#}(>*L$5%%%V@L$e$D%i#g$'#^#b$7'~&s#{%F#x$%$&#g%P#k$$%}%@#x$e$$$v%i@s#G$k$[&~#}# &a#I@l#G$|#H%q#_#e$s#`#n)/@a@o{U(!*T$Z@E$B#@$%%y%}'C=8'_$}$>~q#e@P#e%o#K@E$U#U#u$P]m@[(z=f(a'B@*$Z@ &{;-@D$=>T)H#b$w#e@E$U;>#*&m#_#s#w#m$7/q#3#L@^#J{)@Z@Z+6#y]*]~@w{)@/,-^I@8,P%m$p#f$S$]#8*/,o]Z@S;V#f$w%[&0$#$r%g%V~d*S%]%p>",
"I0B@y%y%>$L$)$j%`#i#v%V@''%]J0L]0$>&*&+>&#s#j%{$&@v%z=r,P{:/A@h@!>W!'@%#*#I;)#_@%#b#b@-@s#6%h@+@I$*$I$c%o#/@k'S;M#|#Y$Y$p#V@D%P#,#W>{%!#t@a#**e@e%3,2$b@$@v@3$K04)7(d$x#h$m$R(m%]#I$b#m%]%i@v$K@ &^:~#q#U$'#g#C%i#9#h$m$&#&#3#w#C%s#f$Y$'#_#=#k$m#I$]#U#i#P#-@d%}#}#>$L$s#L$:&5%:%e*p#g#!#(3I$E$9*U$S%|#u$]#l$e$S%J'!#n#_%l$%%B@L=(%5%>$O#o#C$c't,z@u~K,V:h%V_`$/%K@}#g-D%J=L% $v%w%M$W%f#l$D%g$i@}#/%b$H%e@|#I@M$y%|%e*g$|#g$,*'#h$/%D@I@F#H% %s%X/m@->s~2$E$s#/%4%G#L$g~5%*&D%j% %V#0$L$h-i@'#g#u$r%<%P@/%W%v$!#S@T$I@`#L0*$s#b$+,P#s#P# #Q$.;b$]#}#$%e%8%a#c%h$r%n,$@h#T@ *W!y$y#[&i%v%m#m#|#d%,>v$<%7%F#x$2%h$:%y%T$=#g#U$l#w#1*D%|#>#V#+;V@/%(3=*L=b$I$t$%#K@~;;&u$I#0'8'@^J@P@/%]#7%l#]#_#P@.{/%M@3#>&g#U@I@L$/%s#w#%#E$`#T$i@|#w$9%p#H%=%>&R(!#v%o#T$*&4#`$M@&#b$!~g%9%|#s#y#^%5%S%-@v%E'#%l#+;l#f$g$r%k$g$o#}#M@ %v$I@;$g# %}#c$K@V@I@h@g#=#K%y#;=/#*@]{B^I@!#o#P#h$'##$/%a#U{Y+G@z@,&g#j% ,S%=#!#6@L=;$g#d,c@-$]^P%M0x$d@f#K@&#b#K%I@{#s#e$1@{$9{e$(%e@8#B#V@>$G@C%9{:*.@$#f@L@_#T@_$z@h#]@8'W!,'^,}# )l%)$#%a$%&+;q#k,6#^#7'@#O%9%v%a#T$=%l#G$Q$K@P@C;",
"7&0#=%p#8*!#I@B#v$h$3#Z%/)-@N0$)I=c%0>!#V#`#d*5>M#2_7,L,5#T@B'M##{+$d@<@A@_@+$d@W!5#%]s@w#_$V#3#y#y#+#,*_%I@S%O;&@@_;&Y+x#&#i@c$V#Z+|#Y$j$k$e#(>_'6@B#*$[#k9O0H#}#0#K@a#U#{%<&E$e$F#;>V@$%g#|@E$h$E$g#p#o#L=B@L$!#i#m$%$h$h$I@l#:%b$ ,q#|#y#.;9%I$U# &I@S@{%o#=#t$s#}#}#]#P#U#0#g#e*i@w#p#|#{%U;w$]#&#y%|#!;f%E'<&l#m#~*g#j%C_%$p%l#y%I@!%V$%%}:u~)@m@f&O@8%^*g%e$w#b#c$L$w#o#l#!#b$v%s%b$D$[>F#w$&%U$|#g%K@M@h$<>d$*$Q%U$l#}#|#/%D$K$s#.@T$e*!#g$x/v^5#m@E,]#V#p%!#U#H$8%a#)$g$F#v%w$a#I~L$r%!#9'r%b#g#)$m#!#y%/%T$d>T$V#g$}#,#U#m#2#w$[&y%N%D%|#b$s$]#H%h-e%C$_%9#I]h#!>H/k^**g#s#>$V#s%g$v%g#X@s#d%+;@,i#x$#%t@P#h$!#w%t$v%U#D%<%I@e@q#l# $^%|#s#L$i@h$g%%$w~]#e$'#>$K)T#m)<@H,w#y%U#D%!#0$a#_#_%h$[&I@y$L$]#e$6>s#3%e$v%p#|#u#)${# ,g%&#I@ ,K@*%H%y$L$.;w#U$Y%i@*&B#w%K@%$I@v$j%V#_#h%!#g#k$U$g#D%,*!@[*g#v$!#p#L$!#-@M@s#f#L$%>~*.{i#g#;$L$L$!@[&Z@q,/@]@c-B~>*e$m#h$g#B#M@K@|#y{z]W!~>I:g#3#g$&#]#F#K@K@v$v%^,]@C)+'X;/%~; &+$}#f@%#I$I@i@_#o#_#=#>$L=c${;o#~#c$T) ,4#k#&@*$q(!@f^-#Q{-$f^3$a@%@(#A,w,3&n,f%]#b$b$t$w$0%5^q#q@!@r%b*T$b$O%M@6#<%!*<&j$Z%P0",
"u*$&T=J>w$M=:*=#/%E${%*&}=3#q#y)p$b$0$l$[*[%b$$$N;c'5^_,<@${>@'/-$Q@{]g/t@T)k~_@6#!@V@O;%>f#$@S%&#b#B#p#I@3#F(e@;@k@N(J@L$L$_#s#V#B#l#+;!#0#i#Q0|@w@e@d@s]R0}$U#Z@I^**U@$$2#:%w$Z@ &m#j-s#v$B#2#w#1$B# ,D@ %4@|#}#g#s#E$}#p#L=T$_% ,D%K@J'v%~*3#!~l$w#~#L$_@3#!#i@%%U#f-]#K@_#W>0#s# %e@&#&#h@g#L=|#/%h$/_e#*$h-y%;$I@ %E=U$5%v%E$g#]#V#s% ,p{K,h#d-r'!;~%g#l$[*%$=#/%v$d$I@e#d~!#U#j%a#R(`#e$X%h$!*L$b#I@H;Q'E$M@ %'*w$_#g%}#w%I$o#H%}#P#{%=#v$p#J@]%[#*#@>,,/%H$&@K;1$y%P@h-w(H%|#D%3#D#y%9%|#I@L=/#=#Y$s#2#U$I$J@V#w$4@-@k$8>;${%o#I@U#Z@s#e@ %g~0#q#j% $ ,1*H%5,_@A(9)u&7>8#W>E%:%5%|#p#&#e#c%,#T;-@U$e@-%w#h$2#v$]#d$I;]#'# &I@s#|#b$C$`#|#3#Z@$$C$,%a#H%g%=%0#U#/%w#p#~@-$^$S0s#f#g%U#:%;@i#I$!@*&2#l#}#s#_#h%u#B#g#L$#%^*i@7>w$g$H%%%G#s%8% &E$g$;@I@*$S;S%t%s#!#E$,*:%(%O; ,%%}#{%3&1*I@:%a#r%L$|#S%I@I$2#$$r%h$K@p#5%G$a#+$L=`;E$P#f@D%e@m#0#s#A'W!9{Z^T0l#U$!*H$I;H#+;2#p#U{c@|@2/8/F#a#I@s#U#+#m#I@]#s#r,$@x@A,e>|%%$J#y%}#|#{$i#w#W@D%j$V@9'c@2#*$.@w@~#K@I@t@l#i@-@n%v@&@A@L;A@W!Z+2$8@5#d-d,[-&#6=`~c>e*g~D%F$<%0,$${#U#&#e$p#j%%%>&[&g${#>*j$q3C;",
"x//%%%g$s%e$/%2#v$/%*,^#I)p@_@>]W'0$!#=#L$f$h%7'L@M_9,_,2$%@*@*]C'-$$#)#J@>$t@q#(%i#T)c@+$f# ,b#!@h@.#-@p%{%g@F#b$'#U0d%K@T$`#p#L$'#I@c%M@ ,r,w@6@[#D@v@V06@0#%$7'L=!@y#e# &=%l#I$h@w@T$s#c%w@U# %v%Q%L$!#+$g#-@o#f#j#S% %}#r%>$m$0$+$t@<%}#%$j-~#B@P#f@#%I@i#3#3#c@V#y#P$U#w$m$y%j$5%c%i@g%># &w#[%f#e$s#g#m#E'h$S%b$j$d$)$]#e@a#g%H%:%v%M>g5k(Q{d-W0q]c%h-y#l$b#E$b#!#d$m#>$i@+&!%K$e#T$V#{%w$h$q#L$!#&#e*s#'#/%>*D$N~X+I@U#b$1&s#-@p#r%F#L$J=W$h$%(''/('>L,(#F#y%y%o#E$h$L$j%L$L$i#i#h$y%U%:%!#e*f#^%>$V#3%X%v%o#U$m$:%**]#K@'#i#d>|# &K@I@H%I@]#e$i@o#]#2#<*#]R;)@*#J@s#]#y%K%]#m%+&U#/%g#2#^%m#Q%U#^&:%,%w$c']%p#y#2#]#C%|#,;5%i@p#j%V#l#9%y%c%y%e$h$!@g$j$!#o#s#|$7>c[})N#A@k,I@f$I$,*{%7(0$K@v%T$=%g#s#K@s#3%L$V#L$v%l#~#T$ ,1{/%2#+/G$8#%&$#w#P_l#J@K@+$=&g#b$a#E%w$}{D$s%5%!#D%|#K@E$!#p#p#i# %g$e$m#7@y$ ,p#x$w$!#/%7@u$!@!~y%X#w#%%e@8%c%9%^#e,k@2$L{X<v%;@h$U#)$e$/%>&]#S{!>6(a@p$I$[&|#.;U#q#[&U#K@s#;,v/[#6)T'P$,#M@;@i@~#2#z]7'L$_#K@ ,g#|#6@]#3&I$-#I;&#y#e@;$^#:/h@k@x#+$]@Y+L@D=-$`+Y+s^;'I@R]`~$$~%j%I@!#X;2,y@(;k@5%Q$K%_*-%,*M@Q$f%f$g$z%.'",
"$*I@.%g$j%>&2#e$!#D$E$g$s~($A@m{a%g$E$S$M=!*S%0#*{g%]^a,a@2$z]v@L@b@p@p@1@h@<#5%->m#]@{;/#i@<#>#e@v@-@f#+$_&x#~#g#V#g#j-3#y%b# %,#}#|@B>f#2,7/x@*#`@$$(<h'<&!#)$;$ ,:&S%1{}#p##${$c%7%c$E$/#`#U$L$]#2#L$&%-@A@p#^*,#:*P@I@h@*%p#v%&#g#g#T$x$*&6#L$#=]#V#T$b$S@ %g#j%s#g$&#D%t@I@D%&#/%T$9%c%J@9*s#$%0$G$t>-@s#J=j%r%S@s#F#7@M@m#R/B#%%&#s%{^r@h#H'3*7#T$/%:%t>I$^*{%i#k$a#@_E$T$T$}#X%D$F#]#]%w$3#+>>&K@s%a#w$w$h$t<H=9%s#K@a#f@D$L$b#L$g%$$s%'#2#=&v@w]T@@(Y+-,j_X0I(7@y$]#9%Z@K@U$,*$$]#E%D$J@g$]#-@T$l$W%h$5%g$H$e@c%!%Q%Q%i#D$U$f@w#=#p#*&*&p$e*I@v$P#-@f#{%:'$@_@3=^0w~=~i#J@l$s9T$s%-@K@a#_* &|#U$T$`#U;<*e$]#Z@$%,#D$!#~;~%b$S;j%T;k$P#}#l#W>Z@D$]#}#h$f#S$e@/%l$T$7@i@B'5>v@^,v%y%P@J@&#P#e$w$l#S$ ,m#g-i@g~!*`#8>P#j%i#U#w$D@^%6#u%m#E$3#,>w$_#b%i#7>,#|#y%9%&#3%c@}#X#K@E$T$i@4#i#.;*,0$|#P@S%g$|#S%}#-@v%>$F#~#u$T$U#,#P#i%0's#!#I@s#5%Q_h-$&E{-@Y+c-K)*>!#+;s#U#c%I@j$i#n)W!b@d@e(_#L$7@m$6%K@_#g#=#e@r{1@M#:#E>e@&#.;V@0$g#'#Y%l@$@{;I$U#;$W% $ $>(w@m#t@Y$+$B#6@Y+o#e@D@6%L'G@ /&@A@_$[#*#c=b,$[_)n>Y%L=h$M@P%+&-,u>[#=#p#V#T$%%/%Y00$y$F=]#o$M$o,",
"x/I@)$!%D$[&[*e$L=2#h$/%''!>c@H~!*y%w$}#i#[%#$M#1_V#n,),!>P~$#W#`+b@I;(#q@d@p@c@W!h#Y@K@w@0#e@+$h@c@_#A@i#4@'#}#S%i#v@y#@#>$F#!@m#e@~*C%],W]4@m@1/^#d&x@;$;>i#t@B@|#L$I@T)w(}#.;g$V#0#g#_*=#g$K~E$9'Y$P#s# ,^%>#&#J@{; &c%}#5%V@g#j%[&G$P'!#}#Q'b$I@d@w%T$`!K@>#,#/#V#k$ %c%]#`#~~w$C%|#s#.;y#G%7%'#&#|#w#!#g%,#{%j$i#>$T$|#)>_#b*w#H;)$;$S,A@a@r=#|n%E$V#!#)$v%S@y%$$g#0$w#j%.;/%k$w$u$i#i#L=k$v$]#J@x$i#h$5%!#g#Q_j% &a#>&}#v%y%w#<%S%%%s#[#0$e#V#b$J>0@p@k@H].@I@[%h$:%q#f>v%u$!@$$D%+>_%,;l$~*=#%%g#'#V@<%/%N%9*|#{%I@>$y%P#*&/%s#k$!%]#Q'L$i#7>Y@-%w#{%e$a)E{x@1_Y=J#J@T$s%/%y%E$p#_#7>d>D$v%J=P@T$-@0#g#v${%/%H%S$i#]#V@y%h@2#r%U#i#p# ,=#}#L$w@}#K@t<B@K@P$I@|#e@h$U%|_0=($_$/,5>T$s%e@s#9*k$U#[*p#/%p#_#m$'#8*T$d$E'E$]#y%w$;$S%]#l$!#m#!#H=&#E$Y$G$j$e@y%&#d$T$;&p#k$d%y%{;E$}#F#U#r$)$a#h%H%Z@h$4@!~E$h$z%o#w#j$y%E$F#=#!#F#:*[%}#7@i%g#T$l#l#K{8#1@$)Z0g#i@S@0#G$l#v$I@y%D,o]1@%@;(!@(%;$[&K;!#L$w#}#~*=^L@[#F,D:9%w#Z@$%L=e@J@|#U;.;-@P@I@g#I$]#_#h@~#A@Z@O;_@-$8#6@&@W!&@J'}#B#($K@B'*@o{L@{^f,o#B{O$j$]#g$%%';K$K,J@;@3&_;)$.{j$C$*$M@&%+/C$%%Z%C;",
"R:V@M>I@0$f$E$E$,#P#%%x$3=f#[#s{K$P@%%%&V@l$e$q#J@i#@^6'`=c@$#9{h#<@h@1@c@K@>#-@-@h@f#U#f#{$}$F#c'1@o#*$g#_#>$J@$$Z@I$J@U#w$B#m#q#0#|#'^:#|@@#->B@z&m#h$|#^#/%h@p%&@E$I@g%**f$!~i@,*o#0#:%`#'#/%t@%$2%<&:%@#!#T$t>g$1*Y$w#c%g$2#b~>$I$_#v$y#p#m@@,x$D%'#3#+;*%s#P$u$'#w#N%y#U$7@%#&#_#h$[%,#e@k$j$U#P#w#D$h%'#5%]#S;V#y%I@!*v$V@3#[&w#<%:,a@$@f@`0g/v%w~U$!#p_Y%N$@#h-}#m#L$+$]#%$r%K@P$F# %:%_#a#T$g#T$v%I9U;E$h$B#h-N%}#I@>*C#2#|#}$K@s#g#r$;$q#u$e@D%'<-)q{x@t0q3.{P@v$n#D$^%^#^*E%h$w$~%s#d$m#!@>&K@O#l#p#]#0*,*7$E$a#k$g%h-S$=#h$@#G#~#g$'#T$p%#=`#B#+/b#W,c@w@2)q>/%!%a#S%g#r%3&!#r%P#`#S@K@f@g$k_*&|#2#a#T$s#K@t>K@w$P#%%7@h%4%4@,#{#Q_#$K@v%b$>&+$2#K@-%/%q<_%@#Q%g$}$h*R{q@s@u=v%$%b$U#V#+>c%P#g$;$g%_#7'p#I@s#w#!#3#b#N@s#U#K$m$9%*$e@g#:%g-/;j#y%'#{%%%s#h$_#]#D%!#l#/%'&{%^*p#E$h$>&p#P#<%g~I@{(C_J@g$%$c%K@&#w$^*F#9%I([&e@L$b$_#p#_#g#F#g$e,(#@>$@c>L$%%[*i# ,C%p#~%g$I)+$q{,] aF#O;=#_#'$~%L$c@s#L$+';@1@<)3%!~V#Z@K@Y@0'i@$%t$.a5%.;p#;@U$_%q#}(}#L',#|@_@w@u~x@8#d@6@B]J#w@_$%#q@%@l9)@-,8-y#*->;h%J@/%w%1%E%d,j#p@t%e$s%=*T$P#F$B@M@{%v%1%o$P0",
"P)y%S%*&/%_#|#*%/%T;5%*%A,X@$#-)Z%S;w$/%#%i#g#I^k#[&5,S,b@Q{J)]$h@>@W!e@>$7/i@1@(#,#Z@Z+D@m#I$c@e@L=m@$#_#5%w#Q%J@x$:*$$_#E$'#j$w$H;+aI/u>Y+;@$@@9n@_#l#{$N%-#Y$!@+;D%e@k')%}#C_0$v@I@U$]#B#f@t@h'3&:%G#`#=&2#|#v$i#5%g%h$H#e#&@5%I@7@|#g#U;/%!#j%S%[&x$L;9%~#'#e@!#L$U#|# $g#'#_#!%`#r%G$!#S@H%l$;@i#&#=#]#&%s#X%h$C% ,4%Q${%w$j$V#K$#>p)z@o]A'g<h$E=J=j$/%v@D$}#r%K@*&g#w#b$p#l#@#2#!#J@y%b$#,(3T$5%U$'*_#N;j$e*j$!% &/%K$:%1*g$r%k'w$h$e$|#g#J'%%g%_#f@<%<#8@z{E/#%b#O%$%g%_#c%^#h$j-K$g-0#z%V@]#=%p#O;;@j%{%M@x$C_K%m$+;g$_#0#P#]# %b$-%i@l$C%P#9%L%-%+;;,T@'@.)P&)@=%;$g#%$I$y%H%]#!%P#f#g$r%T$B#}#v%4@/%o#L$%$|#/%P#$%|#g#b$L$e$I@T$U#c%M$.{_%F#w#F#5%H%$#]#P_g$3*k$7@h% >T#3/9{`=6~n#z%T$P#B#b$s#]#j%v%g$P#*$.;!#{%S$^%o#v%I$<&v$_#H=g%g#0>F#|#{;]#y%I@ &f@w$*;U;V@F$I@g#e@$%-@s#y%v$s#U#_;%$c%]#d$0#&#T$!#7@f#}#]*L$!%U#}#j$E$I@L$!#E$c$d%&#p#Q%s~i@;@B'.<%~g#**B@%#D@e$I@i#$]{>b{a@G:x#e@_#g#|#e%W>i#s#:%n,m@*{i)|<`#[&T$j@E=q#v/*&C_U$h@6#I@I@>#V#;@$$=#>$;@I@u>J#>#;$d@!>-@W!h@Z+#@Q{c@~@Q)x@,,,,o#*-9/>%b$%*}#2'k$/,A@$@<&p#`$#;[*T;M@V#D$0#L=e$!;f0",
"@aV@`$a#y$y%*%g#h$;$T$&;Q;b@*#T{p$[%!*M@v%[%O'Z@W!@_6',,~#x@`@m@Y@c@o]$#@#=#@#h#'#B#;@u>O#{$y#.{J@|#s#[#_#!@$$s#B#V#p@v%2#V$T$V#/%*'J#T@-$e@c@#aC#~#h$U# %w#$$I@T$s#8%x$s#H$w@7>'#|%'#y#L$L$g~_#G$`#L$s#V#P$ $h$w$f#E$L$|#3%}#l%w$l#F#5%`#v%j$P#B#!#T$l$j%7>^%L;|#1{o#w$f$Q%4%u$g%M$'#;$e@b#U#E$'#2#v$!#[&|#w$+&0>g%B#T$l#!#e#+;>&3&p#$aY+b@%aw:{#d>j$!#U#C% ,[&>*,#F# %]#`#S%*$X%}#.;+$%$I$s#s#M$g$c%h@M@7>T$%$}$w#E$v/o#;@[%=#p#2#b$b$g#F#m#c$!#y%v%&#s#&a1)[#-$k[T% &0*!@P@w#e#{%{;v$U;3%K@0$I$d>r%g%e$7(!#w$T%w(P#]*|#|#p# %I$u##=I@ &v%T$T$1{;&]#I$*a[#L,[#1@a@)&Z%o%u${%p#[*P#L$^%i@w$H%x$ &J'k$&#s%%$P@&#B@p#R$!#/%m#7@}#u$i#g%f#]#g#@#V#4%@_h@f-/%s%K@$&f{i@!#@#w#p#2%V#=a5$c-N@-'&#,*c%h$~%_#_#{%=#'#i#{#u%S@M$4# ,)*L$L=]#-%|#k$_#S@V#L$i#x$i@->K%U#>$$$w%L${;1*M$J#,;/%s#I@b$=*g_s$R=}#{%Q'}#m$d$>*>$h$8%P's#I@7@+$ ,,#V#u$H@T$D#I$:%V>D@M_E$F,)>s@-$F[@$%&V#,%t@h$h$+;D%3=e@)#z@H:w$$%**U#T$K@>#/%e#M)l{@#*@6)>;[&;$;$W>@#K;h@2#f#_#@$|#B#v#*;,*'>+>e@n@o#V#;@I$V@U;&>f#a^W!e@|@)@h@n@`=6#b#,'h=f#C={~s#`;_%U#b$>*H)c'#@j@F$+&v%-%O%P%w$0$g%l$@#5*C;",
"-al$p#,&!#*%p#E$Z(!*)&!%d,&>9{u{;%a#%%y%L=f$S%5%|@0#S,s^5#I/$@J@c@g/&>@#T)-@3#e@_$f@L'6@n#d$[#3&l#4@ ,[#q#k@@#2#D@_#&#U;G#w#%#s#E,F/x@_@h@3#/0+_}#L=B@U;P$i#Z@e@1@s#_#%%t@ &/%8%y%z(e@j%%$2#!#~#;@0'%%@#|#I@1{`}i@n@&#p%p%V#g%K@=#a#I$'#D$S%u$V@;@s# ,e@a#;$5%r$%#U#&#]# ,]#I@>#B#|#M$ ,K@p#_#L=h$r$U#M@U$F$y#x$H%2#l#)$=%s#v%`#w#&%s~):[#J#;a{#y%s#'#*$s#p#e@K%{_|#|#F$;&s#[&]#7@|#c%B#T$ ,8%I$/*E$g%g#D$e*]#I$y%f#~%E$X@S@O%{%U#s#L=g%]#F#v%f$e@m#a#I@`@Z+1%z@f^x{m,P%p#4%B@+%g#_%v%Q'!#}#b$@#y9a#y%m#!#b$b#.@4%K@!#E=V#c%+;a#E$T$y%t%=#1{ ,b$=#0$w#7@`#Y(1@z@r@>aS#7@~#|# %e@d%|#[%]#~%u$C%F#!#B#I@I@/%w$)$s#}#V#|#w$D$_%=#g$b#:%M$3%y%p#V#b#9%f-g$]#}#Y$p#E%c%1{l#w$d>h$4*$$0#i#z@_$E{r{<%,*%%T$^*r%m#w#3%!#w#_%:% &l#i#P@M@r%j$y%p#`#!@|#g#.(t@*$s#U#f@K@]#3#L$[&I@1%'#0$_%c%6#I@-#~%8%s#&#J't<V#i#0$n#&#C%]#/%]@t$/%!#$$U#f#/%Y$f6l#->0#!#p@D${%)$a)a@-$r#<:;@w$D%M@u$2#g#s#C%6~{]^#~@4'>&^#U$Z@L$3#U$I@P%k@K{;@m#n==%w#w@w@|#o#f#$$&#;@f@ %@#:&m#y#E$+%5%J@q#i#}$X@6#-@e@&#&@Z@$$^#Y@6(<@f@u>x@A@n,,ah%i)#=w#5*p#F$H%)*6~^#]@{;I$w$l$b$m#h$M@&#K$e$g#`%)(",
"q>0#'*E%g$B@^;r%[%$%m$[*3=k@W!x,x~h$,;M$U=V##$B#(%%$m~9,@>((v@c{k@W!`+J@-#{_{$m#x$>#'#&@&#6@9'~#_#-@q@i@b#c@R#3&t@%>&#W>C%j$:%E,;@k@A@-@,#w]l@j-V@-@P#+$$#i@m#}#L$!%h-h@g#j->:b#h$<%D@|#:%i#5%&#V@|#.;T$6%g~t@g#`#M@p#M> &*&i%y%V#g-K@]#g%_#+;I@0#M$+;*&-@g$7@(%>&P#2#T$&#]#9%e$_#>$]#&%D$H@c%_#u$2#w#6@%$0#{%`#D%[&p#i@k$g%S% $D%I@R,C@]@'a)a)$ %f#l#l#`#:%|#p#g#$$B#u$r%l#c%m#5%{%v% &I$[&E$I@,*7'l#P#w$s#U$B@X%[&3*e$h$p# _}#r%}#T$T$H%`#%>L$ #2#9%o#{*K;!a8)T@v@m,l#^*V#g$D@%;w@f#j%M_|#]*y#K@O%.$'#g#K@y%j$P@ ,h$h$F#V>B#+>=*)$S%'#}%b$L$h$}#=%p#P#;,P~9{Y+d@g~[*T$!%w($$]#4%>*w%I@+/|#Y$/%7@U$j$D$I@!~g#D%I$r%P$$$X+]#3#V#h-[*]#e%h-L$l#_#m_r%B#d>8%%$%$2#l#]#{%i@g%*%]#i#U#~ae)q@f@R]c'~%J@<%I$M$+$w$&#e@~*T$ &=*e*/%t12#[&%$g%4%I@E$e#f#'&%$1{[&V#'#9%L=v%P#7(b#$%B#J=V@&#2#f>|#S%g$e$h$~*D@h$+;=%_@!%e$s#P#h@+&%$]#^#u$>$L=a# %p%s#m#$$[&p#2#n%''m#-@$@__6#P#c%|#!#R$=&y%{%6~f@$@$@{a*$K@&#;$J@@#_#K@b#E$/,w@{:;=O%-@x#*&+$+$I@c$<&J@I@s#&@v%}$m#W>[&'#y#c'J@&@B#Z+e@e@c@h##]x@Y+<@Y+k@Y+[#*#b@;,$] ,*-/$g$m$-%[*s%g$a)c'k@0'v$*&c%v$w$!*b#M$Q$p#E$&;j,",
"V&^%p#B%/%|#c>B#R=[%g$+&]a@#V@K,__J=/%`##%Q$B@c'!>!#6'|,($)@!]o__$_@m#'>%#8's#@#q#x@w#s#_@N;+$4@!>h@&@;$}#b#_#|#L=h$Q_+;o#~><,G/(>o'^#8@8{L'r%&#^#8%h%w#q#!@i@_#I$S@s#V@e$s#m#*;/%E$J@g$d*_#<&-@g#K@.;j$K@p#!#,%s#|#{%'#w#y#|#!#{%x$g#S%0#s#K@]#g#L$D@/%K@k$]~M@a'W>Q'D%w#M)y%+#e#e#[%&#]#_#V#Q'g$#%g#2#I@}#w$4%e@p(K$l#=#9%a#!@s#$]*#/(u~#*~)L%r%b$j$l#c%g#w$+$&%s%4*e%H@h$*&`#p#h$.{M$k$P#:*e%g$7$P#V@I@{%:%>$m${%U$E$2#B#,&5%C%I@U#*$;$p#q%d%K%+&P#&#I@I@;$^aj)U]$#~'K%}#&#l#]#K@E$}#a#q#>*L$H$o#Y$l#'#^*e*B%0$K@9%I$L$s%g#'#/%C%[%(3v% &:%$%j$E$=*!@(,&@d@R,]( %g# %T$S$_*c%=#s#E$E$'#3*n%H#G#k$_#:&h$$%i#/%]#D%H$N%i@}#{%E$/%E$]#!#^%_%S%P#&#;@h$K@q#m#C%R=_#L$_#j$w#+;g#=%b$<%/a]@-$h#(aC>D$2#U#O%!@K@x$N%T$y#W%=#B@F#b#I@2#;&_#<%!%0#H%*&t@G$d$'#~#d%,#`#^:e$p#1%'#[&j#1&0#&#l#I@w$k@Y$E$K@C_k$K@$$k$w#_#P$5%I$T$X;7>E$&#e$s#g#^*7%*&/%]#>$P@.;e@x,-@Y+P~F%J=B#t%L$b$;$&#(%H=Q;c@&@/@_a(%*;P@I$s#[&F#g#p#00M{]@w@^)-*}%$#s>Z@Q_'#3&C%j$!@i#F#K@V#o#p%Z@`$^#_@_# &!@)>)>L; &U#k(Y+_#c@L@m]c@z(W!6@/,9,T)A,4',;I=_#b$j%a%K,A@>#}#a#D$h$**`#x%P@e@g#7%:aa#f0",
"w]n#E$v$p#%&}#&#Y;+&M@w%5^h@_@s~<*j$z%I$h$3#*&W> _/%q,[,J@($-$F@k@e@z@U#}$'>L'e@~#V@f#k'@#>$6#{$*$-@-@1@_@O#=#&#{$i#V#g#=@w,p@j~N/v@w#<ap#c@f#!#g#x$^%*&g#_#&@%#H#$$ %d$|$+>f#}#;@i@g#-@f@[%y%w#Y@I@T$Z@%>U;v/l$ &]#T)F#$%K@%%g$D%`#D$-@D$+&D$}#_#o#|#7%1*&#f@b$V#U;u'{%L$j$i@g#L$^^}#l$]#/%[&K@5%s%'&^*v%s9,#s#0#Q_g#^%`#|#l#p#d@K,($[#8)o>y%e@}#|#=#f{U#g#w#<%9'-%l#c@3%2#&#d$!%%$y%f@+;U$=#I@$%e%n#P%t@ $9%|#K@F#T)g#>*F$N%M%`@Z@0$C$_#D%m]6_`#S%I@}#V@r%j$4'0~%#J#W~$@g#]#w$M@:%d$b$f@ ~,#s#!#T$v%c@7%`#v%L$.;_#g$g*|#g$1*w#&%h-w#V@6>2#:%#$|$w%&%;'_$n@J@[ay]V$k$s#T$!#g#I@X0U$[&%&j$D#m#M@w$/%L$_#k'i#;$}#/%!@!#f#B#v%p#]#_#l$P#w#T$;@*$%$_#2#P@!#`$>&9%G$P#%>I$T$I@!#d$&#4%0$*&l,;#m@S>Q)a#P#I@5%&%t1e%i#|#2#V#i#e@w#Q<z%'#_#:%}#-@>#c@T$ %U%G$B#9%3#L$T$!#g#D%*;|#s#*%x$e$I$5%m#p#`#`#V#K@U$r%p#^*|#~#&#}#'#E$&#1{x$D%T$Z@p#M@s#&@r%_#g$P#h$D%m# )k@_@${}a]#b$K@p#%$d$k$e@i#U{&@-@`{ >f#p#K@s#T)+;5%e*i@.%l{w#G@L,E9,#&%w#Z+i#,#J==#I@|#$#|#V@-#}#.@T)Z@P$B#T)_@Y@d@Q%h@s@_#A@1@g@9{Y+M#!]Z@'>L@I,('K@B)E%B@E$%%N$h$J$+]-#w@3#X#g#M$v$!#E$p#Y%~%e$h$Y0f0",
"u0>*)&1&d$f*/%h$!#H$p#*%j)/@_@6~f~/;b%g%e$v$Y$'>'>w#R]^,[#*$;#&>`+&@-$ |J@+#k@x@-@X@%#4@$#i(a{@#h@h'U#Y@m#J@@##_w# , &1@9-)@2$6#c@&@|a)@V@U#}#[&$%B#I@2#+;D%U$,#h@U;'#!@ ,K@/%<#B#g#f#4#n#Z(K@U#I@-@Y@'#f#h$1{V@{#e$l#@_u$S%a#&#*$v%b$w$a#e$w$h$Z@/%L$>$9%p#g$&#|#_%|#u$4@+;k$+$U;/%%%/%i@/%6#I$`;Y$B@K@g#=%d$S%*$!:l#y#c%i#>$D%{^>@p@~{1ax@H%S$V#U#I@=#V# %e*s#Q%K@p#w$_#L$S%]#C%h$ ,M@B@U$$%T$u%W%s%l#=%~&|*K@,*N%e$G$a'_#g$h$i#L$E$e#%%/%!@h$G$9%7#~%=#^:!#h@2a})3a($9,M@_#b$7%:%~#*&K@2#l#b$*%D%f%h$v%V@,#x$v$D$B@v%<%&#H%k$|#j$l$3*4@>*i#a#9%>#L@k,i(d@x,-&p#P%=&h$H$g#S%g#g$!%s#L$K@y%4%>_p%e$}{Z@v$G0~%B#P%%;K@L=[&+$v%S%_%f$|#%$)$E$}#|%&#T$J$E$D%,*+;D$_#k$ ,-@e$%%d$B#6>P#U#4ar#]@L@],f-(&j$9*`#7@P@3_~%+$s#V#&%B#5% &&#!#y$P#'&w$C~E$x$Z@3%S$d>~%|#o#i@j$P#@#%$|#f$d$b$|#g~_@2#_%O%}'P#J@X%g#K@s#&#F#$%!#C%1(E$!#~%9%B#&@!@U#a#H%r%T$V%h%g#v%Q;+#$@q{n>N<S%7'g%a#i#L$3*c%a) #[#Y/K)m#E$w#9%9%v~&#*&E$/%},|@2$$'e~w#L$g#&#/# $&@J@i#h%K@g@'#9*i#U@`@5#6@j$q# ${$ ,c@k@f@A@5a9{O;Y+=@Y@!>[#J{x@(,l{=#3=A;=%c%H%m#&%T$j)8#-@{;]#L$H%s#E$K@]#=%M$=&Y$M$O)",
"A[w$g##$k$ %1%^%M%D$s##=A'K;1@3=];N$!#/%K%7$<>d%c' ,''~'u>o'W!k~B'*@b@+$4@c@$#U#~#e@g%[_@#Z@p@Y+3&Z@K@B#}$l#6a)>g%<&+$~,Q@k@p@/(F#7a6%E$(%^#]#h@7@3#~~}#U#j#e@$#p#H#D%^#|#g%&#e$_#=#y#h'g$e@}#m#{;[&]#s%L$f-K@V#v$B#C#r%w#4@{_x%i@U#k_W>7@P#I$d>T$}#1*d>_#|#g%=#;>s#*$g$j-j-j- ,K@&#3%i@V#:&]#t@U;g$w('#g#B#s#l#f#E'w#c@!@U#h-{@5$Z/Z+$@I@N%m#V#!#7@>$g#L$s#j%w$:&,*e%d$V#M@z%f$|#B#&#0*_#j#g-1*[&h$p#w$L$u$|#x$7@L=w$}#|# ,K@,#g%0$!#7(<%,#I$E$0$C%x#i#>&D%g%3#-@D#h0Y+P~n)8ay#u$]#D%g#x$)*d>h-W%h$g$_#w#Z@'#w$8#D%(&l#b$!#V#D$f#v%}#b$I@l#*%K@j%F$7,x@~>[@/:!]f$I$I$g$`;d$K$e$T%-@|# $}#d%g%T$h-S@y%,#s#}#K@l$>&I@/%M$I@P#V@s#P#:%[&y%l#P#;$w#/%}#V@I@!#V>g%h-T$]#e$g#V#x$L$G$=&,;]#_#s@<@g@^$./v%g@@{b#g%$%/% $]#|#:%L$D@l#!#3&g%F#g#e#q#!#e$I@{%^*p#&#y%!#h%c'/%N%|#!#a#1*l$|#&%I@f-w#B#L=`#M;o#|#w#f$v$E$4%g#h%=#v%S$}#/%2#>&w#~%|#g#Z@}#w#b#>$%$;$',!:#{C)9a}#C_a#3#p#d$'#,#2#3=6@1@z@1>h_C% %V#r%2#Q_I@e@0$-'A@-$/=I>p#f#B#K@r%C%7'F#!#_#c%e*&@}#N@W>F#P#W@V@8@3#f#I@e@~#o'*$C'f^'#h@_@W!w@>@/(d/>'{^N;F{;%K%/%N$^&!#Q=/,^#]@G[B@9%t@[%/%_*P#>&H%q<y$<*)(",
"x*9% %j%a*m$s%k$E$g$b$l$6'`@u>4)==`;h$v%9*~%a#~#(;g$]=R,d/%@/@${h@q]z]8'$#f^n~6#>$%#5%e@Z@B#&@1@y# %w#q#Y+5%M#i@g%b@0a*#6@v@J#,@.~c{>#|#'#B#]~7@*$I@6#e@7%f%{%3#q#@#J@a's#|#c%%%&#1*e@%$H@'#7'~#p#e$7@x$T$h-I@+$p#&#e@[*l#l$}#@$]#7'+/v#s#h->#'$;$L$;$K@k'`#l#]@d$w%4%v$e#s#E=0>=#v%K$J@v%K@T$K@L$]#b# %e$T$~*C%-&0#F#K@~#D%F#w,W]g@s)aa|@D#M$]##%~%j$ %!#w#g%T$7' &a#i@c$p#I@ %g#c%/%g#3#%%m#0$Y%!%m$[&P@5%a#_#I@Q_.%x$V$w$}#_#%%f@ ,4@I$4%j$K@K@K@e#D%U#D%D%B#G[ba<-,@8's^B@~%}#,#!~q$M@>&7@J@[%s%V$D%2#D%+>,#;>a#F$>&{#r%2#}#e@s%s%%%v$`%-@!#Y0%,L]($$@,$p#{*V$+>Z!V@v%/%V#8#U#%&$%r%[&_;x%H%T$d>{%o#T$q#/%L$H%[*~%~&>#]#w#V#g$z%]#K@.;S%d$}#3#_#S%p#P$K$g~U$!#+&P#h$~#v%|#H$i%,*7'K@6&Y':$$#':caf%d%K@g-,#da{%U;b*~#E$S%F#g$=#&#-@k$^%w#{;+,Y@/%-@h-d$g~.;&#g#I@g#F#B@%$S$-@ %K;d*b$U$$$e@l#m#U#B@K@v%y%*=B@;$e%9'c%g#%$I$H%F$'#E$s#l#G%b$D%x$^*V#L$=)00k@`+`~ $0>!@N;U#f@s%k@5%K,|@0@0@:a(%L$ ,&#$%f@_#o#K@;&A,!@%#K,V={%U#!@h@&#y% #+$[&t@/%_#w#->3#3#_#c@$@b$1@+$`@3&_@[#@>c@@#(;6#K#z]5#@#N#/@k@,,5'>$l,&%l$-%o#3*u$>*F]X#@>>$m$L$S$K$=%D$I@r$v%X+_%>;O)",
"7&N%Q$E$g#%;I@M@g$:%h$/%Q;B's@M{!*j% %T$B@E$b$*$f#g#c=7,1@1@l@^#g@c-z@]@c@f@c@!>h@>#<&2#3#j#K@&@%#_#P'(%J@F#!:h@(#',$#T@g@_@w@d|e@y#>%V%E$t@2#|#p#_#p#>$K@a$!#V@*;J@;@L=5%s#h@N@E$m#s#Q<V#w#:%;@@${%M@T$P#]# % % %K@i#g$<%k'E$7%K;4%V#T$+;s#}#W%&%X%w#_#i@+;U#H;_%=%%$w#M@=#M$~%I$g%:&c@p#K@K@V#>&}#9% ,s$E$k#s#V#y%j$@#k$M_R]I]b@z@T%h$w%h$`#T$Q_I@1*#%7@k@T$U$0#%$J=l#L$:%c%]#G#g%0$B@3%F$+/&#I@!%s#}#w#s#3&h$P#W>;$}#_#U$7>L$p#*$J@%#6@g$<%y%,#>&y$i#7@H%g%-&C$u##*G@m)_$P]<%B#v%7$e@L%'#w$ &b$L$'#v$g%u%!#}#D%c%[(**j%Y@!#+;s#g$D$_@H@h% &g$2',,>#P~E)eaC@m$V#/%L$}#I@U#U$K@f$;$K@g$D$F#8%P#p#{%F#T%d$3&<%c$T$I$b#p#P#1*2#!#g#g#3%P=a'l$k>/%v%,#l#I@'#h@=#-@f@g$v%i@9%U#s##%[&y'f>]#c%>*$#h#J@V,j$U$y#7'G$p#a#L=s#E$g#S$>( %~%U#s#3#2#e*s#1*M@d$}#o#3%7%I@!#T;y#~%=#!@P#L$g#}#M@I@^%s#s#<%^#.;%%-@>*];e$x$h@s#g%g#L$|#b$$%L={%[&!@g#T$L$=%o$I@9*y%,#C)h@h#:$//e@y% ,P#i@K@)$0#F#0~C'1@<@fa:%m#c%e%L$ ,*&<&#,'# )h@T@x,I>/%A@b$P#U$+$e@i%e@K@N@6%8#}#i@!@~#8#h'<&Y$;$h-J@1@;@v/p@4@'>s@H#u>x@M#!> ]%#':('5%}=9/h$,&O%g$M$s%/)N/-@P$ $j%!#S$P#}#*%H$[*L$e#X=j,",
"h*l$|#g$e@p#j%!#:*N%!#c>;=z]1@C=I=y$H%g%e$p#F#q#b6s#,,A,w{J@*#.@Z@=>A@t@(/U$z(-@k@s@M#5%7'$#V%6@&#w#{%!@V#p#.;b{^,d@8@g@%@H%gaD@B#v@-#d@J@L$;@-#m#e$C%0#f#*=Z@L$i#2#c%S$e@/%|#P#<>F#8%I@)$g#$$1*V;j@<&m#|#g#k$g%>$V#3&_#w$s#_%!#f@^* ,p#*%p_$%>$y%!#2#d%$%m#f'&#;$L$p%!#I@g#}#B@l#/%S%|#2#S%U#V#P#2#T$2#V#f>L$g$c$P@U#m#=*]@m,-$Z@<=b&S%d%5%B#/$a#!*'#g#]#s#E%U#[*p#g%%%s#h$2#_#9%c$s#d$G$M@E'M@!~p#L$g$l#,*&#I$j#G$p#3%j-4%L$9%L=I@b#e$|#7@J@b#B#Q%!#a'{%]#s#O$l#Y$]%')Y+/(n{p@#,!*b$w%!%`;g$hay$j%&%{(+&2's%q3ia{%j-N%h-J$%%]#^^P=+&M@o#]#2%7$ )v{C@($'*C@@_v%h$7@n%&%i#t@e%i@d%M$b#d${%I@+;T$V#}#N%a$V#j$&# %q#b$}#8%T$K@s#w(2#g#K@b#!#2#T$=#{%7>}#P#I$F#@#]#]#*&U#P#+>B%f#I@l#b$!%g%j-M$K]n@$#s~$(b$K@]#I@P#w# $r%q#>&j#o#!*&#^%e@U#Y$E$s#C%v%#%F# &e$l# &]#H%U#L$*$a# ,|#y%f>=#p#e${;e$l#_#]#M$,# %K@ $;@!# ,N(V@ %V#h-*$h$*$<&}#B#^:d>H%V#u'g#f#E$8)-@)@@>`%x$p%P#!#>#4@i@f#/%6~&@x@x@P>B# %e@/%F#w#I$:*K@-@+'^#Y@x,-*W>L$%>V#m#E$_#_#m#~# %V@p#@#E$w$l#1@Z@^#u>v#V$S@ &B#n@-@D@g@6@2$o#c@`+0@n@&@d,{,%>B)f~K$j%W'y$_*X;a).#|@6%C'>%w$u$0$@;b$f$%&=%%%s%/>",
"q&w$u$Y$_*!#v$=%w$!#e$P@P,^#d/])A;t<p#g$G=e$4%L'W!V@~^^,$#$@U]u~h@#@x@@#'@S#f@]@V#n#;@t#U#}$w#3$V#!@_@>_v/R(O#<,w@n@&>^#h#)<e$+$r%2#3#l#I@^#-#*;2#C%o#M=e%s#K@$$t@B#}#P$D%x#Z@=#2#;$@#*&E$_#5%}#V#U#v$l#:&+;U# ,D%y$K@e*J=s#*;7@i@{%w#b$l#g%g%H#7@]#M@<%V@s#f#s%x$K@/#E$y%l#s#j%T$I@{%v%f{T)p#2#]#s%K@7$}#,#v%D%>&b#`#|#jar,x@v@r=q}n<p#P#`#[&&#y#^%w#e#w#2#u$h@.;K@s#t@p_*$#%<&7'i#L$e*/%i# &]#l#[&T$v$U$w$;$*$_%e@u$4%h$T$s%g# &y%;@ %)$i%:%D%&#]#w#d@d$e@I$&#/%-@f#B&E{8@($E{P/q/O,g,Q,|,N,g,|,:~_'O)C;[-O,]=*'O,:'|,f,3,':J,N,='E[l=*'E(i,8$B{b@8@x=J_e*v$o#K@%$%%Y0l$g%C%i#!*a#T$g#T$b$g-f@a#b#<%!%%%K$D$^*b$s%`#g$M_>&g~|#}#:%b#r%K@-@x$g%+%1{3%M>7@r%C%p#m$v%!@8%I$U$E$^%f@|#w$V@r%)#2<]/W!(#7-G$>$o#[&:*!#_#V#T$w#i#p#7@s#B#5%d$g$w#;$P#I@f@H$7%M@g#^%K@A@]#c'c%c$o#U#|#L$:%p%~#I@!#_#!@K@I@*;:%g#U#s#o#V@h$->1*Y$L$;$j%p#`#8%2#]#|#{%d@!#o#o#V#5$*$h@9@l^e#~#0>/#a#S%;$K$|#I)4@b@h#G=!#e*y#k@L$T$X@-@}#>&8-j#$@s=c~Z@9%}#}#f#&#!@F#i#S;1@O#U#p#a#6@-$$$>#q#U;@$-@h@ &^#+$K@/#&@u#c@K#_@h#a@T#/#^'n,'#H{%()*>%S%b$o#z' )>$A@J@_#g%P#!#M@.;h$|#*%)*h$>*C;",
"Q>K@e*<%M$H%v$I$e#=%h$U#j)c@k@I{>*D%v$=#D%j$|#<#<#I$q,r,h#)#$$J#1@K#;@z@>$w@J@b#J@8%2#;@D%w#J@I@ ,_#c$,#%#b@ 'q@:/Y+x@B#H*`+J@H%*$w#!*Q'e$u#h$_#(3D$6@=#m$s#~#E$L$ ,L%>#}#<#}#5%+#w$%$l#m$_#C%!#:&7>~#E$3#[% , %<%F#*$J=`!H%*$g~{%)$M@+#-#=%g#`;@#B#P#w$ &J@s#p#}#>$c@U#K@w#U$e*D$g#Z@!#Y@$%p%y#d$d%v%j$Z@U#V#n#2#Q_%$6#j$L,~@o'@>I>p#T$[&*&P#C'T$U$U$g-i#i#!#_#a'I@!@g%@$j$%% %G$/%G$)$I$g%d$<%&%V#^*]#,#B#0#T$S%T$4*4%s#}#S@S@Y$+#l$l#.;I@s#v$^*g#U@!*I$t@**P#L%g%S%s%`@L@.)$@@>_@Y+J@L@5/h@x{h#9{a@2$`=_$`+9@$#h#g@d@g@P~*#d-*]x@Y+Z+~@_$7#u~b@q@)#0#'#}#t$g$f%!%!#v%P#$%p#B#^*h$/%p#>$e%D%7@/%s#B#~#f$o#f@j%j%k$2#f$I$O%f>2#L$L='#f%!#{#j-h@U$ &b$C_h$s#~*h$g#v%;@1{ %a7T$y#%%{%p#V@!#g*%&W!C@-$<)P%U$v$a#!#=#v%H%e@J=!@u$V#y%K@<%m#T)<%J'_%E$C%l#g#`;P#g#|#{%I$U#_#y%a'w#[&I@U@%%p#b$L$K@E$X#!#K%Y#I$B#N%E$e%f#$%V#&#'&x$a#$$l$2#;$`#h$^%&#b$&#_#B9U{[#T)3$>~e*1{l#(3|#i#F#S%T$N{.@~@~@V];@_#,#]#q<M@_#x$9%|#^'W!6@;=[*h$O;1{x#b#p#i#&#L=+>8#h@B#A@p#P#)>U;}#h@h@x$e@h@'>i@q#v#+$;@3#b@1@k@.@)@B]c@S,m~y#[)>%F#g#s#%%w$o%^,-@4@Y$u>[*k$Y$G$#%|#a#h$K%j%';C;",
"v&h$9%q#d$e$B@e@,*b$2#d%o){:f^])F%%;s#y%k%~%+&c@-${$d,_,_$g/6(_@-$*@G@h@]@1@;@_#h@;$p@2#g#y%U#L@}#4@c@V@t@9-W!m)g@ ]5*c~,*q#N;l#y%|#E'o#'#=*v$u#j-,#&#|#G$V#}#=#2#I$[&V%B#A@s#K@h@8#w#I$$#w$i%&#G#>$L=S@;$-@E$V#]#g#e#r%K;g%^%Y$D%|#L$}#m#O#V#'#m$I@i#3*w@'#>$U;U#U#i@L$V@%%=#g$.;i_%%k$p#{%{%v$-%h$c%:&@#]#h$+;e#l$j$$$[%')a@x@A{/%g#}'2#!#1*K@!~I$p#&#]#g#,#:%~&!#8#!#$$y%'#j$7'_#p#m$ ,e%:>2#s#K%|#b# &/%y%J@h$U#j$v%0$ ,{%9%f-w%D%]#j%T$s%Z@=#Q%3&h$>_U$s#|#]#-@m#i$m~Y+2$$@k#I#($W!]@a@6#!]Y@K@-@T@&@J#q#&@*@8#N@!>5#>@4@g@~>h@L^5>k@B'g@=@g@#@_$ka[*<%_#8#K;K$ &f$L=e@B#J$E$ &[%D%e*g%s#K@O%2#m#;$e#I$w(e@u# %L$S$&#D#v$!#s#P#^*K@}#U$w#&#b$&#3*D$k$,><%s#B#^*=%S$H#T$b$0#s#v%b$k$^%)#E=9-$#k@')!*T$d$b#$%`#+#j@p_,#l#p#%%j$=#c$g$}#]#!#!#%#f>{%2#^%_#]#$%,#U#j%_#%$z%s#p#^%&#L=9*9%K@'#H@e*e#y#3*{;,#w$I$D%t@g#g#j#2#3%=#/&{%0*3#i@7(M@2#D%&#$$[&s~h__@Y+v:e@K@5%1%t@j#p#e$y%C=6#D/'>B~I@2# ,N@3&^#`#$${%H$}^s@g@1=U=|#^#q#j#I@{;@$b#.$p#B#U#g#i@4%E$K@w#~#5%&>h@3&p_C'L@e@^#e@Z@B#&@g@h@A@|@x@1@S,),e@A,P%J$8^%%D%j%W'e=L@_@q#4#F#y%g$j$=&g#%%E$3%p#,;C;",
" *!%w#laE$M@8*K$7%I%!%M%<)_@u>w{+&E%T$7$E$L=w#W!^#a#q,}:1@u~Z//#J@1@m#3#K#I@w@W!'#y#-@-@&@K@ %}$_&g%U#p9R_{@y#M^o'G:b%6%>$:&g#q#h@V@I@ &f#l#l# ,&#8%S@$$>&|#!%q#`#s#Y$;&,#h$M)[%(@$$ &w#A@0#H%'#S;>$w#0'|#!#]#i@D$e#g#L$E${$r%}#V#i#F#g#g~_#*$^%m#,*G$D%y%j%e@y%2#_#d>K@K@U;%#N% $'#{%|#>#x#L${% &B#s#9%y%j#_#L=I@g~l#{%`~c=L@6@D,l$[&'#D#L$w$j% %j%%$M@L=b#8%I$m$n#n%t@|#H$S$h$h-)&o#!#&#p#X+'#0#U#u$v${#l$L$f$g%m%d>:%j$ ,]#:%a#s#s#e@/%g-h$]~$$w$/%g$7%2#9'!#p@a'E$8)s~)@8@T#=<manaoapaS/>aqaV!`:rasa.1S8W*tauaG*R&vawaY*Y&xan9O* *W*yam&Q&A&@@8@'>6~(#!#/%I$!#Q_p#t<!#[&!#2#=%/%|#L$!#p#w%b$[&!*v% &[&v$x${%k'~%T$K@x$<&e$w#'#&#'#!#2#D%|#a#m#4%!#V@V#5%T$a#t@l$E$0#)$&%}#!#I@f@i#=#>:E$%)l)-$&>N%>:w#_#!@I@p_/%}#}#D%S@=%'#/%<%-@!~g#D%T;a'|#b$a#T$C%U#i#/%[&&#$$U#e*e@Y%D%i#y%7%U#9'v$/#0$$$ &!#I$[&g#C_|#G#*;b#w$2%s# #|#T$w#1*`#y%_*+$7@%$|#w# &_-B'2$a@q_O;,#s%m#s#,#U#K@Z;/,$#h#k@v:w#e$t@U$/*M@I$f#P#e@[,6@a@L,z$9'p%m#{%e@]#y%g#}#3#V@G#@#-@Z@&#V%i@h@;>3&I@i%0''>g%M#V$k~!@&@W!~>&@5>Z+f@c-,,R_U#9)l^L%v$o%Y;K>]#e,:&*$d%f#g$y#za3%G$>*p#<%b%D%!*j,",
"p&H=%%Z$;$ &Q$/%-@F$4*P@s~Z@m@C)=_C$o#E$v%f$}#f#J@C~;,;=L#'@b@m@*#L@k@k<@#&@t@h@C'c@~#!@L@6#R#!@Q%|#V>%'R;c@]$q#q$%(N;f#K@l#I@$%m#0',*B#w#9*!#g#B#;$h$@$)$_#$$5%@#@#G$|#>$v$y%D%n%|#!#C%v%'#V#E$,#v%`#^#x#I$!#L=5%&@$$T$W$F#d$!#|#h-F'e%y#E$&#e@W%G$o#T$!# ,_#i#5%p%_#s#]#m#,#I$v%K%-@i#<&&#j$B#!*^*U$]#=# %O% &E=M@]%/%1@0^o'c@)@8=|%:%V@F#C%`#h$|#i#|#I$E$_#o#}#a#u#{%m#m# %s#U;`#f#&#s#v%!~Y$s#I$!#F#l#`#}#D%w$K%|#/%i#,#Z@a#*%~#P#W%J@D%0'P#K$T$K;:%(&|#V#w$E$s#>#_,b@=@[#5*z(q@M^4)AaR@&@r@Ba($1#g@2@C@3$f#,@`+[#Z+o{s)6/l@@@@@y]:#,@b@9{7@C%$#*#l@},U$m#B9V#0$S@*$`#C_P# %^%k$y#X@_#|#m$w$!#7@P@ &g$b$s#S%!@e$J@p#s#g#!#i#0#v%7@g#2%s#7'e%j$ $d%s#_@}#|#*& ,,*7@i@$$Cam#i#e$:%T$`@0$b$U,_@Y+n)G<!#&#c%/%k$T$|#w#]~M$r%2#.;K@e@D@+;F#g#l#3#<%F#:%g#w#a#g$-@w#l#:%G$P#-# $P#]~9'd$K@Z@e$S%w@W>+#g#!#^*c%W>:&m#`#h@3%w#a#S%3#q@w%h$p#_#!#F#/%Z@b$o#!%v{t@2$x@E^Q'H%b$P@V#H%&#r%=#C)M#w@J#x%>#'#+$p#{%S@u$H;9%i#8= #K#l{Da%# &w#h$V#n#B#h$K@m#5%-@K;*$L$f#D@%#*$l@n#Y$f@f^J#c@t#c@_#e@(('#b#^#o'Z+@>8#n=<,s#_-@%h$K@e$7%w$W$4^f#A@9{`#>*f#g#0$h-/%s#!*.;O%K$j,",
"i{<%4%]*!#S%9%s%R$s%W'4%B{%>O;K{Q=w$c%)*N$a#&#+#&@T)]^2,_@ ]`+1@;@k@*$f@$#$$!@N@~#N;Z@U;&#&#f@h@ &U$T{C=(#m@q@S@i&i#U$^#|#V@{%u<2#K@g#}#V#!~S%t@H%t@[&i#p%{%V@n#_@S@D%`#x$o#'#d%l#%>c%-@Eal#>#V@T$k'g#w#Z@Y$}#!#0#H;,#`#~%f#y%s#L$j$5%P$a#_#^%l#h$s#g#(%P#l#,#=#U$i%:%.;V>H%g~w#w$^*2#m$L$_#'#U#g#&#w$&@~%Z@@#V~<&y%P#u>g#l$r'n)%]7-k#j$}#e$L=L=v% ,!#>$X;'#8%'&,%x#r%f>s#g#c@}#c$V@U#[&I@+&v$t<h-w#e#F#%%:%I$Q<A~=#{#9%]#w@y%g#_*h$l$e#K@g%'#w$K@j$L$=%c$m#K@l#/&G>I,{]_$G@b=Fai# %r%|$I$K@l#g$p%;&7@p#|:p#U#V#3#b$8#m$/%[&u$H%S%p%r%w$%%e@h$S%H^l3l()@7]m#P@@#M@D%g$e$'#h$i#L=2#f$!%}#d%!#l#$$'#C$m$h$%%p#!#3#I@b#=#_*)*]#|#e#V%^*)$j%E$I@{%g%L$g%M$E$Y%F#s#]#c$*,'#s#_%p#D%s#X#S%N$<&'_F,}^_$ #Ga+#w#U#~%j$&#3&Ha[&U#2#L'}#[%I@b$J=y#!&o#y#k$ &!#I$K@!#/%3#w#Q_=%V@|#,#h$&@w$}#:%.;'#|#v$p#I@K@|#x$F#$%v$!#&#i@G$H%j$/%g~7@w#u$-@L$;&2#C%!#p#/%F#7@ %5$&$O@[#I:[&N%w$s#I@d$l#T$=#s~B#_$W!X(!#g_|#u$Q'J$A@y%K%j$M{J@k@q,f%5%U$-@y#&#S%]#!#}#'&2#a$B#v%g#*$e@6#q#;$e@3#l#+$y#m#2$i#V@A@^*4(k#w@$#$@P~b@=)e8<&A,e-U=g#j%w$G>c>R,Ia$@M%G#h$l$R=)$x$S${&}#1%v$F=f0",
"x/=&!#5%g$`$g$c%*&)_h$%%y)-#6@u{X;K$^{j$h$0$D$!@~#w#d,K,)@$#^#W!-$b_@_$@+#h@k#2#E$`_@$V#.{~#2#W>{%K@JaA<5>b{#>ua$%B9=#&#A@g%,%y#G#b$V@K@-#c@l#~#r%v/I@E$k@d$p#&#K@~#L=.;g#B#/%P#I@g$@#&#f-K@e@5%S%g%*;I@L$'#g#$%i@*%K@$$%>k$w#i%g#t#P#M@v$-@x$2#w#w%`#|%V@G$2#D%K@%>`#$%L$u$@#g#0#;>;&|*i@I@i@0$T)g%h-/%&#U;]#p#D%!#!#w$o$7@]<Q)C=#{k,M@1~V@e#_#H$P#,#z%I$`;]#!#T$C_5%a#7$o#j%L$b$U$Q%]#8#2#'#T$B#J'2#S9x$&#!*~&a#{% %V#M'g%D%/%D%s%Z@-@m$g-%$E$K@G$!#y#.;[&%$^*B#t#~,9{$@@@KaU#s#g%<&m#G$!#M>X%La>&j$K@m#b#D%&%Q$3&>&q(y$7(M@^*l$V#T$Y%>&j#E$&#4@d[W]_@A@i,_%V#r%*,Z@j%K@v%/%y$.{f#c%g#x#_%%%3%g$E%H%%%f#D%%%F#L$h-g$=#h$`#Q=&#`#s#]#7*!#b$!#7%!#l#a##%y#k$D$!#c$L=7>>&+%s%_#i@v%]# &6%2#4^/@^#Y'K)b~T$]#s#{;7@M@@#v$U#3_K@A@p#$%_#I$/%#%U#/%(%T$r%~*T$/%n33%I$w$e#|#I@I$C_]#q#k$1{%%S@<%h%g%^*i@k$x$,%v%:%_#v$I@>#7%/%V$P#r%a'V@r%]#=#@{{%Y$8%s#w$s%e@v{%>[#*@M:B@i#C%V#s#v$h$/%5%D,*$T);#<~h@E=H%i9e#!@!#]#f-*%;,x@O'_-[%F#{%h@[_+&&#-@Y$Z@V%V@f#_#B@y#]#.;-@Z@7@L=;$x#J@p@3#+$i#_#c@J@u#J@/@-@=@k@i'-,<,y#q,5{T$l$s#T$v%s%r{6#T)&#s#a#y%+&d%B@g%Q$p#V%P@[*j,",
"!a3&e$[*i#h$/%M=v$w$/;5*B{ $Z/8)T'+&w$[{0$Q'V#9{J@V$q,k,h@*#x@t@'@v@1*A@!@Y+&>Z(E$w#Y$$$w#I@A@+$S%Ma1@<@c@1)Na/(p#B#_#I$!@s#4@B#K@s#0#d@B#%%}$x$,*@#!#B#-#>&e@3#K~U$;@3&b$7@u$k$~;j$~%2#'#$%U$e@+;w$_#>#,#g%u$I@`#**$$b$I@9%[&|#x#r%p#r%v%0#E$g#<&_# $j$l#b#B@]#/%]#'#=%L$c'i@i@V# $K@'#w#(&&#h_/%d$0#b$9%T$&#S%/%w$_#p#/%^*b'U$ #W!$)(#h$i@R8a'5%[&K%g$<%l$U#}#a#!#|#r%>$e@w%`#!#{%v%v%p#C_b$,#7@j$o# &y%{%p#J@S$w$h-c%u$!#8#K@L=5%K@i@c%U#&@V@D$,%;$y$I@6>4%'#d~6'1@c@$@~@Oa*%,*=#w$&#s#*%_#T%{%>#r%>_E$-#$%D$V#+$K@s#|#5%g%<%Y$]#|#Y$B#!#k$P#L$c~8@p@[# ]v^!#i#e$D%Q_w$j%L$L$y% %T$+&F#G$3#L$S@g%l#!# &*&s#m$W%>&J=$%9*7$T$y%}#7@i#K@[&}#h$2#[% ,&#x$}#+$<%m#<%l#!#w#E$0$&#j$U;g-}%k$4^Q@L@h#Paf@s#U#g#I@x$g$I@l#g#:%-#f@!#y%U$q#b$l#a#8%=&5%C$7>F#|#`#-%'#k'w#S%f#U0D#|#B9e#B@E'F$f#p#e@!#m#{;g$C%B#h$7$>&!@]#e$7%T$b$F#g%m#I@p#:%i@8%I$I@:&f#g$U;e@%)6#x@o{Qag-%%p#]#i@v$y%,#m$j)p@)@[#A&}#7@8%&#$$s#v/s#j$Q'&);@#@*-f/J@S%I@t@s#i@>$Y%K%p#M@*$%>o#<&y%3&I@$$(%B#i#l#*$h#c#V%}#K@Y$'#p@_@8#<@<@@>c@t,r,w#4-D$K$_*O%B%l$H$0,J#q]%#e#y$}%=*G$d%3%M@b$]#_*x%p>",
"Ra'#M'O%b% %a#s#}#k%*$|#3=d/&>9).,1>D%Q$ ,e$x$e@D@O;,,7,|@G@Q{J@Y+c{h@k@&@A@i_-@%>&$@#m#{%Z@y$j$%#I,5>@@k@5%Z>x$[&!@P#L=3%3&+$E$h$ $'# %t@.;3& ,^*t@h$3#'#e$J@}#-@d$U;v%h@e@i@,#h$v%1*g$U#m#g#^*]#E'+$i#9%m$P#m#G$/%g#p#2#p#|#4%I$[&]#I@I@y#B#P#L$L$D%D%M@^%P#E=L=7@a#@#t<s#]#c%w$=#|#|#h$0#c%~#r%k'e$g#C$T$n#P#l# &l$q#->`#K@s/r#h#h@}:]#%%S%8%U#i#'&!#J>'#s# %g%7'!#s#m#e*'#9%h$x(g#b*I$:%2#L$j@g#e$%$K@|#'#F$}#U$D%2#u%v$E$/%r%'*<#T$^*v$L$F#P#J'7@{%&#v%D%e$x@l{b@Q)K,>!&#d>*%E$s#=#$%+&V@e$:%s#>&u$%%_%7@+;K$e$W$P@x$_#3#T${#k$K@g%e$2#]#V#U#+$.~^@s@6@~'k$=#h%s%%$w$+;}#%#W$o#L$V@2#g%|#K@V#e$e#]#i@L$*$h$4%[%S%u$|#{#2#!#B@Z@S@]~j$`;j$L$D%,#|#g$p#~%@#=%w%=#I$v%x$p#w~K@g%=*m$S{;=*#h@8)OaF#I@b$w#s#]#V@S@k$e%j$o#~*2#|#}#n'_#x#&#y%.;U;1* #_#]#h$J= &E$w$*&h-Q'w#T$j%U$M$S%T$`#~#i#e@g%i#U#m#T;b$-@ %E$2#SaL$/%5%7%g#w$v$B#h$$%!#p#U#2#7'B@=#&#$)6#_$a@X=I$I@p#/%i#a#c%7%!@;,$#(>q@I=U;y%~*)$S%!#V$0#g#L$,,Y@`{_-M:I@w$9'{$g#g#m#L$K@3#+$m#A^9%J#w@e@$$&#Z@o#w$;$x@|#-@*$8#Z@L#G#_#J'o' ]_@g)%>,,c=s#v)F[D$b$+&N$L$M$0,(#V@d*L$%%P@*%f$<%l$3*|#.%2#Taj,",
"x*b7-&^&>$/%y#=*a#k$0#'&/)*$M#K{U=]#j%~%)&=#0#q#t@f#;,,,c@%@Z+h#A@*__@3#1@Z+o]C_9'k@-#[&i@Z@i#E$s,u~(%C)])w]*$.{I@{#$$j-m#w#H%&#P#u$s#s#D%*$!#D$ &&%2#U#}$5%6#0#>$U#U#i%T$F$I$#$=# &E$U#]#g#4*-#e#e@}#T$q#L$L$<%T$S%g%e@l#{%L$g$U#F#[&}#<%V%E$]#}#h$o#e$p#]#y%+$L=h$ %l#I$]*i#D%4%*%|#s#D%+;%%p#x$!%~##%c%i@l$%$d%g$k#D%}#~%H%_#;>~@d-b@B{d$P@!#m#]#r%_#g~g$=#D$&#c% %I$b$s#Z@|#L$i#h$+>l#V#|#]#V#K@b$p#+;}#0$!~L$u#F#h-F#Q$m#~%!#v%H%V#e$b$I@Q%*;l$|#W%!*I$|#)$~^x@A@)#a%&#d%]@J@/%}# #B@ %|#>_}#D%I@ %j#s>*%&#[&`#<%w#T$P#!#j$M@e#<&&#s#g-|#j%G#V#s#Uah@x@ ]I,o%T$M$g%_#y%i#T$s%1**%}#p#t>/%p#L$!#j$k$T$|#o$|#Q'>&*$S%p#l#Y+D%v%f@q#o#T$*%D#G$'#}#|$%$/%2#W%'#K@r%c'L=g#w$v%s#G%x$1*Vab@;@C=WaZ@W%[&*% ,|#&@f$L=i@&#`#V#'#]#c$e$B# &'#p#w#b#g$I@m#k$Z@y$J'S%T$e@B#c%/%=#l#M@|@!@y%Ea6@>&|#,#m_c%k$ &j%c$_*M_=#e@P#I@I@D$i@!#%%_#7'}#o#e$d$I@*$s#T$^%i@`'s@-$c{D:$@s#e@d*p#[&N;&#}#T{s@x@W!G_B#7@L$1{4#E$k$0#p#|#Xaj@J#6')*H;B@K%i#n#L$~#Y@2#]#&@]#{*V@6_o#x@^#I@w#$%|#_@b@o#p#<#k@{$W!;@f@L'k@[#~@${%,t^t,U$^)[*s#Y%=&X;u$P@5'f#1@|#d*P%S%/%e$w$%%a#P#-%f#-&+~",
"e()$;$*&/%v$e$*&P#/%e$L$K,$@&@e=@%x$e$f%s%h$E$B'8@;$8-w,-$h#6@-$8#_$>#A@(#~#[#2#U@>$5%5%i#>#J#!*n,d@q@@#[_<&=#&>m$o#$$H@c$`# &9'&#s#}#&#1{h@e$3#e@j$p#U$K@i@]#V@V@w~@_M;0>I@#$&#8#B#h%|#5%|#%%j@j$h$,#{;3#f#+;Z@T$!#f{I$1*v% %~%h-h$a#]#e@I=T$ %v$I@&#+;0*2%k@B#[&s%]#*&e@2#&#[&x$/%w$^%i@.;y#K@ %<&g$g#~%T;T$i%w(v$p#p#/%S%'#Y%YaA'9{5#'^2*K@9*2#j%`#!#M$&#s#Y$J=g#T$m$v%E$B@v$k_*$v%V#'#g$&>k$!#g#B#,%W>K@p#E$%%@{H$e%e$ &>$t@V@J=`#~%]#7's%9%d%~%s#/%'#+&}%w{<)c@3$/)Za2#W$:&E$h$D%.;k$a#Q<}#k$r%o#U$ &g%G$!#}#g$U#h$!#l#_*K@s#C__# &d$[&D%>&V#a#i@_~`a=>2$~^q#d%|#l#!%h$d%I$1* %*%G$h$p#g#h$i@<&>$s#>&2#B@=&N;j$l$w$l$K@ &h-#$>&H%p#P#Q%.;h%d$'&/%x$2#|#K%!%}#R#D%f#U;h$%$k$=#{%H]K,u~T)X@%*p#T$7@~#I$j$+&h@s#K@V#w@s#q#:%T$_%'#_#~%s#g#|#P@!#s#g#!@M@I@m#&#F#t<I$d$e@M$i#v$k$=#i#K$v%I$$%u%S%l#B@i#F#0$=#I@I@f%!*o#f@+&K@{%E$!%L$:%$$V#{%H%}#P@w$*&l,A@5#2$d[d*H%)$'#-@+;M=r$g%G,J@~>9{Q>_#T$e$}#F#/%j$9%o#_*V,Y+k~C=N$L'V#F#b#_#i#@#E$7'(%d#&#L$x$@#6#I@|#e@D$-@5%'#I@&#&@)#i#b#;@L;J@V@6#T#$#*@*#{^u=e@}= >D$F$e$w$p#X%8=6#s@f#w# %E$s%K%b$<*r%<*L$}*7*C;",
"W:)$S%F$+&E%-%#%H%Z@K$J$A'm@n@^@f%_*9%!%!*!#&#V@X@o#q,~,@>h@u~3#Y+q#z@~>Z+8%&#y]w#5#h'x$A@k$d@'>k]9#=@)@4<u~>$|#o#%$L$f#0#S%w#:%s#l#I@/%!@U#>&I$w$b#,#}#*$M@;@V@T$J@}#D%H%e$h$>$'&2#o#^#u$w$s#f@v%b$L$e#j$h$w@E$y$K@v${%/%U@a**%]#{% ,i@$#!#I@w$E$*$!#[%]#U#L'.;f$s#.;l#/%s#p#T$x$&#:%u$&#I@g#v%`;[&t<y%L$S;w$R=w#V$w$e#%%k'l#H%z@k&d-#]((!,M$U$D$q#*&|#V$3%U;J=L$p#{;D%}#U;D$!%|#g$D%u# &T$'#p#p#v%g#h$i#V#{%g#e@S%M@U#}#L$K@+$O%U$a#w@x$v%f#u#h%C$g$#$v$g#F$,,a@[#*@H*^#&#*%+;V>[%T%y%w$g#1{g~<%M_g#w#e#s%+$r%V#s#x$`#~#7@S@M@`#H%B#u$p#'#M$'#o#!#e#=@W$1@[#x@ bI~'&j-*$/$s#y%k$0#>&v$K@^*g$+&/%s#M$V@+/b*k$d$5%]#w$Y$w$w#9%p#+&<> ,P#`#!*U#]#{%v$$$D%w$E$%&b#*%V$=#>&U#Q'w#'#s#6$J,Y@m@z=.b!@b$]#7%w$!~H%{*F#[&%;e*`#!%m$n#[&V#>&8#9%g%V#_#>&[&T$p#K@@$|#7@I$K@M@p#*&*$H%-@]#!#&%/%^*j#:&/;<%s%w$U<*&i%c%;@B#f$c$d~%%|#!%j$!@g$P#=&`#!#D%0#&#!#w#j$I@|/{$$#^@#;x(5%7%!@*%l#e#y'y%3=B'T#-/g8!#q#l#e@&#+$K@%$*$V#m,T@x@k,H(-%F$2_}#=#&@{%~#L$m$6%*$*$7'W!m#]#n#!~i%I@@$e@&#8%;$$$_#W@J#(#x$@#W!h@_$(#1@',8-m#}=>;6*$&v%c%k$K$k,5%A(e@~%L$X%1%$%b%v$g*!%f$s#W$j,",
"G_9%}#G$!%D$k%E%}#r$]#e$3=|@T)I)1~Y$D$=*s#L$a#{:d#]#e,d,*#x@d@h@g@x{f#h@@#j@%>%]f@B#T$f#F#o#c'#]-/y]n@ )F:P'v${%'#Y$B#Z@.;y@&@>$&#i#p#U#y%|#:%_#$$]#&#2%L=I@;$c']#W>+bI$p#*$Z@F#t$$%1{I$g#{%f#g#d@4%m$ %I@c@!%2#c$U$I@>#X@-%b$/%5%D%{%`#p#g%=#V#L$|#L${%g~,*'&]%U;W>D%7@^#U$K@u$`#e#/%U;9%p#x$ %e$K@^*T$u$!#'#y#l#[>]#%$$%Y$<%p#>$<*r@-$W!3=3$Z@S@0'V#k$4%s#7@h$e*p%T$_#p#r%h-i%`#V#L$&#j-/%K%g#c%@$m#y%w$Q'M@3&F#u$'*>&d$>&e$j%i#}#H%!@r%a#'&E$E$=&!#E$|#%/%@/)*$u~T#A;v%}#!#)$r%!~_#l$<%U#&#I@P#,>s#`;c$c%b$h$v%h-H@V#e$!@i#U#U#+;U#D%g$,#U$L$b$[%I@|%i>@b)@v'K,F/H$[*^%|#E%K@G$p#V$J@e*G$/%I@K@_%i#x$H%h$_#0#U#<%V#p#~#Y%a#x$.;q#g-'#0$/%E$]#h-s#E$h%L$s#u$0>#%+$P#`#!@`#f-h-j$),$@%,9{;%U;a#h$U$!#b# &}#!@g%|#S$_#M$a#*$L$v<1*:%L$9%^%I@T$g%s# ,L$E$s#e$K@v%I@!#y#Q$I@7@V@v%`$i#G$s#s#}#_#y#d*m$ &I$l#b$)$K@9%k$'#s%+>[*l#g%q#S@U#}#K@f%B#}#l#]#&#'#a][#w@~@X(K@E$;&3*s#7'M@ %-@8),#9#%,/9|@<#q#Y$$$q#V@f#>$a@w,a@:/L,e*i#d$g#{*9%S@K@s%T$w#7@d@%#:&%$X@y%f#[&o#_#q#3&B#;@3#c@>#e@f@!@b@$#h0g/^#$@+@[,8=p_Y'[*P#^*!*N=S%J$''W!1@'#3#+&c$>*g$o#2#g~9%T$:%)*C;",
"7&i#y%/%e#f$g$*;P#y%h$<%K,!@|@D,i>M$)$p#j$D%&#f@f^g#L,I,${)@n@e@m@4@A@J@$#L'h@i#V$&@2#J@g$m#e@8,x@($+$o{4#y%a#w##%+$J''#j%t>U#L=:%|#i#}#F$V#g#j$*$B#I@L'T$]#8%1{I@/#_#3% %{%p#1*.;N@e@2#-@Y$`#M@d$!#'#`#'#y%!@w$U$m$p#&#8*e@g~j$'#U$Z@L$b#X@I@V@:*h$^%Z@2(i%->s#V#L$*$S@M@+$C$.;-@U$J$>#v%`#w(K@0#|#5%K@V#d>K@7@&#s#j$7@s%L;9%^% &h'#bx=x@m@r,'*P@7>y%M@p#_%1{c%i#8%!*&# %h$3*&#w$V@g~-@^%E$2#;&%$g%,#'#w~I$!#5%b$y%p#g$=#v%M_m#^%~&]#}#T$O%/%v$j$v$E$T$E$ &q,b@z],@o&w#&%g#E$j%j%U$!#|#}#I@f$p#h$e$v%U$3*g$p#g#M=U;D%|#d$b%l#g#U#z~^*/%Q%b$T$_#p#}#g$0$-#K)6#@>w@',B>_%e$~%J@p#g$v%w$!#P#>#v%Y$V#~%;$j#E$l#!%E$s#{(x#U#)$/%T$g$k$D%%%{* &}#H%D%U$Y$';e'+$!#E$v$d%f$s#>& %J@*&J@U#T{d/5>6=v&P@w(y%^#v$B@V#p%m#I@_#>&[&}#v%o#e$9%{%_%g#C%>$D$4@0#]#t@|#3#c6|#1{;$v%y%/%&#:&U${%|#+&|#g#y%:%W$]#s#&#Z(I;g-!#V%L$p#^*+&S%]#&%a#!#^*L$w$0#h$w$]#*&;>!#}#g#p#x)>$%]5$$b!%c%b%0#U#C%m$<%a#H)=@:/-$0,5'{'m,~^t0~,-^%bw,w,%:q{:@''/{,*7@>$M#I@-@5%H@w#x#-@.( &3&e@s#I@,#-@}$K@w#_#-@i#L'*;m#J@H@_#y]!]c@>$5#($'>x,-^ ,}=0%A~I@g$x%w$>&;=W!{]{;g#>&r%:&<*C$-%*%:%j%!%K$j,",
">ae@X%!#~%^%i#Q$d*L$d%W$6)&@3$=]&bg$Y$K$[*9%v$^#8#5%w,8-(>W!Y@k@5>$@{#s@$${%V@U@w#I;h%2#c' %H%%'h#]@q@=;9#J@:*M$0#t@|#[&D%%>L$h@|#>#0#_#2#.;p#/#7(w$i@L$&@e@K@;$I@X#v$x$B#+;c$9%U#|#V#e@F#N~/;f#I@H$h$`;L$|#2#!#D% &v$p#{%f$w$Z@B#r%!#]#!#]#V#]#3#&#K@d>2#l#T$&@w(p#7$k#'#S%i#v%&%K@c@[&M@m$I@;$>*:%w$a#P#4#s#B#>%p_w@*%b$}# %B#!#u$e6T)$#9@#>@)O$!@H$Y$B#u$!#d$2#E$r%G'$%-@3#f$^%v%E$$%Y$y%/%!~f{T$%%j%y#U#~%@#]#i_}#3%t<J'b$u%f$!%}#S$p#}#P#L$T$P#i@>$';H)$)$#.(%>2#*%l#3%=#I@s>g-s#B@K@B#/%p#k>{%j$w$^%D#r%V@h$F#n$p% %K@l#}#B#9%E%I$(%{% %h$v%M$K@L$v%y$Q)M#l@`=N{g% &)*b#b$7@|#h$w$s#e$<%K@S$M_<*y%a$a#b$b$y$ ,H;D$h$ ,w$U#[%^*e**%S$u$j$p#{#_#g#p#-@s#&#K@j%I$c%s#(&P#1*l$8-b@[#2$*bN#>$M@g#+&B#8*v%{%N%|#m$S%;&=#2#v$!@`;V#0#V#H@p#B#%%D@S@u>P$g${$9%w$5%g%:%9%e@J@f#';}#L$b$p_i%Q%s#&#,#D#]#}#b#d${%u'I^T$D%a#}#g#}#L$e@C>Y@g$&@T==%{* %V@|#F#]#r=~#c-x@L&|#p#;$2#|#_#-@7%a#H~1@^#a@*@T@x@x@v@5#$#A@_@c@*#(>x@h#_-K)Q%N%]#J=1@y%O;D%s#L$/%x_{;I$L$ &c%2#%%x#i%f@$$I$-@J@J@%>$$w@+$U#q#u>y#e@u#^#{^J,6(8)5*+;g$<*K=&##~7,-@i@w#*;)*0$!#4*8*/%y#f$O%]#%%O)",
"><'##$s%W>u$%%v%0$x%_*!#])h#q]g>+:`$2#~%F#g$G[s@>$n#;'3,Z+z@O'_@X@_$c'h#Z+.;g#4#w#|#Y+~*~#V#*$f,Y+_$h#7&s#$#l#&#9%l#I$&#$#w#Z@4@L'h-i#w#~*,#B#K%}#>$y%L$}#&#o#g~-#3#e@p#y%j%7@m#E$i#@_>$ ,&#_# %3#f#}#b#*$}#Y$`#U$g$,#]#F#M$T$=#w#g#i#|#E$p#}#|#i#g#E$>(-@#$a#I@;@K@c%E$(&p#}#+$K@,*D@%%}#B#Q_^*u#U#)$a'h$v%s#E$I$-@p#|# ,D%d%>$Y$!#_#,{v^L#Z/7,L$|#l#s#$$&%g#p#V%t%V@4%U$x(I$2#L=7'~%'#|#g#{#K@P#i#(%1%{%p#!#D%l${%B#g#U#/%i#`;|#|#j%L=s##%L$g#|#E$g$p#,#+a5#x@z;Ka:%p#p#+&e@D%H%=#s%!%g#T$A@I$]#%%&#V@!#^*P#g$7',*$$!#|#w$T$h$w#|#h-T$w%_*1{!#s#_%<%~*'#|#Ra`^h@*#m,p9_#&#Z@,#e#b#%>b$7@/%g%L$h$,#E$0>-% $s#=*g#s#h-&#D%y%!#V#*$p#]#;&a#%$Z@U$z%y#g#I@k$L$H%*&s#>$b7K%g%m_e-y{+'5/T)k)+:g~H%i#,*B#!%h@*&I$p#V%=%i@`#!#+,g%!#,#L$U#P#!*+$!@}#c$|#S$f@p#H%B#i#p#H%F#e$K@|#o#4@I@-%D%2#g#I@T%U#g@$&c%S%0#p#V#I@W$&@!#D#*&l#'#w#_#p#y%-@%$T$L$y#c%,*D%{#!#8)^#T@`+-*V$P@|#P# ,~&J@ha-#.)J#9{>#A@1@p@4@Z@!@_#f^M#7#[#{]L@_@''%/k$f#k#q# &J@>#S%!@=#.#k#x#C%i#>$K@'#!@}#@#p#-@w@!@O;%#L'5%c@O;h@_@B#6$-$]@A@~^_,W@X'i-[*:%k$E97>_*h,h#@#5%*&e$D$x$W$a#E$~%_* %4%)$/>",
"=bL$c$Ias%g$>*:%K%=%!#=%I,(#%>l)1~y$@#L$#%U$m$-@-$p#/,V,/@w@q{_$!@m@5#-@w@q@1_Z@`@@_.#L$T$U#M@|,m@[#{@[~&#'#7'A(D%,#y#y#2#b#|#&#4%~#f@E$!#l#|%m#_#{%.;%$V#N@!#]#`#]#2#_# %c7_@p#@_$$!#{%P#K@Y$V@t@;$.{U@&@}#y#j%s%g#S@|#d$7(e*0#K@h$i#w#I@%$g$2#t%'$/&J@M@;@e#~%U#h$B@T$e#W>/%B#$$,*!@s#&%e@r%P#l#!#v%-&F# &g${%t@S$g%[% %e@c%U#v$b$u<-%J$$@<@ ]^,G>s#s#^:y%w$~%<%e$A%o#D%:%U#2#E$r%w#>%E$2#0'j#j#|#s$h@&#}#g%~*b$L$]#g%T$K@!#_;K@g$4%]#t>&#0$2%K@L$m$_*~,m>L@_@W<-bq%g#_#7%U;K@w#b$'#l$$%/%7>d$I@j$j$:%Z@#=,#{%x#p#x$/%`@b#H#c$g~'#L$!#c%*&0#[&-%|#K@P#P#]#F'U;x@]@($;,>*p#2%{%]#u$p#!@h$T$-@y%}#;$S@T$f$/%:% %i#F#p#s%f@F#!#0#w$}#7@Y$g#B#a#w#/%j#/%u$D%H$!#/%v$!*7>T$1{h$g~}:b@J9]);bL=r%c%x$W>]#p#a#|#R(<&Z@g%N$y%U;i#&#2#U#D$>&f#!#a'%$b$S$)$P%8*U#i#y#e%S@%&t@'#m#0#k$K@3% %|#{_s#d$+;&#m#%%6#=&/%2#>$K@w(E$C%P#L=]#c%m#y%k@|#->b$4%S;!*[&s#[&I@'#0~q{Y+o'D:/%|#]#y%q#s#C_3&=#4>8#h#X@c-`|>b,b @8@3@y)}={)T#'>${H#x,<~l#e@->I@6@}#|#e@,*K@w@J'n#5%.(h%U;$$I@h@l#2#Z@O##$%>,#e@e@(%h@6#L@!>h#6#W!W!4-l{^*}=K>K@w$+&2#H%!*8=c^6#%#7'9%]#'&,*=%2#j$T$F$b%@%f0",
"J<+#0$e$2#p#j%D$`$/%&#w$L,N_c@I{c~3*l$>&e$E$E$;@f#W>/,8-*#T#h@f^M#$%0'Y@f@f#b@1@]@4#s#-@c@-@I@&'_$a@g>&*h$&#y%l#_#0#_#v/V@2#S#i@w#B#&#e*s@[&i#y[!%A@w~e@i@C%3%h-Y%0'w#u$g-M$Q_s%>$I@N@l#L$w$g#d%L=g#T$&#8#!@[&t@&#r%]#v%%$'#|#V#I$e*B#'&v$p#q#g#=#/%L$Z(;$|#}#t@>#E$9%8#&#J@K@/%K$m#L$Y$2#P#g#2#&%L==%W>f{T$ %=#Y$*=}#V$y$!*2#|#3%!@f@D%R'K]c-W!&]5#'#2#r%:%!#9%c$y%T$9%3&7%%;U$U#s#/%l#w# %{;)$_%I@U#P#!#s#j${;Y$7@7'}#%>L$H%`#}#|#c%o#+$>*i#e$y%Q%*%0~;'Y+b@y)Q/y$|#/%P#:%h${#0$~#}#E$N$'#E$I$q#b'|#!~>*Z@H;{*3#m#w@7@P#B@g%f$s#W>%&'b|#i#5%)bu$_#7(s#2#s%]#[~R@C@&@/,&@p${%=#%&T$b$=#g$]#Q%[&C%y%%%=&S@L=i@7@^#!%m#v%0#B#N$-@I$0#U$L$p#Q_U#v%2#w$!#/%g#T$!@^%v$J@g%d$h$[%5'{]]@8#9% $y%g$V@ %0$!#I@ %D%P@!@]#!#e$v$;$2#=#;& &2#/%=%s#>&v%$%s#%#C_K@`;Z@N%Y+7>B#}#t<Z@F#h%^%%>V#i#o#o#{%J@|#U#-#I@X@g$f#y#!@!~~#e$2#g#Y$G>5%o#]#U#!#o#v%s#_#m#B#p#_#e@]-f@6@Z^%(w#j-$%w$D%>$;$f'V$3=J@l(R@ra//B~k^i{V(|&!bF=~b(0p~h@s(])@%V#2#t@-@$$^*&@J@U#I@K@$$<&U@B#{%U#_#y%U#_@&#$$i#3&r%6#x#%#.#g@h@L'z]L;9{j@-$!^8-%>{bV=!*w$w$h-!%e-%'-#Y+q#!#<*D$k%<%D$_%e#>&g$t$K$8$",
"X&7@I%1%3%F;g$w$|#V#c>e${^c@x@$)]%h$H%%%x$k$M%$@J9L$~,0,_$~@2$[#c@j#4#x@c$i@f#6@v@g(-@~#U#&#}#y,q#F@/,B%V#V#m$>&!#]#i@3&+$=#K@}#+%;&%$D%t@[(W>s#V@E$]#d@D% ,V@_#+$]bD$ %'&(#s@Q%/%{%-@2#i%m#|#.#,# ,g#2# ,2#V#>&3#m#U#g% ,,%9* &x#*%'&<#p%w$V#p#$%P@_#7@Y$K;B#.;`;y#&#H%=%&#j$p#&%}#K@;$L$s#L=F#e@]#2#K@G$:%y#N%+#/%C$B#0#{%v$s#d@t$e$l#h_s:<@5#y],,[%7%L=|#a#E=s%b$B@+$!#g%w#s#.{b$;$4%g$V#`#'#!#q@&%K@v%T$h$I@|#l#'#4%h$U#p#`#s#B#p#p#K@h$2#&%C%d$W9f,.)5/T#^bZ@P#y#|#g~I$h$E$P#:%U#}#^*T$**C%c%1{i%T$]#b$:_b#a#F#M@g$w$P#[&f%|#P#h@3% %]#L$Y$P#3%k$p#s#l#D$o#P%;@c'M#_,W'p#j-j%P#D@L$w#G# &u$w$[&g$3#>&1{<%[&.;&#j%L$J=]#g$/;^*U#/%^%]#K@@_+$&#J@*&w#Y$I@!#s#`;_#C$'#]#C%~^c-(#2)/bM$ %I$M@&#I$7@&#l#E$y%W%p#j'h$M@!@t%.{i#U#T$L${%+%,%>*4#k'P@:%@#w#'#s#U#g#,#i@e$i#0>1{!#_#s#S@/%B@1*D$X@I$3&l#]~~#6*!~K@e$b$i@}#]#m$l$*$`#m%g%U#i@c$S$U#g$W>'#X%C%C)u#A@-$a%*>[*2#}#o#_#v$h$E$n)c^[@[#w'r%]%O%v%(bi#:%`#&[{%A,J@m@c))[I@e$Z@'#t@i@/#w#H;_#_@{#a#(%%$s#e*e@~#0#;@y#&#'$*;h#c$!@Z@_#s#A@-@q#+$$@o'9{E]u,y@^'B~[*<>%%J=d$_bq,V@@#f#e@`;1%-@x$H%U;`;V#:&`##%j,",
"q&9%b$d>b$&b}#D$v%/%D%j%Q)M#[#e=e-H%o$>&~&j%*;q#h@V#_,a, ]-$h#|@Z@$@-$S;f@6%;@t@8#I(I;[&k~T$v%!,^#n)A'4'o#X@I@-@!@7'q#V@W% ,,*i#]#7'e$&#E$;$0#j@6#'#,#w(E$x$.#|#^:K@}#:%V@ %,#b$e$!#{$g#7@%>@#s#c^!#A@j-_@7@i#o#j$}#x$8%V#~#P#U#g%K@;&m#c%M@P$J@B#R$;$,#l$D#I(f@K@^%a#L$i#I@w#k$e@,#.;I$n#T$L$Q'E$m#<%m#o##%J$Y$d%2#C%*%P#y$y#V@S%I$M$w$<*P%v]r=_$)]P~7$7>g#j$[&w$b#2#V#-@:%+$u%!#1{l#s#T$e@M$&#v$h$_#T$T$S@d*p%u$,#N%I@:%=#{%g$I$C_Y+i#%$T$+;'&X%s% -I)I#((x@s#!#b$+&@{D$*&'&+&!#g~y#m$a#]#%$2#2%&#0#!~_#z(J=+;i#U;{%s#U#i#g#D%|#W>y#j$7@M_C$a#p#w$F#l$v%U$!#v%:b`'Y+|{o{_$**L$D$j$e@&#P#H_V#3%P#/%I@U#}#s#|#2#S$[&#% ,s#r%/%D%v%a#F$*&>#&#1%!@o#5%M@v$r%j$=%l#`#g#T$!@<b:)%]@@J#[b>@{%[&g#v%V#V#g$U#7*H%F$u$y%B9e$y%L$&#&%}#<%k$i#Q'i#A@/@4%4%.;S@I$K%D$F#F9r%_#I@S%i#B#e$'#|#V#U#0#!#J@3#]#t@>#K@U;!#|#v%Z@-#V@G09%Y$%%x$]#P#)$!#I@v%l#M@{%w#i@=#i#!*v)[#~@c{QaB#9%v%H%%$`#M@Z@.;r@B#(#/@]<>&0#%$V#5%M@d>!#V#x$k,(#g@_)K)G#2#7@%#5%A@f#>#_#9'B#I@&#>&T$T$A@U#o#k#.;Y+m#B]~#`#p#}#;$N@,>c@k@q#=>%,-/;@]^n,%#A,d^P#V#k$#%b$<*<)k@b@N;5%>*r%z$D$a#x%b#%#-&v%E$O)",
"}b^*h$j%]#u$G^{#l%L$*&N$3=n@k@L,I=j$P@V$v%o#6*#_A@)$/,G,/()@)@t@$@}$U$9{|@_#}$x@!:p@I@%#U#p#y#T,t@q{n)V~_#w$$@E$m#m#3#L#d$'#H%~#L$*$!#3#t@T$m#_#<*|#:%9'v$7'U;K~e#g%V@K@;@+;m#=%i@{%m#~#/%E''#^:3#U$c'F#&#w$S@p#(%&#7@l$%$-%'#0#Q%l#-@O;4%5%5%{%E$ ,`#k$V@U$i@L$.;P@5%g#U$y#:%>#_# &`#-@w#L$v%!*B#w~H%E%b#S%@#/#z~m#B@&@w((%M%:%0#L'5%r$K@m#V&r@n@h#*^k>2#*$E$E$p#-@:%B#{%(%h$L$^%Q'l#}#w#9*}#o#E$:%r%>$ &!%&%#&V#y#S%[*Z@$%g%!#I$y#8%]#p#3&v%&#U#s%9,_$C)|b-0a# %7'!@|#'#y%v%B#8*P#K@D$%%S$P@j% ,D#'#y[g- ,U7x$b$g#$%L$!%U#5%i#i%K@r%*&@{h$/%a'[&H%V$D%g$&#w$}$k$0^K#o'*]7^x_[&I$V$`@&#y#>&w#v#w#c%s%!#!#w~I$ %^*h$!@D$m#%%p#W$q#2#|# %$%|#:%m$U#y%!#[%f@b$|#k$f@|#]#h-3$S>)#y#A=Dar%~&f#:%!~V@!#]#c%m#T$3*_#P#%>e@p#x$i#&>b$0*G$V#7(8%^%>;{%!@ $U$[*(@t@M>L$-@h$y%5%1*p#U#a#L$]#l#]~D%=#$#v/-@V@D$L$&#}#S%u%U$U#Z@5%#&M@`#f$s#!@e#v%l#0# %n~e#[& ,&#s#A'A_<[h#l^w$U;g#5%<&v$s#S$1bU{L;[#q@|<^#l#L=$$t@ &<%<>i@O%(,m@$@R,E;l#h$I;c%B#>${%w$U#*;&#i#|#x#o#'#u#-@E$&#~#f@U#h$f#e@+#U#Y+_#h@->K~I;k@b@%@6@0,3,;aK{D$/$)&G$<*y$B~k:&>c@n@]#L$/%r%/%S%g$E$/%D$o#z$='",
"s&s#w$0$[*K$>%R=*&=#3*)&^,=#{$v{k{*%}#=%)$;$q#(#&#K@l,6'U]T#6/2$J@_#C'h#5>7'k#q@m#t@>$m#K#)>5%u,x@Y@=)W;T$3#w$j-i%/%+$'#j@`#i@L$*$I@*$!@]#4%L=|#L=l@>#{%w#i#P#W>8%~%B#i#!@l$5%U#v%F# &g#B(3# &^*[&%$a#{%g#|#s#v% %!@l#d%h$l#g%h$[(~#J@p%V#a#F#W%2#@#I@Y$7@_#w$}#g%3#M@o#9%e$o#[*i#D@D%j$B#8%E$s%%%C%=#2#0#g#D$e$}#>$V@S%K@|#:*.{/%]#g$`;+;~%G$I$9{Z/k~;'k$:%p#v$I$&#B@F$&#_#7%i@T$&#=#l#y%F#z%&#L%t>j$f{C$K@x$'#_#S;g#T$ %=#g$B@[&|#K@0#,%$%k$I$X$ 'A{$@$(M:5>D%6*;&1%d>^%a'_#1*1*'#s#I@4%j$L$w$~%a#M@T;B#w$f@-%e@}#6#B@h%}#s#I$i#/%g#y#s%p#9%U#h$S%M$K@%$~%r$y%T$>*v]-$($P~s,u%p#$%t@p#l#i@b#A@^*V@G$y%}#<%U;p#e*u$!#2#$$f>H@i#d%}#E$I@`#P$w#K@*;N%9*Q%w$:%g->&!&/%1*b#g5(#T@_$2b3&e$v%K@g#q#T;[*{%|#P@b#C%v%!#I$U$b$s#f#_%,#&#X02%w$`#X;%$:%[&w$3#|#K@M;U#$$V#L$b#h$s%g#s#e$}#=% ,M$2#L=e@&#V#j%!#%%K@v%B#j%p#h$H@4#{%9%;[e@>&U$f#%$*%$%o#m#x$g%**L=v$e,;$_@`+3bs#5%0#_#K@t@v$~#{%s~b{h@p@J^n#h@&#T$m#g$o#B#}#)9I,=>)@_-Z%5%m#%$ #<#&@o#U#J@U#;$k$g#p#m]V#!# %w#;$f@!:U$%#3#&#5#@#b@q]]@J@e@x@9{$@(#(#^,a,g%@)D:^%7* &j%P#V=/,$$W!j^!@e$!%b$a#K@K@<*P#[*l$!*O)",
"O&e$y%7%v%>&d%]#v%Y;l#F$I{&#B'O^c>g$w$g$3*D$c%^#4b:_6=t,8#j/:/5>-$$#)@T)_#w@f@u#V@t@^# $p#;@H$*'G#z@{^5b!#U$_#>$p#i%i#s#U#,#s#8%c$e%L$K@3&g%U#V@Z@F# &2#E$_#D$e@q#I@=%Z@$%D$3#g#*&I@7@L=&#V#j-!#0#5%e@&#$$i@d$!#y%s#K@ %{%a#V#2#=#>#i#B@>#I@w#L$1{|#p#e@s#g%m#V#%#j$A@E$X@I$0$1_e%h$/%T$$%L$!#o#^%o#2#g$5%h$i@p#I@g$_#_#I@V$t@L'M@-%7@~#d$%%%>x*p=)@.@B,&@d$|#}#m${*+$&#&#'#|#N$J@!#w$M$y#i#v%f#V#%&|#L=.;T$=#e$a#{%-@h$)$I$!#,#^%h-!#-@%%/%~#h$A@n=_@f@v)6bL$C$9%!#p%O%t@s#l$g#C$N%m#/;R$j%;$]#q$1{7'G#O$I$e#D%U#K;E$}# %J=$%6*V@M$g#s#i%L=b$j$%%'#K@9%h$|#/%B@K$V@g^Q)]@_@n,e${%{%~;b${%!%L$ &l#b$!#L$s%{(+;Z@P#j$l$*&|#g$F#y%j- &+$x$a'b$c%^*7@4@}#e$,>s#/%!@T$K@7bS>F@_$b@Y_0%w#|#T$X@|#U;b$I$E$w@`#g$+;H$e#X@D%G$l$!#D%m#w#h$e@Z@h$$&4@!%r%]##=K@i#M$K@X@*&~*e%-%Z@L$B#G$C%`;K@ &a's#4#&#E$J@]#&#h$T$<%i@f@c$q#I@U#!#b#]*!#E'}#I@.;&#k$ ,3%g%t@l#g#6~l@u~m)w*e$W>*$L$!#e${$:%m#I){$>$,@0&F#M@4@g$D$x$o#V# &O%2,A@;@''>;(%&#g$k'8bG$~#%&2#f#h$=#1@I@&#_#-$2#D%+$|@f@$%w#5#m#m@=@L',#{]-@J#c@~#)@Z+C'l{n,3#A,1~'*,#}'B#e$]%a,@#6@L=:/Z$a#B@2'v$J$&#}*h$v%0%:~",
"u*w$p$:%t>%$h$&#E$U#p#r$I,J@g@g>1~7$K$g$s$#,T$A@A@i#L,v_ ]f^)@J#c'L@&@)@A@&$F'6@@#^#f#3#*&&@K@J,$@*#6~==%%H#e$[&f#c@Y@D%u#M@v%|#&#Z@e@b$U$ ,V@>&U#L$d*g~!# &p#1{y%h%j$i@!#e@l#2#9%7><%]#S@V#h$D%/;V$I@S@o#}#,#g%b$2%*&i@.;+>K@D@T$x$U$&#/%~#s#I@_@/%l#v/]#S@f@(#{%s#S%l#7@g%M@,%%$y#<&L=p#b$|#+#M@K@&#v$j$V#e*g#}#>#f%`;g%b$K@<&}#^*S@/%W%'&A@@#t%}$x@_$7,P@'#H%!#k$U#}#*&P#7'K@<#+$e$S@j$e@,#*%0#!#u$x$2#v$K@V#U;j$m#H#b$`#l$v$i#w#P@!%C_a#/%v$8-+{h#N#Q>}$s#[%^*E$b#g%=&/%j#m$B#:%w$Z@|#0$+$G$V@]#|#,#g$,#T9$%F$&#S$T;K@g$y%2#m#!@ &-;0#g-*&j$2#L$[%i#|#9%E$L$|#G=0#&@A@3@C=e,b$o#g~{%:%i%~&L$V#B@w#T$/%g$<%5%i#j%L=o#D%H%N;!# ,c%w$H='& %K@f@'#j$v$!#*%e@3#,#%$)$i_]'9##{]$9bK@i#/%l$t@g#g$c%0#~&x$ %'#2#/%D%t>P#U#/%!%'#i#]#=#I$R(a#j%a#U$~%4#_#i#i#l#P#:*.;I@e@!#e$j$/%i#L=h$|#g#,#w#8%{%%$,*w#!#k#p#H%/%y%!@T)s#j$E$b$I@*&}#o#g#I@T$I@g$F$<&&#b$E$A,|@`+0~e^j$_#<%q#,#d*o#}#r%n(]@]@u(0bL$I@k$@$g#L=e$U@V%e$&)J@x@q,e~I$l#[&!~h$5%_#,*#@&# ,C%_#5%)$c@}# ,+>s#|@U#'#.#O;k#-@f#-@-@e@4@_@b@(#|@Z@`@4^_,-@z;]%S%B#)$d$_*L$G,3&z]g#>$y%}#L%e$*%M@%%9%!#!*e*ab",
"/^f#L$l$E$**W$D$%%~%%%7@}=<#|@5$X<:%I@}%!#E$e@6@5%;&0,m~c{T#g@[#h#!><@A_*#;@F'f#h@^#n~%#c@_$Q_bbw@*@^)n>>$!@&#e@7@j%T$h%d*u#p#'#w#>#=#>#p#J@d$3&B#2#e@P#J'}#9%L=I@i@p#$$V#I@%>L'0#`#7@c%2%I$3#_#t@U# ,_%&#/%t<p#q#o#|#0##%b#9%U#|#w~D%E$h$w$|#e@5%e@v%&#I@s#&#!#I$}#-@]#2#p#X#4%M_F#|#P#{%D%w#u$ &I$e${;C'$%h-9'=#=%w$<&p#K@V#k$~#w$[&g#h$5%S$q#%(')9{7/#>C=I$#%s#/%!#L$V@E$d$U#:%B@G$*%8#V#.;F#p#f#F#v%e@e@&%p#g%{%a#D$V# %T%P#,#9%.;V$m#!*]#2$0,;@r'_)cbg$5%K@H%%$7@D%;$|# ,T$@#U#}#_#^#9*c%l#&#u$g#V#.;!#Q'P#J'e$f@g-r%U#V#&%:%g#g%.;V#y%L$|#u%Z@B#S%]#v%E$g#N%+;s##|:#i(l@Q;{%k#[&g%5%2#l$}{8#m$H%2#l#W>h-m$a#U;|#u$I$>&j#i@Y$%#E$U#'#l#=&y%l#V#V#n~V$#%g#{(b$w(n,r=g@c@v$!@;>s%U$h$v$|#l#h-K@!%V@7@}#K%%%E%y%.;/% ,S%|#e%T$2#^%;$o%|#Z@(&B@L'P#]#I@U#Y$]#/;V@l#_#>#0#~#'#a#&#'#r$b$y%i#]#3&@#.#!#S;e*/%:%s#F$|#P#M@_*M$h$p#c%7'x$f#h-J=,#V#M@;&w%q(O{(#-$J{q*v%,*9*T$h%%%l$/%~#m{O;_$x@U(M@*$e@Q_ & ,U#p#W>g-n,4@2$8-P>/%<>s#_#g#3&i#|#U$~#A@n%U#-@c@*%*#@#V#u>b@e$)@6#4@h@|@&@G@e@Z@b@$#_#h@Y+%]b@{^('I^L,3>#=/%]#T$^#(~^,c'x@N;J>`!I$l%r$D$w$E$b$D$x$_;C;",
"><W$P#3#E$`;A%{%&*h$%%E%s~Y+&@X'=%'*a#L=b/l$8%0'w@[&%'k:u~F@Z@w@_@[##_J@|@|@m##@~#x@3&&#@#i@}#:'h#_#--Q/E=5%+#p#$%:&o#[&+#9'5% &q#5%&#I@_#D$c@S%c%;$-@r%p#8#T$_#E$g%j$f@ %g%|#B#>$I@V@5%9%U$$$h%c$l#U;j@L=a#s#3#!#S$b#]#!#=%b#|#,#S$n#]#s%!~[&V#&#5%c%>#E$5%V@s#g#9*]#!@]#i@L=L${#s%}#s%l#,#g%}#9%T$U#D$=%~#&#P#g$i#M;T$v%0$!#m$ %+>p#b$d>[&<& ,,*+:k)x@|@8=b$d$L$U$j$S$g$g#-@D%x%7(l#d$L==%|$e@<%}#G$~#1*s#u%h$q#I@w$g#M%M_&#L$:%I$|#i#v%:>h-9,=@n<#>&<z@;@I$s#[&s#K@l#5%p# %e$`#9%2#:% %g%j$!~X+.;D%3#M'^%x#3#T$`;]#0>k$7@p#f-a'_%,*g%!#T;e@l#S$e$/%h$U#r%B#}#K@&#_#1@]%r=F@a@-^W'%%c%g%K@k$ &g#5%q#a#4%F#E$K@M$+;2#B#K@!#E$T$2#[&w#,*9%x${%j%p#Y$i#t>S$S@J$P#L$J@}^o][#Y'7&[&9%>$'*~&|%V@P#[*j%x#h$}#7(}#b#.;y%^*L$]%db!#g$C_!#g#s%g$i#w$i@`#3#l$[&[&v//%i#!#s#'#-@2#/%_#T$i@u$i#;>f$9%l#q#j$i# ,5%&#R=c%:%p#2#E$7@}#{%H%|#f@}#l#q#!#L=U#*;B#L$&#`>C_3)+$.@u{k*{;U$]#e@:%w#w$d%b$6~]@~/T#g<eb%#}#d$'#k'w$2#S$p#|,q@6#d,V(H@i@]~%$m$_#q#e@i@$%-@e@C%_*m#1{@#l#W@g_J@0#~#{%@#q($@N;k@->_#j@L@b@B'o'k@J@Q;8-0'x,y$H%b$}#l$%;a'4^^#5>%~I@6%g$%%&%H%s%}#/%h$W$%%r:",
"fbg$M@F$v%+&=%%%p#l$y%8*;=>#)#s,9/+&}%N%x$o$_#c'c' ,x)m,W!b@%]'>i/-@h@k#_@!@>#J#6@h'2#V$`#*$!%t,$$v@i)7%5%5%D%*;[&=#!#'#U#3#g$Z@|#5%+#7@B#-@{;}#b$]#U#S@{;u$w#5%X@|#l#5%T$-@3%B#H@C${%%#y%9*S%3#P@W>f>V#K@'#b#L$]# ,)$4@I@T$&#e$I@L$g#~#&@r%K@B#w$2#u#-%D%_#,#p#s#g#v%U#&%P@{%w$-#e@|#E$:%b#>}g$U#H$}#}#c%8*p#a#]#B#9%V%k$e@L=_#D$k@g#D%f@&%**h%,#M@E{O;:@ ]-^h-3#Q'r%M@C%9%|#w#g#!%U#l#j-9'T$l%~%|#s%j#{%|#P#%##%Z@p%d$!#a#j%a#4%c$l$@{|#H=>]Z{z@1@}#K@a#g%'#)$g$s#I@L$>$[%{%!#w$L0r%v%!#V@2%{%_#B#w#]#g$5%T$T${%Q%|#<&g$L${#)$i@i@a#D$:&3%=%K@D$P#u$>&f@c%+&E$'#0#e*h@@0gbh#x{''G@I$s%s9E$V#V#$%~*:%I@Y$ %]#m$|#i@G$L$~#{% %}#V#|#%$h$]#2#}%hbw$S@L$L=`#d$:%'#N%6,:$o]h@['}$r%S@|#p#C_1*a#2#i@G#S%U#/%4%U$B# &!#.;+;W$s%9*9% $4%&%%%U;3#2#a#%#D%P#v$'#d$U;H%e#s#v%*$I$G$I$/%L$V#B#_#9%3#<&Y$+;{#7@%>e$S;3#J@ %'#s#-@D%(#Z@V#&#b#`#0#!@+;z%}#,*+$w(I$!@*-%#L@^>cbG#o(e#G$c@g#3#{%}#[)e@h#;#J:e@W>~#y%y%6*|#2#2#b#n,f@m@--4~J=4*]#f@2#&#'#~#K@|#J@l#D@I@s#_@`#f@U;I@!@t@-@g#,>%>f@J#i@-#z@!@A@b{f@h@J@>#;,9,^*t)=;b$p#K$<%e$=%z=M#L;I@9%f$<>g$e$h$K$f$E$o#h$+&:~",
"x/f@h$a#=%I=U$j%u$y$^%s% )U;+#&]K>8%u$u$/%b*0$+$k@i@m,m~(>D/i(A({#4@l@q@.aW!Y+@#w#z@.#B#`@b#9'|,b{X@n=-*}#q#*$$%!#K@l# &i#I$,#0> #[&-@ &&#;$n#^:$$@(d>.;V#u$2#l#V#@#S@B@]~q#e@T$}#|#U$I@p%]#D%%$m#%$h-w#|#>#|#$$h$2#j$Q_!#w$^#!;I$D%D%,#I@,#E$L$m#g~&@Y$Z@*&-@&#V@0#B#i#8%'#=%E$c$/%`#]#r%n$w#^*U#|#l#9%y%~% ,I@*$Y$l#(&j%<%[&I@Q@L$`#p#Q%|#h-=#F#E$@<]$z@p@D]^:m#B#j$]#%$%$>#T$[&g#P@4@e%U$j%3%,*v$c@L=9*u$I$]#w#M@k$C_%$$%[&R=]#g%L$:%w$T$m,L@Y+R,ibn3I@d%d%L$%%|#f$!%4%f@E$e#K$B# ,j%_#C%A%F$p[9%{%,* #/%9%U$g$E$v%z%]#k{*;T$`#P#I@y#H%w$_#1*l#y%:%K%u$p#P#v$Q$a#=#p#`+jbC)F@]@-'C>=%Q'I$+;p#t@w#w$}#%%{%y%N%+#9*F_6>V#J=%$c%_%]#_#T$:% %l#L$P#Y%|#q(B0-#:%h$D]X_&>Y+z=B~v$E$L$U$i#s#&#.;y%u$I@v%!#!#0#Z+g$e#P# %g#j$ ,b#&#i#Q')$k$f%S;}>e#m#U;u$|#s>a'v$6@U#,#B#&#=*x$8%}#f#X@K@&#v$H%Q%]#U#*&p#l#G0Y$e@K@:%1*@#U#=#s#'&&@q#K$]#1*L$>$~#l#w#0#d@l#P#2];$g@|/K)H%>#w$e@>&K@v$:%g#s,p#*#^#H(Z@'&K$_#v/<&S%B@e@_#l{/@W!K,l%p_V#l#~#e@L;T$_#V$%# %%$=#/%3&p# #J@h%t@->4@i#J@*$w#h@s#q@(#Y+k@f^&#6#2@f^A@/,('`#A'y$K$,&>$)$%%[b_,A@L'e@$$*&6*D$L%O%/$%%S;V#%%)$  ",
"y&!#I@b#K$T$%%4%v$U#s#P@B{[$q#:]#;r$s#M@X>d%I$@>*{3#x,E]2$]$`+'>&@{$J@;@w@~#c@X@Y+>#U#q#i#3#W%_,W![#s~f%e@p#}#}#&#,#-@m$^*E$J@8#L=w#p##%_#<#p#7'Y$u#|#K@|#I@+$=#o#}#e*h$I@w#+# &.;I$<&~#!#(%s#g#g%;@!#}#+$7@2#&#b$i#_%^#p%l#**3#d*I@T$9%2#D@%%I$E$E$e@_#3#,#m$!#|#># %M)%$%%{$P$+;~;C_P#u$T$n$p#!#D%T$f>R(Q%g$L$Y;v%C$y%e@s#_@L$[*g%K@e@~%^#c%E$q#P#!%3#($W!*#Z,g*c%^#|#i%/%(&d%|#!#/%T$ &k$`#9%2#s#*$!#{#y#F$V# &[&v$s#<%!@0*e$G#I$[%V@g~a)2@x@*@@;u#k$3*t%r%)$$%~#T$p#I$/%s#p#U$g#U#*&!#p#B#e%y%K@w$g$s#m#p#p#j$M$K@s#<%~#[*f@g$|#P#c%w$$%G$%%,>f$|#>$7'%%-%(&x$_*/*>$-&}#R@($5#E{u{!*s%v${*!#T$Y%1*K@;$F#P@>&9%<&b#3#3*.;!%<%1{]#D%]#g% &L=j$m#Y+o#&%w$!#[&S%6,x@$@2@kbw@&#{*g%S@K@G$U#I$5%c$C%p#w#g#>#e$J@EaT$s# %F#T$i#H%I@l#7'S%|*D#}#$$U$}#g%0#L$I$q# &K%D$|#g# ,U#i# ,b$T$Q$Q$ _V@_#7%s#p#g#3#w#-@d$$%=%U$b$g#c@>$7'{%l#>&v%/%e@w#]#'#)$E$;>T$o#N{6#a@v{lbU# %C$g%I@B#T$g#S%5'k@_$%]mbI@ &|#b$=#|#x# %!%'b{,h@k@*-5{I$e@L=:_x$f#y${%u#7'm#&#3#_#{#D@{%<#&@I$U;t@G#B#6$p@m#-$>$q#%#^#1@f^X@=>h#_$k]<,e@]=>~C>a#+>j$0$o$L,&@w@|%9%)*/%<>[%Q'h$T$7$%%Q$-&Q,",
"nb#$/%v$*&I@_*3%G>b$w$<%W~&@Y@8)W$T%)&]#d$W'{;_@s@5%F,s^*@)@^#G@o];@6@e@ob4@q#>#x$J@e@s#%#y[w(y,$@o{0=q_-@m#C$F#I$N;a#3&P$f#x#_#%>V#a'=#7@n#I@-@J@H%m#V@^#I;4#B'i#B#e$3#w@S@~#,#c$c%g#m_.;d%Y+ %e@7@~*-@=#e@|#V#I@g%c%0*&#[%h@x#5% #g$$$5% &g~}#9'e%%&p/j-{%!@P$>$l#f#1{E$K@d%d%]# &D%)%K@>&D%l#0#y#_@f$s#x#e$H%}#'#f>g#v$'#s%L$=#<#v%>*g#~%+&h${&s#d$-a^)(#c@s~%,s#=#J=#%>&E$u$6%:*]# &i%_#v%_#(&I@s#9%k'|#V#!~4*=#x$[&!#2#=#o#^%s$3&E$%>d,6@K#:=Q&V@L$]#a#&#F#w#I@V>!@9%&#7@!#J=s#v%i#E$`@r%L$!#g$$#>$0'~%I$J=5%s%r%V#O%2%S%E$g$G$=%m$g#G$}#~#V#;$l#g#k$ &S@7@s#]%9%J@S@E%pb -BaJ#;'{(V@L/j$l#H%0#S;'&';L$u%>#L$V#P'&# %U#M_2#v$U#3#f>!#2#5%h$g#;&|#j${&C%!%:,r'@>/@&@g%9%s#w$p#@{^%K@S@I$|#k$|#0#<%P#e$&%'#B#t@'&;&[&%%*;g#{% &U#!#U#$%I@ $ &P%i%g-^#_#a$H%s#!@}#g#I$T$}#m_/%[&%$o#V#w$;$I$T$a# $<%%$@#/%I@z%=#&#K@J'w$I@v%y%=#_*n#c%;@ &p#7@]#!%|#V#_)h@5>]$8<_#b$U;e@V#j$E$%%d%a)+$S@Y+E9[&>&2#L$.{V#g%/%v%/%J,:/k#3=I~!#V%1*i#W>>$c@x$y%7@&@_#I@:%I@L=*$V#s%w#e@5%!#&@q]_@W!'#e@qbY+6#!>=>o'h@*@O';=-,%$s)X(b$E%R=*=!#/$;=T)k@s@a#9%h$2#*%I@7$3*s#(%I@3*f0",
"m*>$X=e$7$[*s%`$!#N$_#*%C=c@5>#>c>R/T%y$W$R=p#(#&@H;,,$]O'v@)@-$_@J@>$-@_$f@6%>#Y@i@w@d@|#!@@$E(q#$#K,v$^#p@&@m#{;r%=#^%e%{#&# &v@=#X@,#'#w@&#j%^% &H;&#$$/%p#c$8#u#~*}#J=x#3#p#c$0#B#e@K@V#0#m#V#I$B#&#I@l#!#3#G# ,,#%$m#C_~#;$L$}#t@U#[&y#>&.;g#!#i@q<I@0'w#x(I$+$p#L'e$|#y%V@;$b#J= ,D%|#>&3%'#F#r%g#{&y%2#a$ &a#t@e@i#c%v$#%L=g#!*Z@=,2#]#F#D@e*I@w${~c@%,@>d,P~9{M#A@i@d/j@ &B'q#l/<#_@q]W!x@L/C'%#*$5>3#<#T$1@i@#:+$>$,#U$e#d>e*&#',h#_$d-7&J#t>P#+$M'L$U#P#U#x#6*s#&#_#.;r%+$7@0#+;v%`#m#m#!#]#i#z%p#T$l#V#B#V@U#7(G$T;_#o%D%!#0#t@[&L$F(J@G$<%rbg$%%c%&#9%S%t<7%7%H;H=#_k@h#C)9,!>n@f#8'c@&@^%3#$$y#O;U#h$m#5%!#^*}#p#;$=#{%#$&#k'*$_#x$0#+#W!;$b'|@D{;,x@g@^)10b#b$o$c%&#B@h$}#i@I@i#e@1*-~U# &/%l#&#U$i%i@>#>$D%C%=#s#j${#/*q#g#U#!#j$F#3*v$F#!#U#D@9%,#D$b#e@sb}#{%$$7@}#;$0$l#l#o#K@4%g#/%<&[&I@i#g$a*g~ %_#]#K@4*{%s#M_0#d@h$U#c@;$}#g#p#S@#>J@=>0~E:V#Q' %/%s#K@j%j@+$A'J@2$5@tbh%;$[&T$@$B#g$y#3#9%^,_@(>B)P%t1&#p#'#2#W>2#g$%#I@k@t@i#0'1*W>B#2#J@f@m#-@9%J'&#>$-@^#<#&#=#c@!@e@N/8#h@^#F,s=L=]^ubK$d%s#(%P#e-S,M#@#<#U@l$D%g$/$N$A~I$b$b$)$5*+~",
"@~B@F$v%+&@#%%j%~%g$9*w#6~t@z]F{/^)&K$k$0$B#7'U#}$t>-^2,w@r)k@8'(#k@k@k@*$^#i@U#b@>$;@-@;>&#L$3,I@:(j)A~i@g$ %U# ,Y$g$K@|#'#t@e$-@{%i@O#f>[&D$~#^#>$5%>(l#;$p@&#y%G#3#P#F#U$q(p#>#D%L$>$@#W>R(.#v@w#&#I@v/H$0'M@|#5%D#:%>&e@t@'#0$d$J@i@y%K@!#L$L$x#g%g#v$ ,4#4@|#2#L$Q%!# &l#L$x(T$I@_#.;a#`#{%}#/%&#a']#'#I$s#|#K;a#9%_%U#x#2#E$J$h-N$f@]#L$e$|#s%h$M@G:2)5#F@A@>];,w,F,F{w,r,q,6'L,k,;=z=(,'';'''k,u{e,''c=}=,,[]+'6']]e,w,,,~,b,{^$]$@v@/@a@s$T$i#q({;%%|#}#S;P#*$>#U$I@~#h-/%'#y%_#5%[*i@D%u#k$I@.;i#V$]#2#P@/%D@s#S%F#S;t%Y@!% %=%c%s#g$v%j%,*f$Q%&#%$v$I@!#r%M$h$]#2#.(S)s=3a($Q)I,''I, )V,;' )P,n,w,~,;,L,e,-';=m,m~p,--]^n,r,;,$]I,$]6';=:,;=k]d,=/;'[#[#*#}[c@K@G#0#E$T$t@m#;&I@I$&%&# &=%T$K@i#]#f%b#=%}#p#!#+$P#E$5%k>;>K@ %e* %3#'#|#g%]#!#|#{%g$!#I@C%R(d%s#D%'&w$e$y%V#]#|#S@p#e$_@]#j-T$p#s#K@[&I@%%4@P$V$d$e*u$i@y%_#i#X@*$-%:%@#T$j^<%A'J@=>4>mbh$l#E$L'v%%$L=u$%&6~Y+g@h#U(*$~%K%]#T$7@K@0#e#]#8-u~!>9)c~q#^#5%i#q#E$ %6#y%!@<#;>x$&#_#s#$$w#e@5%N;e@4@5%d*^#I(U#6#_#>##@y@m@;@2@1@A@;'n,A@]^G=s%7%P%j$P#V=k]D'^#q#K%v$M$j%p#G$=#S%d%/%y$D$8$",
"&<s#K@s%P$2'K$v$p#u$H$b$6~B'6#R;X;]#Y$!%s%=&>&$$X#_#H,8-b@W]h#9@F#Z@}$/@}$$#J@1_v@s@&#&#Z@s#-@^,$@G@S,K$I$[&2#_#U#6#m_-@>#&#|#s#j#%$i%m$+$p#&#U$Q'-@W>$${;I$,*!#*$g~&>3#v~u#b$e$@#h-$$ &Z@T$i@E$g#p#}#$$2#b#&@_#'#g-,#]#c$K@a#U#p#j%<%P#U#j$S@,#Q_n#~#s#'#c@-@*$m$%$:%U#h@R= %h$E$U#'#U#l#~%V@ ,s#l#v%b$Y$'&K@h$D%w$x$v%V#x$<&w#N%+$`#Q_/%g$U#U$S$;&h%9%/#w'-$*#6@a@]@$@%]9{h#m@%,=@x@u~x@2$|@-$'@)@<@1@h#b@]@ ]5>h#x@(${]x@F@M#((k@1@W!Z+]@x@+<W>S@Q'l#=* $9%@_/;g$2#P#1*;$S% &<&g$X@*;W>.$]#]#w$s%l#E$;@!#K@m#b$T$I$-@k_w$K@a'/%x@w$j#M@q#E$P#U#g#%$k$4@v%%%%&p#2%%$j%f#i#I@s#<%`_*{l@$#a@g@h#p@h#P{2$*@g@L@;@P~*#Y+_@c{=@s@G@Y+Y+2$h#p@/@9@z@q{n@h@c-Y+g@2$0@3$_3D(W>I$+;H%s% %p#H%V#k$v$V@D$}#d*%#i@d$a#$$/%}#+$b$_#P#~#_#f#+;I@m#%%B#P$`$c%U#<%%#/%2#^#M@V@e%V#|#{%f$5%$%P@p#_# %T$-%P#[%2#i@,#U$I@i#I@L$~#{;z%%%:%B#!#2#!%I@>&!#b#I@3#p%n@u$`#!#K@+'J#P~F@vb_#V#-&'#K;u$&#h$/%a)Y@~@q{U(m#w$q#3#L$ %j$p%w#|#2,-@x@Q;Y=9*e$/%@#s#I@{%a#j-f@$$2#I@h-+;m#l#C_Y+0#L=i@-@wbV@@{_#h@ ,^%>#t@&>p@3$_@>#8@n,R,o#3^k^&#>*y$'*g$s%0,c@x@ &&@f$j%W$P#w#';~%h$w$v$>%j,",
"x*L%'#~%M$+&b$b$*%h$/%l$s~X@n~I)xb#%4~M@S$d%u$n#f@I$q,-^$#9{$@Z@p@-@m@&@B#N/6(m#J@k@R(t@B#f@`#T,~#s@A,E>_#2#Y@e*D%_#U#,*D%@#2#$$d%C%9'e@Z@7@U$w#h@]#V#2#,#T$@#w#}#c%e@~#]#q#k$%#F;r%K@G$f@s#P#&#%$o#V@c${;e@`#5%g#,#f$`#e@U#2#U#A@6%i#K@,#y#F#!#a#2#v@{#_#s#2#z%i@s#g#c7K@n#U$ %r%=#*$i@{#o#:%P#i@U;F#&#3%X@}#L$i#V#K@e$_#9'c%p#3#h-i#t@^%I@T$x$j%&#*&B#]#~@#)f^g@2$M^*@r'P{2$${${W]]$k@a@c# ]u~^@ ](#R@9{4)T#`=8@($]@0@o'o{#{[#Q)8',@.@h#z(4)P~K%B#P$,>3#>%t@K@E$j-/*>&U;7>^%j%&#H%m$D%*$]#e@%$,#!#[&K@I@!@!*`#4%y%o#+&P#l#e$w#h$%$o#T$ &3*E$3%i#y%I@D%g#i@x$i#+$H%D%<%i#N$$%P#x,B'/(T@m@c@i(C=b@2$9@W^u~i(F@g@ ]T#{]v{T#A=F@:#8);#d-o'c-Z^q{,@r@r=u@(>Q)G@3$a@h@%@0@P#f#u#y%:%0$d@%%U#2#p#c%K@|%f@'#>$$$s#e$K@g$Z@a#F#x$g%U;s%h%l#_#E$D%>&&#sb>*+#!#i@J@=%i@c@I@S%U#g#2#|#K@T$s#B#g$9**$b$c@~%E$M@|#8%!#l$Q'v@w~K@p#w#e@Q')$I@&#g#K@q#g#e@:&B@v$U;<&M@K,@#d--/tbs%7'V#%%|# ,j$g$D%+]D#[#h#k^j$}#>$o#p#<%g#|#>#N$/,Y+!@s~A~2#k%{;D%i#*$*$d%|#e@m$w(4@_#!@c%s#q#w#a#@#B#c%T$|@t@i@1@V#_@1@j#J@;@j@o'$#6#m~l,j@z=ybN%&#^({&$;zbk,k@y@T$>$)*P$h$g$}#g$Q$U#o#1%v$/>",
"ta<%L$}*g#h%!*w$L$X%0$E$L,;@u>L]&(1~M@U@4%g%-#f#&>_#'',,u>b@9{J@1@]:&@h@]@3&f^e@&@-@+$2#A@K@v$8$_@_$n=G=b$%$V@L#5%m#p#%#g#`#b#5%&#q#s#h$5%i@c%|#L#$%g#c%q(0# ,s#d$e$y%I$ ,X@v@y%>:e@B#C%i@%>'# %p#e%p#t@I$[&_%m#x#g#6#)_+;w~V#E$v$v%a#{%=#.;'#s#Q%F#2#S$+;p/i9{%.;i%I@*&**!#g#*;1*!#U#_#L$i#0#V#/%T$2#x$h$0$x$l$+;e@+%P$V>V#w$I@%%K;]#)$.{U#B#S$^*y$i@s%=*R,M#d-m)L'AbV7BbL!C!Q CbDbEbFbGbHb3 Dbj!Ib8!JbKb]!Lb/bMbC+NbOb8+j!0 N9PbQbRb0#Y@k@o'[,e#5% %e@|#,*f$i#S@@#f$D#p#g#=#0>(%w~P#T$V@P# $T${#<%:%.;e$I@v$B@]#>#!@p#x$'#!#1{b#B@*& &M@L$#%1*+;p%s#L$k_s% #i#c%/%N~E$]#/%{%6'%,[#]@`=k0SbV.Tb=!6.UbJ+VbWb$!XbH Ybu+t:Zb`b( -. cUbb!.cV.Nb+c@c#c$c<.SbSb9!>)P~=@x@^,%%d$f#r%`#E$w~E$!@(%B#Z@I$2#K;E$s%g#!@!@8#b#7@C%e@&#s9j%s#c$y%U$ _9%I@D#b$2#g$p#I@d$E${%i#c%^*[&L=-%g#{%x#^%g%7'w$s#g#*$Q'S$h@U;$%!@;&s#0$&%!~d$2#j%y#;@[&c$&#i@p#I@|#b#g%}#M$%>8%6~A@n@4>P)S@L=d$o@%$|#U#P#T$#)&@%,x@i{s%g$!%j#i#D%-%|#U$!#8--@C)I,=*5%6@{%.;M@>$u#!~~#i#V@9%V@P$L$h@Z(;@+$9%!#*$X#5%e%+$G#T$]@i@{%-@^#>#Q{q#h@y]Q;%c(%M{M:#~[*-&p#'*v%V,_@|@Y$g#0$M$^*F#/%>*p%}#;$>&2%'-",
"W:}#<%f$%%e$d$u$w$Z%N%+&3=W@z@p^f%s#;$r%j%S=}#B'#_m_&cV,O;t@1@@$c@Z+1@*$v@V#5(-@c@m#n#U#i#w#<%q/F/A@I,C:e@B#$$>$x@J@L=2#{%p#2#e*K@W%L=s#F#=#q#^*b#=>p#~#}#j$l#V#e@O#s#U#w#v/3&e@f#7'u>C%P$S@V@g#/#c%n#,*$$L$x#G$g#B#/#-@y#/%;$U$8%!#7' ,3#%>i%g$h@S%-#L$y#D%E$e@i9e$U$!#_#x#V@w#$%i#y#P#o#V#L=g$y%2#m#P#[&!#d$4%.;O#:%w#&#L$I$S$!#T$p#+;f$0#y%S$i%g%7@h$p{>]k@L@)///4$6@>#W#Z+/@t@b@d->#4)-#8@;@h#3@J@=@^#]/C@@# @Z@:$*#A=p@w@Y@D@J@8@S%*c5/9{`=C==*~*g~5%,#'#g%h-V@C%u$T$S$F#c%i@}#D%s%_#g#|$^#g-,#:%I@7@s#=&|#K@r%G$D%V#K@w#U;5%{*h@T$;$g$g#y%i#l#7@o#c%P#L$!#1{*$y%D%y$h$!@9,5#h#l)f&x#z@h_S#B])@p{k@f#A{Z^h#~{_@)@Z@=@v@f@,$&@`+I;c#>$Y+K#C'1@x@x#;@;#k<=c ]-$u~f^K,**-@,*E%'#2#3&7'u$s#a#}#g~H#[&B#|#|#q(v$G>V#&%x#,*s%4[k$l#i#i#9%~%-cL=s#}#[&v$h$8#g$!%C$y%t@|#y%g%e@9%v%v$d%e#$%_#g$e@L$}# ,:_B@i#!#S%P#1{V#^*P@7@Z@^*8#|#y%K@I$f$h$&@Y$D%i@J'p#v{I;a@-$l4&#I@F#M@L$}#*$S%w%6~j#!]/(k^p#^#&#r%V#y%g#M@L$7@[,c@L;}=U(,#q#T$O#K@,*U$I$%$m#$$Y$$$E=X@m#S%s#,*A@!@g@%$K@U#T$w#f@e$t@D$t@q#z@5>e@x@H#x>u,T)6)`~j$5*>#!%[%D%A'L@f^-#3#P#!#l#W$F$C%e$:>H%z$b$5-",
"2b-&)&m#0#m#V#L%*&T$:%3*3=q{!@Q;]_[&q$[&_*w$I@W!{];$^,^,u~[#a@+#!@t~3&@>l#E'e@,#{;t@Z@q#^#W> ,!,m@F@p^=, %J@>$g%F#U;_#n#m#U#{%8#_#F#Z@:%D%9'd$m#^#b#U;s#3#a'-@^*#_.{@_V@~#K@&#L$m#K@y#&%=#3%d%|#s#Z@_#Z@~# ,m#D%F#i# &K@I$.;P#%#U#f@S%L%g#B#V@v%v%T$-@K@!@,*&%Z@/%v%s#b$f@]#v/g%^*a$U$J@ &_#^#w$e%6*L$8%~#i@B#<%U;I@c%{#i#>$s#y$S@I@=#L$B#I@I@I$8%+;u<!#7,;@*#I{I:!]e$:%&#*%T$2#|#]#P#S@h$q($&`#g%_#I@T$b$J@M@p#l#k>*&m#v%w#}#E$7@!#)$b@<:N#h@}$p,l#{%=*b$L$=#)$ %.{E$4%3#!#w#7$y#p#2#P%I$k@g#T$h$a'w$I$|#9%u$c%+%I@K@~*&# &j%-@w$t$|#$%_#!@n3y%8*!@%%i%9%g#r> ,s%!@O%i%{%#=R,a@Y@3$*$h-H$V#H%i@b$K@>&6a=#D%|#%$L$ %_#|#x#U#I${%-@K@H%i#g#&#P#I@m_p/g-|#]#}#[#y$P~8#2$F,+&#,K@+$3%U#K@e%K~g% &K@A%b$P#i#&#P#T$j%_%$%3%M@2%v%'#l$s#U$R(U$2#l#h@s#!%&#$#h$V#I@K@c%V#:%]#y%n#D%L$P#'#,#s%Q'K% &B#i#j$i#v%m#U$B#}#e#]#;>^*X#I$4@g#L=c%[&b#L$t@g$U#t@=#V#9% ,^)>#6@G;H^h$/%`>m#w#D%~%t>c%E{Y+'>5#;;L$F'I@m$L$5%9%0$D%{%R,{$l(,,z'X#w#I$o# &m#L# ,5%B#$$_#-#m#w#y#u#t@'#>#-@%%T$f#K@b#'#i@e@q#$$u>[&c@A@9{6@&@d,X, &''/^d$b$:%1%M@f$;c%>-@P${#!*%%s#+%!#4%U$!#<&e*0%bb",
"['C$e#h$W$E$]%$$!*3*4%d%3^Y@$@s)l$*=x$D%D$l#c'q#^#m_k,m~h@($1@&@]@c@&@H#~#6@1*E'_@V@x#(%<#y%'$},]{*#;=7$ $w#U#;@S;s#e@3#c@q(J@N@=#(#6__@i@7@+>s# &-@`#J@T$>c~&&# &;$`#'#E$>$i#a#2#}#i#^%f{q#n$b#g$B#M@{#4#s#Q_{#4%>$J@I@p#t@%%!#9%7@&#j$&#{%E$j$+;7'i@y%a#'#'#W%|#w#m$L=:%=#l#|#x$J@L$s#Y$'#g%b*Z@z%*$5%a#9*c%w$H%L=P#;$w#V#w$e@e$k$L$8#5%7>f$j$D%x%C%h>H~Y+D^x,B%8%+$0#i%c%%$e*=#B@g%e#!#7@,*U#}#,#0$[&w#{${%W>z%l#2#!#=#e$|#-@j%m#]#l#s%#{_@8@!/I,#;K@ ,L=I$2#_#Y$w$[&E$}#&@k$!~!%l#f@M@U$$%g~l#U#h$x$D%`#B@v%I@}#3%'#h$5%!#V@g#D%g$*$]#e%_#8%#%I@&#,#!#j#%%!#|@]#U#/%+;&@w,)#1@>),c}#+>w#e$}#9%3&r%>#a#_# %F#V#u#U$g~g#2#U;w$V#D@G$;>}#q#c%;$i%S%h$_#{%2#1%7@8'4@J{/@a)s%+;;$6%b#c%[&&#h%%%<&y#'@V#E$:%k$h$_#K@&# &o#3#v%&#H%D%y%M@'#D%W>U#]#~#g$e#t%d$4#/%5%D%*&E$2#w$y%Q%2#&#$$j$i#M$r$|#i#$%m# $%%2#V# ,s#g#F#=#%$f#>$%$&#}#K@{%v%j%5%Z@`#2#s# %i#6~B#`+I]J_Z@f@r%j@I$ $q#2#h$`=}#${C@'c^%/%9%!# #b$g$:%{#x$a,n#W!d,c8w$K@!#t@;$d@i# $_#1**$-@K%'#~#y%F#{%w$w#g-s%'>U#-@_#>$i@+#n$+$E'_$$#/@)@[#b{'^u=c'r=R)T$2#M>U;=*g$P,c@d@$%o#*%}#d>^*j%!#v%I='&K>P%0:",
"j*v$W(*&9%H%L=>&8%]~_#j$A,^#6@K,/{/%M@*&!#$$f#k#)c6%S,R,{]f^g@g@_@4@@#J@q#K; #-#D@|#_#q]+$F#!#9,^#|@;,H$<#-@2# &>$w#2#!@w$M@b#D@ %8%e@>(K@2#'#+$t@e@^#+$'#y#t@,#S$p#>$C%e$ &-@a#v$*$Z@{$I@b#J%g#*$f@_#E'.;i#3#~#c$h$+;$%M@!#~#U#y#F#=#g$%$I$Z@f@w$g%3#J@J@^*g%h@,> %l#e#|#J' %I@L%%%E$r%C%j#/#7>:%U#g#h$g$%%Q%B@D%[&F#L$^*r%r%<%h$m#D%v$}#i#e$|#:&c%g$~,1@p@5##*C#B@!#+#'#%;I@L$w~V#w#;$P#w$I(H%y%}#>#L=b#]#+$x$v%X@&#t@/%|#h$ %=&S%S$p#4@!cF@a@~@+'i#g~|#I@Q_/;|#I@b$!#e@j$m$B#j%e@g%2#L$p#[&B#m#s#/%v%y%]#k$j%h%{%I$v$g#z@L=%#V>2#)$}'G#~%E$F$Q%|#/%e#2#+#p#P#6#U$f$P#Y%E]/@*@J#-&b#/%v%>&_#_#V#I$Z@g#/;y#`#g#1%/%w$n#V@g%D$7>I@S@P#i#l#s#i@E$B#|#i@|#w$C$g#^%3<]-u>8@e,Z@ &*$=#l$h$j#h$m#w#&#T$8%T$!#W>:%C%g#B#e%U#s#V@d@/%i@'#9%B#l#j-p%l#/%D%~#g#p#L$e#c%x$:%D%s>y#e@s#p%_#a#h%W%r%I$U#p#*$y#S%f#'#s%:%7@{%s#*;m$'#{%g#l#%% %`#i@V$l#2#B#p#T$7(t@V#g>*$b@.)j*g$M$c%5%K@s#{;^{!#C)}([#h#_*_#'#y[>*_#3%_#e@i#+$F]b@`+8)-*X@'#H;G#s#-@i@;$L=~#3#=#-@*&3%_#c'{$K%c%>$j#h$F#{%1@!@c@J@v~-@.#%#*$s]1@m@J@_)$]>$]^@0M)L%r$X+[*<*,,k~_@Y$N'v$s%j$g$y%M)*%V=}#g#v$~c",
"k*b*=&e*N%r$]%I@:%S%e#p#^)&@+#r@Da8%e$L%'#/%f-1@$@y%6'n,0@<@<@q#5#)@^#&#_#0'_@=#J@;@V# &k@&#y%;'P{-$s=>;j@m# &,#A@;$y@3#I(V#i#g#f@P#m#{%i#;@o#'#;@f@~#I@n#Y$I@Q%X@_#@_w#n#c@]#m%>&I@[&(%o#J@B#s#2#|#V#5%e*I@ &=#t@C%{;I$a#b#y#f#F#%$k${$U$+>]#y%F#,#v$Y$s#c% %I@|#9%U#|# $4#]# ,`# %H%o#s#1&v$p#x$y%p#j#]#l$L=d$U#@_v$^%I@I@p#+$7>;$_%|#9%L$`#S;j$E%+]#>X#b@{;f$e$V#K@c$5%&#.;V@1{y%L=m#U#{%0#L$I@w%J$B@x(0#i#p#V#p#U$'#m#3#V#8#b$|%J@I@l$~@;;_$[#j/D,h$'#a#m#E$u$=#V#i#E$V;V#D%w@i#w$i@e@J@%%g%7'7@e$g#s#!~/%P#v%[%Z@1*L={%Z@r%7@/%&#|#L$2#^*t<V;S%1{I$g$I$x_s#B@V$y#s#)#,,_@v@z=N&o#!#]#=*U#x$&#]#P#D$!#!%!#a#j$Z@y%s#v$Y%S%[&f$}#<%}#y%b#e*>$Z@D$p#5%|#l#y%d%@(6*$#(#,]5'-%k$D%s#s#P%D$2#*$*&]#,#K@!#g#C%r%a#T$g#p#D$e@j$l#F#g%+$I$j$y%!@U;L$r%B@I$|#_#F#g$U#L=00*&p#-%s%~&K@3#J'o#`#]#D%!@&@s#w#m$g#{%**,*y%g#0'l#I@!#L$l#s%7>/%e#n$o#-@0'G#*$W>l#5%^>4@c@C)_>V$Y$*&*;2#B# %:%5%#)6#x@$#G:-@b$>#U#v/s#h$Y$P#T%m~o]_@I,K$;$J@^#4#l#-@`#>$~#w$j$f#U#~#a#S;2#y#**{%+&j#5%L'I@m#m@A@k#_@6@&#(%x@B#b@L/-@n,t,c@v)4~L$I@%%l#<%1%L,f@L@V%=&w$4%{&}#g$1%w$1>0#r%O%r:",
"{cT$y%e$|'/%Q<E$7%2#E$d$8)N@&@C)V/=%H%y%C$_*q#8'{];&~,[,h#$@|@i'w#J@6@%#1@I;8%>#p@Q' &q#h@I$x$[-3&P~''>*3#m@_#b$l#+$j#,#$$I@&#+$i#}#|#2#+#V$>#)>7@0#@#e@*$_#>$/%-@@$L=X@u#'>w#L$V# %B#Y@(%d%Q'F#+$J@,#{;~#K@l#w#U#&@K@c$->B#s%U${;|#3#B#}#A@+&Y$V#v%I@&#X@!~i#M_U$i#x#'#S@V$g#!#[*~&=#w#]#.;+;!#{$B#t<v$y%^*g#*$e#e$|#g#h$I$@#a#i#{#D$ ,s#P$p#2#M$|@w,h@)@r=]c{%j$'#p#4@2##%o#E$~%<&m#b$g~f$m#L$ %&@V$_#B#S$U7=#;$g%w$b#t@3#0*6>}#^*G#U#t>m$>~r#g/_@C=Q{7'D%w$c'2#m#/%f#[&'#P#E$+&7(>$=#U#o#T$]#7'd$B#g#%%f'B#:%7'w%U#|#&#j$V$*&P#|#s#q#/%P#]#l#1*+/N%Y$v$v$y%L=w#{%f$p9r,q@%]K#^c>@H%w(s#!#e#]#]#*&j%@{N$n#&%~%c%**i#-@ ,N%4# %:%!#y#k$s#]# &i@ ,2#H%s#T$[&i@h$3#q_L,k~{]T{m#_#I@C$2#/%.;v${%_#r%W'R=i#e@B@{% &y#g%w90#'&*$D%$%!#(%<%F#7>b$J=1>c%g-7%-@K@Y;$$j-&#)$e@`;k@w$Z@^*_#X%m#N$Z@e#+,,*-@&# ,E$S@.;i#T$p#g#B#Z@'#/%&#V$j$a#S%k>h$x#U#Q'U$7@k$J@3=L@T@})H^a#]# &U#M_$$U#U#i#/cV@8#)@4~e@T$e%T$F#M=y#s#u$-@H]G@*#z=@0!#P#!#I@[&&@!@/%L$V@Y$%$_#L=B#8#>$i@u>%%_#I$j#Z@2#2#'#!@T@s@Z@|#-@t@|@}$9{x@d,{,+$!^+&}#`#p#X%*%[%;' &<#e@'#p#]#5%s%[%D%M=f$^*T%7%(c",
"*(>&K%f$/$f% %~%~&5%X;w$K,z]>$<)B~U#,&*&h$e$f-9{5(}#j)m~x@d/#@m]h#|@w@O;V%-@t@x@6#q#J@5%w#A@&#g,o'/@2,k%y#>#'#c@#$~#w$>$9%w#t@|#&#!#@# %2#3#{%&#%>;@r%.;>$T$B#V@l#+$x$Z@f@c'U#W>6@*$3#e@,%|#t@p%I@w$l#;$$$v/_#&#V#|#y'k@3%!#D%^% ,I@:%U$u$i%`#V#$%^# ,e@`$U;~%G#3#2#g#B#|#8%y%6#&@0#g#s#u$a#w#%#%%]#I@v$j$*&]#g#>&K@i@b$K@+$1%J@'#h$o#D%*&K@b$!*T9/,C)Y+9{==%#e$_#L$t<w$&#w#U#^%]#S%M=e$g$$%l#S%$%_#f#M$I@F#v%%%e$b${;v$**1*c@;$>#}#]#L=8#*%b@,{%@_@(;{,D%&%!@j$I@X%9':%I$S@|#C%]#<%8#I@E$~%&#k$ &u#t$0#e@ ,w$b$7%j#5%B@2#h$I$v$D$g#I$_%|#i#C% % &P#L$r%;@E$k$r%a'M@!@%@]$s@[#:#<^+&!*D%g$^*U;*%2#p#K@D%s#9%;@b*b$K@D%`#p#_#S%U# %m#&#S$6#h$i#e$G$~#!#a#2#%%!#o#h%O;_c9{h#^#5^2'$$y$^#h$;$E$1*]#$%w@y%+&j$_#%$>#k$8%p#p#p#I@p#I$I@7%/%2#]#g-L=e$w$E$w#-@L$g#l#x$,#%$=#!@R#~%}#a#T$`#l#s#Y$&#|#&#V#e@f@m#g$k$E$%$;$-@7'r$l#s#_#I@K@j#s#/#F#}#|#l$p@L=~#y%]]_@g@:c+=T$G#[&w@g%w$}#}#m#~@Z/O'_$D:K@>#i#U#|#B#.$_#/%y%$]<@c-I]M$'&U#T$[&8%6#_#&#e@l#w#_#u#[&i%h@P#f#i@L@%#J@*$'#$$>#e@4@!@_@i#6#Z+-$*@(#@>w@r,t,-# )Da}#=,K%D$%%[*+'5#-$,%=#[*N$}#P#k$E$]#H%9*a#-%t]",
"Raf@~&1%T$!%0$K=[*c%=#4~T{I@2$0~1~<>u$K=L$P@.;k@/@/%d,S,d#<@$#^#->i#;@-@>#t@Y@,*c@t@5%~#e@m#p#l{>#]@r,#~=@s#^#.@Y@|#c$ &H#k#*$=#{%-@w$U$f@x@<&1{$$c%*&W%I$T$g#L=Y@E$P# &t<i@U#$$~#1*f@!@ %K@D@L$!@V#F#g#3#B#b$6@6@!#B#j$j-p#7/v$!@'#&#0$]#e@^%e@k$r%I@e#i@~;E$&#1*<%j#s#m$!@p#|#m#e@v%L={$h-P#]#~#m#g#u#B#x#;$3#i@p#B@v/d*T$x#1*s%]#I$-@e$o#^%I$q#;,F@A@''L~x#7@t<'#u%!#&#p#t@s#g#)$g$,#a#p_$$p#&#&#c''#3#j$D%f@w$p#c%w$&#|#]%%>g%*$p#h$Z@@#*%L$I/c@x@,]s~s%g-L$D%/%L$J@b#d$g%;@5%g$%%'#%$I@w#L$U$m#(%_#1{$%|# _D%!~I@J@2#P#t@r%,#p#s#!@K@!@)$_@P#|#D%h$a#a#l#T$y%~#D% '$#T@1)<c&#u$h-m$]#>#j%/%4%s#m%-@k$g~g$i@]#d$p#e$|#%$F#!#!#&#*%s#U;S%&@V@=#D%h$T$U;Q'g$]##,J'T$}=h#h@o)!>a#5%h$y%|#v$w#p#'#y#y%^*|#h$e@*&I@i#`#D%3#y%V#k$'#~*f- %i@/%%#s#a#,#I$s#y#k$-@Z@p# ,]#o#&#C%>$|#&#9%K@v%g#m#!#w@{%%$b#H@6%!#w#c$N%d/y%v% &i#P#I@P#[&j%5%V@*%T$y%%%w#s#w#o)Y+F@u~H(e@S%I@8#B#X%s@%>=#X'M#G@$#B~g%%%&#h$}#h$|#V@-@j-#>`@h#~=4~H=C%$%1{I$&@3#U# ,E$_#s#u>L=L%U;$#2#T$Z@4@4# ,2#J@L=^#m#9#*$*@W!L^(#J#=>M#*@'^$]'#c)4'R$t$2#]#N%X;k,c@c@*$O;D$(%$%b$j%V#V>j$k$I@}#@-",
"k^w$=#V$Y$r%-%3*%%a#=%=*e=A@{::#K>~%H%j%5%o#R>$()#j@$]k,*@%]h#Z/<@M^^#Y+g#Y+m#g$V@O;I@_@c'f#`#O)n@k~F,Z%->t@g~`#{;F#S% ,v$g#2#+;&#L=+$g$K@7@|#0#=#>#+$E$L#i#d#O;,#^#0#M@%>e# $n#u$c%p#c'q(I@c%9%7@B#u>o#I@U#&@i%=#f#^#P#t@*&I;_@j#T$_#$$[&B@ %T$`#E$$$%#p#W>]#{%/%>$S%D%%>/%Q'E$9%c%w#c%N%|#V$e$h$L=y%j@]#g-5%M@p#,#Q_L$v%e#j$g#V#X+e@g$M@b#&;Q_d_o'o]$#`*)##${%I@x$I@V#w#m#l#5%I@l#}#_%u#V#8%u$M$w#g#~*Z@<%!%I$G$H%Y$/%P@]#`#g#l#h$v$L$B#k$~#b@.~]$%]N@]-m#S%P# %p# $c%2#l#g%g$h$y%L$!#s#,;M@P@M@V#x$g#l#b#P#O;:%!@3#q<e$+&w(1%S@8%9%E$_#y%l#h-!#>$!% |D$!#<%y$*&];2]h#f^h#v$1*h$U@a#B@i#V#v$ ,u#H%3*u$v$`#I@C$f@|#]#{#K@!#I$l#}#C%f$j$~%,%2#|#e*B#F#;${%I$m$k$~&-@I([c}]Y+Z+ ',&k@%;n#T$8%e$2#l#/% %p@b$i#g%m#<&-@P@,#Y$j$m#_;I@o#j$O%f#g#5%|%w$!#D%}#<%/#L$J@K@I$f#3#b$S@H%d>|%&#a#$$Z@y#E$U#**8#N%L$l#2#k$s#J@7'}#g#f@f@f#e$E$ ,w#7%'#h$L=v%y%5%;$|#D,+#h@)@w>4*:%G#k@,#c%p#p#d%5^A@k@o{fa %i#%#p#L$g#h$*&/%5%I,_@z(3=#~*&g#c%g#6%V#@#,*5%9%'#J@s%@_X@5%Z@|@9'$#J@2#W>h@c@|#%>%$$@i@;@B@W!3&a@Z+g@h#%cR,+@$)X(s%v$-%K$+,D$%^q#=>o#C#L%r$T$*%D$u$D$E$&#a#F;)(",
"}cj%H%c^_*e%>%-%d%_#N) %+'+$M#E{L(>&B@>%-&*&|#(#_$E=n,F]g@'/f^d#B'h#'>k@s@(#u#!@'#B#_#3&S@U$y[|~M#($8-f$7@E=e@5%s#x$T$I$Y%U@L$u$4@U@+>I@L=]#1*c%=>f#B#T$'#e@X@:%&#c@V#3#I@a#V@/&>$s#Z@7'-@>#V#}#s#y%|#<&Y$v$Y$j#h$3&]#s#=#{%}#y#L$g#Q'g#!#0#P#d%w#;$1{3%V#B@o#I@_#>$=#&#>&h$o#{%l#G0|#C$k$D%2#Q%L$I@f$r%3&K@h$!#T$0#e@/%g$]%U#D% ,w$S$a#h$`#~%_$V,$@_$r=-&!#d$V$i#s%c%!#L$2# ,U$%%k$s#h$M@H%c%i#'#g#Z@ %h@s#Y$t%j$0#I@]#c'V#k$s#i#I@p#3#J=m#9*'#h@+%z@1@:/(,l$L$Z@=%6>8#0$w$I$3#^%>&e%^*P#_#i%`#c$T$Q',#8*}#V#|#i@i#;$**9%T$;$L$o#Caw@h$L=B@!#<%h$2#i@G$0>I$!@H$|cY+d,(#_$_).1.;3#%%J=H;0#s#[&V#@#1*^#j$q#!@ ,g#!#H%l#l#h%!@<%>&O;U$!@j-M@v%e$Y$d%h$w#_%o#{%E$L$U$7@<&V%b#L@$# ]S{+>`#a'e$N8!*S@w%2#g$s#`#B@I$V#K@]#o#9%b*B#3#c'I$*$s#|#}#]#j$0$;@!~]#b$f#H%{#!*l# %p#U;D%w#h$|#]#|#K@|#:[q#1cD%@#|@g%^%V#}#Q'B#)$Z@#$g$D$u$}#a#p#T$V#H;w~_#4%j$d>j%0't@F]_@M^5/|<S@S@d$b#0#2#4@P#5%C=-@R;w{y:I@5%h$5%I$'#w$D%p#>$d,k@a@A,==|#=#s#(#_#}#(%B#B#e@A@E$Z@/*i#w#[&6#T)&@&@U$w@3#[&8#*$p@Z+e@A@5#8%C'g@$#L@${,,--'#F,x0f%=%D$$&h$y$J,_@W!o#|#B@b$1%g#p$g$L%k$v%=&G=}-",
"J&{;v%f{4'o#!*-%p#K$~%M)H~f^d#B{>%!#%% &e$]#9%h@>#=#;,;,t@2$)#Q)6#J;k@v@@#'>y#b@J@L'q#W!W>6@_#u,t@.@F,5*I@U$J@i#c%E$ %I@O;U#c%e@s#A@f- &s#e@H%~# %9'5%&#9%C_;&&#g#c$=#&#e$0',#c$P@>$q#i@U#$$N(g{P#g~-@&@_#v%l#K@F$]#+;-@/%Eal#D%w$V#R(:*s#'#p#V#g#,#O% &g#!#y#w$c$:%_#I@*&b@>&B#C$3#}#`#D$+;j@I@!#1{0$U#I@}#S$g#0>B@>& &x@1{U#{%y#]#&#h$g%V%7@'^_@P~]$2cl#`;V@/% %/%w@/%/%g#q#y#s%_#i#U#3#L%{%2%>#a#h%!%U$g$U$]#y%K%b#G$I@[&N~E=9%P#c%@#_%e#r%K@/%D(s~z@W!<)1@E%!#]#h_2%g#B@2#r%9%&#|#|#p#m#X%]#!#;$$$w#a#M$U;@#M@T$I@y#T$_#c%&#G$M@=%g%~%i@4%^#-#d$|#U$}#x#B@S%&~^,W!5#!>>&@#}#H%N%.(;$w$u#&#s#>&*%k$D%v$`#i#h$V@_% ,J@K@$$I@M@s%9'K@$&G$p#$$E$g#d%I$H%p#{;j$v/L$0$s#Z@::n=x@+$,,k$_#P@2#l#Z@g-g$i@Y$K@I@`#B@l#f@x$Q%{%l#x#e%r%g#<%5%E$V#]#4@y#P@-@b#&#w$I$U#9%T$F$}#E$f{l#J@i@w#:%|#/$T$b#=%f#'#{%^*i@f#!@y#Z@1&6*a#]#|#2#d$2#P#s#c'<#e$%%c%j$B#*$a$^%8)J@h#F@3cw#U$c$}#|#c%]@U#]#v{_#x@x@4cX@n$t@!%U#'#]#E$e#o$a,x@k~''A~m#U$!#h--@e@K%c'W>0'|#.{*$&#e@e%-@_#w#1@I;X#s# #@#1*h@|#%#w@M#y#X@`+c@]@${!>!^l{4@<)'(=&t$/$U$D%I=6'>$U#y%E'u%V%=%L$e${#7%!*>&)$,&C;",
"J:I@}#V=e$>*`#/%=#M@ %x$<)V@5c)]k{!#/%r$s%y9d%q{c@c';=r,R;b@*#d@x@/@w@J@Y+i%G@P#w@&#T$Q{m#%>I(i,*;f^^,5*/#e@ $*$p#B#$#J@9'%%_#`@2#U#3#_#]#5%w#!#1*B#7@i#b#;$&#}#p/u#8#[&_#&#<%'#T$y[L=B#@#e@|#$$L%%>V#I@2#w@V#@#|#~*|#&#I@i@=#|#^#D%K@P%g~s#]#}#U;g$s%V# &`#g%f#8%D%i#~%4%,#>&=%h-U#I$P#j#,*P#s#I@!%U@#$l#&#>$]#@{h-s#2#T$0*n#[%D%+;m$*%Q%X% )W~a@)@|#3&m$J'P#:%f#B#w$ $D%{&g$,#=#I@/%]#k'L$V#Z@d$'#[&!#y#!#S$y%l#&#W>;@@#~*&#f-h$g#S$7@ $G$F#v$`#f#!;c@T@-$k:c8f@[*4%I@2#**2#'#>&{%1{%%x@e*i#o#p/&#&#I$+;f#p#9%^*v$a#w$`#g#}#^%2#I$E=f#%$P#E%f@ ,a#w#~*7%'&w$*%<@S,_@B'q)u&p#a#c$j#P@#%e#8> ,I@w$/%]#g-g#g#h%p@g$I$}#'#U$f#c%U#5%^#G$*;}#D%g#J@2#h@k$E$K@S%g%f#e#}#y$e$>#W;|@$@P{0,j%:%8#l$!#l$n#T$w#=&`#[&U#E$a'g~ %L$v#:%]#q#~#!#I@I$U$L$M$t@M@b$e@3#]#9%v$e@h@I@H%7@_#}#K@5%~&_#x$I$s#W%Z@L$`#d>p#/%}#!@g$p#D%{%~%L$s#T$M$k'}#h$i@l$~#^*I$h$ ,e*V@J@4>(#k~5]P);@c%1%@$F$J@L%k@%%5$6#g@m@U(c$$%0#+$$$}#'#(&A@s%p,e@_$x,0%L$M@L$.#L@1cA@T$K@e@=#!_I$i%~#t<Y@V@l#I$H@e@y$t#y#7'5#-$t@O;6@$#k@M#o'9@f^J@d,9,V#F,X;E$~*!#=#2#o%S,k#J@$$|@{&H%l$;$+&h-)&v%h$7%%%y,",
"Zab$*=f$w$S%a#%%w$p#]% %I)c'(#5$N%E%'#e$P$+&w#&@u#:/5^;'($b@L#1@u~($c@#_ &6#&#h#t@>#.(C%1@&#-@<,Z@t@8=D:!#[&0#J@3#s#l#h@B0e@=>|#}# &g$9'I@k@L=I@&#m$W>t@n~V@*$$%p@-@f#E%o#P# &e[7'8#i@!#}#;@t@@#,#/%[(_#c%[&|#|@7%B#E$5%q#s# ,!#|#7@`;/%y#s#y%w#2#_#5%;$w#_@g$%$F#f#E$2#j$U$I@v$<&w#D%&#>#i@Z=-@}#I$$$+&G$I@K@3%m$&#l#^^w$S@U#_#e@]#r%c%F$n#k,W!l@:#6ci@x$c$'>e@c%6#|#i@U#]#e@m#p#p#y%-@U#2#M$f@2#T$i@I$%%!#I$e*<>4%3&&#n%'#%%G#C%i@*%c$g$b$~#w$b$T%Q$4)1@*#C)A{K$k$_#P#[&,*<%!#i#K@,#1*p#s#e$5%n'i#m#:%!#&#I@'#K@*$'#I@m#p#!#j$]#m#+$7'u$_#~%5%O;}#~*I@L=s#B@@#9,$#o'($D*%]/%|#w$~%i@=%y%=#/%i@g%,#]#H#!#x(v%j$M@g$H@H$c%r%A@}#;@p%,*<&!@B#<& ,G$p_}#0#b${%k$=#S%o#c%0#%;e(8)s@J#8_]@!*8%*=Q%e@p#Y$U;K@:%V#i#|#o#j$L$V@_#=#I@G$i#g#|#i#F#C%b$D%U#I@i#C_e%'#p# &'&w(e%/$w$`;}#i%I@/%D%U;!#00b$3#K@'#Z@2#L$V#2#I@i@9' &|#M@s#K@Z@I@Q'g$1*v$}#P#M@ %i#<&,*`'v@p@1/%(2#5%_#W>s#c%4#=%#%)]/@_$($//J@f#t@P#e@w#I@V% &2%^,O'l(o)t>v%q@G>V@s#i#;@3#5%w#x$.#&@}#i%5%'>~%X@7'V@&@b#u#*$V@ #h%|@-@i#u~J#O;6#J#a@i'~,7,'#~)f%*%l$=#g$:%P%I,f#@#-#a# %k$y$y$Y$x%>_b$g$ %@,p~",
"><h$I@k$5*w#_#D%%*%;)$)$=]d@>$3=.,I@p#(&}#L$Q'-@X@x$,,I,x@n@k@(>-@<#!@-$6#Y+$$i@D@_#|#D@p#]#w#e8n@(#8-+:m#S;e@!>5%F#;@c%@#i#|#2#m#`#X@i@w#l#7@ ,!~@#;@U$H@~#-@b#q#-@c%&#V#*$H%^%,#&@2#}#}#F#^%`#V@s#L$p%|#w#3&u#L=y#g#E$!#)$3#i#F$S%}#]#E$i#/%V#i#s%I@u$/%g%i@V@ &k$&#|#h@w$&#S%e$u#+&G#_#J@v%R(~#C%t<s#0>/#b$ ,s#}#D%H#]#^#N%}#%$9%H%e$!*8-@>[#w@-%6#s%r%M_{%&#c%l$S%b$$$U;G${%,#T$H%H%I@&#4*2%0#j%U#E$t@Q$!#c%%>g~p#o#I@Z@s#,*g#;$o#+;U;g~i@w# &i@E$0{d-)@T)m,l$j@w#a#%%~%]#D%i@ %D>i#8%]#_#s#&%l#I@V@w(s#-@e$I$f#~%t<K@m$g%v$}#T$g$.{%$/%U$s#i%w#P#S$g%e$u$''@]$#7/[)Da#$e@-%=%c*[&!#S%T$b$e${% &;@|#0#y#L$L$l#a#l#I@i#&#d%}#V#!#p#F#s#n#g#w#E$&#=#3#!#V#'#_#Z@'&w$I@g$L#%/^@z@_@Z,P@E$|#g#]#V@c@U#,*2#i@p#F#,#B#+>N%[&`#=&@#2#7>S%.;|@w$:%l#I@*;U#7(Z@h$+;w$|#0#I@d#B#}#a#w#&#V@V#l#>#U#t@K@_#~*[&D%e@!#_#U#;$L$e$p#I@S@e#I@K@w#=##%&#}#L=Z@0#J@C_K@D~&>P~B{w]&@L$w#g#!#o#H%w$|# )B'Y+a@r_q]x#a#7't@i##$5%=&l#+'<@b@n@b@}#^&U$e$q#H@o#K@V#n#_#I$^*5%I@J'C%Z@o#B#i#_#I@k@f#$$;@8#^#-@^:^#c@->/@%>2/d/d,R,((y{B;}%t>{%c%>&l$d,A@*@D%&@{#M$%%%%f$3#/%D$6_9*<*}-",
"7c=#L%!*E$e$0%L$1&%&v%M$K{>$(#s~X;a$[%L$I@j%a#`^k# %r,P,w@:/h#^#6(&@h@L/1@$@6#x@]#^#l@}#l#e$$#9,k~_@_))$&#I@}#D%M@g#&#0#^%W%.#S@g#[&y'+$F#I@ &e#|#1*Z+ ,s#h@w#U# %5%[&x$K@&@c' $&#9%/%%>s#K@'#/%g%L=i%Q%9%|#7>^#P#i@m#{%8%l#W>i#I$w#h$9%a#2#c% &X@`#J@}#e@9%F$U# %2#'#8#h%@{5%*$h$c${%W%i@k$$%g%2#0#s#L$M@y%e@D%*&e@f$:&i#q#]#p#M$1%!%L$ ]V91@q]9=g6i#D%s%P#8cP#3#m#'#`>E$h$D#E${%w$U$=&#% ,s#*;`$7@'#2#m$c%g%W>B@;$g##$l#*%=#e#g#I$Q%k$h$]#e$&#>#w$y#X;d-_@C)*#I,+&_#!#E$L=j%l#0#+;^*g$/%I@i#w(}#e@r%C%P=l#v%p#!@|#!@%%$%`;a#G$h@I@K;j%0#V@W$|#I@1{I$I$P#s#2#V,p@Y+9c0c[#D%/%j$d% &g%&#d$x#^*j$`#!#p#V#j$v$L$e@w#w$}# &y%l#7'/%7>|#y%i@e@ ,L$d%'#1{i#P#2#j%l#Q$/%y#T$_#}#,*+&2)1@x@I)1@T$<%g#U$g$N%&#B#P#S% ,m#F#I$I@>$T$U#$%@#D%c%]#]#i#{%B@V#]#g~y%&#]#x$}#g#/%L$I@p#p#i#I@k$S@9*Z@V#9%i#5%c$4#I$G$g~T$&#&#~#m#&#I(}#I@j%=%/%'&,*F_K@s#s#}#p#s#l#[&=#U{-@v@m@acbcg%@$f@i#B#f@&#p#e,k@9{~@cc_#/%L= %%>!@S@K@S%p{J#($/@o$c@:%5%U;w#@#}#7/V@P# %|#'>*${;x$a#8%1{Z@_#w#;@2$5%A@m#!>&@~#k~L'#@d@k@W!_$J;&@l,',-#~)Qaj$>:K>M)[*u%q,d#W!c'({o#k$K%v%9%y$[*D%*=M@4'O)",
"dcg#9%=%f$T$s%e$v$V$3%';m,+$$#C=;%s%}#y$}#9%E$_@c@8%,,w,/@=@_@J0$#~#%#r=}#Z@W%[#d@A@B#c@2#3#T$0,_@f@8)ec &m#K@I@e@Z@V#V@7@U#&#$$e@g#I$%#4@g@^#Z@C%4@|#c@e@i@j#O;Z@E$F#H$a'K@Z@o#_#D@_#T$t$}#e@Z@2#g%H%w#J@}#o#>#T)+;B#$$8#_#T$K@F#p#B#4*H#[*;$P#J'B#*&%%}#&#H@I@h-/%0#U#S%I$W>4%3#&#&#w#]#B#-#7@g#!#U#&#T$+;e@:%e$y#2#a#B#2#I@b#:&>:|#+&p,b@>@a@r&f@b#M@{%D%s#F#4%b#C%_#s#D@|#'#U#g#a#h$I@w#S@I@i-k$-@K@b#e@L$I@B#U$6%B@+$b#3%p_6#s%{%_#S$ %&#^*F#6*0$J@y:H)k@*@d,B@%%s#p#U$U#{%R><&h$#$1*{%r%>$/%A@v%`#7@T$T$4@h$i#i#|#v%B#;@/%+&u$'#|#3%f@_#|#Z@'#e%M$,#/%$]%,b@_@~&q#=%+$t<*;,#p#g~f$U#U#K@D%d%[&v$D$|#b$h-v% _i9.;!#{#w#o#f$L$e#=#>$C%@_-@}#V@t<2#9%k$m%M$y%E$4%~%U$_#7>9'o*I]a@[_W/8*c%L$`>.;B#&#t#d${%o#3# &:%<%s#_@&#o#q#u${%S%f{y#z%^#=#I$Q_-@$$!@9%*&p#{%M$!#f{U$^*J@-@^:>&G$3#&#=#g%V#y#;$F#:% %}#u#o#i@g%2#K%h$!#0#j%g$w#~#f#h@t@s#g#i@-@j-!@W~b@(#l)k*I@Z@i#>&!#e@/%C%U#+''#<@<@f/H@p# ,^#B#B@p#=#g%R_6/1@6(ta{_&#I$i%S@!@5%&#j-V#y#.@I@;@N;m#q#^#&#b#U#3&c'e@5%%>U;R#{_5%h@;@Y@h@&#3/1@Z^>#]^+'F#Q;{a!*!#k_3%!%b$R,3#s@g_y%M$v%e$e$-%{#_*!%h$k$P#o,",
"e(l#!#R(f$g#<>0$_#L$D$f%C)M#|@A'<*g#)&+>x%T$I^k>N;u$u=-'4@c{z@Y+z]>@$#$#Y+a@!>2#b@ ,Z@*$2#-@0'Q,&>h#s)<~>@9*x#q#3#U#h@w#f#<&7'e@}#>#K@h$.#s@|'T$ %V#M%i#|#w#&#J@j-w#}#^%V#x$G#|#w#U;F#L$S@U#)$&#L't@7'E$~#*&t>$$c%e@,%`#{$'#]~1{I$m#L=D%e$@_/%]# ,`#P#H%t@B@v%B#807@]#)$g#>&h@l#g$x$S%7@,#g%g#S#]#e@:%s#g#H@r%i#}#>$;$g#e%X@^*U#K@L$'&C)s~Y+z@0)';J>t%%%D%*%B#B#V#g#0#l#U$^:U@e%|#n#I@B#K@V@!@m#0#U; %s#I@P@ ,c%s#[&e@!#K@V#L=>#w#!#~#1*1*b$h@i@g~H%!#e#U$c@Y+h#v@(, %I@p#y%e#p#V#S@{&e%*%f$<&i@w#}#q#~#b$&#e@v%V@o#f>D%s#J@D$u%C%s#3#I@f#|%U#U$L$q#d$)&d>_$F]6@T#h)u&]#h$L$:%D$9%W%p#]#K@U#m#U# ,0#2#H;x#0'|#L$]#b#,#{(2#!#j$B#:%g#!%c%y#{*2#=#c%P#t@e@V#|#g$i#o#h$J@}#[*:%4%B#e$z@c-E/I)<%~%K$m#2# %/%F#M$O;v%}#s#&#D%_#V#2#h$2#;&=#b$`#d>)$u#p#O%4@{%B@s#$$D%2#g~/%2#|#}#g#f#+>|#3&K@I@%#c%g#]#e$J=U#9%q#;&!#_#}#F(h$3%/%Z@ &7@}#l#'*W>%%c%C%_#`#o#y%4>a@W!J{W<&#,*F$f#!@3&I@w%j$S>$@/@x@r$i#{$_#|#W>5%M;i#6@B{~>$#1#%*E$y#s#[&>$0'm#7'$@L=A@s#!@e%J@.$L;m#*$>$ ,e@e@e@4#-#!>t@8%6%F#Z/H#q{u>+$2$o'I;;,!^i#9)c>j%b$M$*%j%]#n=Q(3&i#_#:%%%&#I$j%%%B@m#g$0$}%f0",
"q&-%P$f$V%>&v%,*e$7%M$K%i)*$$@I)fcP#h$2#Y$p#y%($|@!@n,u=T@1@U;w@Q)Z@>$%>F#f#c@f@S#<#U$D@5%c_m#_,'/C@/=;(,*;@%#7><%-@!*2#f#%#^*U#t@i#%#'#Q_ ,7%2(~#1*C_~>l#}#&#U;{%/%t@i@_#!@s#2#U;,#I@L$4%l#V@m#'#T$:&I@t<a#!#x$u> , ,M%&#<&3#p#}#j$ &V#s%r%&#m#N~g$-@g$G#|#L$o#S%&#b$/%U;V@>$L${;L#w$$%2#0#l$k@Y$j%t@I$)&7@&#`#9'x$E$ &;$&#]#i@L$'*w#~'a@{],@p3D#~#1* ,a#P#v%.#w#i@,#{%S@%&'$U#r%r$+;7@F#!*i#g$u%}#U$x$/%&@|#*&g$ $r%'#S$U#>$E$0$g$ ,)$}#K@%&U#K%'#=#e@|#+=s)$@!]h]A@P%p#Y$V#=*b*.;0$d>H;M@h$v%^*0*7@!@t@_#g$e%V#&% ,t>^%I$9*[&F#/%P#U$.{!#0#K@**w#%#v$|c-'b@b@o)gct@s#B#<>L$7(V#m#H%&#c%H$m#!#E$f>v%~#M'L$d$v%=#!#%#j$!@s# $/%K@^%a#%$u$_#y%D$L$C@H%Y$&%L$C_v%%$)%!#!@7'y%s#y%hc!)o'1@[,g#e@K@&#]#h@i#I$C_g#7@p#!#y%<&T$d%*$g%=&^#:%,#K@F#l#&#&#2#H%V#7>v$g#U#&#U$:%y%c%e@h$c%`#U##%T$u#|#j$t@0#J@y#+;m#E$j$_#w#~%0#U#g%[{]~C%D%:*}#]@H$v%c%V#_#]#|#T$_)'>$#o{J^P@i@4%I@%%B#{%&@V@a)Q@_@`+0#E'/%m#}#g@c$I@H$,,$#W!>@c~&>i@I@e@}#q#K@g#|#Y+g%@$e@~@,*q#K@Z+x$,#)>A@%#.#|@$#K@_#>$;@J@2#Y+[#@#;@+$W]A(&@d,!'i#8=icv$e$f#c%h$&~;=t@D@U@x$M@8>M$%%!~h$[%k$g%T$=*:~",
"_>&#3*l%>&w$v$ %a#{&s#w$C]6#'>#>W;<%h%s#l$L%(#&>_#O;P]F]g@m@k~J@|@U$h@$#x@c'g%m#U#~#!@D#;$(#l#[-J0*$+'W$y#;>%#k@B#L;;$4@!@&#T$l#I@L$>$2#^#L=U#y%->[&i#U# &&#|#E$6#}#!#p#'#&#&#e$_@>$j$ , %q#K;/%'#K~w$l#p#'#i#y%-@V#R#h$M%I@[&!@p#K@g#_#.;!%b# ,V#w$!~[&]*5%Q'Y$e$=#2#B#s#j$'#9*2#/% %I$g$L'b#!#>$K@S@!#/%w#j$m$-@~%b#{*u$}#C$&#V@s#a)($-/h#>#&#1*|#V#X=7>9%j#)$'#U$w$/%j#&#h-h-l#K@>$T$g#|#]#M;p#e#g~&#9%=#I@r%$%7'I@|#!#&#r%D@v%u% ,_#<&R(e$[&%$b#!%Q'/%_#1~|@*#*@^,'*p#&#c%,#l$3%U#D$#$U#~#f#e%e@:%!#O%B#M@V$I@*;D$]#T$]#!%I@S$-%%$h@4#9*Z@;$q<F#w#O$v{#>p@5#,@A$G%,#T$}#=&{%7%w$<%&*g#n%I$V>}#t>$:]#g#[&C%g%g%*$`# ,e@V#:%&#U@D%!~K@K;&#}#*$ %I$0#N;i#_#w#&#%%U#!;E$e$b#>$d$BaQ=k@=@r#s~W'|#E=7@E$e@[&u'&#'#:%K@P#h-$$&#>#&#T$f>$$Z@h$}#8>X%k$o#f#V$]#,%`#&#I@|#=#U$*$X@f-x#E$y%2#m#,#~#t<x$t%j-h$f@V@!*m$!@-#E$K@a#&#K@t@i#h$m#y%B#*;|#'#g#l#H$g#|#z^Z+3$C)ta4@Z@s#d%;$o#4@U#l$5^-$*@c{B~8%t@`#x$P'I$ #x@#>1@_$ @P>@#I$%$s#c@h$i#3#.;|#i@ ,V#D%O;g-~#i@&#O'_#;$b@q#f#|@U#y#~#:%4_&@5(-@g@A@o{_@P{c@S,8-q#[)K>Q$-&y%|%.;>%Q;4#Y+f-;@s$!#K@#,T$N%-;I$Y%}*f$o,",
"jc>*b$K>/%*%h$g$K%9%!#e$q,.#b@s~%(x$_#T%M$I=7%Y+5>$%n,S,2$Y+_#Y+=>9{f^X@i%L#o'A@4@+;$$m#-@!~8%[,W!c@/,J$m#X%<&7'[&`#$#_#'#l#i@l$I@`#l#I@_#E$$%Z@h%S@R#V%_#I$j@w#e#'#-@^%e@_#e@B#K@4@^#,*A@l#Z@K@y#6#b$|#b#;&=#P#a#<#X@4%b$ &l#O#b$D%7@-@g$h$~&e%[&{#E$1{{%Z@L$K@3#s#I@>$3#h%g#;$/#/%2#+$L=E$3#C$S$j$s%Q'w#&#`#!#/#|#i#q#=#:%s#`#k$h@r1m@#@&)Kaw#=*!#l#E$ %U#K$j$e#,#l#H%h%'#P$5%l'i@H$%$v%-@g#J'b#w#E$L$,*-%b#i@w$`#;>a#^* ,*$^*'#4%}#j%g#J@j$I$b$2#$@S$|#D%w$=)1@=>0~($D%p_j%g#!~c%_#:%2#g#V#b$_@:%e[1*;$L$M@2#{%y#n#s%M@r%S%K@s#U$j%!&E% %1{0$ %;$E$E$k,'@k@o'l&Z@p_h$h$m#n#=&:%M_;$|#]#j-s#~#5%s#g~^#*=U#]#8#>#i@y#7'+;s#D%h$f$!*V#U$U#w$I@!@D%s#i#s#_%i#!#U$V#:%U# ,S#w$)$v%e$0%;=Y@$@n,t@b$I$i@*&#%^%U;]#}{]#1{X@w(l$|#I@,#a'Q' &p#k'r%g#P#L$}#!~I$9%g#S%3#'#r%L$e@2#Z@p#E$7@b$}#k'o#U$&#v$p#g#y#s#N%8% ,q#g%!#X+d%/%!#2#w#2#w#0#$$#$U#t@V#/%t@w#x$l,J@*@%:q*h$!%%%e@E$:%^#a#_#4^-@9{8)kcI@]#_#I@&#&#:&),C#b@_$V*6#*$@$c%;$D%J']@o#U#D@V#f#,#U#e@L@Q@Y$f#_#i%V@l#_#d@$@$@|#>#w@6%I@f@1@9'*#^#5/Z^e#^,|=U#2)f~&%,#2#O%l$-%K,m]h@s#5%w$E$y%K@v%K$S%i#r%:%T;&,",
"F<g#g%!%)$w$h$Q$x(%$D$S%j)_@J@^@@0~%s#w$x$/%w$c@'@e@5^',h#Z+5>#@'>]@+#-@D'-@5%X@7'C%&@V@-#B#g#!,x@;@D,%%]#w#e@e@d*x#*$-@s#@#8#_%,#t@b#2#E$F#J@Z@<>g~I@g#U;U$&#f#1$H%0#^* &T$;>!#@#S%d$#%s%c'$&-@!@M$g@>$[&U$|#p#f@+>c@m#m#D%L$v#^%U#u#>#%$K@w$S@[%D@)$t$J@_#D%z%m_'#B'`#l#~%!#,#C%+;~%z%]#P@@#}#I@N;c%#%h$e$9%%%Y$'#}#}{S%_#+;L$';d,:/W!k~L_c$:%+&s#&#'#5%y%e@u$!@g#%$t@Z@w#!#C%g#!@w$>*F#i@U#j-[&>*b#i#!#V#q<Q'l#U;I@j${%s%q#*$B@9%p#I@m#g#H%H_Z@=%y%w#|#0$V@90o']@$#m~H$`#L/>$c$l#g%]#V#4#+><%~#C$l#3#U;c'Y%'#I@b#x#}%^#]#h%)$h$p#o#>$+&Z@g%>&]#/%g%I,P~1@[_U#Y$8%`#3&!#b#G>&#d>]#V#7'f#5%x$a#d$I@L$k$s#s#w#p_%#c%p%U$[&M$$$}#f$K@m#0# ,P#i@i@U;}#w$$#}# &,#}#w#W>j$m#*% %&#@#w$/#[~A{L@D~3,i-*&P@i#3#w$!#v%b$/%w$H%;$;$}#2_<>D%-;t>|#7']#y#M$'#|%}#o$>#v%3#`#y%S%m#|#y%!#i%t@g%U#I@s#h%y#/(e@6#l#-%k$y%f@o#&#|#U$I@y%=#K@l#V#U;3#e$|# ,p#%%g#B@P@2#)$Q;h#a@C=E^)9i@*;)$_#u#V$w#w{z{8)A@^=p#S%}#}#0#+;s%~,P~%@lc=>!*y%x$d@~#y%-@W>!@.#D@&@w~>$3&k@!#u#f#8#I@g#$#J@V@S@M#k#i%i(L@H@b@g@_@l@;@s@{]5>.#k@8-^,p#L,B~y%%&B@F$=*O%{^(#_$*$H@s#L$}#E$~%,#E$`#&#]#3>8$",
"mce*<>%%%%,%>*3%i#x%~%M$k,s@`+${k{/%y$E$:%#% &'> &1*_,A,9{b@}$V@Q{'@A@3&&@ %e@w@B#e$f#0#->y#I$_'1@q{;'W=d%b#v%|#)#!@q(|#=#K@I@&#U#I$X@]#B@5%f#L=2#D@,#S@-@e$K@@$V$0#e@I@5%]#L$.#0#u#>#e*I$ $m#p# &L$g-^%_#-@v% &U$5%q#V@~#H%h$c%!#w~(%=#V#%#`#E$ ,7(c%s#l#2#!#|#3#l#]#S%t@*%2#_#:%o# ,l#'#5%2#e$:%%$w#M@m#H%F$|#6*%$p%r%2#i#d$I@`=9)J;G@=^W:V>V#;$e@i@f-g%]#E$a#]#c%b#D%K@ ,}#J'~%!#L=0#x$F#E$g%s#{;%%:%!@K;i#L$:%E$9%X%U#B#&#^*'&q#T$u$s#e%D%w%P@B#<%U$X%Q$J@b$p@f^C'$@I):%7%S%b$c%T$}#L=t>{$i#P#}#L%e$ $w$i@W%F#'#h$+%3%U;2#C%s#!@>&,#d$g$g$:%j$P@h#m,W!M^AancJ',*/%c%}#`#_#}*w#g#:&M@%%l#[&>$/%s#H%1*@#I@p#$$2#*$G$j-t$U0m#j@8[U;)$K@<&!#+;|#I@E$+/|#Z@I$f-~#e#9%[&}#U#T$+;]#+>V@a'60$#W!+]@>T$[*e$3&/%&#J'+&m#y%:%y%y%u$]#e@Z@c%,#k#r%K@y#@_9'}#I;[&[%~*p#+,_#a'|#|#p#~%U#_#V%k$^*y#-@}#y%}#F#F#_#[&+&]#V@H#F#-@/%x(_#D%D$`#S;Y$U@f#S$_#,#b$}#K@=%v$/)%#c@8)mb5%*%u#_#o#D%%$I$^,u~<#O;&*j@ #E$[&=#T9e9`'6@W!s~~<&>j#f-&#[& $)$|#q#K@8#g#6#S@!@b$G#7(y#L$i#N~-#,#;@i#t@q#X#N;(#&#;@t@($5>J@^#J#7/f^6@<)#'Z(c=R%P=v%y$+&I(K=Z{$$b@ &3#!#=#f$]# %d%L%N$P%[*o%8$",
"W&p#Y% &P#/$g$S%p#O$!&B%$]O'L@g>j%=&E$/%%%)$h%&@'>D%@^oc}$-$v@C'g(-$A@!]l@f@f@m#9{|@C%0'k#L$t$^,9{-$8,d~D$i@o#K@:%c@E$q#8%'#D%&#B#>#B@e@}#U$s#}#!>|#f#2#-@}#:%@$g@D%s#5%h$x#5%g#|#K@L$s#g#C%m#$$&@~#9%N@i@D#C%'#Z@u$i#p#I@B#-@_*w#<%~#p#!#o#-@B# &2#!#`;8%!#/%b$p@:%D#&#'#b$3#Y@!##$e%o#!@p# &I@e@w#%%U#}#R({%q(l$=*&@P#!#!*o#J=m~f#V@J{@~g@D$!#M@v$F#:%!#>#V#8#}%!#V@~&m#O;k$y#l#v$'#g$j$U$E$&#.;3*+>t#Y%$#l#h$d$`#K@L$`;!##=i@}#Z@{%s#2#g#h%/% &K%&#Q% &]#B@`#Q/#>_@pcI,-@g-}#p#G$u$i#f#9%;&*$D%<%f>7@]#P#3#e@&@m$^*h%}#[&^*/%!%V#S$j$l#:%3%E$d${%w,L^Y+Y+p*#{;$L$w#D%M$_#v%&%2#0#s#D%m#g$&#U#}#c%h$9%p#h%U#@#u$i@ &i#D%}#w#K@g#`#w$i@|#s#H%T$g%M@s#k$[&S$V##$7@T$c$^*g%B@|#c%4@G$^#qc,@J/Z^d_r$U# ,!#L$J%I$>$y%B#*&#%|#~#D$&#|#e@c%>#}#~#y#k'8%+$8%i#G#k@T$s#U#g#-#5%i@&#J@l$}#]#|#k':%B#B@s#E$u#h%i#i#8#w$=#}#m#5%/;^*&#S$2#F#&#&#K@E$s#]*C#/%s#k'h$6~x@M#`+>%Z@{;L=&@M_Z@>$H~`= &b@y)r*F$>&s%8%[*Y{X~z@Y+r'V0)#;>5%J@x$%#e*v~@#X@Z@o# &p#T$^#&#g#$$h$Y+l#&#N'@#2#;@h@w#O;_#U#Z@%#f^L@+$_@.('#Y+c-A@K{b,Z@I]B>p#w$!#*%H$)*a)>$x@>$B#3>K$1&v$v%<%>*C<1*b$M=  ",
"rcm#k_k$h-v%e$S$K$K@|%E%^)h@~#C=1~l#g~v%g$V#0#6(G#u#7-i)P~T@Y+T@*@w@_#Q{8#h@8#Z@2#;$K@^#>#[& ,),*{(#),V]v$%$L'L'0's#|#L=g#'#a#i%&#>#4@I@-@}#L$c%}$n#f#I$c%F#3#b$b#F# ,I@L$u#|#&#f#!@.;L$R=_#U$[&%$!#_#s#j$c%!@-@c$-@ %>(2#P#m#@#l#y%*%k>g#l#c%i@g$0'/%L$f-B#{%s%.;E$e@2#L=_# &L$w$_%{$M>,>s#1%=#l#]#K@$$#%o#N~[&^#s#J=I@/%H@V#%^`=)@W!Q)O%V$I$w#[%{%v$'#Z@j%_#,#M@C%c%b$p#s#&#B#F#j- %e$v%H@1{e%I@]@0#`; $Y$i@a#s#s#a#U#g#{%}#q#=#5%w#:%y%V#'#h$U$h$0$O;g$-@7(^*,#c@$#*@w@Y,H% %&#=*w$p#`$]#r%&#L=K@]#4@m$E=2#m#&bv%!:G$9*2#/%E$w$/%L$&#>&g#[&{%g$C=T{c{$#')F^h-*$|#2#Z@c%E$v%]@[*'#}#!#U#[&|#2_1{._s#`#E$7>T$S@k$K@s#&#C%6#,#H%$%w#f@i@7'e@u$:%L$1{W>V@=#>#}#B#+$*$g$s#|#`#F#'#v$&#d%E$B#3{L#T^ -L9p#i@E$7#y#I$2#V@s#V@%$i@m$w#{%|#{%L=;%&%y#M$b@V#g#}#=#E$s#D%e#g#.$F#h-r%9%3#b#J=2#F#I@D%2%{$P#y%'*K@G$9*=#m#|#T$i#c$J=K@,*k'S%'#D%E$.;|#3#)$g$|#g%s%':c'l@>]vb)$i@I@,%&@5%2{>]C@8@;@S)`+;$I$I$]#(#,,~@h#k@1bp#/%]#&@I@e@y%J@I$Z@a#$#N_C%%$g#0#e*E$e@*;]#o#C@1@8#h@&>k'g~K@V#L@=#t@M#e@f#w#h@6#-$d@s@z=n,N;/=k{H$o$k$k$**k$/,$$q{ &Y$[*9%<%+&]#s%j%f*4%v%>*='",
"S)g#%%#,F$/%T;T$_*y%`$K%I)&@M##)F%0$%*!%~%D$o#_@+$9'C(z^-/*#5#b@@#_@_#C%w@;$f@s#$$}$&#_#-@,*!#,,[#x@<)+1!@_#s#>#8%Y+k#K@L'*$g%t@*&w@6%K@{;_#_#=#o#=>T$@#p#x$D@I$|#d$/#^#a#^%7'V#3#c'e@C%(%a#K%._l$G#%${;l$=#U#d%`#+$j-Z@J@]#K@D$w$s#<&7#+&y%g%B@/%/#_#g#o#j-c%E$s#{%w%k$p#>$,*j#;>a#K@z%&@1*/%,# ,`#R(V#)$s#7'g#T$G$_#`;7's#W!R]h@5(~=sc!#X@|#n#o#a#`;=*x_/%=#{%g$T$s#B#y%{%c$%$)$s#*&&#T$N%}#i#s#]#/;^#d*5%w#o#9%E$s@3& %E$h%I$e@u$y$p#J$7@v%v%n#v%`$}#>$S%N@d>/%P)9=[#)#y{${P#x$`#s#j$G$h-9%p#u$S%V#b$y'/%7@y%p#:&o#K@h$U$7@>&V#Y%M@*%D%I@_#:%=# ')#b@n(10'>|#^#{%a# $}#/%V@$$w#}#K%D%o#^*Q$s%y%p#Q'l#&#x#0#P@w#9% ,i@w@a# %K@n#{%L$'#B@$%p#B#}#3*B#l#%%i#f@,#I$F#B#p#3#r$|#y#T$S%I$i#g&}@k~2$/c>&M_I$l#L=w$g-I@H%J@P@'#,#I@2%>$F#I@x$H;u$]#S%0$:%i#l#|#@#m#w$I@]#m#*$g%!#g#U$*&_%+$+;D%D@&#w$_#s#j$F_i#w# &3#y#x$7',*f#Q_k> %U$_#J#V#]#^%p@|#;@g#$$7>./k@K#q^5*#$v%tc!~M@ ]<,uc_@Z/9'(%s#p#p#w$t@d,2$*#Y+<@R)*$I@B#5%>$f{I@K@}#H@q#+;w#W!5%3&,#U#V@o#I@w#o#<#-@Q'p#&#K@&#w@<#%>B#U#W>;@1_x@$$f^2$;@%@I,{,w#I{F=m$k$h$G$|#z$j)&@6#t$w#N$b$M@E$I@l%w$P=e*e#|%Q,",
"D(R=a#T$I$vcB@y%g#f$Q%s%L,4@c{j)K>=*'#k$<*8[K%W!>#v%L,^,$@_@/@n@k@F@^#X@&#e@J#U@t@L'@#.;%#5%g~(,t@g@j)e~!#&@/%Y$F#>#w#w#_#U#4@g#'#<# $F#y%h%T$f#h$<&B#|#i%&#d>U$i@_#y%F$y%|#u#L$V#w#p%f@G#w#U#L=_#D%@#g%&#l#D%Y$p#_##%_#U#c%I@E$4#b#U#%% $j$V#$$K@&#]#k$_#m$:%e$,*d% &.;s#Q'>$e$C%/%V#'#t@p#F#S%&#U$!@w#]#<&:%l#K@ &E$ %]#h-R,x@]$z@b@p#C%w$:%W'y%O# ,I@E$+;d$+&X@!%}# ,I$p_S@!@M'v%i#)$K@2#}#]#K@j#$#I@e#y%1*[&}#j#n#Y$}#7@,#&#m$J@<%h$L=)$%%L#B@]#,;j$k$!#U;v$ &^*n>($d-x@3,wcO#&%u$:%W!u$a'<>C$w#L$$$U#C%D@r%y%M_v/]#2#[&f$c%f#8#e@j$y#~%]#!#5^G@<@h#I/&%f$U#$$)$0#V#;&%$R=%$V#!#f#7$!~j$]#}#-@h$}>.;'*x$!#X@~%|#}#L$3%F#H%!#y%T$!#m#}#_#h$]#B#L$e$I@2#p#E$V#/%`#_#d$y%K@/%u#F#Q_T$Y$s@#; ]q{n/6,~~~*L$V@M@}#I@I@:%j%9's#g~S%2#g%V%K@w#,*h$U$g#n~/%B#w#}#K@s#p#>$U$w$!:0*g#'#}#'#I@7@I@'#y#p#e%^%L$e#[%I@2#h$+;F#D%l#b# %}#D$&#Y$)$9'7'+;w#_#;&~#I>&c`=.@B#f#q#b$}#{&G$@>d,@#9{_@xcyc/#e@}#g#h--'k~_@_@/=zc+$9%`#2#g~f@'#L=$$i#U#h#4@]@a#U#;@9%+$=#_#I@y#K@$$q#'#V#d/w@e@+$U$'#1@%#;@*$A@b#9{@#>@h#|@$]R,@$4-Ac/%T=>$v$)$=_B/,#&>L=~&E$S%[%f%_#~%F#k%*&M@B~f0",
"j*q#/%L$w$j$Q$2#k$r%k$e$''&@&>P]i&9%t>w$h$[&j@_$^#U@{^&c8@T@Y+6@E_U;_@]@@#O;B#W].;h>V@#@F#8% %^,q#<#F,>; $U;V#I$`#B#N(9*B@,*7@J@7@p%y%8#-@>&@#i#B@_#-@W>I@b#2#y'3#%%|#1*_#C%%>H@L=^# %,*+;M$^% %X@8%l#-@g#i# %A@&#z[d@s#%%_#P#g#~%!#e%j-|%I@3#y%!%)[N%=*@#r%j_P%v$v%wc!%-%H$d(]#H$C> %l$f$_%b$<%V~9az%f%]%h$(&h$X$d%>&C>f%0@e,i(!>z=*!U@|#I$2#!~S$k@g#v$h%H;5%~;l#i@7>I@D%6%e${%w$;$<>4*w#U#>$)$b#y#T$9%g#y#S%J@&#t@ %T$*& %]#@#$$w$!#i@v$l#e*a#c$e#y#;$&#I@J@w@v$%%I=9=Y@`+L{j)b~z%=*0>N%'*(&d>v%/%P@P@p%:%*~Bcp9%;d~Y%+&a#>*N%!%Z!@%^^P#=*^^{>X'$@S^])CcB#M@=#5%i%`;o#T$V$@#g#'#d$,%a#b#>#p#^*V#8#c%2#+$K@ $i#V%!#m#2#&#.;y%[&y#l#S%g$i#g#|#/%%$T$f#i#T$B#n%@_j#3&e#q# ${;Y$}#T$c%;$y%8*C:c=;@u~v)>#b# $D@q(X%h$j-,#f#o#|#Q%2#M@7>U#v${;5%W%/%W$I$i#'#{#T$|#3#j-$%}#T$}#K@|#U$L$~%^%I$7@8%m#w$p#'#]#k@L$I^^#l#R=@_e*v$^%M@ ,-@T$F#I@K@m#Y$U;|#_#g%&)3=*$S#r=8{8#Y$,*b#_$~,F_h#G@>^y;N@U#g$)@*%x,h~W![#z;#1Q@ ,v%s#o#m#Z@,#h$V@_@*;f#^#s#|#F#_@DcK@u'3#j$'#&#-#H#~#_@-@;>*$+#!@@#-@%#{;u>/@F'_@p@^$[#_@6,t,e% )+:N%!#!;s#k%2%9,e@W!}>f@g$F$s#D%d$M@i#[%d$D$,&  ",
"Q/!@F#f%o#3*s%k$&#*%&#=*<)O;->D,,{l$&#~%g#,;e$/#r[|%]]l,O#)@:$G@k~.#^#b#!@B]Z@6@<#[#d@l#4#;$`#4,l@B]]-.,s#U;3#y#O;t@2#2#+$8#t@=#}#}#B#U#E'%$e#L$9%'&U#5%i#s%X+}#}#d*v%d$l#E$a#%>P#+%o#4#k#7'q#g#i@q<y#w%j#e@U#;$p# #T$D@e@|#i@2#%#S@Y$0#D#{%g#v/!,q,='Ect,E(='N,U,+~_'<'U,*' 'Fct,],E(i,_'<'U,N,E(8$|,':FcN,_' 'E[f0N,U,5,G{a@}$]@1<n@g#@{$#b$e*L$N%E'i%F#E$v%s#2#>&8%L$w$S@p#F'!#M_ &U$a'D%g~l#{%.;c$V#D%H%K;{%!#U;j$!*=#h$!#2#i%K@7@v%P#/%|#s#o#D%>*9%h$b@x$!#i#}'%#S:n(%]6/$)},E,|,-'p,!,:'':Fc|,U,!,T, 'T,z,(,Gc5,),v_T,y,i,},T,[-E([,},N,-,2$Z+I/Y$&%g%w$/%l$K@<%,#>#T$e@S%S$2#E$f#>*v%U#j-r%,#L$!~m${%&#'#_%{%4%8%W>S@h$i@%%.#P#0#*&/%|#&#-@B9T$g#s%L$b#{%'#|#h$c%=#%$2#9%p%!#V@7>+$_#m*u~$#Y@m{q#V#w#*&D%-@d*>$!@Z@ ,e$P$Z@D%*&.;6*s#Z@~#d%u$l'+;$$M@{%|#0#g$B#h$T$[&C#3#/%>#i#I@v$3#h$]#!#k$0#<#9%&#c%%#o#]#k$g#H%|#9%h@e# %Q%.;Y$ ,]#6%3*l)^,L;:/N#j*Z+T$E$U;8#,,*@5#$#9=HcW~@#>$y#/%/,N]s@>#[)IcH/$$*;:&V#'#H;J@s#i%{%R({$&@{$t@k'B#&#S@L'd@}#x$w#-@i#+#A@K~B#e@-@9*%#C#V@V@6@%#t@q#r#B'6@z@9{Jcn,~#e=n>3*%%X=>*[&;;B)i@W! &G'`$P@}#P@4*~%M=4%=*%%J$z,",
"u_h%J=Y$c%P#~%E$}#~%i#j%/)i#<#R;Kc[*s#f$/$E${$/@q] &]^8-x@5>c'$@_$4@u#Z^e@i@`+4@k@8#*$T)L'm$$$!,J;L@m~<*b$,#I@;$:&;$J@e@{%x#t@B#K@+#H%/#}#/%B#f#W%,#[&e@l#7'`#o#|#R(F#y#F#+#i%y%'#U#c's#o#X@s# &I@&#w$M@b@j@!~h$f@|#l#x$+$:%d%L$i#q%Z@U$D%v/-%P]e=a@2$1@Z+g@1@h@Y+!]$#$#%@q{f^N/)@Q)o'x@)#a@2$5@9{a@2$Z+9{/@(#_$8#>@`+/@1@8@($($]-<a.#[&!#y#~&_#2#l#)$g#V#.{q(y#3&s#Q%>&:&5%c%k$b$f$]#K;+;&#[&}#U#v$^%$$!#Z%}# #k>@,W>h$V#y#U#K@A@s#$%h$/%>#|#'#E$m#$$$$]#~*,#!*;>H%L$*%=)A@)@~@g@w@]@:/h#o'[#<@9{${=@$@1@#@:/$@-@a@Z+]@*#k@c@T@=@}$b@k@]@h@@$5#F/w{#]8/i@K@e$U$w#/%T$p#%>B#B#>&=#L$|#!@`$&#s%1*9%&#_*>#_#U$D#}#5%}#7%'#L$a'K@_#D$|#a#b$[&a#j$x$i#-&j$j$%$M@D$D%,#'&g~D%r%K@w$+$J@>&e@u$L$]#H=/,@#5#L,<%h%^#i@;&s>e%L$_#:%,*y#K@w#/%2#M@-@2#|#'#u$w(|#}#L$t<]#W>p#f#K@=#n#M@'#[&F$e#4@7(L$K@B#&#c%o#7'i#@#k$o#K@w~_#e@I@7>|#-#O#U@g%}#K@a$8#a#>$q{0,Y+1@_$V($@%%&#=#l#~,P~7#q{(:Lc%#+$_#~*+&:#V,p@)@T@R&z@)&2#@#4@e@ %B#0#)>$$x$^%j%2#B#v@c'q#w#;@*&E's#}#}$C%$$^#6#U#+#t>L$q#'#+#5%K@&@q#^#f#Y+h#2@1@@#H,3,A@n,K>2#C$|#!***f%D,x{8#'#V#v$'#)$g$k$%%-%l$d%=*m-O)",
".*B#u$w#T$T$%%R=%%e#,&v%j)<@*#`'>~%;y$=%B%M@b$b@c@u>{^q,w@P~b@^@6#p@Y+4@+$Z+4_h'_#4@m#L@4@%#.$},3$)@I,+&F#^#U;6#%$1@e@t@;$o#'#/#0#5%*$^*b#=#i#'#@#V$c$V#I;w$b#V#]#S%3# ,3&{$J#/%3#%>`#+$S@'#~#(&>$4@y%g#c$s#b@e#j$!@}#w#l#s#U#e$E$P<-@i@9*w#5>m,x@@(1@]@C#[#$#$#Y+%#g@Z+&@w@g@C@W!k@h#6@*@`+K#b@-$9{h#5@u~x@*#[#)@($8@$#8@_$_$c-E/X;D%%$|#i@!@K@!#!@+>e@i%D@y%/%p#I$9%i#v%->y#5%%;o#i@:%_@p#I@t@u$l$I@p#s#{%]#w$:%f#K@a#&#b$!~2#/%l#7@&#p#7%e$g#p#<%1*I$m#B#I@$%/%a#p#m%E{$@$#~@$#$@w@A@/@$#Z+l(Y+_(z@A#d@a@^#Q@4@!@.@Y@8#{])@*#&@/@>#x@h@x@N@Y+5#Q{,$p)P@U#7>#=p#U$p#/%|#c%:%v%L$,#p#B#a#<>:%J'*&Z@7@{%v%I@K@}#v%S%y#M@^%D$/%}#E$$%c%g$f>y#i@&#)>j#L=m#>$i@p#}#,*U$w#/%_#F#A>_#+$|#V#B#'#I$f^])Mc1@h#,#y#/%S%M@&#x$U#b$%#I@%%%>5%]#V#4%:%V#I$&@w#g~U$g~|#*&%%f#F#w#B#]#p#&@[&f#S%p#-@V#{%{;^*x#g$%>D%~#T$b#=#I@0$s#s#b$}#!#i#J@ &p@}#7@[&w#y%t@<,Z^6@$@!#M=n%3#$$y%X,u~Z+h@w)Nct@d@K@}#)b2$-^k@/@E~<^h$S;5%7@i@}#S$&@m#I@)$b#0'k$;$u>L$e@3#,# &X@ &J@e@p#_#`#&@K@q#L'~#(%%]I@K@T)$@_@+$!]A@d@)@|@1@)@_@e=S,'#6)-*#=:&/%^%7%)*k,|#}$;$ $U$M$p#d%D$h-#;y%F$%%[*j,",
"q*!#$%j#P#]#9%]#+&}#a#;@K,T)M#F]-(D$C%x%B@K=T$9{l/>(a);'$@%@Z+W!O;v@B#5#s@k@Z@J@g#e@e@L=L@x$-@*-'>J#!^/{v%m#3#p#j#s#J@=#,#[&-@S@a#e@V#4@[&&#B#n#_#i#X+|#V#B#D%F#2#u#o#e$<#`#K@V#l#|#]#Z@'#s# &V#w$5%D@i#L$!#!@v%!@,#x$T$B#h@g# %Z@g% %f#A_s#l{T#)#Z^u=K]F@n/^$:#r@C)Q@q{~@2$')r'1#]$4){]T@`+n/o'v])@_@F@w{S{9@o'x@h#A@s@T#>@5#b@F,y#{%U$I@S$l#}#%%/%I@:%T$3#_#r%l#-@9*$$J@B#f>,#P#C$r%->p9w$3#L=_#e@D%T$_;3*h%w#e@I;/%b$y%;@>$h$ %Y$g~U#i@j$!*m#E$f$f#x$|#V$W%+$9%,#,*E$;,%]a@v]Q)z@C=I)d-h#r'($}=r=C=*{'/n)$@#],@,@A@k~&@h#`+m@q#Q)h@h#c$q@-#d:/@g@c{(,D%!#e@>#s%'#T$%$!@+&!@b#b$L=K@e#<#Z@e%e*5%U#s#F#v%5%(%g#s#f#D$o#]#V$}#_#m#L$E$w#U$G>.;l#i@.;}#]#T$y#{%D%'#V@h$c%w%!%'#p#_#r%U#!#E$%&[,*#^#T@F[%$,#B@%#L=2#7'g%(%y%h$a#|#M@]#_#s#5%B#y%`#h$B#7'+;.;!*q#i@g$i#-@4@V#g#p#a#s#^#j%i@f@:%+;@_F#,*K@'#O%s#'#l#Q'q#Q'l#*$`#e@ %U#c%K%-@L=!@-#7,c{c@b@b6#*U$x$T$e$k];#z@O#4=Oc ,}#}#,*g%v(4^l@_$G@3%K%c'_@a#_#e%+#}#{%3&E$F#6#F#*$i#0#q#;$i@ $&#C%!#K@ &2# &1@]#@#J;u#;@$$V#'#g@x$n@`+M/&#c-q]b@$#k@I/(#6'T,t([)j%!%&#h$~%[&b%,,k@c'F#*$a#v$t% &~%T$/%=*d%/%-%89",
"F:_#Q$p$I@O%a%L$a#%%N%=%F,$$L@I)#=s#g#C$=%[*'>q{(#i@,,S0`+O'o{(#h@4@U;x@->c'5/~#L=t@-@p@k$w#H%4-$#1@8,l4B# %_#-#i#'#f@@#w#!#Y$H%b#2#E$T$+$$$p#Q$l#I$N(_#B#}#@{z%/%$#c$@#v@K@!@{%!#n#f@5%'#V@e#2#M@g#w#D%|#=#~#v$=#P#_@e@&#S@p#h%{$Pcd$+$U#q@$]6#U]z)D&'#0@8#6/O#&#K#4@`{U#7#;@Q@o'!@_$@@8@g/[#^#l@v@Y@o'8@)#f^g@6##{!>_$#*Qc*@f^N/),=%]#U#D%U#_#<%%#_#.;I@,#:%p_`#V#P#g$s#V#{%f$g-k_r%]*!%C%}#2#s#C%x#!#'#e@~#q(`$y%*$K@g$w@c$`#]#d$&@E$U#&#0>$$*&C%|#B#y%V@/%]%.;Q_u%m{T#v@J#i@hcK@`+Z@_#b@)#!])@J@i( %g#9'q@Q@c@e@^#b@Z+}$~%$@,@z@e@O;_$;#:#+=x>q@*@y{a)V$V#&#9*r% ,y%i@f#>#g#L$g-,#M@t@!~K@K@3#,#U;,#g#I@>$i#g#&#V#g'x$P#(%I@]#}#e$2#B@B# #]#T$y#U#g%V#6@G$w$,#^%&#I@V#k$q#{~7@I$^:H;d$A{F]6@-$A=5*h$9%]#{%|#z@j$r$N;#%D@w#s%4@'#L$&#S$_#Y+D%o#!#Y$f@[&<%p#{%g$b$7@>$k$W>Q_D%L$D%c$Y+p#K;*&}#g~{#M$9',% $5%-@U#7@f#e@u#*&Z@}#j-_*.#_%Z@B#-^h@J#;@+#Rci%i#E$q#]'Z_T@$@^=Sc=@j$j@f$^#j%;'b@M#4@x@&<m#*&_#{%C%<&g#%$U# %Y@+$,#X@{&{%f@;@D$J@;$2#&#+$Z@I@$#E=D@-@g#B#&#{%_#;$y'i@U#$%`@j#5#4@(#*@<@c@t@/@^,k,*$;,;%X=E$u%>&r%O%L,0'*{>$,#L%j%)*M@K%!#f$o$_#P@!*p>",
"B^>&d%f$r$y%U$s#=%j%G$g$/,<#_$A{e-b$D$|%/%~%~&$@A@w#8-h=g/T#5>p@_$(>=>$#X#A@$#{$c@J'g@,#o#>#,#,'L'Y+<)U=$$;@:&`}@#!#2_K@u$U#A@t@]#w#0$c$>$s#|#_#A@f#V#_#9*B#J'!#b# $S; &j-s#{%I$q#>#|#i@&#f#p#&#B#K@[&t10#~#U##%V$e@9*2#@$h$^#2#Y$w$B#s#`#3,{]u~^@Tcc@H%l#E$b$,;%&<%I$y$u#<%H;i@w(@#%%`;&#U$F#l#g#/%]#l#l$l$2#0#L$I@L$p#'$Uc})${9{$)u>g%I@m#|#h$m#+&U#s#'#s#w#m#0$N%!%s#;@{#t@E$e@!#%#|#q#s#_#V@i@i@W>F#E$L$g%H%*$2#->h%e*'#d$7@|#e$U;>&k$)92#0$w#'&u#~#s#w@6%I@e@J=f^x>C)Y+9=6ce$2#U#a'_#G$w$D$&#E$g$o#+>-%a#o#t>P@.#V#]#e$T$2#B@I$w$%%i#[%h%_$/^$)]@d/V,y'E$M_ ,s%_#/%,*I$9'I$,#2#`#:%/%%$3#y$>$}#y%_#@#h$J%_%F#L$[&S$,*'#Q'S%y%H%m#$%l#v@2%U#V#s# ,v$b$w@B#;$<%y%%%V#l#U$7@g%B0e%y#K@s#Vcx@Z@v@Wch@&#s#%>u$x$m_V#i#/%w#2#|#S@c@y%;@l#]#~%'#]#w#m#7>d$}#l#p#K;,%5%o#p#5%Q'T)d%B@K@'#c$i# &6%-@V#Z@V#g#Q'6#m#C%L=^]T$!#h%*$/%!#a#w#i@{%O;f,F@x@l@Z^Z& &e@w#~&/,R;k#w@~=Xc=>Z@U##$V#u$^,P{6#|@Ycu/ &-@h'>$+$@#+$_##$y#B9^*=#A@%$y%%$s@-@a#M@g#i%U;_#e@u>I$5%f@-@1@h$3&U#=>B#x$t~-#U0&@h@6#u#)@d/6$$#h#t@S,8=b#ZcU(%&{;Z![&E'f$m~u>x@E'T)l$T%p# &7>a#L$i#D#O%3*j,",
"|_l$)$X%h$0$c%)$D%I@2%!%Y'>#Y@''C>s#]#P#G$N%3&:/W>g#P,&)z@I/T@1@^#)@_@(#f^9'k@{]@#-@L@!@1@o#*~<'_$v~x,J$!#,#i@B#&#t@.#i@h#x$3&2#K%Z@(%V@L= &p#E$q<@#y#I@$$_#I@e%&@w~T$y@>#:%2#h$/%5%w#i@7@F#v%e$!@s#,#*&g#/;o#g%f@@#]#e*L$B@s#f#o#h$'#2'I)=]Q@6@y$&#'#5*6@0#'#=#w#|#y#d*!#&#^#l#b$i@s#g$I@T$ &~#d>H$-@8%!#W>i#H@S;c%;@o#w$h0j$*##@Y+^//%.;&#*%-@O;G$V@!~/%{%e#~%I@M@H%^*M_{%H%b$g~0$}%B@F#,#j#I$P#j$g#7@d$8#L$w#6%_#q#m%}#|#p#T$e$s#l#S@x#s%+;K@a'>&K@T$+; $-@=%^#l#8_5/5@{/@0{:e$_#I@*&9%]#e$y%l#|#L$C$V#W>V#%#_@d%h$=*Z@'#D$V#7'8%Q%s#x$^*}#b$P#b@f@*#q{$]]#j%`#p%U#~%Y${;]#h$ #w$G#[&e@W>Y@w$e$i#K;y%0$|# ,b$B#~%V@Q_!#3_U# %/%}#7(|#P@)$K@+;r%e$H;K@}#Q%[&j$y#!#u$F#|'S%|# ,**g$M$u$]-~/h#6/h#4'U#v%-@%>T$!@J@h%p# ,I$4@K@I@,#I$V@@{E$,#*%^*p#]#o#g-V$/%{%K%g#i@'#P#2#d$F$E$&>K@|#=#j#s#Y@;${%Z@!~h-%#U$D%<&0#8%f#E=]#L=u#w$U#F$_#i#9,2$I;$@B][~f#5%k$T$m{A'q]Z+4)d|}$>#@#|#G$U#S,{@Y+I;o/`c&@{%@_i#=%c@}#U$]#e@7'D%;${%e@~#A@ &M@k$|@E$ &I$i@i@}#_#Z@m#7@T)k@w@d$!#.;&#J@t@I@+#D@u>q#h'h##@Z+C'A@^#d,),Z@6=b%n3%&/%l#7$';/,f#_@f@{*f$=*b$v$x%s% &^&)$D$/%C;",
"p*c%B@!~';f%u$v$v$l$~#_%d,@#|@<)F[w$_*p#$%)*L$${J#_#n=x)~@n@1@/@J@-@7/;@2$w@4@q#L@5%^#@#H@~#]#E(|@)@i)e-L$9%X@+$7@f@e@!@<&V#5%&>6%|#P#$%!#U;s#T$|#w#K@q]l# &e6Y$!].#j$h@o#w#j$b#+$1*s#`#b#w@D%~#^%A@I$0'=#e$9%%#2#q#l#>#~&&#s#!*i@!#}#e@i,A@-$6)}<q]3& &[&;>K@p#1*c%b#V#e$H#y%*$%${%<&s#2#[& ,}#.;s#c$j$w$J@_#S@E$h$a#V@s#k@V'6->@[#;#/)E$|#v$%$g$7@j$s@0$q#.;t>E$U#E$>#!#x$ % %b$&#b#*${%3&K@e%9%K@y#p%g$r%h$!@v%^%,#_#p/]#s%j$I@V#o#U#g#E$_#b#L$p#Q_D%,*j^g#9%j-3$K{G@{:B=u0y#P#d$~#L$l#~#D$,*m$@#-@X%)$E${%@#r%[&~%J@f$m#g$&#l#2#*$_# %<&x$H%f# d9=U]t@k]!@s9l'k$+&!#B#&#9%U#3%o#B#a#`#i@p#<&t@X@!%/%&#g%B#/%A@7@3%g#g%u#|%D$s#L$v/K@2#P#3&3#I$ ,%%i@+%U#+&6#l#I@,#V@s#-@L=p#u$i@-%p#;,]:]@`+#ac'd*%#b$L$2#|#:%|#D%w#1{g#!#-@1%J@p#s#!@_%^*K@g#>$@{a#i@c%%%!#/%x#f{^#D% , %^#f#C_7'j#v%U#l#n@V@X@<&'#h@V#g#}#T$@_&#s%q#v%U#2#q#e*b$),$@1@->K]B*2#m#L;3*2]#>x@v@>).dP~5%}#S%l#M@9,n)^$k~b-7a$$o#l#C$'#s@5%L$Z@B#o#b#T$i@>$p#!#n#/%s#W!L$D@s# &;$j#d@*$y@e@e@i@'#L'%$B#8#9% &o#Z@h@e@:/M#O'@#)@6@[#($%>Q;q,&>_-a%l#V#j$I$t>_*]'_@e@#$o#/%T$2#F$W'<%E$J$O%/%N=  ",
"#*/%u$]#0$!*M=T$z$E$l$d>v];@|@@)Y=^%#,s#[*h%y%T)]@_#k,c=b{8@_@9{&@t@t@k#l@+#;@%#~#;$f@Y@J@p#/%Y,k~g@q,-*}#|@|#j$g#_#V#!#.;7@}#f$3#5%>#<&q#V#p#o#w%a'f>_#+$`#A@ %5%3*o#*$B@*$v%1{T$h@i%h@U#i@p%|#%%k$L$l#e$k$y%p%i@3#;$U#w$r%d*'#V@b$4#H,>].@1#9$W!w#!#K@I@U#@#P#!#!%D%_#Z@e#i#f$a#l#i@V#~#,*0#>$_@U#&#/#$&g%c$f@l$]#n#E$,#-@M^@%*#b@W!^,v%p#M@V#1*H$S%>*B#e#g$,#-@M_!@V#>&O#i@M@L=}#{%P$!#T$~*|#i#t@9%K%%$b#%%o#i#=%b$I@T$M$h$J'<%A@|#]#f$|#+%@#%%d$2#P#m$B#B#F$]#r1L@b{+d>a]@V#$%Y%f#D@+;K@i#s#k$P#y%I@+$h$U7{%}#T$I@!#b#}#}#Z@Y$P@$%p#E$k$]#Q$}%_#_%$@/@x@h8D%U#b#y#p#e%O%F#c$o# ,V%9%1*)$m$h$`#i@y%>*}#E=d$%#>$!#q#h$c%U#o#e@}#!#k$o#,#D%w#*$i#c%E$ %8%g$}#U#!#I@L$=#}#Q'7@]#E$U#T$8_S]v@h#d-7(6>s#|#p#i#_#E$M;I$h$w$P@i#d%2#'#I$w~e$>$i98%(%$%g~x$C$I@b$i#k$9% ,s#g$5%|#!#m#b#/%`#O#w#g#[&9'c%C%B#!#I@c%2#h%I$;@ #!# &Z@S%U@$%w([,]$z]Z+@dTco'`#!%e$K,:]->8#6=#d'#U;|#i#g-^*~^}~O;q].-V7!:M@]@}>J@^#-@&#i@S%S$1*V#J@3#8#d@L$0'w@U#-@q#-@/%b#I@!#$$m#i_L#V@~#c@e@@#&@c@&#q#'#$#'#c@+$X@q#[#k@6%g@h@J@n,d=J@x,!{l$4%R/[*0#g$~,*$k@T$$dp#Q_-%v$'*`#M$x%3%[%o%.'",
"v>9%)$v%(*e@p#*&~%u$`$S%K,q#&@L]K$N%g#=&5%=%q#6%4@&>r,/,3$3{1@[#^#c@|@g@5%[#7@)@K@;$,#O#P#;$U#^,G@9{e,5*/%-@N<Z@J#`#}#c'}#3&!#b#^#!@*$`@^*]#1$v$L= $!#.;2#5%_#]#D%K@ ,|#,_I@4@ ,D%!#V@T$ %S%K@&#k@s#Q'!#c%g%F#K%/%1%l$t@*%,#!#|#d%K@*${^h@;#x=_>1&i@.;,%2#_#}#l#B#L$-@L= #V#>$'#m#Z@w$ &-#j$h$/%I$v$%$Z@w$-#V#<%^#2#b#B#>#{%r%B~3=2$h#o'+]k$!#p%|#3*S@]#I@j$7'h$b$K@i#]#`@w$/%p#B#v$*$]#K@o#%#g#x#w#/%K@-;:%m#g$c%C%|#p%D$g#p#w#h$l$+>W''#F#D%e@L$~*^#]~*$g#t<T$d]n)w@$#q{X=u$~*B@7@l#U$t%C_'#D%T$|#7@w#&@W!L$w#_#]#B#=#w#I@I$h%Q'2%:%9%v$g#h$/%I@u#%dI]:(k~){o)P@U$b$j$n#V#]#^*p#'#,#c%'#N%p#/%!~e*[&i%l$+;/%/%y$t@/%`#I@ &+;s#a$'#&#L$}#o#f#:%[&{%M_E$I@}#B#c%=#Y%s%]#+>Y${%D%E=O$$#6~h@x@J{n9x$L$e%;$q#w#%%@#S%2#J@m#!#U$U$'#h$I@L$#%]#b#m#;@&#'#p#q#&@$&<&>$c%D$$#'#j%w#>$I@/#S%|#H%3&S%_#&#!@i#m#Y$P#}#V@ ,,#I@l#3#l#u#~#I@c8I,T{-@[#>)+c4@;$q#a#6~/)k~O;=^@|Z@U#q#]@3&v%&d2]J#^#_)*d=dU#x$V#%>i#4#I@-#U#%>^#m_I$/#$$7'~#8#E' ,>$>#!@x$|@J@l#Z@{#U#b#8#B#@#3#>$|#A@*$b$*$T)g#-@$#;@L;7#q@]@~@c'T@s@8-!^>$,,1~0#9%U@S%Q%Q$K{k@q{M@}#l$L$!;K%9*^{b$V=D$z%+&`,",
"90p#2#I%}#x%e$i#Q$l$-&e$e,B#k@`'e~z%-dv%e$W$F$c@'#{%m{D,1@h@+_c@Y++$J@!>c@;@8#h@a@b@]@=#@#w#v#S,6@h#7-;d_#8#h%e$U#x(D@Y+U;I@f@L'U$o#D%8#4#N;h@p#e@Z@g~_#|#b#H=s#/%%&J$f#6>A@J%D%i#T$U#O#!#V@i#!#:%[&p#s#L=;@/%[&u$$$]#-@'&@#m#D%W%3%]^p@u~z@S&t@i@C${#%$'#_#_#/%;$F#8#!#C%l#l#u$|#i#y%@$_#~#'#Z@V%!@]#e@j$K@]#_#!%D%g#U$%%n#*$v@D:C=*#x@>dL'$#B@k$P#:_K@s#s#e@e@Z=N~s#C%T$;>%$_#7>f#w$/%-@i@g#h%l#m#j# ,T$H%D$h%D%Z@w$U$j#e%y$7>,*h$_#g%D$b$L$F'0#w$}#'#M@T$`#P$@^Z/6@`|r}/@K@b$h$ %%%1*h%!#X%=%^#L$'#|#:&e$e*&#n#g%/%D%4%7@`#T$&@-#x$C%D%m$U#>&m#X+$#R%z@h#p@k,9%g%g#[&l#D%[&K@I$`#/%L$I@@$*$b$`#L$d$/%&# ,V@h%B#j$V#}#B@b$r%K@s#]#_#s#v$&#,#h$%%l#-@j$_#b$}#I$*$}#P#!#m#!#}#i#e$*,P/9{k@5#T$J@L%y%S% &=#/%I@e$%#*%(%&#p#5%I@R#L$b$Z@B#}#>$!#K@-@{#f{g#&@D%|#S%>$S@g$U# &h$i@m#U;p#^%=#9%c%D@&#!#q#'#l#!@e@>$g%_#2#=#e*=#]#S%f#{](,4_w@9=,d~@i@v$%$m,C)@>O;^)X9Y+B#T$n%C%M_''F]]@_$2=k4@]f@`#>$ &g%,_L'v/b@-@!@_#b@s#f##%~#K@Z@f#$$Z@$#i#p@ ,e@B#p#+#U;y#|#;$W!t@,#:(_@g#*&*$J#%#6@f#[&^#_#^#f#Z(,$_@h#S,w,O;+'-*7%D$9%B@j%2'Q](#L/S%o#E$<%&%%%:%L%=%+&>*P@y$@-",
"['w$k$=%j%l$s#I@5%P%G%]#5$_@k@C='d1>w$j$}*~%s#&>(#o#D,m~]@*],@(> #!]e@J@c@f^8%J@8#5%=>U;w#-@c%r:1@(#P,#00>K@o#=>>#/%q#!#v$0#7$5#$%w$'#_#K@e$/*e%y%!@{%a'7'j$l#e@g$}'h@=&C%0#K@*$[& %E'&#,#!*|#8#-@j#}#P@s@V@;$e$H@ , $4%2#!#I$B#`$T#W~a@d#!$';1*g#G$w$*%+;!#E$%>+%8#G$C%<>D%k$V@]#|#~*c%L$5%!%_#Y$7@!#!*g$'#>$w$D@I@f-g#D#l#i%l#+;l@x@@>#{;,E;]#]#3&]#%>v%P#e%s#p%0#e#%%&#|#i#8#,#P#+>*&=%Y$L=w~U$s#@#p#U$}#,*&#L$ &!@~%L$C%b$=#B#L=c%i@g#(%s#l#w$|#Q'V#I$E$k$R]:$~@/@r$$#x$m#_#h$b$r%0'h'T%P#w#3#|#g#=%c$m#[&_#e$l#p#p#s#3#j%j@>&|#9%7>2#/%!#h$w$g$l#e~j)%@~>~@K,G$3#[&%;I@!#2#U$g$!#!#T$p#g#I@s#2#4* $M@5%'#<3T$s#w@~%*$K@>$_#W$$%e$C$}#^*|#w#m$b$r%g#,#m#]#p#K@I@g#3&e$|#s#!#v$T#D]J#5#i)b&C_!#p_!#Q'k$i#F$d$l$R(w%x#2#G$r% ,f#H%7@E$b#9%b#h%9%U#a'k' &/%=#l#E$[&E$I@d%t@1{i@I@i#v%P%M@E$(#5%]#T${;b#I@V#>#&##$B#I@!#K@E$3#$$^,&@h#A{)d,@7>;>e*#>0,C#L#s)!dL/J@*&_@.#D%C=m{{:A@G;~dz@J'8#%> #x$4@v#g#1*d%8%l#:%H; &e@7'&#B#g#V#&#D@!@f@f@w#!@2#X@>#S;*$X@^*o#&#!@x@,#6@q#F#~#*$i@1@q#-@c'Z@'#q@-#;@&>M{'^*$n,J<!*o%8*d%P#%(=/c@$#n~Z@2#z%q$R=^*!%H%k$>*1%=%0:",
"{du$ $C$v$p#f$f$!%e$v$w$$]*$$@v{3'G=L$]#*&D$#${]p@&@e,7,x@>@z@f@W!x@W#x@9'w@_@c'>#|#*$o't@ &i#E,%#q{h)=;/%t@@#i@,#5%Q_F(d$D>4@&#p#^#m#r$I@`#e*h$L$@#>#I@4% %D%T$D#[&E=E$U#K@%$&#^#i#F#j'b$[&}#i@2(D%.;;@^*'&p#z%)$J@B#'&V#c%9%3# %$]_$)@^@z*h@e*b$2#[&e@^%U$h%K;G$U#+;y%_#Q%]#f@&# &;@2#i@i_g# %e#Y%+;9%m$(3/%K@]#|#l#b$!#U$_#Z@&@+==)_@Y@s~Q)P#:%W%P#T$|#5%+;{%+&w#w#5%C%y%p#t@3#W$&#s#9%K@s#b$ ,y#e$n$&#{%r%L$i#P@=#r%3#`#M@h$M@+$/%]d2#1*-@%&2#,*x$5%]#P#W!~'h@d@}@S&[&7'P#T$7'C%m#I@_#P#L$$&*&S@E$U#l#K@D$i@{%U#S%c@a#I$U#v%!&3#L=^*m$^%9%P#b$D$ &[@v:~{n@9{=/a#}#f$ &!#c%u>B#p# ,p#i#'#s%J@ %w$&#3#i@P#*$@# %|#&#d$1{m#`#|#{%L$:&b$j$_#/%d$8#Z@V@H%y#i@{%g#b#l$V#h@&#7@_#&#n3:'g@[#g@@0-@t$*;f$.;K@k$I$J@1*>$S%^#4*s#L$7@V#N%S%h$]~Y@u$<&3#2#[& %0'J=I@}#3#>$h$*$K@y%f@|#c%h-j$e*P#*$ ,3&L=2#|#B#m#0# ,y%j${%a#&#o#C$ $F#m{5$Z+.@^dA#<&|#>&E{r,}$m]!^r}+#U#f#}#R#j%Q^9-8#}$T@D*z@e#9%V#m#B# $f@w#g#i@,#!#J@ &K@l#p#*$|#;$>$e@ $w#-@M@u#V@=#y%Pc,#I@U$.#k#c'{%c$U#s#g#@#A@6#>#{#!#F(J@Y+&@d@;@=>Z+k@A,a,9'M{R'*&E%d*O%G$!*~,y@-$B@-#k$`%'#]#0$1%-%P$<&]#>%0:",
"/dH%y$g$h$=%!%e$o$a#a#!*/)O;x@z=F%E$M$%&n#r$>&[#c@B@D]4^*{C@%]b@a@h@b@^#}#h@u>_# #e@w#J@v/U#~*E(($${V,N%q(=%)$j#B@%>c@Z@6#S@%#_#N'+,y%e@7('#q#^%8%:%-@T) ,'#S;e@ %e@V#&#!#5%v%;$p# &^#1{t%0#N;D$}#&#C_:%*$L$k$8#$%!*q(h$f#U$U$!#k,2$($J@0#+_w$P#e*K@L'P#(d^*>$'#L=f@-#f$S@m$a# &m#g#X%%;)$F#t@{$%%;&|#s#P@p9 ,2#'$5_D%L$e@w$(%e@I$g@4'h#L@I/:'zb7@+&i#^*%%s%H%2#j$P#v<U#v$r%`#e*.;2#^*g~I@O%D%!@|#p#r%_#o(w%a#I@1{t@B#t>j%&#W%'#e*y%I@D$l#s#I@'#o#k$k'[&T$l$H]D=w@x@@9=@H%V#<&e$e*g$!#]#V#L=f$s#$$j%w@&#|#)99*c%M@]#b#8%b$7%**g$R=I$=%l#j%9%f@(&Y$I@}#G$!#)#f^_$>@7,c8x#=%l#g%I@=#y#/%'#m#$#g#e@e*i%l#U$q#s#e#L$e$!@'#1*p#b#;$*&I@]#{%L=e$L$4%,#y%f>E$K@7'K@]#L=y#S$F#s#S%x(A@Q'%)N{(#<@z;^00#,*|#;$l#6_p#w#I@l#B#~*s#p#t<I$^%@$'&;$L$_#q<*%g~j$7@m#B@/%<%a#g%k_$$y%k#f@]#7'%#^*F#H%s#m#I@D@`#;$S%3#}#x#y%l#U;V#o#~#a#Z@!*#$}#),_$1@s)K$M@i#0##>;=T@Y+^=_di(8%*;w#E$7@U{V,`+=>z@3<L/#$e*w#:%+#O;p@M$/%s#;@3#k#4@n#l#s#L=U# ,4@>$V%8#h%G$f#B#g#B#w#;@U#>&p#e@m#&#w#O;t@i@V#L'0#N@^# &9'a@'>&>k@k@T)Y+K#U;-'3:+>_)-&!#E=k$D%]#E$_,W@~>~*$$P#Y%,*<%X;>*_#T$,*0$N$C;",
"Q/F$p#E$/%j%`#T$}#b$'*:d}=w#B'^)I==%%>1%!*7%w#|@o#n#q,^,$@$@@#l@A@x@k@%#$@}$_@$%-@t@&>B#+;t@b#7,$@u>v^z';$6$0#3*F#v@I$M@'#=%k$B#p#7@M@!@9'q#A@&#t@'#e@L=7'g#w(/%2#g#D%&#L$5% $t@.;|#l#7@ &=#j#R(m$^#7'H%U;w$t@y%1%Z@ &%$'#^#-~<d]^F@C'R,[d-@ %+$~#D${$s#5%S%V$I@5%f@w$[&E$k$~* ,D%&%V#^#&#g#;@'#J@ ,~%f>u#l(J$}#L=s%I$,#=&/%V$K%@,I$/^-)Y@h#C)W~w#E$3#m#1*U$j-a'5%!~1% ,e${%n#p#+;m#i@M$]#g$ %L$d%`#{#l#!#<&L$j$v%e@M_K@d*j$U$V#3&j$}#'#s#9%2#s#g$c%d>K@Y%d-r{6@[#r@_>7(}#!#P#b#D%0>&#b#s#!@>#W>;$t#D%M$_#L$9*s#_#+# %e$'#g#~%{%p#b$]#T$S%]#E=p#7/i#&#&#J@!}j)@>_$I)1@E=V@I@e*x(%&U#l$W>g-+>H%U$A@]#^*b$v%}#b#u#;$/%j$[&h@y#'#M$n$e@E$l$w$V#~%x$&#[&_#<%m#g$}#a#P@%%3# ,0#0#5%,*.:>@g@,@}dS@:%U$>$P#=#5%&#Z>}#V$<>h$7@p#9%U#s#i#{# &f#_#e$f@!#i%,*I@8% ,P#p%&#m#i#E'2#V# &m#L$S$L;U$k#3&/%o#e@y#a#h$|#w#Z@W>c$m# &F#2#]#_#`>E{%@#_)@V'-@%$<*^>F]p@|dk)_d4)'#p#V#X@E$u~7^$#c@p@J_W>F#H%N@>#J@!@Z+}#I@i9V@U$&#!# &B9L$l#C%L$q(f#K@w#]@B@I@&#.$w#C%2#T$c@y#G#5%0#&@V@i#3#@_~#g#Z@f#@#p#J#G#Z@^#;@X#o'g@f^&>8=A,{%>=R'K%%%=#X%_*o$T{6@$#!#@#z%l#!#D$B@0>!%~&e*s#,;(c",
"C&q#[%%%U#V#7%1%!*W$V@!*B{&#$@C=1~D%H%r%y%|#L$*#k@;>_-$]^#J#$#%#_@q]Z+]@q#f#k@^#e@j@J@f@U;~*r%E(b@3@y=0%t@ ,c@ $4#]#;>c@B'h%9'^#$&t@[&'#P#-@p#I@j@g#s#u%d@ &I@N%}#v%.$T$v#K@e[]#d$U#6#;$_# ,r%7@g$b$l#&#l#5%,*M@V@#%S@I$h-S$U#:]($_$($X*.@0$x$U;4#'&v@:%9%Z@Z@w#I$I@g#h$j$o#00j$e@K@|#F#g%r%9%&#s#*%y%L$y$!#g%9%/%x$[%f#w$v%7@B#}#Q_7@=;/@_$B'9-H%~#^*j%1*K@K@3*X%e%-@p#b#P#t>8#b*:%{#D%s#/%+>.;{&f%V@Y@G#U$k#D%_#E$Q's#W$%$H%E$I@}#S@]#a#e@J=w%i#I@4#u$b$3,b{Y+:$1d4@!#f#|#r%%$0>d%D%U#e$H%d$L$M$i@2#D%p#;@]#$&}#*&p#u$ %V#e@,#0#)&#%U@&%Q%V#E$|%|#o#g%p#>#r$o{1@8@:'M$o#K@<%=#_%c%y#}#E$ &|#i@&#B#!#f@>#>$l#F#v%i@l#D%;$T$j$U$I@!#k$v$!#]#V%,#;&n#[%;@h%'#W>G#e@j$%%y'!*0$I$D]o{2$9{2dU(/%%$w#a'+#P#P#l#2#$%h$J@}#i#:%e@Z@2#i@&#]#t%h-i@e@u$g#F(H%g-Z@{%h$p#>&&#~#7@!#b$L$X%5%L$[& %s#R(@$M@7'$% $#%`#^%}#|#P#d@E$w$L=_#D%w,v@]@g)+&-%V#i#[,&@)@A'~!5>F#K@[&>$E$_$$]6@Z+1@ic %P$,*j$m#u$K@K@Z@ $v%&#}#g#s#u#k$#_3#c%|#f@_#;@k'H;D@q#&@y%-@w#*&$$b$I@O;'#P#&@c%7/4@Z@'#4@#$j@C_i@O;U#&@s@f^0'x@i@[#o'n@!,('<&i)7%j%W$d%r% ~g$$]$#m@j@H#H%s%4*[*s#p#)& %}#e$';u,",
"k0}%F;k>D%l$B@*&C$g$*%y%n)h@!>&]/$s#v$|#}#b$y#_@$d!#p,8--$$@2$$@u#*#c@u>-$O_=>@# ,%#h@Z@4@'$I@f,+@3$d=;%6#J'k@-@}#i%V@(#)$V#M$>$K@d@~#*&!#i#+$*$D%>#p#&@[&V@T$M$I@p#s#$$}{&#|# ,&#E=F#V@~;,#V#*& &l#]#!#m$X%i@&#T9g#D@~#&@^%d#(,'>`+ @3d0$[&i@p#g%v%p#C%}#d$V@k$=#U$I@6@}#b#w#C_0#`#0#w$2#Y$&#{;d%h$g#=#K@_#-@d>e@7'2#s#K@L$}#g$j%f#A@/%o'!@c{,]s^/%+%$%/;J=b#v%}#%#'# %h$U$D%B#*$w#i#L$K$B#y%C%>#!#&#P$M_-@1{K@i@D%D%E$h${#s#!#S@w@H@s#M>1{<&N;T$L$%$u%L,C)B'$@J@n#X% %d$+$&#_#!@]#%$9%K@J=K@d$E$ ,D%U#U# ,`#2#D%!#.;|#{%s#e%l$P$_#r%g$_#p#2#s#`$!%8#u$D%s#p:y)Z+>@P]|@^*3#i%e@t@E$K@/%q#{%/#E$g#Y$h@i@k$1{a#%$F#W>I@V#p#j%i#F#`$4%+$}#S$*$e*s#M'+;*$H@9%K@j@g#%>!#_#b#%#P#e@~,*@;@n)4d(>V#w#H%s#T$$%U@a#L$l#7'=#S%B@_#M@h$@#U$H%&#T$)>s#{%Y$2#_#T$&#w#>$]#,#v%B#:%e@M@&#{&Z@K@I$y#i%o#&@F_y#k#7@00/%k@e@|#4%h@v%}$5_M@.#0$a)/@A@(#D@L$i@{@4/v~-@5dF@&#e@G#B#5%Z@7,A@$@O;v%=#2_V#4#S;'#I@V$g%W!_#_#t@I@3#}#|#{%g#_&L$(#&@T)w# $;$`#U#b#>#I@w#P#g#]#F#;$E=i#L$'$e@f@A@*$>$6du#4#L$&@(%d#Z+|@d/*#7#Y+${[#Q;$^O;$]7d~%o#{&v$+;s#$]|#x@m#;$*&S$~%d$7%p#P@U#X%Q$%%O)",
"R:~%/%}#v$l#s%h%h$g$%%|#I{e@<#:#>;Z;k$I@E$r%w$h^N@z[q,),f^_@g@n@M#h@f^_@Z@h@c@$#Z@F#U#I@L$Z@t@),8d>@<)k%@#9*M@%#Z@&#Z@|#_@U#Z@B0$@M@L;e@x$w# &2#I(5%!#e@l#!@i@<>V$P#o#[&^%I@3& &}#K@D%{$U;-@g~p#e$v%g$L$L$l#K@F#N'}#B@o#U$Q%D,l@)#c-P)7/s#}#L$$&-@1%_#h-2#a#d$_#0#V@U#$$B@(3G$s#G#E$'#L$M$ ,{%g#!*/%}#'#/%_%l#(&2#{;i#w%E$|#l$]#Y$u$w%e@5dX'p@3$x>%# ,2#y%G$T$E$2#e@S$e%3%v$h$K@w#|#s#,#7@I@x$w$&#c%[&D%p#p#>$U$`#]#*$h%D%l$i#y#g# ,D%I@0# $~%<%s#U# ,|#:'B';#1=9d|#$$|#i#h$g%L$U#%$2#}%T$I@0#$%i@V#^%,#2#h%v$+>+#f#_#g$I@;$B@t@m#[&p#H%'#d>L=i%x(2#~%3%*$K%q#J: -Y+Q{.|s%~*7>V#.#4~y$I$I$s#y#~#P#C%]#h%_#s#5%,*7'E%g#y#|#L$1*r%u$j$i@{%u$U#l#F#T$Q'y#t><%5%E$a'`$!#@#P#T%T$Z,^@{]!@+#e@/%&#j%g%w$2#p#2#w#i@U#1*i@%$/%B@E=s#K@s#s#n#y#C%s#g$}#B#s#T$ %}#*&g#&#o#o#5%I@J't@`#j%m#c%c%o#^%s#l#M@,%l#|#^%_#`#e$M@6@j#>#!#2_)$h#Q{`+5>Da;@H=s%h,x@Y+C=+<S%x$b#_@d*%>0d$#[#d@`=n>w#%%F#L$V#5%s#t@t@i@L$t@[&B@V#!#<#B@x$A@7>5%i@C%'#i#e@'#3# %>$_#w#9%2%/#e@w$K@k>7/U#d@;&V@O;1@q#i%&#u#c%k#A@Y+&>u~w@k@1@w@'>:)S,$$:#1%I$W>v$,*T%<%;,A@T)s#e@E$c%u$v$o$[%a#h$U#.%*%f0",
"G:l#'#G=:&b#b$k$h$v%%%+&G~t@v@e=I=I>E$_#s%%%9*p@m#i#M{-'[#k~n@L@$@*#|@J@4@!@$#o#O#i_&#}$=#&#&%v,~#*#<=e~(%-@&>^#{;m#%$_#U#%$I@9%0'i@L$o#5%>$F#h@_#e@'#&#g#w@&#U$l#|#w$q#e@[&e#&#&#I$U#b$g#!@Q%a'I@y#K;I$s%U#^*0$_#2#}#!@S%m>a)'>b@q)Da}#H%`#;@b$1*H%b#7@a#7@s# %s#B#}#,*|#*$_#T$w$ ,3#M@Y@c_3#L$e@]#d%L=!%<%g#0#U#f#j$!%U$b#v/j%K@}#y%w%C_!@G@b@a@:'adj-_%^%{%T$r%X@~;<%d%I$%%|#T$J@i#$$e%T$o#t<g#L=u$;$V#a#g%)$.$&#H%|#g%I$<&j#V#`#e*j$5%g%w@L$V#|#I9[,2@Y+%]x*#@>&R$V@l#!@^#!%a'1{`#d$k$Z@x$s#g%&#,#V#~%y#T$[&}#u$L=U#_#,*J@_%c$2#|#2#T$5%9*w#e@H%%$A@j$y%K@7>$)G@]@_)(#a$D%v%y%[&P@+$w$+$+;y%b*F#!@o#h@P#g~%%|#L$K@,#P#E$'#s#'&e$g-I$|#>&;@k$=*%$|#}#]@I@/@V#2#!#}#!%5%f#3^(#4#])bdw$s@f$o# ,V#*$L$$%g%l# $]#I@f#_%`#!%!#M@h$c%L=H%X@I@>#'#g%|#.;S%Y$L=h$a'v%I$v/l#m#)$|#D%!#K@$$p#i@f#I@L$R=Z(8%7@J@S@e@h%_#l#o#a#I@g#0~L@a@a@y:1_D$ %]'@#w@u(n#~%c'&#L=e*r,.)z]C#')cdm0^%w#V#s#i#^#5%~#V@i#f--@L=}$x$V@i#I@U#j#f#g%3&i#%>Z@;$_#b#$$'#3#U;|#s#i@L$|#3&!#g@e@_#8#>$U#|#-@f#h@u#>$*$&>*$Q)W!(@q@6@*#O@d=4-w~0-x%!#X%M$C$l$h$e,[&c@&@c%g$g#%%r%`;E%_*#;q$<>w$@-",
"j*`#e*g$C$g$<#D%K$e$G$/%F,]@k@:#-%p#%%E$r$R=g-n<x{o#F,t,($n@)#c@!>k@$#0't@@#%>v@p#&>W!/%(#Q%w$|~6@[#}=-&_#m#)$i@|@o#c%3#J@g#F#}$e@;$|#e@i@p#Z@U$g#+$g$B#j@$$@#_#k'U$s#o#o#K@G#^:T$I@E$K@_#j%4#1{z%X%S%^%=#I$I(L=|#o#y%9'!*(,2/x@2@ddG$|#K$&#K@[&f#+$I@L$ &!#G#D%<&I$Q%S%v$I$,*2%%&y#%%_#s%V#f'g%B#!#j$i#J@N8&#e$$$';/#f#v%j$i#T$7@i%e@!#0'z*}=~@$#]]4@y%m#&%|@}#r%l#D%'#/%c$V@V@<>P#}#l#V#!#a#e$-@l#B#S@r%L$a#b#]#b$S$i@-@l#T$i@K@]#1%V@M@,#/%2%;$k$g@k,(#0@:#A&q<[&j$j$T$/%D$'#{%'#_#|#k$<%U#l#w#/%]~~;Z@2#7'y%;$7%w@L$:%D$f#&#k$_&0#m#g#P@C%d(lag-x$@# &w#h$L'P){@%]L@,,J$U#:%g#w#b#y%`;B#V#D%[&g%!@L$|#Z@K@s#D%g#b$g#&#i@t<P#Y+}#s#_#M$e@E$m@]#g$p# ,U$C%r% %e%u$j$h$_*^,|9c@^#]_>@&#Z@a#s%'#%$l#w$'#{#'&C%)$j%r%{%!~>$!#U#l#J''#s#s#_#M@]#/%B(Z@&@{%/%^:$%V$(%,#s#I$v/s#n%m#g%-@e#}#+;4%0$[%^$>$U#u#>$|# %U#~#2#;$;@t@;]Y+_$u{ede%p#B]-/m>6@<*w#P'f#}#l#h%~,-$k@g/Q&8)8%|#L'l#+$@#w$f@ &m# %g#B@,#f#U$|#.;o#%#s#3&8#b@5%=#m#l#-@;@v$f@!#e@B# #D% ,W>-@V@!@f@2#$$*$V$b#q#x#B#%>*$W!~#2$Z@Z^&@K#[#~@(#F,z=N;A,{~~;W>G$=#I$j_/,-@-$4*G#!*7@p#s%7%M@r%3*E$g$&%/>",
"#<%%]#g#D$+&k$g%e$)*w$O%F]1@J@K,+:0#>$R/`#f>I@6@q#!@i)'^{]_@_$ #_@>#A@$#a'{$8#|@H@4@O;q#C'f@g%*'*@b@1^X;i%Y$c%&#7@ ,%$i@y#J'|#Z@I$%#{#|#f#d@3&># &w#L$|#h@2#3%e@0$J@3#V%j#q#`#=%U;e%T< %h%&#l#Y$g%;$`#V#+%U$>$4%M$|#D%l$I]#]R;h#Z/H%v%=%B#/%l#}#=#s#b$>&T$s#<%<%^*U#%%V#h$U;[%&@s#g%S#8*|#r%U;|%=#!#y#g$`!w$g#g#|*(3|#{%s# ,{%4%fdZ@s#!#t$B#&*K#B'~@<,gd`#3#1{e$,#/%i@G$,#8#M@v%g%i%G%I;00g#d$;$T$U#g*|#i#@,c$P#`#c%I$8%i@Q_-@T$Q%<%g#{#!#/%y%f#2#H=F]z@I;Q{naD$}#K;x#E$h%S%D%f- ,g$=#h%^*Z@/%$%U#D%s#^*B@!#e#k@J@^#]#!# %l#g%0#,#3&p#i@&%s#i@g%C$V#4@5%m$U#j$^%C_g#[#-/l)#>h%!#D%o#S%>*y%s#G#V#T$M@S$w~&#<%4%b#3#u$u$2#J=V#i%e@|#q#V@K@V@n#E$ ,L$r%L%g%A@0#/%d*S$v%$%7$))T{$#q{hdG:}#e#B0]#g%p#_#s#2#}#,*!#s#|#C_f>}#3#s#h-g#E$P#B#/#E$P#K@U#0#3*r%w#I@y#j$w#y]V#v%F#*$F#&%+$|#.;+>&#s# %/%j$X#F#9*>#q#a#p#>#K@/%{#c'_#T$+'J@g@0~id=#|%P~n@jd~@==k#>$F$Z@$$((.)T@9{u{b*0$~%h%D%b@!#c@f#s#!#;@V#i@%>U#5%i@2#E$|#P#=#s#-@:%A@d%}#c@Y@^#q#C%W>U#b$|@L$6#{%g%u#T$'#'#|#&#M#1@!@V@F'%#J@A@f@'#g@T@J@Y@w@;#(#{^m,=#|===l#%% &V=s#W$F,j@_@-@<#p#=*>**&/;w$)*K=.;L$;%O)",
"Q:p#%%y%V#v$w$>&<&v%/%S%s~1@c'I)`~s#j%0$N${#%%Y+^#f#]-F,[#_@m@=>k@<#_$V%@#9#>$_#|@x@7'8%&>_#*,6,1@%#/,0%(#e@N(I@$#i#$#$$K#b$X@H%c@p#<% ,!#Y+k#s#V#i@K@{%5%|#f#k$Z@W>r%2#F#B#i#L$ $4@h$H%>$Y$B#3#l#q#m#c%!#|#]#,#K@D$2%|@4^M#f^]$L&[*2#U$p#2#3#e#b$&#-@g$,#*$|#=#i#b#i@L$2#2#[&l$g#a#&#;$J@7>t@^%b$0#T$p#p#s#z%%% &w#+;U#L'u$|#C_o#%%Y$i#_#*%<:|){]'@;]kdS@w~w#{%j$V@Q$v%2#h$u>>*p#a#%%v$K@h$=#K@c@j$:%:%!~ %U$;&&#I@F#B@F#7>j%g#}#c%d$%$d$W>&#&#+/ld#'h_W!b_/^T$'#'&B#I@S%V#j$d>I$P@2#=#V# &p#S%$%Z@l#.;b# $V$g#&#i#o#g#I@!%f#~#5%K@&@v%p# ,!#D%p#j#o#U$'#r%!%`#Q_jcv{q{u~;'&%H$k$b$~#e@}#q#I@=#v$g#l#!@l#k$S%{;N;/%g$w(y%U#i#L$*$'$g%!# ,/%w#i#=#j$ %d>i#^%|# %r%R(*$v$./^#Y+o'E&,$E$0#H%/%~# &a#L$I@D$F$U#i@;$g%I@=>^%%%.#,#U$;@mdf$I$l#i@y%I$J@e%x$^%m#v#*&B#f-Q%F#|#7>I@T$x$=#e@f@L$p#I$!]|#u>U;S@.(*= ,B@1@U#w#o#V#^#6~5(1@^)<~_#D%2$J9|@',F:;$F#~&l$E$;,*#-$($['&>o#D$E$6#p#5%s#W%t@s#J#%$p#w#L$V@I@p#m#w$D%;$b@ &t@+$n#U;(%l#D@+$L=p@[%-@K@U#*%m#J@B#e@V@i#*$*$p@V@w#I^&@}#J@&#_#;@-@h><@$@-$D^1@q,R_v~j)%(T=v%%%b*y$P%x,q#{$_{k'}#<%-%}#*%!~&#]%g_H%f%j,",
"R)-&g$M@Q$}#!#!%M$s%>&!*L,8#^#s~9aw%K$2#[%D%L$*{h^g%;'M{x@)#[#@#q#4@n@+$'>9'e@|#&#x@-@i#J@.#P$(,h@W!;=;; ,J@J@&>i%I$%>J@K@I@i@{%X#,#|#K@I@m#!@t@w#e$U#=#[&a#]#,#0# &s#O#_#m#!#*$-@_#'#]#g~ $}{[& ,(&L$*$}#F#p#:&L$p#g#&c{@Y+x@P>m#$$'#7$4*{%i#h%B#K@}#I@I@SaZ@b#V#w$/%{%9%e*l#K@>&w$L$K@s#4%p#a'W>a#9%w#E$:%D%V@[&H%K@}#!#k$D%L=+;|#K@;$g#R(D%<: ]o{(>:,j$r%H$g%e*!#k#`#h%k$&#i#{#2#%$B#e@T$k$*$v$#$s#=# ,&#x$2#l#m$V#g#L$w$U#2%5%v%;@F$i#~;Z@8[L$6'i@[#C=ndc@c%H;U#m#l#K@6#m#D%^*L$i@|*s#i@H$|#+$}#j-F#d%:%<&}#/%(#a#}#w~b$5%,#@#w$p# %~*i# &D%C_U$I@<&U#*$#$}#b$t@s%g@a@C)k]odk$3#w$ $2#!@!#|#q#s#+;#$V#y%&@Y$l#P#2#h-p#x$b#&#[&k$F_l#a';&T$L$*%s#i@!#{%7>6#V#'@=%y#v)))4#Q@N#Y> &7>l#$$b#[%~#j$U$|#B#c%!#]#!#q#P#%%!#v@g%&#^*_#{;l#P#V#b#!~b#P@_#4%=#s#3#}{g#H@j$L$P#m#m#U$B#I$k@e%M@x(x#V$t@Z@s#M=[&_#c$|#T$b#U#w#w$M$/)Y+$#v'pdf-$;n)1@($_)%0r%7%w(}#t>D]q@Mcj)p*K@[&Y$2#w#J@n#i# $i@5%)$|%@#p#'#=#]#F#r%|#_@A@|#V@3#p#~#|%k$3&k#y%K~f#/#A(^#n#k@}#S;qd5%w@5%O;L'L==&-@{%t@v/;$e@M#$@&@!@`+$#%@t@c@A,n,@#K,H(d%X+)&+>j$_*G,X@5>>$w#L$[*';^*|#P%s%f#!#!#>&&'",
"j*_*L$!#C$S$7%G$%%d%';k$M]t@M#v{,(%%`;E$e@f%Z%5> &w#n=F,a@~@5#+#4_9{@#g@O;m#'#D@q#J@}#Z@&#g%g$[-x@j@h)!*%%.;E'{$@$n~*$|#3#B#u>M$ &Y@i#+$-@!# %t<&#|$L#-@C'g%i@^#i@y'e[s9&@7@&#g#^#]#b$p#L$-@f#|#b#'#4@K@i#h$U#_#y%a#h#8,]@&@Q#e-%$K@-%V#2#p#'#_#I@Y+F#_#]#g#2#/%d@]#{%P#c%i#S@!#7'v%l#K@B#!#t$c$*&!#g$d$B@j%i@7@h$L=E$,#I${%0#'#p#'#|#y%s% %W>]#0@%>:/c{K,r%(%j$ ,o#g-b$v$P#g#*;K@l$W>1*i#*&L$j$,#&#`#Z@P$i#c%T$U#3#s%X@'&M$e@V#Y$|#k$E$j$u$k$y%L{2@M^h#f$W!T$c%p%^%/%^*m$/%e$7@-%*$N%B#s#(#`#|#i#;@5%+#s#&#y%&#&@w$;@|#k'f-%%s#T$&#U#m$ ,U#h$g$g$s#x$T$&#Y%U#}#]#:%rdn{9{*#6'r%M$p#|#k$%#&#f>D$,*O#I@I@3%}#k'&#o#b$=# ,s#]#b$.;j$'#L$w#`#,#u#F#&#g#W><%l#]#y%I@a#i%H=sdg@o]`=S&B#%;|#[&w#z%5%L$*&h$~#U$Y$U#V#F#e$c%'#i@v$i@E$.{ &Z@L$x#/%5%A^R(y%_#K@!%*&&#!@]#!~w$}#y%!@g%5%w$t@E$m$y'U# ,)@L$V@7@w~!#_#.#g#&#_#L$Z@w#i#~{!>_$C)*<;~w%4>;@1@;=&0V$;${$V#1%+'>#:/0)&%q(U$l#V%a#i@0#[&-@y%I@6#*;2#P#2#*$u>!#o#}#3&3#x#e@l#_#f@@# &U#;$c@0#-@|#e@+$&#>$i@K@U#Z+f#|#&@k#V@}#^:<#I$-@L$!@S;$#L@n@3#Z@a@p@$(,,;=0'6=<^2'|#S$M@!*O%l{@#n@0#&#1%}_e@W>tdl$K$E$Z>a#P%='",
"ud=%%%C$]#l$a#H=X;+&V#Y$d,/@A@9)==L%v$9%f%>%m$A@2$%$-'I,1@c'T#B](/n@]@6@x#x@w#w@-@i#k@{__#4#P#Ecc-_$U{;%=#c%n#e@6#&#Z@g#L$>$F#w#->t@p#5%C%K@u#4#>$;$&#>&2#<&y%f@b$g$e@T)$%;@p9'#i#@#L=Z@P$`@~#{;E$I[8#D%B#e# %B#]#K@]a*#1@}$J_f^/%S@-@|#g$O#p#b@>#:%j-I$@#Z%S%k$Q%Q_g$d${%3*B#I@;$o#e#-@>:*&P$L$p#w~I@2#}#j#V@C%p#y#8>&#w$B#>$i#e$!#*&c$-@`#T$Z@}0N{o{vdR]f#d>!#+;7@%$,#'#>&4%z%L$B#,#}#h$I@%$!# &P#!#P#;&/%K%I$P#p#i#b$b#w#~%}#2#i#a#;$|#P#d$!#'^ #1@0)u/Y%D$~%/#K@c@e$+;O#v%v$*$,*!#g#{%k$n#!#P#e@*$L$!#S%V$l$+$v%,#i@T$e#B#U#D@K@=#s#3#g#|#E$4#c%`$~#p#8%!#y%;@3%6(@~G;u>2$_,g#`#fd}#g~i@e@@#T$I$0$|#g#%$y$a#L$h$~;3#J=/%I@2#D%D%8%%&G$y#V#.{m#`#$;m#+;&#:%~*y#0*K{8)_$T@*>T$V#p#k$8*a'I$J@e@U#^*%$t>%$1{4%j@e#1{m#!#Z@K@p#1{J@&%s#Y$H#i@0#_#|#V#^*3#,>E=e@_#I@,#~* %$%s#U$L$e#V#$$q#2#I@+;i#*$h%f@E$s#R( &7@7@y#'#/%n$K]J@L@3/wdP#7'1)W!2$I)xdH%u#ydp#i#8)A@%#v{h$Q_c@`#s#$$y%^#&#&@V@7@w9Z@`;I$!#w#b$]#*$~#&@U;Q%f@3#J@+${;D#q(;$&#~#!@2#_#}#t@&#i@=#f@Z@@#}# ,zd.$p@[&5%O@{#]~J@&@e@h@O;->$@6#_@9{A,Z,@#;,O%b$8*y$s% ,>*-^9{&@a#9%d%X%}#M$s#|#%%b$D$d%c>r:",
"j*o#E$H%w$D$=&z%B@}#P#L$W^;@;#5$@%s%g$K@}%B@y%m@W!u#+''^{@3$;@5@U@'>Y+_@c$t@k@h@f-$$U;}$m#&@g_b,^#(#A'=%p#=#s#w#A@f@5%'>Z@$%q(w#g#R>d@ ,c@`}l#{%t@T$C#M%K@@#r%-@x# $3&!#9%[&}#>$7@e@e#%#u>>#t@]#U;;@]#!#|#h$l#T$j$P~D]9#1@3)s%[*v%4@l#[&[&l#+$F$3#i@3& ,n#a'Q'9%K@p#P#e#L$4@v%|#(%x$~* ,v%!#U#L'h$'&7@I@g#b#j@s#>#=%o#G#g#/%t<i@U#t@;$z@D%p#C$5%/%$%T@<@+|[](&V@f#S%P@|#!@i#~*D%I@]#h%d$V#6$L$i%$$s#C%L$r%E$k$F#p#}#[&b$=#,#,#F#!#x$H%U#`#g$D$K,7]@#a@T/'>x#]#B@]#|#u#/%&#S@K@}#I@M@[%j#E$w#<%.;y%U#g#j-9%|#Q'u$s#!@r$b#i#1@|#f@6$M@d$Y@h@d$B#K@s>Y0+$^*&#D%j$w#V#U;e$o>v]%]_$a)R(|#7(3#{%m#l#!#c%{%l#^# &y%'*;$f#;@H%&#b$s#2#x#N%S@V#-@v%0#;$P#u$8#[&m#4% ,&#9%`#z]-,t@b@&:[0A@3&]#4#U#r%4%,#2%l#$%%$|#Z>m$L$c$$$s#-@&#7@a#|#!@|#]#'&G#V@.{y#I@V#+;m#/;f>|#'#,#m#o#I$P#8%|#$$c$]#J@I$,#+#s#l$~%B#6$}#T)N;C_L$V@[&Z@i#h$e@W]D@f^p{mb|#V@v{&>J9I{{c0')$p#<>}#A'J#.(/)I@+#&>c%;$f#S;O#t@n#-@|@u<m#&#G'O;;@4@g-W!I@$$K@l#&@|#]@J@$#E$t@&@)@i#'#a'O;m#0#>#i#i#Z@f@w#c'm#J@@#U;n#1*w#V@I$C'J'E$0'=#!>i/h@*$1@{^^,m#8)a%y']#b$q%m$)*E](#)@R=_@9*e$=%!*|#w$I@v%5*1{g$  ",
"Ad~&=*o#/%P#~%L=s%B@T;|#A'W!^#3=>*r%x$F$y%Q$w#5>d/p_I,I,o{~@c-$#_@$#<@k@A@c@2#h@_#{;Z+Z@ $W>&#(,J@b'7-1%*;c%B#K@B#K@V#I$Y$3#m#2#g#H#3#@#O; #c%)>`#=#'#i#7'P#o#y% ,{*U#p#,#h%s#s#U$*&i#C%V%u$|#!#F#E$H=p#C%&#S%m%7>Z,*@W]^)Bdu>q(4%j$Y#i#~# |i@^%_#&#2#{%(%3&'#`$s#]#S%T$T$a#}$]#C$]~_#+%a#N%9%e#o#{%,*j-}#s%T)E$]#5%K@P#U# ,]#p#h$I$)9^#H;a#v%/%B;;(I,l(-$d=!#x(=%!#{%V~c$%$N%;@K@e$>#[&7@D%I$!#W>L$D%P#M@*$%$g#,*0#a#d$D%K@ ,b$e@`#V#Q']#D$m#]'9{g/A{s$z%<% #U$J@/%*$y#y%_#;$S@P#/%B#|#m#|#o#s#H#p#o#]*C%g#%$x#}#Q_>$L$L$=%g#7@g$I$!#u$I@`;r%c%|#'#'#L=q#|#Z@|#j-w#I@V#=<h#.)*@(',;o#Z@P#c$u#J=B#=%A>x$3# ,{#v%-#@#{%F#K$_#|#7(m#%$V@K@c@h$S@w#K@{#*%m#p#Z@7>}#e$8,X/5#a_s$._Z=>&s#g-b#'#g#9%P#s#5%'#U#!#[&7(L$:%l#S%0>p#H$g%g$/%y%$${;)%V# %F$y#!#~*7@{%)$_#c%i@!@U#K%3&p#I@a#g#w# $N%e@[&p#B#B@i#!#I$7@C$B@K@/%H_.#b@w#Q)b@#@A{<~b#f$y{!@h0^)K>_[n%o#j@Z%5^L@d/F,U=7>L@]#k#x#K@D%S%_#m#&#w#a#Y@B#!@+$s%Z@%$%>I@m#G#_# $l#J@*$*&U;B#o#+$'#a*#$j#J@~#]#p#h@t@2#%$V#&>,#W!)#s#!@m#h@+$f@d@e@c@o'Z@#@$@1@2,8-}(q,#;D$`#]*N$k$=*k](#c@}#_#]#L$i@/%T$=%e$j%9%g#B;r:",
"F::%g$!#~#!%s%b$V#u$l#:%9)B#{$m{O%r%}'B@`#U=5%p@;@f#n,,,K]&@~@Y@]@$@t#B#C%!@f#%>&#8%u#k@%#^#Q')-:$0@A'4~v#I@+$V#S%I@;@V#t#4%(%f-i@B#I@{$6@#%D%e@6#&@!#m$L@e*e@}# &;$V#>_5%C$C%_#g$#@K@w$Z@|#m#>#'#2#>$}#;>v%D%g%X'+]{]<@p#h@w(g$o#y%/%:%w#L$V#Y@^%L$Z@/#%>]#!*y%=>a'S@e#~#b#Z!4%I@D@r%g-b$8#5%|#$$I$s#:%E$&#j-I@w#=#p#|#[&<%l#^#g#c%E$}#+>I@E=:%!#^#&;Y+*{Y+H,Z;~%K@a#+>h$]#m#i#H% &l#m#2#p#g%2#L=y#B@y%3#t#/%^%T$l#2#e$b#_#=#f$=#i#L$u$d$]#l{${w@^@~07@7*[& &I$p#m#E$K@g$`#C_S@_%!@S% ,T$v% ,f#{#J=w#e@[%3#I@3#V@y%.(L=E$K@e$>$h$r$}#7'y%P#=#i@0$'#[%,}$%.{z%g#w#c%!#e$+/b@a@z@7]>@!#L$s#:%x$h$7>^*}#0#D%{%Q'I$F#h$v@g%w$!#L$i@y#e@h$/%V@-@|#F#Z@P#h%e@@#$$i#D$^>e9|@$@`=7&+$s#w$|#)&k$>$u#<%1*f#s#t@C%g${%a#>$[%y%f#2%k$g%V#F#|#K@>#s#I@Y$&#V@a$]#D@v$e$x$(#I@Q_=>!%w#A@B#Z@y%$$b@_#r%_#~#*%q#:&&#K;:%X@e@!@M@I@&#|#|#T)n)-@p@G@Cd)$#$Q)A@k~<)e-!:h%a#r>9*[]V@[#F,G=!#)$ $-@F#A@_#X@i#E$K@u#3&;$&#w#2#L=y#k@K@-@}$v%t@~#y'w#m#d/V@.#I@I@2#y#G#Z@7>V#]@,*$#S#e@f#s#f@|#$#E${$b#&#i#Y@c@3&c@b@*$7/6#w@+$~,+'j@I,1~B@k$ & &H=I=$]Q{/@P#{$g#M@b$/%h$W$p#w$k$k$+&_'",
"]<H%l#=#M$*&!#+%M@!#2#j%q,5%=@e= ~l$e$g%]%x$c';@Dde@l,[,O;`+9{W!T)G@!@$@C'Z+;@g@%>u>!#k'{%*$!%v_h@c{ )o%-@D@*$E$]#'#h'p#i@t@B]$% %P#w#f#=#a'!#!#>$w#L$=#`#!#:%]#b'g%_#'#$$j#.;&#W%b$i#e@#$ ,|#[&/%D%}#,#>&L$P#3&5^<@F@^)b& %C$V#*&W%'#v$j%w#2#I@@#}#+;I@P#f#j-2#|#c%:%1{U#/%V#m#g#9%e@)*b$h$j%+%K@g%H#.;|#s#K@i%e@=#D%|#V@i#}%P$J%m#E$m#U#K@A@w$h$K@]*m)*#l@r@`'V%m#U#]#y%c%l#'#r%D%x$w$&#|#V#i#U$v%'#D$+;g#:%o#E$N%H$I@E$p#4%%&]~<%4%y%s%=@P,p@)@|#L'M@t< %**q#'#{%D@*&V@j$$%H@U#4%U#s%`#$#/%t@}#}#Z@Pcs#}#a#f#I@g-L$}#B@L$g#x$P#!#_#`#k$f#g$ %M@v%]#m#g#&#I$p#v/F#s#6*C@ta})b{Edk,7*Fd%$b$!@g$,#<%S;I;y[g%X%h$T$s#E'_%b#k${#}#/%a'U@0$d$s#s#K@L% ,~#I@L$h-V$e@$][#4@.#A$b_w%-%s#L$g#->S$7@s#V#P#w#b$S@-@B#e#w%}#,*F#a#L$j$+$!#i%{%<&L=%$G$T)X@_#b$d$|#_#s#Y$V@e@i#{%K@0#y#D$U#v$Z@@#B#J'F#K@[&V#3&E$L$-@`#f$L$e@>$L$s%e$($p@]@@@5<,#_#c-Z+:/+'c~s$;>}>0#5_8-M#a@I,e$0'C_8%Z@$$y%%%}#w@i@s#>$6@G#i@ &&@D@|#s%:&Y@|#_#n#>#@_v~>#o#-@f#g#F'|#l#K@3#&#V#5%V@h@c@*$~# $*$u>e@i#0>{;%#N(8#9@l@T@@#&@4@%#6#>#A,;'>$G,T>H%l#z$9%f$&b~'T)&>}#i#O%>&g$V#%&D$}#[*e$`#;*O)",
"Gd0#[%Q_h$w#~%b$W$W$c%U%C=Z@j@e)K>E$_*f#D$V$H@=@k#s#,,;'n@_$a@1@)@'>X@_@&@$#n@e@k~V@*#*=X@Z@e@^,b@[#''X;9@U#:%V#m#}# ,m#>#5%i#|# &w#=#H% %v/f#$$e@-@'#&@]#|$w#V#s#B#g$6@l#Y$I$|#}#=#c$[&3&;@k@_#l#s#Z+J'5%/;v%;,^@k@$@P%x@.#+>V#Z@w#!# ,I$k@!~T$|#2#g$G'U#&#d#!#V#H%i#y#w#y#f@a'9%`#B#f#+>(%r%j-|#y%7@K@}#&#b$@#p#K~{;e@D%F#j#3#.#L$P#U$U;l#/%!#}#%%|##*-/5>5#7,^#J=g~:%]#:%g$<%S%V#F#~&M@]#J@3*}#s#h$w$V$T;g%V#b$c%)9:%4*@#0$+&n#8%&#l#>$n^6/)#x,pbU#,#V#4%c@i%y%>$w$}#h%!#<&I@|#]#_#Q'T$/%5%a#}#i#i@g#I@E$d%.#_#9%]#V@{*U#B@K@9*7@e*#%e$]# ,=#e$[&w#B#!#e$S%!@l#s#P#l#a#@@&#k@d-,]l_!*V$5_S%>$_@b$i#Z@}#L$g%1{&#V# $I$!;p#m$g#0#K@Y%B#i@:%h$i$9%`#s#e%X@W>!%5'n)d@)@p=-%b$V#x$j%8%W%K@/%o#y#_*g#,*%$U$/#L$I$I@x$l#s#I@x_r%_#|#]#l#u#|#|#h$g#i#O#m#|#W$/%B#9't@s#|#:%e@U$f#g#I@3& ,U#>#&@i#U#T)#$}#M$I@S;%#F#y%b$@#c%x$V#>]$@O;@>6&H%&#@>L/#(3^HdB9m#:}0'6$Id($#@7-Y%G#U#C~E'w#J@O;&@H%p@D@Y+s#s#J'`#H%h@I@V# &$$J@!@u$<&K@e@3#K~4@I(}#&>*$2#|#I@I@u#&@$$B#N;;@h%8#V#e@I@p@4@e@q#U$O'J@h@t@!>b{W!1@=>J'e9R,O;Jd%/b$ %s#S;'&=%]'0'q@L$_@l#r$v$B@l$b$=%#&I@k>v%O)",
"D;k$d%y%k$l$a#I$^%%%V=`$#>J@v@8)1~r$3%j$:%_*L=U#j@_#F,p,z@Z/g@%]k@^#)@!>T@i@>#U#^#m#w#^#&#H;_#R]s@$#y)[* %L$6#Q_}#A@W>x#b#7@)>e@:(%>0>K$I@I@|#p#%#|#K@_#I@~#T$L$'#7@-@ %C$I;%# &l#$%2#K@e$s#X%'#I@~#*,P#T$l#&>/,t@F@h=g6T$9%O;{&:_}#I$2#&@p#t@p#s#b_{%Z!*&m#I@g#&#x#G$2#T$b#s#h$o#L$l#&%s#k$r%K@*%`#G#=%&#}#B#7%I@!#{#j%S%K@D@[&,*p#&#}#{%r%|#M$@{g#U#J=J)F@g/2/d,0*0%^^k$]#P@g$0*p$^*2%x%d>#~T9K$H%I=f$h$Z%>*#;r([%7%S@d~Kd=*D$s%w%+/)*T#C)h>9@F:C%h-!#_#{;_#c%L$2# $T$>#r%p#U;U$e#S%_#K@}#j$7$I@s#!%~#{%}#}#E=!#3&U#]#K@[%Z@{%m$^*&@m#i#D%K@b$/%g#!#0#M@g#)%i#P#p#q#z%-;i9+*k, -z@S,{_`%(&k$S_l$4%Y%&;[%'*[%T$0*Ld!%V#X%_;+&T9S_Y%>*%;S_k$#=M$S@Z!@&]b2%>*k9+'_@q#A=Mdb@0#R=s#/%s%X#`;_#+&[&J@|#p%d${$K@h-_#|#v%E$!~,*c@>&y%#%_#f#|#3#~#3#I@B#X@L$|#_#g$|#V#3#c$i#dbm#&#T$g#p#i@g~P#s#5%Q'!#s#D$B#U$v$/#;$L='#J'3%&#v$}#+{9{B'($e^E$a#<@0'O;NdOds<V#J[0[t>;^O;c{X'r$y%6#3&E'3&i#l#B# &I@Z@!@c%U#V#;$D@.(D%;$Y@ %&#3&g#f@>$'#@#B#~**&c$-@h%}#t@r$ #U#K@X@@#n#m@V#K@>#T)i@$#d%%>&>v@o#f@S;x@1@8#L/6@4@.@>^^'*$0~`%H%g#c_T$~%>%w,$$A@L=&#/%T$E$p#O%T$]#g$|#/%B~&,",
"v*}#w9W'I@f#}#p#0$!%a#]#p{z@8#^@#~~#)*!*B%~%&@`=!> %F,q,R;%,o{f@j@3$l@&@l@s@L@Mc@$q]-@>#%$y#+>5,x@_@8)M$/#E$S;i#-$V@-@v@y#-@B#U;T$e65%3#g~f#]#J@[#I$$$U#-@|#*;%>+$h$B@D%L=m#e$L$c$e@E$-@U#|#]#g#,#s%o#>#c%Pd]'P{ ][@D<'>&#1%w%I@4@&#g#L$P#U#E%>#A@{#G$Z@ %m#7'._e@X#b$D%|#N;j$D%L$I$w$4@[%I@c@}#5%1*p#|%L$i#w#S@!@E$,#}#Z@i@i#x$s>h$T$P#l#c$/%b#!#F#s#,>7&9)0@O'C)8-<'],g,<'E[E(B/8$8$E(),Qdo,  E(U,U,N,],E(_'y,8$_'*'O,*'E(k[<'<'f,Y,5^n=p@k@i=&(7>>$j$h$w$b#w$V$_%%%-@i@>*s#&%d%a#&#$%{%v$^*_#'#V#d>J%I$!@^*3#+$s#>$b#p#l#5_`#}#s#G%d$@#L$M@<&d$P#;$v%-@w#I$`#i@ ,-@*&'#j#$$a%)@^>6@d,~,E[v_^,o,F)RdO,9,z,C,i,t,z,y, ^N,|,N,^,H,|,U,~'E(('Sd='9,f,f,E[Y,),+'u#N_6@n%5%2#l$m$U#,*L$D%g%<#g#M$e@H%V#%>B@G>_#c%D%h$t<~*%%E$g%$%i#>$I@H%{%}#d*(# %p#g#g#9%<%q#8%Z(H;>$3#B#X#V#L=U#&$m$i#B#,#3#A_I@-@s# &K@0#s#L= %l$0#p#3&i@~{d#%]P~//x$m#Y+I@q]C{I:-#3>Tdv[*=a)@#O'x>=%V$V%{]s#O;A@q#Z@n#!:>#$${$s#3&|#=#e@_#L$h$[&B#m#'#_#7@*${%>#-#3#d%@# ,'#*$h%Z@h@o#2#[#h@6_!>h@^#B#Z/c%*$m#&#Y+;@>$h@y't@6@5#A@k@!>n,*);@#>>%s#N%l#!#^*l$/,M#m@d%G#S$h$I@F#k$'*$$[%D$0$=%Ud",
"q*<3v%r%]#v$w$%*@{';E$I@$]!@Z/v]D(>%p#]#[*j%K@J@q]I@'^;'Q{a@>@k@e@F'2@c@c@I@&@4#^#&#J@c%s#{%C%a,%#I$Vdp$g%A@&#}#K@c@&@g#:%>#'#I@L$5_-#9'<#!#|#l#{%i@U$T$'#!#K@U#B#_#&#C_!#K@f-M;|#2#p/u$]#s#p#|#f{K@F#D$Q(`;)'B'`+ -_]_#F#s#f@[&K@2#,#;@}#80S@K@`$.$g#:%W%g$I@L$g#+$U$m$=%f# &c%x#x#S%Z=s#S;9%G##%2#M@Q_L$e@K@s%|#|#h%W%>$g#&#&#V@-@r%i@e#!@c$]#V@ &&#E$u$y%#_o/^>z@-$o'$#x@a@F@$@x@$@[#1@9{_$9{l@)@5#_$L@_$*@x@^#x@k@W!5#_@g@h#2/[@Y+a@o'2$&@}*j#b$!*>:>$_#B>.{:%`#b$*&5%y%%$I@*&'#<&Q%|#H;D%L$P#~#m#E$&#h$I$p#G$7@9%q#V@L'*%U#v$U$5%f#_#}#,#1{!@d~]#m#l#`#`#m#2#b$|#:%b@_#|@b[]^5#;#h>c-]@$@${h#*@h@I/z@h#~>h@`+;#[#a@I/Y+:/1@_@0@_$_$>@#]*#G@=@a@v@}$l@$@d@P~g@K] 1i#F#T$4@K%=#.$S@C%!@j$5%M@{%m#T$=#G$Q_g~I@t@w$a'I@F#_%}#_@i%U$L$V@=#k$I@p#h@{%E$|#M@w#5%2#i#%&7@d@;$v%o#&@T$!#B#B#U#L$t@I@j%V#y%f#g#p#I@s#[&}#3#-@!#@>6@{]o{_]!#<#a@WdP'o:_]J[U[Xd%[<[,,k#${b,=*/%x$=#m#q<f@B@i#$#Q%I$K~_@i@E=_#y#$%{%F#U$m#=#i#}#I@n#H#e@!#L=_#,#2#m#!#I@m$2#'#I@_#c% &t@:/ #6%{$&#3&m#f#2#$$%>N@!@'@_@%#_#w@_$m@^'z=|@3:B;%$}#r$>%}%0%L,g#f#i#E$O%d$<&L%/%i#E$s%P%%%e~Yd",
"u*w#e$/%g$k$f#b$,#%%r$=%$)u>k@C=&0#%j$w$3*<&/%Q{e@~*S,4-S^e@_$}$:/p@<@$@m#g@L;k~n#5%c@{%=#[#y%_,-$q@;=U(u#;$B# &u#@#i#K@x#K@&# $E=Y@0#p#}%s#s#>$q#k$w#B#m#N;K@S%T$K@e@`#~%l#V@|%~#T${%g$J@_*D@l#b$p#l#%;'#]#'^1@F@l)B>N%*$,*g#5%s#D%Z@$$&#B#8#h$p#E$V#D%I@g$y#h$0$_#a#1*!*o#I$=#}#:%K@V#5%*$|%|#M@g%|@=%2#P#>#i%&#L$c%<%!#s#a'P@,#T$!@E$U#g#=#U$s#|#G$!#l#X@($;@2$W!z(]@Y@h#Y+k@i(p@t@C'Y+_@P~x@W!b@^#m@$#L@'/U]6@B'Z+Z+>@6@h@=@b@c@6#O;Y+(#`+d$;$`#]~b$s#E%m$`@k$[&I$l$C%w$D%`#O#y%l#i%s#a#H%B#!*0#M@<3&#q#r%&@&#h$q#{#Y$D%b$~%0>I@k$U$l#D$e@s#l#.#r%F#!#4@b$I@!#}#g#V#|#+;E$w9T#k@G@ ]L;m@4@]@1@{]k@*#g@)@G@_@6#[#Y+.@&@1@Q{]@+#x@x@h#h#h@h#$@-$M#;@=>b@B'$#F@Q)m{7%p#]#_%I@:%g-v%^*S@r%9'i9@,V#D%_#`;S%~*p#g~W>s#U$V#[&!%.#u#k$k_e@T$B@!#W>B#F##%H% $2#,#b#U#D%&#K@L$-@.@`#I@*&B#V#c%!#!#|#Z@K@h$_##$g#h$i#u#w$S%a#/%-@U)]@f^D/v&n[;>;/G'ZdN7`d e.e+e@}g}T(G'L/x,D'F#!%4@k$V@-@4#f-%$c%w#!@E$ &0#F$ &g#!#w#f@s#I; %*$ ,f#i#m#n#L$3#-$U#S;~#T)K@>#>#m@Y+t@c@-@U;'#-@f@2#8#4%~#&#e@4@q#(#V#4@$#_$'>+$w@R,''3&-)-&Q$1*y%d%'#+&E]h@>#t$+>7%=*p%3#P#y$~%/%g$b$a#  ",
"D_h$@;P%_*)$I@=#%%$$*&=%8)4@]@A=,{v$b$~%f-Y$H%a@^#5%-,/,L@{@*#Z+7/8#;$f^m#4@e@-@_#e@|#/%;$=%$:',*$z@y)k%'#`#e@D%C$2#U;}#.$[&m#~#e@@#,>I;L$W>W>(#f#[_m#U#'#p#0#o#b#,*9%h$L=U$P@e$ &+$e$5%!@T$y$1{y#g#a#C$9%0%^'($h@k,E$,*K@I@;@:%8#%%0'D%w(y#&#e@'#l#f>,*i#I$T$y%y%V#Q%Z@=#I$ ,|#h$m#U$w$a#!#D%_@L$d$>$n#I@L$/#b$|#r%i%T$c$N%,#{%f#c%B#E$;;Z@N~L$w#v%%%o#_%I,o'G@A@L<)#S%2# &i#D%a#n%p#.%~%W>N%k$b$%%B@/%F#+;I$C$y#l#L$*%i@/%Z@t@H%v$l$@)N@i(/@4-v%H%U;{%B#$$L$!#i%K@u#)$L$W%[&U$s#r%s#/%_%,*f#w#|#i#$$M$s#D%V#0$L=e@&#p#`#g#2#/% %<%g$L$y#]#U#w#l#d$S%S%=%E'g%h$L$c%s#i#}#]#c8+'V{6/Z+]$n@-%M$b$i@y%!%{;d>j$L$v#b#{%$$g#g-2#[*L$T$F#,#v$*&V#I$'#d$h$a''#/%^*o/(#-$`_*#U;}#e$>&}#3#i#y%L=g#7@I$e%_#%$s#c$I@]#h@U$!@K@+;n$3#,#o#l$ ,=#T$S%'#I@I$U0-@;$s#w#g%`#0$p#]#m#B@&#;@`#k@/%B#j$U#%>2#y%#%h#5%:%p#,#U$v%s#'#=#]#T$W>%>m{0'.($)//Z=d9T#@e#e$e%e&et,*e=e8[-e#(c@-:o<0$L=H@;$/%m#f@F#!@%#'#h@Z@+;&# &q(e@U$;@h$m#!#,#y#w#Y+%$I@T$&>~*)@A@@#}$h%w$e@%$3#$#B#%>&$I@_#b@i#*$;$h@7@i#$#!@|@)$l@'>d/&>z@+@t@;=l{F#Jdp$q$p#y#l$_#<%n,*$(#G[ %'#T%-&4%[&k$h$p#]#g$_*;e",
">eK@b$g$D%X%';p#'#l-A%h$]-%#5>g>5*3>e#'#y$**#$u#a{F#q,!^5a ]b@)@M#X@%>*$M#+#;@_#k@X@;$d@d@C_[&3,T@O';=]%5%K@B#g~{$'>b#,%i@q]>$A@J= ,p#e@V#O;+;M#2#V#~#,#2#[&^#T$+$c$j$!#P$S%U#b$D%m$Z@^*g$&#!%S@'#&#]#k>I$$#3$O;K#,ee={%K@h-&#7$s#{*G#P$`#!#D%p#@{}#V#!#&@h$!#$$s#|%a#@$i#L=V#M@+,@#{%I@G$g%>$h$0#I@w#j#p#%%;&!*3*D#L$i@j%d%o#9%S$^*E$}#U#Y$j-e$V>9%_#**o';=(#o'I#Q!U(s#4@8@w{[#=>4)&>[@ ]-@n<|@Q@+$N~r'F$_&=@<#^#g@q#=>5#g/A(!>z@)#4@'en)6@&@/)%@m$/%3&s#7'b#!#H=I@[&|#2#P@C%&#p#&#.{h$m#K@o#S@l#T$e$M@W>2#B@}#3%s#L=D%+;7(N;=#+>_#;$E$f@G$I$8% &2#f#m$+;n#F#h%3#U#V@7@M$n$h@4^]@x@Q@d~e#`+/=>@t@@@x)Q(x@m#Q@w{k@~@]@h#p@>#V@u@])<@J#($-$D@($)@-$k<B#'>'@H%!{d-)@1@':q%;$I$a#p#,#V#6%w(~%T$<%i#4@D%7(g#A@g%`#F$w#l#0#9%:%2#L=,#L$/%e@ %_#[&s#k#!#s#y%c$+$e#+#s#7@U$c'i# ,'#d$[&V#$$3&^*j%F#K@!#F#Z+!@c%w$!#i$o#P#K@ $K@!#I{_#*{@>g&3&Q'Zdk|)e!e~e{e]e^ee}/e(e_eQ(:eY;h@Y$Z@f#O;*$n%t@|#V%I@U#X@ %K@A@_#{%K@7%!@:%Q_=#k~f#2#~#>$e@s#U#_#h$t@ ,X@@$V#0'4@$$*$`#t@h#>#-@w#i@3#V#i%A@F#(#m#k@&@x@w@_@~#$@k@=]k,q#A'&*M@:%K@|#k$0$8-~#=>k'K;)$`$]#!%i%;${~W'r$9'[%:~",
"x/v%w$+;4~w$]#>&:%!#h$.;z=w@p@N]o$!#P#>&p$f-;$b{j^D%l{n,x@8@${W!*#!]Y+$$B]p@u>w@x#i#e@ ,&@B#l-}:5#g@]^K=F#`#I@I$^*.#4%K@U;,*C$}#f@K@4#-@U#7@w$b#D$7'$%,#4%c%a#V#m#0$V@5%f%b#E'^#+$Z@_#V@c%B@d%j@a#%>;$7%V#5%v:Q)<e1@%'f#g$a#l#K@q#'#c$D#B#3%u#9%'#t@C$T$L$o#f#|#]#|#J'E$T$I$L$s#f@*%'#p%>$K@w$g#x$M$m#/%g#2#b$2#T$e%D%L$[#K>%>5%]#W%9%p#/%~%m#]~2#p#u$g#'^k~b@Y@F=g##$:*b$!;w(d%B@C_w$^%=#m_ ,N%[*C$}#S$P=V#r$g#&%*%w$i@7@I@]#3#!#T$c%+#(*5@L@1@Rd0*d$H%2#!#g%]#9%f#>$,#d%S@/%`#H%w#=%I$1*y#K@}#S%_@|#5%/%U;|*H%,%,#E$>#Y$M_s%#%=#]# ,l$K@'#e@{%o#B#I@'#i#{*W%%%v#p#2#s#H;D>V,4>O^/(z;}<M@g#w$>$*;3#c%U#C_w~j$}#i#E$!#w$!%x# &T$d$0'L$'$t1c%]#.%!*{%i#E$y%T$k$9{_$'@1/6):%a#!#3#U$L$y#m#a#j$m#i%0#>#w#i#t<w#^*T$~# ,y%D%D@!#7@8#]#7@,#&#i@m#f#m#E_&#i#]#'#]#h$;$h$g#}#_#g~`#u#*&}{i#_#5%3%_#}#i#*$U#U#E$f# $&#w$s#I@@#Z@I@d-+$1@*#G:-;l#+|[e}e|e1e2e3e4e]1m15e-#v'6eT%y$[>:/2#7'B#$$(#}#t@%$V#0'*$p#E'Z@!@0'C%,#g#h@m$E$I@_#V#'@7eB#L=;&>$e@V#$$_#m#W>Z@u#$#,*.$5% $5%_@;@i9:&*$$$Z@-@+@J@)#I@!@'@[#V@*@R] 'Z@S,4~O%y$D$v$P@!%/, %h#$$Z= &x$w$=#K=K@ %+;g$I>)&1,",
"q>+;l$X=*%!#=%g$=%}%0$r%f)3&q#Q;Z]v%x%p#b/<>}#s@{:i#S,r,-$G@{]1@)@X@w#$#-$&>U;+$t@i@2#Z@^#e@g#d,A(d@;=/{0# _I@.;f#Z@4@h$;@B# $o#*;V@K@6#V#l#Z/d$;$*$]#{%5%]#U$U$q#}#;$t<l#+$+; %,%X#]##%{%e$I@D%w$&#0#U$m#k$t(>&=@Q@L@n=%;s#T$l#F#!#:%c'w$E$U#V#2#a*p#!#_#L$K@w#s#i#7@{&U#&#>$P#!@j$N@~#V@i@y%w%7@[&g#+>L=s#M@3#P#I@l#'#2#-%V#}#E$B#D$s#,#3#k$r%U#|%<%G,W{x@=@`=~<L'L$s#y#I@e$c@i#K@U$%$%%!@V@'#y$*$-%T$@#Y$g#e@f#,# &U#!%e$f-h$g#T$H%*&w>~>(#Y+S{F,8e7(,*f#I$P#)$l#h$C%U#T$L$K@v%I$|#|#P#|#I@y%;$s#_#*;%%B#d%'#P@<%S$l#>$%;c%x$J@E$!#K@i#U$,*l#p#t@|@w#F#w$y%#%d%x$v$L$u$=>x,n@g/o'e<w)]#s#y%t@b#<&~%&#G#t@9'r%p#$#g#/%%%j$S%H%g~U#:%U#0#$$p#[&D%!@B@E$r%E$Z@D:,@)@<@8-J'<&6%r%1@9*4%p#y%K@0#U#|#m#d>|#;$|#f@T$J@|#/%!@,#$$V#/%y%_#u$m#+$g#m#D%}#J@3&}#b$W>w#d$ &{%L$3#S;$#F#b$9*-#Eap#t#'&S@_#Z@/%2% &9'g$h$J@W>}#C%s#:%I,n@)@m)V'3&}>9e0eaebecedeeefeg1geheW@:/o:q%I@;>V$E'q#;@n##@9%h%U#@#$$N;!@o#e%E=|#*&p#I@,#I@3&3&_#o#Z@>#e@}# ,*$y#(%n#3&*$g@>#s#>#>#4#|@~#&#i@e@Z@.;e@W> &_#$$<&u>%>e@u>*#c'/@m~m,+#9=p$>*~&[%e$_*X%l,^#M#}#3#h$g%U#T$T$H%4%g$~%I@-%8$",
"W<e$x$W>p#D$B#f%'#<>[%_#I)O;M#F] a/%/%/%P%K@>%${t@e@<,4-5>(#T#f^F'.@k@O'c@m#5#h#2#*$y%o#e@0'U#u,%#[#4,K)*$'#z@ %-#L=:%3&b#|#`;|#%>f#W>f@ ,J@c%;@{#Z@^* ,i#u$$%I;i#h$v$9'a#_#2#+;m#w$K@e$f#@_]#{%a#;@'#U#M@B#!#ie%)`+a@F]C'5%M@j#^*V@[&I@w$I@T$}#&#!#u$m#a#v/jey%O#*;L$'#'#4%E$+;h$p%s#a#a#+$L$D%%%2#I@A%E$|#=#U$V#>#U#U$V$m#|#U#f#`;K@%#H@s#W>-@l#/%|:k]Y@[#^@_~W>g#p#g#g$E$S%D%<%2#/%i#I@$$M@ ,`$|#2#b#g$~#j#0#s#a#D%g#0$b#%%U$V#U#P#j$3#YaI{`^'>n,*$U$!@B@!@`#h${%]#b#j$ &b$U#9%l#)$ &7'g%]#a#<&a*/%%%U#>$T$2#s#%%&#v$b*2#!#%#P#g#e#]#L$U;>$U$h$>*~%V#t@Z@b$:%i#g%-%h-q(V,{@a@[#4)@00#v%P#]#^#8%U#Q_s#V@M$m#{%L$V#-> &m#V#I$`#D$N%F#t<G$t@!#E$I@b$`@/%a#H%2#%%y#($a@d-0,Z!D$L$ %_*+;k#>$V#s%$&e@g%/#V#b$L==#_#x$I$e@v%i#U#|@}#/%]#9%'#k$b* %i@l#.;2#s#s#c@&[!~F#F#g$_#V@a#s#,#-@i#_#T$E$[&]#h@|#B#m$&#E$y%/%I@&#.;7(h%!@4)X@8@ -<:E'8%keleme%=neoepeqei4rese<|W{te}%S;]#5%X@w#!#T=:_w@K@;>w@k@h@ &9%|#f#P#>$I@B#q# %J@i%i#I@U#->I@f@!@2#i#h@B@U@c%J'B#U#N@!@6#=>|@l#m#,*'#X@L=^#+$[#>#I@~#z@b@c@1_($.;/,,, $;,D<#%H%I@M$0##=(,f@_@N;C$f$v$N%F$/%f$!#D%G=h$O%@-",
"j*|%%%-@j%O%s#0**&j%+&t%u{i#!@Q;!*j%0*9%}%3%Y$k@8#s#0)>'_$p@)#G@9{o'1@J#@#f#x@q@>#e@:%1@e@{]U$='-/T)@)l-{%q#g#>$i@y%3#s#3#n@y#}# %&@=#l#{&<#%#f>&#d$&@K@C$f#b'c^b#L=L'g%m#p#,#G$e*Y$i@7'2#U#{#=#~%v%f@i#f@r%H@8@B%1@Q@m#Rd>*r$K@9%{#*&r%q#S%a#I$1*|#t@]#/%U$Y@2#]~_#m$I$:%:%i%}#M@{%@$l$K%B@v%'#V#(%#$S%%$}#i#l#w@)$f#<%&#7%f#y% %^*p#v%L$u$W$]#1**~Ma*#_@&@I@I;g~]#.{ $o#->f@4@p#g$d$'#$$i@i@P#v$J@{*-%*&U$7'g#|#<%v%w#;$V@x#w$g#}#>#*&<%J'^#k@o'~@ )u%2#]#w(L'Z@d$D$k$D%:%g%3#|#B#S%3#f$^#>&m#3#_#l$N%:%p#U$j$&#L$.;e@v%/%F#j%L$R(c%g%S%V#K@U$ %a$}#e@w$[&I@b#l#K@d$2#^>x^J#F/]/uek@K@e@!#r%>*I@y#f{#$!#J@.;c'-%|'2#u#V%t@V#f#/%I$`@l#y$p#M$l#p#B#u$h%L$b#I%Y@ *x,K#_$w,~>%#t>e$_#k$7>g*h$s#h$v%m#1{5%I@L$i#!@D%`#K@e@l#3&i@y%s#!#C%{;,%U#$$V@&#_#H%_#g%'#_#c'l#V@e$<&e@]#J@!@[& &`#!~U$;$L=c$l#i@h%m#B#V#H%L=H%q<K@_%E$3=B#J#F@Q/W@veweh1xeyezeAeBeCeDeEeFe~8&>l_1>B@V$X@$$I$~#L={$)$e@h'E$+;U#3#_#~#%$-@a#A@c@$$$$i#+$.;'>e@}#;$o#L=i@i#u>V@g#i@*&#_k'K@q#g#i#@$%#2#$$j$m#-@i@i#!#=#k@h#-@Y+]@&@3$m@k,,,c@x,!*j%+;-%x$h$D%H~s@(#}#w$L$g$r%w$l$h$b*y$8*e$7$t]",
"hcV#y%4*b$>%]#>&p#S%0*'#3=-@B'K{e-,#h$L%}#g$~%L@i_,#=^[,)@a@k~u>i@g@2#W!$$>#|@6#&>o#9%p%5%3#S%e3L@@$e===P$v%a'A@L$Z@_@U#C%F#+$_#P#!#x$C_2#9*%$p#d@i%m#i# &I@ &m$'&t@`;Z@|#.{i#=#U#{;|#}#B#I$ %V#J@F#a#-@p#{%B@e#@a{)T@9{>]0~]#|#p#!@7%3#P#d$.;2#[&'#$$%%x$!#a'`;c%L$I$c$|#U#K@=%V@_@&@5%,#j$H%g#2#g$g$v%{;p#/%W>2#I@F#O%9%{%_#a#|#n#0#I@g%b$e@|#<%$@k,x@W#p)+=5%M@3%@$P#*%-@*&K@b#6@j$X#~#s#'#t%.{w#.;9%I$c%0#=#_#D%!# &M=S%%%I@A@m#B@g~y%+#g<Y'h#5#6,_#D#&#r%Q'!@ #2#J=e@g${%p#V@b$U#h$2#e$Q% $L$s#2#T$2#Z@&#K@F#r%i@R/w$h%|#W!j%~#E$s#x$[%#%w$x#b#B@)*M$b$h-e#j%L=k'v%I,[@2@/@W>L$h-!@l#i@}#>$Q%I@&#g#f#I@!*B@V#9%v%3& _v$]#q(p#p#3#9*&#&#^%K@w$s#f#]#d$s#S@w$$#*/h#{]b@$]2'4#z%s%V#m#w$J#g#&#U#s% &1{%%F#c%T=U#|#c$|#j%*&}#4#'#<3`;+;_#G#*&K@ ,V#<%m$2(E$d%9%i@w# &_@4%|#c%'#U#U#s#g#L'_@;$V#/%t@U#3%i#V$>$i#,*2#q#3%!#<)=>5#$)K)^[Q':/GeHeIeJeKeLeMeNeV1Oe2[D=8=x$*=m#>$e@k@U#a_E$(#U#q#U$c'm#E$I@}#8%_#f@*$^#h%e@ #.;[#w$I@N;i%y#D%X@e@u#f#K@$@e@w$~#|#|@>$J@t@K@L=;$e@g~>$i@V@c@q#`#|#+#(%K@[#7/M#V,k,&>}=T'/%!%/%H%r%X=D]i@<#}#h%I$}#W$7%3%d*e$Y$r%h-=%o,",
"m*l#r%O$=%4%M$]#K%>*'&s#n)-@$@+{5d[*e$Y$!*]%D$}~h'n~Pe,,1@M^o'D/x@->D@_@J@t@Y@-@O;$#<#[#l#!@g#*'-$*{8=]%Z@u#I@Z@$%U#/#B#;$S%@$_#!@q(;$*$w#U# ,U;d#|#c$ %l#3&G>e@0'1*%$@#E=3#h$J=>$e@D%P$i%Z@v$=#y#,#3#y#7@H%F#:%&@fb:#)@6@),w%9%y%H%]#J'c@I@*$I@,#g%L=:%f#|# %e$|#V#=#>$g#e$S$K@%%B#_%]#a$w(V$T$p#l#l#p#v@l$K@&@D%M@s#4#S%s#g#U;s#L$m$~#v$=#K@e@|>8-5#=@k@@/C%y%!%I@o#b$K@s#7@7$[&s$/%p#y#H$I@2#h$V#{%K@|#i#~#I@>&8%#%L$b$g#{%g#!#;&^*I@|#)&0@W;*{-$>@t,v$e#b$,#3#5%`#D%l#L$V#C$Z@u$u$|#b$U#;$r%&#&#V#!#3*{%p#v$i#!#0*!#/%S@}#C$L$m#'#w@g$7>m$B#0#-@V%U$m#^*7@,%B#k$%%}=@>d-/@0)y/+$d$L$I@i@E$)$T$}#w(2#%%j$C%p#+$J>i@D$v%m#s#<%l#+;/%g$f#L$l#b#l#l$_#*%q(w#+$r%I@S:_31@_@C=v{t%g%S%s9B@ ,}#I%b$3%U$}#>$t@{%r%]#|#e%I@|#B@h$#=%$i@4%f>U$,#}#v%H%Z!&#!@7'&@_#X#*$9'i#7@D%s#e$F#*%7>j$V@i#*$V@&#J@@#8%:&+$/#5%c%5%b$&#-@'#$%z='>5>^@Qe2}ReSeTeUeVeWeXeYeR6)8Ze`en~ fp,o>L'q#%>)$b#B@>&-@t@X@H$i@i@/%3#A@U#I%_@q#5%i#C_.;i#!#m#&#!>K@[&B0/*_@&#-> #d#!#J@&#t@m#$#h$i#l#n@u#h@@#`@#${#h@{:@#-@:/4#m@T@J@L@b@+'9,Z@l{m3w~p#j$U$w$(~r,o#W!8%S;D$j%c$U#/%/%}#e$e$t@[%r:",
"U(0#!#|#=*L$2#Q$o#K= ,-@3=@#*@5$&(9'~%r$g$R=&@N/c'{;[,*-)# ]w@&>%#f^-@%>&@c@c@$$^#e@H%&#k@w#p#.'Y@(#6=.,p#>#^#p#!]f#&#c'`@5%B#F'a#1*&#~* ,W>x$3&Z@e@q#[&c@V%%>7@e@l#&#i@g#I@^*f#7'p#L='>~%t@T$m#_#<&Q%K@$$q<0#M@D%|#A#k@o'${;,D$!@f@Z@s#k$s#&#E$`#/%7>$@v%h$w$a#s#}#~#c%T$k$p#!#b#|#h$g$>$2#g$T$s%I@w#_#S%f#I$&#l#v$B#}#H%&#p#a$=#|#}#v$#$`#C$&%`=I)Y/z@1)R'T;F#v%%$+;w#/%Z@@$!#=%i@L$s#}$k$}#B#5%f@+$U#g#Z@L$$$P#E$I$K@I$,*~#!#]#b$W>T$Z@f-w(Da0@]@)@h~m)B#P#[&&#U$l#!#s%f$m#U;e%0#^#w$2#s%a#{%c%w#}#|#3&a#^*]#>$.#^*{%^* &h$_#L=|#j$d$}#+$<&I@{;U#M@w#]#Z@B@F#!@=#p#-^_$&>_$W$>@c%$%S%V#B# ,o#P#}#[&K@Z@b$b$I$P%'#!#H% %e$U#9%;@l#b$;@e*h%F#g%{%i#5%b#q])$C_v%r%6@b~o'u~[#r,2';$s#|#H%|#5%=#!#e$2#!#d%~#Y$F#]#C%,#L='&a#w$!@V#P#V#7'o#h%J@4%f#/%3*k$b$p#>$f@ $i@T$5%S$b$w#_#V#c$q<'&L=7@F#m$f{f#}#E$V$&#U$s#E$k#)$1*,*g#])6#$$;# aJ;h%:^.f+f@f#f$f%f&f*f}8=f!:D=g0~~<{`(Z(I@V#y%a#V#U$-%;$v$O#Z(>#*$^%Y$t@b#i#U#&#s#5%-@Q'=#!@L$u# ,&#E$#$e@-@K@!@Z@-@;@I@>$B#>#>$D%c$h$_@V#7#(#5%V@m# #@#W] ,Z+(#g/W!x,/,$$8,p$#%B@=%f$L=r$<)(#Z@|#l#)&s#2#<%/%b%3*}*Q'/%7$&,",
"e(7'V#=&L%j%%%9*E$!%/%U$j)u>Z/E{M$y$<%M=M%u'$${/k~c@/,;'(@h#'/g@L@p@)@}$!@e@u>J;m#V@S@-@(#f#]#_'*#_@c=B%2#w#=#J@+$V@b#I@D@5%K@,#%#_#q#m#s#$%e#F#s#}#D$e@x$L$%$%>f@'#=#`#Z@g~!#b$j%h${%D%L$D#g#W% &=#C$@$s@|#*;k$m$>#.~+')@/@m,q#=#I@l#I@k@X@L$m# &w$->S@&#*;t@i%_# &+,!@i#h$D%*&h$s#}#i$}#S@y#;@s#H%T$p#$$D%&#F$h$5%c$I(I@i#g-w$:%D%B#e$D%i#Q'U@H,L^)@r@@~$#|#i# $d%B@b$I@L$v%T${%j$_#c$g#g#W>u$k'l#p%.;{#}%s#o#E$5%^*+;)$Z@g~g#}#L$s#p#j$,#V$g@9_l3%]$@8,,#:%Q_m$ &p#*&1{f{i#U#,*b$=#|#%%K@h$p#^%!~H%!#$$K@N%*&!#D%0#^*F#*&h$F'j$}#h$j$_#U#i#L=E$!#2##$L$v%x$y%+>M$=/T^m@h>L,-fx$v%V#0#c%8%u>|# &+#v%Y@V#5% ,V%1{i@[&e@h$t@a'x$f%I$D@/%B@B#/%s#}#|#6#j$n%>&c$`#e6%&*%C@]@J@,]~^`$x#c%-#[&-#L$9%I$g#M@V%^#J'I$r%I@]#Z@e*{%h-'&D%u#T$c%,#i@y[G$0#7(j$o#%>T$~#Y$2#v%o#I@y%V#+#*;K@g#e$Z@]#2#3#L=!#w#I$!#m#&#5_=#U$}$_@b$p#;$a)!@M^r'i&e$/;^>;fGe>f,f'f)f!f~f{f]f^f|d/fQ[V$0'V#N;6$J@h%g(p#f#w#_#I@d$s#[&I@%#2#}#$#->&#!@&#w#>#m#!@_@B#;$5%W!5%e@!#q#|#J@>$T$^#-@,%L$q#w#=#*$2#c@#$j@8#3#p@+@S@$(b@Y+6#2$+#q,,,3&F,7$*%Y;+,/;D$K%/,&@Z@(fH%7@!*e$=**%4%!%]#Y$d%W$_f",
"hc]#Y$)$3%P#r%g%g#}'j%e$T#^#8's~%(2#i#R/v$L$f$T{b{;&w,~,I;!>(#:$9{s@T)e@J@_@D@f@-@>#.#c's#c$}#g,{#J@k)5{I$g~l#K@g%@_4#z]'#T$P$4@g#Z@s#i@H@0' ,t@I@Y@1*I@%$[&>$m#I@&@}#3#L$U#I@'#K@K@;$ %s#p#W!&#b$D%C%L;d%v%;@!#e#x(W!N$s])#<@./H$l#/%F#Z@ ,g#I@,#p9F$U$s#K@7'i@w$I$B#'#j#D%1*i#_#l#I@<%_#U#d>H$.;%%]#H%l$l#^#8*L$ &|#+$/%>&J@w#+&4#^*!@&#A>^&-^m)W!h@f@@=a#2#/%|#e@g%S;V@}#T$I$@{|#%%v%e%/%#$9%V#p#V@^*7@F#h%K@L$v#U$1*m$&#;$I@o#!#V@b$e[K@q(*&i#L#*#)@v{E{M_h$k$!%w$D%o#{%^#+&p#[&:%I@_#H_F#p#!#w@[&}#w$Z@ $'#`#P@x$]#H$N83#:& %g#!#o#a#|#P#|#|#Q'L$G$2# $+$ %j$h#L,_@)@b@s*a@l#y%S%,#{_K@]#}#.;3#8%=#l#V#4%f@P#B#!#m$H$]#w$'#M@s%&#r%&#r$h%v$e@s#_#g#g#K@%$ ,+;5%f#]<K]$#`+/,w(7@_#{*8#+;K@L$!#g~I@;$]#>#E$u#I$B#c%J=^%B#y#q(,#D%^%5%e@,#_#v/j$a#e#L$p#^*+$[%t@%$9%S@S$s#%>_#9%7(_#t<K@<%D%I@A@s#l#.;M$I$e$w#L=r%i%[(W$%)-@(#F@:f<fq[[f}f|f1f2f3f4f5f6f7f8f9f0faf9>X+h'6#V#W>bf~%<&s#Z@5%j$>#_#}#U#I@2#,#&>*&^:w#^#x#i# %s#U;f@C%_#y#3#g#&#t@7'c$i#W>}#l#K@*$v/-@^#{;G@T$f#(#1@m#t@[#p@$@d@Z@_$k@x@C'd,,'+#Q;z'N%+;>&*$J=Q$e=m]1@_#@#/$x$!%b$M$b$g%v%N$/%o$}-",
"C&m$=%:>/%L$M=E$L=!#s%2#v{i@%#;=D:1%I=.;i#j%y%2$'>-#m~;'k~u~q@J@($$$|@A@4#7/f@f@Z@9%&>z(@#i92#N,5%1@^@[*K@5%=# ,.(2#e@@#8%y%f-@#E=p#0'/*p#g$C_*&o#j#l#3%!#_#-@D% $#$i@g~b@i@K@E$&@`#7@L;$$V#J'P#V# ,K@7'5%c'm#'#L$|#o$x%4)G@G@a]0'G$[&A#!#L$ ,0#L=%$L$Y;4@w$v%%#}{s#I@!@c%!#>&+$m#*&y%*=_#!#g%i@E$Z@s#B@-@H%d$c%'#/;_#5%s#U;h%M$D$I$d>T;]#D>L@q,Q{k#}=j8y#g#E=e%s#s#`#b#<%T$m@g#h$F#`$|#g#m$g%+;g%R=D$4%K$w$l#w$q<H$s#i#|#'#+;!#e$>&*$-@L$g-K%D$]#cf_-5@$#m~f#w$l#D#g#y#,#s#!:2#o#o#[&K@S@_#>$w$K@E$i#G#_#B#)$E$j%]#e$v%P$d@d$~% %i#s#_#:%e$}#g$l$G#D%2#_#W>K@K@#=~'T@'/*{m)k% &x(T$V#V@0#U$a#&#V#a#l#=#U;U#i#S%D$~%l#}#K$K@m#a#B#r%7>L=*$E$*%s#y%!#s#|#J@x_U$`#N;S$i#y#J@p@~@a@8_dfS%v%*&/%V#;@c%f@E$J@s#o#<%^*B#p#}#I@U;D%V@k$}#3&[&!#<$'&-@H%e@E$2#I@l#w$D%}#'#E$j$_#5%g$<#j$t>V@y#j$H%`#T=/% %w#m$W>w#V#!#2#]#l#0#V@D@/)f^$@f)D;h'$[efffgfhfifjfkflfmfgenf }k~/fofq<3&X+%$6@V#%>;>~#$$i#h@!#l@a$b$&@]#l@|#@#*$g@_#3&k#m#B99'=>&#|@0# $&#!#O#c%b@~#4@.#$$Y+3&L=(%6#$$p#&>!@3&X@j#5#-@c'6/(#}$h@%#F@&@s^S,9'q)e^b$d%+&w$!*F#/,@#O;}#2#9*s%w$a#H%y$h$;%I@r$G$}-",
"k*.;b%9* %H=/%F#%%s%f#K%n)&>k@S>0%]#%%P#s#u$E$n@q#_#9,,,g/2@$@c@>@x@p@n#T)A@V@d/U# $&@;@c@:_~%],_@{]'[P@v%~*>#e@,*+$!@%>,*)>f#i#c@*$2#E$M@c%p#*$w#H9m#P#p#]#;@c$`#[&/;e@2#}#5%B#m#X+f#E$y%,%l#I;a#x$_#U$$$e$%>]#{(5%L=$##*O{g@/@N,<*9%E=o#c%P#m%7>Q%m#h$X%F'D@$%/#b$,#h$}#2#g#x$2#g#]#s%l#N;W>}#^#D#t@e#S@i@S%d$~%T$~##$v%w#~%%$s#|#&#W%)>/%8,Z^q{Y+-&L#j%w(`#b$s%L$S%^*K@F#p#b#D%P#V#m#7@i@$$D$0'h$v%'&e*U$M>m$g#w$2#I@}#U$}#T$T$g%*$T$}#.$7>l# &i@pf@>u~%@5'E%T)|#V#L$g#j#N%K@r%I@I@T$i%e%x#/%w~e@1{5%I$g%_#!#s#I$_#[&F#]#D@w$g#~#S%]#,%I@!#m#D%!#4@S%&#s#2#1*M^,,Z/z{qf+*Z@W>=%s#l#h$w@!#u<]#-@I$2#D%i#I$T$&@&%7@i#L$&#|#k$,#T$N<e$@#]#i#m#|#K@l#S@&#!#y#J'`#7@;$%>>$'<6=Y+d@s~.(R=f#9%K@V@>&0'L$c$'#;:'#|#U$ ,|#l#Q%w#e@|#g$I@U;i%7@I$s%&@U#B#w#|#l#y#K@p#U$^*|#F#~#,%!@g#J@9%w$s#E$2#e#%%y#&#7'l#T$w#v%v$L=<&n#E$Z@m#s~Y/=>p{/^+>s$rfsftfufvfwfxfyfzfAfBfCfDf;_<>6[o#]#p#l#j$&>&#k@*$i@g#Q(n%,#d$U# &Z(J#F$m#|#}#=#T$L'm#U#_#]#&#y'o#0#)>V#K@]#e@m$+@o#k@2_&#-@e@I@c'9'F_Z@&>>$8#*$&#'>5>k@=>b@;#f@*-^,;@R,1~d$,~|#!#d$e*s,A@&>(%2#*%k$&#=#E$e$f$$$Ef!*#;  ",
"Ff)&r$E$:%m$%&w$*%h$l$>*L,f@-@0)4'z')$H%j%s#9%s@5>o#k,R,o'{]'>h#!>-@_@5#Qch@U#8#@#L'%#_#B#l#L=O)L@4@s)&*t@f@&#L$->f>V@$%@$7@_#L$s#x#-@&#3#V#'#I@D#i@.$B#X@0#2#p#I@5%w$g#F#2#S@&#=#|#B#K@m$>#U# ,*;|#w$3#&#i@h$I$T$!#&#g$G$`=)@5#w{/)w(:&~#:%&#&#.;p#|#:%I$l#Y0/%s#Z@!%!@k'n%1{i@{#t@`#-@'#7@>&S$W%I@Z@3%L=&#r$>*=#&#!#h@&%q$~#:%i%x$!& &M@*#C{l@Y+A=F[>&&@&#_%D%k'7'p#u#~#v%s#b#K@t@L$w$I@4@.;!#J'V$D#g$S$>#E$L$^*B@k$f#*&2#F#u$8*&#U;g$v/ ,~*E$e$l#Gf~@#]*@@^4@&#b#d$a'T$g-H@`$+;<%**e@g#K@U$i@E$g$M$v$H%>#s#e@g#M=u$i#D%b$Q%6@T$&>C$L$K@w#/%I@$&D%g#b$w$!@V$w%w,<@{]<#D%f#:%`#,#~#j-m$V@U;]#g#g$v$t@e*H%B#@_w$h$P#Y%B@b$V#v/b#e@w$7'p#b$U#U$s#Y$w#h$&#E$c%I@_;M@t<_#`#%@c>v@x@W!n,X+e%D%/%!@D%^#c%K@}#!@g%g#!#b@p# %s#w#g$~#b#+;{%|#&#L$h$&#>&s#p#p#l#&#F#|#!#j$/#|#}#g#I$l#I$k$v@-@i#>$w$Z@s#V%2# $i%.;T$p_}#i#w@L=/%m$B{9{W!^>Hf({Y;IfJfKf73LfMfNfOfPfQfRf+99fSf1(j99*4[ &~% %-#{%0'q<O'[#U;Z@I@b#`#_#b$+;-@V#_#^#}>e@w#D%@#i@!@_#B#F'I@W>-@2#L's#f@b#}$]#-#-#i@>#c'i#2#y#A@(%i#F_5%$$X@t@$#_$@#x@A@]^z=F#i)G=P@;$/$R$o$-%$]h@n@;>6#[&{&]#p#0#I=l#E$=&L%_*'-",
"pbH%f%t$L%D$k$5%[*P%^*B;0,$#(#<)#~T$9%D$)&C$0#P~_@_#,,/,p@1@L/o'[#t@h@_$9{<#s@.#;@I;V#A@G#_#L$_'q@*@j)w'V@<&w#_#s#@$V@I@j-e@_#$$>#h^!#T$T$>#|#T)}> ,A@C%!@u$w#T)'#x(I@f@!@L$r%I@B(s#$%2#:%i%,*i@v$R=.#3#j-g# %l#=#9%+;O#Q%Tfp{I#}$n,%%I$+%!@f#s#m%y#x$L=v$e@c%^%_#G$`#0'a'3%g%^%|#}#;@V#U#&#}#|#s#e$2#;$<%p#w$d%i@-@`@L$L$A@d*{%5%,*L$+&d>)'g@A#z@UfY+C$k$K@3&E$&#F'E$g#]#|%a#'#p#m$'#P#o#e@&#F#P#]#S%s@#;g~p#/%=%,%I@K@7>U;&#}#b#/%>#h-_#h$C%s>w#T$6#0^=@6@s@7,P#/%j-V#B#_#2#Q%6@V#c%b$k${%d$7'D%K@*,{%}#6#0#!#{%V@g$M@g#>$E'm$]#c$E$$#:%]#D%a#|#{*i%e@-@X@C_{@j)<@9{A,wab_3&~#<%L$-@3#g% #x(@{ %h_`#:%.{v$E$%$.;!#B#,#2#V$:%F#C$L$%$&#m%&#I@h-3#D%g-{%*;/%g$X@&##%Q'&#g#V/t^[#)@H~1@M@`;<&+>T$,%U$`$$$I$a#|#+;h$}# %q#&#j$g$+%j#i#9%f@I$V#v$$#Ca_@w#o#!#|#_#0'>#]#K@K@L=V#p#k$t@F#c%L=4#j%h$I@D@^#F#X@g~e*V$C$V#^#g#U#o##>[#<@I{R:N;w}VfWfXfYfZf`f g.g+g@g]fJ}@e-:#gC~@#$gx$I@E$N<~#G$0#5%m#S;0#k$Z@J@m$D%3#g#f#I@_#E$!@f@,#V@W%x#p#+;&#P_ &1{D%!>|#=#*$q@L'^#@#q#1@2#6@w#f#'#Y@d#K#T)^#h#.()@c@a@6#W!q,i,=#n,3>y%E$k$y$p#s%e,S@~#L=$${&w$)$D$g$K$0$=%]#*%s$o,",
"h*l#]#E$t%v%~%7$<%J>K@~%])!@9{=)|<D$[*1*[>o$<&8@B#E'8,'^-$y]l($@$@t@6@O;I;k@c@e@1@&#<&A@p#J@|#9,Z^p@$)D$>#&#c@f@&[p@&#Z@I@ &V@|#3#F#w#g#f#N;m#,#Q'-@^#o#w#i@V#I${%>#!#C_t@I;w(~#T$C%!#p#w$B#U;Y;g#w#|#i# $u$U$y#V#*&B#E$$%0'y$]@%]($(,&[!#U$s#u%p#_#_#I$4@j$b@+&g$q(P#I@U#B@V#|#r$*%o#p#-@~%y%`#D%X@e%g%g~U#>&K@<%]#i#u%!%D%u$[*j4`#r$X%N{B{(>x@k)u$w$b$*%I$|#S$i#I@.;I@|#$$b#,#i#/%p#+#p#+;L$S;]#2#I$K@s#w$V#y%=*'#3#b#&#!#|#2#)$g#i@5%n#3%c%P#!@U#w#k$0@|@*#^>`/C$L=Z@&#l$!@+;&#P%j$1{Y$<%!#w#U#_#*$F#}#:%[&$$k$&#Y$2#4@s#e@|#w$Q$x$f-L= $<&L$9%e$`#v$p#b$l#%gq@x@n@H$)#/%7's%m#I@a#w#O;K@U#k$I@w(K@^*t@}#]#C_m#;$a#{%5%*&'${%T$V#|#!#M@d$-@!#K@W>I@E$J@e@[&4@0$^%[%3#r%/@k^0~2$g@r,7>[&K@U#&@T$Z@^%C%i@'#w#L;I@I@y%T$e*=#n#F'I$t<}#e#l#,#3&b@I@g#K@i#q#y# ,w@+$Z@,* ,N%]#_#I$b$o#i@>$>$i@p#}#I$|#>**$G$;@3%]#s#n#l#i@y#D]Z/W!}9[^'{&g*g=g}f-g;g>g,g'g)g!g~g<|weNd{gP'S;o#&>_#F$V#H%p#Z@w#K@/@|#L=b$U#C$w#b# &w$ #l#d$*$ ,i#}#$$@#5%i@>$c'9%C%^#$(p#g%w#3#V#U#h%7'n@(#+#L'Z@3#j@h@f^n@J@X@n@(#;@6#@(A@c)!,!@n=_*}#B#K%I$]gj%P]h@>#-#l#&#v$_*0$w$>$R$k$B@f#k$;-",
"@:f*%>r$w$=#/%Q$P%r%!*%%C)Y+C'G~y$]%Y$e#N$y%F$2$Z@q#n=,,A{$#z@_@F/k@x@c@>#U@B#e@Z@-@8%U#$$7@g$g,J@A@+^K$w$e$w#f@E$y%$#7'U#'#`#+$2#s#m#d@n#J@)$K@^g0#;@K@m#I@0#,#F#2#F#K@<%I;U#l#'>U;l#-@g#3# %B@p# &1*s#y%I$v$/%U$V@_#c%J'!*u*0=}$`+i)t@ ,j$}#j$!#j$B#j$&#L'9%V#V#P#>#L$i#S@I@y#I$c%9%E$M@2#[&K@9%*&m#e@P@s#I$/*m$o#x$g%w$e$ &g$4@s%$%S;G{_@'/])/ge@>&k${&f#K@m$'#h-b$L$`#i@w#^*p#'#S%V%D%V#B#.{]#V@!& %&#7@S@H=i%8#`;g%0#K@E$b*2#C$h$`# &S@P#l#O% ,%$U#<:^@`+8#h8f-l#v%L${%H@/%*%]#g$B#,#<&U#&# ,y%l$Z@o#e@U$`# , ,~%j#.;I@|#T$<&[&w#P#i# &p#T$!#>&K@l#!#k'{@P~u(*#(g(<}#w$]#y'w$l#g%P$;& %&#s# % &s#K@!~,#U$K@m$P@e@d*s#O;V#U$x#{$[&S%!#2#@#{%U$>#]#U#/%w#S%]#`#N%s#>$L$Q'P#c-B'a@1/C)_%e$_#0#!~|#F#v%-@7%+$G$_#!#K@f#m#%&&#U#+$|#U#h$,#s#C%E$g%+;p#~#z0|#!@ ,5%V#(%|#<&~*&#D%^#|#%#%#m#M@c@$#!#W!I$K@V#P#!>-@F#{$*&{%!#3='$5>Q)!a);a$_g:g<g[g}g|g1g2g3g4g5g6g7g=f>[.(9*h%&#)$a#@#c%8%j#7'9'j$w#E=q<y#*$$$7'3&-@D%J@7'}#g#V@b_t@6#o#P#!@`#9'>#$$B#K@c@_#!@m#c@U@c@q#m#$$_#C%#__#b@^#_#l#p@{]w@k~*#F#$@x,;'V#x,#;g#%%T$1%)&g$;=Z@c@x$e@S%i#I@=&s%0$]#*$j%f#D$  ",
"+*&#!%T$l$]#!#P%T$8*|#w$r=<#]@n=>*v$=%]#g$w#M@_$-@y'$]u='_9{q@Z@($'@'>k@m@o#Z@U#Z@!#3#R(|#L'}#f0]@k@X'|<0>%>G$N@n#->,#D%E$n#q#e@S$^#2#i@1{e@@#!@h@e@'#&#_#3&,#g%0'I$%$U#e@+%)>h$*$$#I@c$k@/%b$$$e@%$ &h$m$m%T$7@!#%%=%w#-%N%_#G==@($f^],u%y#`#u$2#`#->9%r%h$D%Y$e$&#|#f#f#.;s#p#G$e@s#*$^%e@g-c%E$y%w$2#w@%%~#E$4%/%)$V#e@;$m#s# &~%W$}:a@z@k@C$h@g#v$t1v$j#K@1*b#_#!#Y$#% &V#!@*;,#~#d@}#i@B@2#l$4%m#{(E$g$!%k$}'T$|#:%%%E$=>c%e$E=B#V#K@2#K@|#g#s#c%(%,#s#x@$@@>F{S%L$>$V#~#e$ &N$g-I@s%x$0$$%w#~%2%3#>$f>f#p#m#{#~&U;v$d*;@^%h-l$u#-@b#e$_#h$v$g#V#1>Q=<#~,9{u~v@pb<) &f@0#U#J@n3I@V@S%^#~#g%'#!@i@&#f#w$V#!#c%I@w$ ,j%P#c@x$H$4@p#R(b$!@e@s#J@=#U;`#7@+&5%I@w$[&X%@#s#&@A@naK{-@b@/,y%h#}#g#{%%#_#}#^%O;!#!@V#b#g#+;V@^*W>}# &;$g#y#/%2#&@[&v//%;@E$i#]#B#{% &j$&@v%Z@&#5% #b$U#!#f# ,n%x#U#o#-#!@_#=#{%c'Q%b#f#K@f@s#j);@Y+]$v:U#X+8g9g0gagbgcgdgegfggghgigZ}jgkgo(Y$E=E$u>^#b$+#L'%>!@p%{%4@K@g$}$e@S@}$U#j-%>r%f@0'3&K@@#5%-@U$}#@#^#f@$$ %b$9' &3&J@;@=#E$f#q#;@m#m#t@U$c'&@x@J@d@h#!>3@9{Z@*@p@r{_,U#<=n>K%w#e$f$3*7$D]t@L@E$-#^&a#p#y%!#&#V$k$d%0$7$o,",
"L~*&g%v$3%I$|#}#M=e#;%_#r@!>;#M^g<_*z'0#H$[{g$9{|@t@-'<,[#-$$@Y+_@h#c#%#h@f@f@^#I'b@f@$#U$<&I@],/@b@ )J_ &m#:%s#q#h%!@'#[&|#Z@X@@#0#}#d$E$A@U#s#.{%$K@-@!@e@w#|#3#*$/%<#X#k_g#j#q#g%'#7'U$e@h%P#v/j$$#u$^*C%%#h$3&k$w#k$3#B@U#%&lg6(c#C)^@d%4#8% &7@k$3%E${%!#S$a#d%>$ %9*i@ ,`@s#:%e@9%`>&#[&3&k$L$s# %+&|#c$T$g->$K%s#9%L$$%*&g#w#x@:]]$Z+7-s*mgw$7#Q'f$l#7'8#[*g#K@+%D%/%,*p#c$$% ,s#J@:%&#c%+;,*@#'#e#C_T$T$,#C9v%:*G#g#}#|#U$&@2#I$`;x#g${%+$@#s#j$5%ng6=1@#@A,6#t@/%D@_%h$^*|#~#Z@p#l#`#M)y%W>U$_#L$j-%$+%%$&#/%!@e#/%O%;$$#I$|#w#T$:%$$L$}#!#}#h@<b;'P~G@}$]$4~*%B#H%{% %k$p# ,N$j#J$:%c$m#**f@v$c6/%5%'#H$&%]#|%g#L$M@I$I$v%w$s#K@D%b$J%Z@N(Y$K@p#F#P#g$h$G$B#g#L$r%)$i#I(T@Q){/,,X%I@y%b#i9U$j$$%b$1*J#'#2#b$[&_#U#K(0#I@j$g#'#f@|#V#I@j-s#F#>$&#}#P#&# %+%s#_#>#B#3%>$b#q#$$I@3#K@E$e@}#i#=#C%U#U#Q'L;D$|#2#;$F#8)0'6#n)u*H%:[:^(2ogpgqgrgsg76tgugvgwgr[/f*}|[N;u<n~W>l#L$B@f#B#i@a#V@E$S@s#O;d$!@xgF#B#|#4@g%|#2#s#E'L=U#g#I@;$@_j@p#}$h@s#w@g#8#+#e@V@e@]:I$x@7/&#>#._*$D@1@8#k@1@J@Z@2$9{~#}=,'7'A,]%!*y$~&`#>&<*I,h'^#L=%>K@M@#$[%~%B%`#1%l#j%x$8$",
"O&m$%*}#/$b#h%7%k$^%J@B@L,&@L@]^e-D$/%s#>*d*b$U@$@o#Q9,'*#g@_$*#@#*>Z@8'[#*$@#I;w#h@m_6% ,U;$([-1@9{9)I=Y$Y$3&2#F#4@&><#%#+%@_w#-@b#-$8#J@t@+#m$H#=>+#J@ $x#I@;@_#5%l#&#|#}#_#Y$B# &'#I@M@]#A@m#o#E$-> ,K(U#*&'#g%e$t@^#f#}#[&V@ygU{D@s@~'{('@g%a#W%L$/#|#{%*=P_%%o#b#f@p#'#f#w#%$/%N;'#!#_#[&w#7'J#<%+,&#j#u#_#o#s#f#S%m#F#F#}#_#_%m~o'=@1@'<g@L=j$V#d$q#~%2#y%h-1{h%l#v$y#^#k$*%V#p#l$K@s#0'1{-@;$h$g#&#o#v%I@U$H%_#a#~#e@s#%$/%t@7@O%E$0$e$y#s#s%l#l#i#>#4'`+u~$#^,:%m# &!%=*s#s#i#^%2%I@C%.#i#7'q#P#2#U;W@N;h->$g#4%m#e@/%I@_#I$!#2#u#f#|#{#R#p#^%=#9{e90@%,4)zg^#9*)$+#y#!@ $V#p#4@l#x$=#F#@# ,!~`#U#t<y%/%R(T$%>/#w#S%7@!#v$j-|#]#f@^#!#g#>$g#K@E%!#q#`#d%V$g#b$E$b#!@g$(#A[c)9{Q)/,@# %7@g%;$d$E$U%C%U#>$w#|#n#S%}#H%m#K@z%]#5%m$2#g$$$3#V@b#U@B#=#-@s#M_U#!#U$%#T$F#l#k$3_}#d@!#!#}#-@*$_#r%0#,#[&S$q#E$|#e*b@s#'#r@&@T)$)P>E'*=h^AgBg`,CgDgEgFgGgq7Hgi7ef:,L>E')_.(5%m#0#!#g#l#H%i@L/0#k#F#k@_#0#U#B#C%&@*$h@y#$$w@x#m#1*p#0#~#>$*&J@|#<&o#<# &K@^#4@=#l#i#F#i%V@|@!@|#+#o#J@A@$@w@&>6@&#h#a@R# )),V#E]V(w%L$]#~%!#o%''%#c@l#t# ,E$e#)&!*V#}#[&D%M@&*r:",
"D;b#_%P@T$|#!*a#V@%%a#3*A'c@d#n{ >[*9%%%v%K$|@|@e@;$d,P,;#,]*#Q{x@t@u>8#h@J@[#c@u#m#*#+$i#,*!~|,Y+u#_)O$L$!@%$%&K@d@!#'#w#U#i# &h-_#T)^* ,V# ,^#'&s#+$U#8#i@e#>$H;I@L=F#k'|#!@B#l$I;l$+$*;%>,>/#&#^%**h$4%w$U#=#2#W%C$x$;$P%,**&/%i%b@r#$@r{[&0$t@r%w(u$<&l$1{s#G#w$R(C_w#j-~%e@5%9*u#U#+$|#k@'#g#!~0#s#I$1*V#K@s#&%l#]#^*i#j$H=H$2]d]C@8@Q)-&]#T$I@i@X#g%7@!#k$F#V#g#i@,#F#V#!#s%T$Y$]*&#`@p#I@%$h%i@ % ,V#s#$$i#s%_#s%w#!@{%]#x#]#i#o# %v%9'e#g#%#P#c%W>B#b[%-x@L@n):#{% $]#1{4#!#]#B#f#K@g~ &i#|#`#:*0#_%>$U;_#y%K@V#w#3#[&U;-@w$!#j$e@%$V#$%5%U#y%#=D,p{;#_$~#-#u$e@^%n#O#]#}#|#n#;$7'_#I$;@F#U#;$8%0$.#]#!#3#8%d$D%|#h$a#!#o#A#<>g%s#U$k>K@>&^#y%+$s#d$l#o#E$e$L$K@w$]#c%D%>#0$a@_$(%b,:%p#s#;$L$o#l#v%I$h$^%F#B#/%K@D@+/C%H%!@h$K@'#[&B@!#*; &!@8%u$;@7@t@O;;$e@y#I@|#;@M_F#U#]#S@i#o#'#%#B#%$K@P#*%Q_m$I$ ,,#p#U$0*s~G#$#T{90y'7}*gIg=gufJgKgLgMgNgOgId^fPg]]P9N%~%|@0#q<5%0#x(t@f@j-Z@/#w#'#9%D%h$c$'#!>l$s#:%+$b#|#-@q#5%N~A@I@i@I;-@2#3#i#[&U#w#T$-@&#2#-@!@j$l@@#P$i@%>O#^#c'*$L@k@b@x@g/_@X#l,,'e@i)M=c%Z%r%>&[>v$,,V@-@m#p#y$)&h$h-b$E$S@z$)~#,x%.'",
">eg%)$E$j%P#y%D$w$/%)*=#$]>$x@r@F=e$d%o$I$g$p#J9|@;$;=8=2$f^^#%@L@[#+$[#{;6#@#e@ &a'L=+$-@J'`#y,1@W#4)e-V@c@L=_#*$K@_# %*;}#m#'#e@F#{$|#K@P#7@E'&#>#y%f@1@G#y'J@i#|#}$m$V@E$o#j$a'E$f#U$_#U#y#V#U;+$0#$#!#F#Y$=#I$&#f# %f#U#!#n$7@<:^'b@o'/)s#6*P@K$x#r%V#y%,#Qg_#!#:%l#{%c$D%s#:&a#Z@]#f#H%l#L$3#;&e*L$>&g#2#w#i#i@L$N)I$i@D%}#q<-'x@(#3=9b &5%e@/%x#3&T$v%l$h@9%V@B#F#f@|#K@&#&#j$M@l$L$7@L=>$,#_%S;J@U#$%b#c%2#!;i@&#s#k$8%B#*;t@U#y%m#f@J'K@*$*,~*t@}#D$e@$*_$N#$@},7>w#_#}#/#%$/#.%S@e*2#<%U$F#}#'#;$&@g$@#f#V>7@[& &!#E$+$V%|@y%l#l$M)1%M$g#D%<%u~7^*##@4)Rgw$0#^[T$U#>$W>3#C%h$!#s#3*y#Y$E$U#g#_;$$e%:%h$I@E$P'w#U#h$!#~*f$^% ,B@&#T$s#0$K@E$D%{%`#V@l#3*R>S%i#e@i#'#{$y$I$L(A,g@H'C{o{D%I@D%;$&@d$7(_#d>g#}$4%h$[&Z@I@H%v%g%!%a#I$S;]#L= &!#x$t@`#b$}#2#<%*,w@7@2#,*w$l#g#V#|#n#&#y#%#p#!*m#!@i#i#.;{%|#U;|#L$}#!%g)!@5>4/ >n%J[%@j7SgTgUgVgWgXgYgZg`g h$@.hq[<&f@;>i#&>6%l#s#_#`@|#9'.#7@S;j-0'6#@_D%I;f#U#%#P#E$m$c@t@H@J#;@&#!@w@j@*$X@Z@ ,H@V@J@Z@Z@/@y@(#!@+hp_}#&#L$d@8%k#Q{(#*#/@'>_$s@s@I,^,i#x>{a0#V#e$E$/$)&;,>$/#|#'#_*!#w$ &0*]#/%F$P=0#%;o,",
"k& &g#F$p#f%%%S%l#9%I@w$n{c@x@ -DaK%s#y$^*k$Q$h@k#>$F,,,d-Q@5#W]h@Y+e@*$_#U;}$m@!@t@~#}#H#&#e@O,Y+N@I{R%.{V#m#y%m#c@G$c$G#|#>_6#I@3#[&s#'#h$I@!@2#,#B#q#4%9'^#|#+;;@m#^*$%!@U#b$+;_@4@k@o#@#U#Z@~#E$ %y#|#V@x# &{%&#c' &n%B#*&{$L=F@]%5#x@p@:'J=k$e@S%h@d%'#p#R=}#^:%$7'A@g-l#C%+;M_j$V#!#r%j#a#>#9%3#g#w$I$B@f@C_~*w$}#%$3&B#*%T{+{:${@V%c@b$0#U;v%{$-@I$}#@{`#+;V#g#K@&#~*@#g$}#|%T$C%%$=#s#~%(dw$x$f#s#f$_#/%9*B#!#=#i%i#I@&#V%L$/%K%&#!%v%g#7%,%7#)*!@U#g#P%J@_@c-R;H~p#]#M=L$<%!#t@,*,*0$*$m$y#b#N;m$S%&$.;2#V#/%$$g#w#M@ %1*_#<%}#+$l#E$ %w$M$c%V,@>)@v@f_S#{%}>p#g%y#$%l#<%r%,#p#'#y%]#T$C%{%v@3#w#;@B#'#s#;@(3[&2#!#!#]#I@y# ,I@K@l#l#%#a#v%9%L%&#<&L==#+;8*y#Y$t@{%c'B@$$ &@hw{(>(@P,]#+$c%p# $B#K%A#%#>#,#U#!#I$i@s#1*C%2#P$I(v$_#f>b#B#s#!#P#B#|#B#b#U#G#'#K@U#4#U#o#G#V#y%^#D%X@I@Z@6@~#p#<#o#:%}#g#/%q#Z@&#=*^)Z@Z/0@q*T<;~#h$h%h&h*h=h-h;h>h,h'h1|)hY'!hq<B@N'D@8%%>,>!#7'4@-%h@&#i@y#w#c$n~n#A@_#4#<&;>}#_#&>2#i@|#k#5%;$>$z[o#g#(%*$f@m#@#-@f@S;:*!@}#c@-#C%K@A@s@e@%#@$1@x@c@$$Z#e@u>^#m~u=-@L,E9S$i#9%b$l$';}^C%J@i#B@o$e$P#f$E$b$k$I@~%/%g$r:",
"~h9*b%e$%%E$V$K%i#n%e@=&N{c#[#r{x%,;w#N$g$7%0#5>Z+Z@H,8=k~-$)@e@k@q@!>0#.#-@c'B#p@_#L=F'Y@w#{#!,#@5>]$e-U#:%5%K@-#s#I@1*$#g#W>m$*$e@*$d@4@0$y%T$k#m#Z@Z=&@,#_# &0#9%|#9%p#{%s%9'f#K@K@I(l#R>!#]#~#2#L'y%i#p#'@%$c%B#s#m$g$+$E'b$s#]#]<[)`+<@y>Y_c%-#{$c%B#y%;&!#a#o#$$5%7>K@V$`#H=y#q<T%@$+;h$M@Q'@#V#y%8%E$!@a#0#B#V#s#8%V$p#5%m~*#_$F,<a*$x$D%l#D$g%]#!@9%y%F#!#*%B#w#}#U$:%h%!#-@I$_#d%&#)>k$9%'#j-G#[&+>[&0#w$c$a#v%7@x$m#m#H%y#<%]# &w$z%c%=% ,s%I@w$>$V>p#jbo)W!($I)n#-&H;u$M$#$E$K@]#!#,#l#*%e*J@@#g%'#^*I@C$o#I@}#w#5%!@]#U#I@L=}#Q'{%7'[*D%0~#>*@d-x>H^y$W>7'v$7(=#'#V#)$I@E$f#E$h$M@T$I@0#_#B@P@0#|#i#f*8%i@E$4@/%D%I@w#!@!#|#p#J%U#w~_#V#V#V#w@'&^%B#V$*$y%5%.;}#G$w# ,D%e$u~b@*#4>8_b$i#>$7@x(i%7'I@e$7@m#;$*$0#m#I$y%|#$$d$c%%#>$B#s#a';@j-5%l#V#-@K@I@;$;&'#b#_#i#}#!@F#Z@m#s#)$f@e$Z@B@i#i9}#I@7@/%'#}#K@w@A,%>'>D{{h}'8[F/]h^h/h(h_h%f:h<h[h}hU}|hJ,}['{W>7'}>K~8%S;m#c's#V%J#c'K@I;H%J;~*m#B#m#+#@#k'3&8%e@}#I@Z+m$f#x#O;4@Y@^#+$V@i#i%U$i@W!6(w$'#k@$$e@n#%#w$J'$$`+J@i#J@N#h#x@@>Z/_@m,},,#_)z'a#E$e$:&*%>%d,T)&>U;i@}*v%e$=%L=%%B@Q=h$H%Z%Fc",
"Q/T;a#<&>&a#g$%%E$H%R=%$I)e@J@C=1~w$:%w$7>-#%*3$w@N;{^/''>)@q@p@C'^#C@.(h#7@k@6@F#^#.@B# &3&V#k=f^k~F{E^V@-@=@6[g#~~<#e@-@J@{%@#v/{#{%{%d$e@9%%>3*K@M#&@5%V@I@2#.(U#/%;$|@r%&#m#l#f@|#B#e@m#e#@$h$^#g#w@b$j$g$U$[&E$e*'#s#&#T$b#m#g$7@V*Z+*#b@:,+&V#[&K@ ,v%U#Z@4% %e*l$P#Z@V#m#2#/%[&J@J;7@!#_@_#}#p#v%m#|#I@|#T$~%,#k>9'u>]#V,){k@1@e(O;'#D%D@M$~*H#b$i# %s#F#m$i#y%s#5%h@o#'#i#0#u$ ,f#/%;$K;I@!@h$g$,*b$_#w$5%]#2%/%*&V#y$^%t@e@!#_#g%-@f#s#Y$ &m$J@f$~%h$a#Z@P%J{b@=@a)h$|#g#V$F#y%^%<&V>.$A@]#l#g%W!007(s#~%7>S%d%}#m#}#s#`#F#9'Q%`@l$[&T$C%w$p,8@($`+1hw)>#i#c%u$:*H%^#m$Z@w$_#P@i#`#u$]#J@o#D%r%w$.{ ,I@O%h%!@k$V#|#Z@]#8#U#U$*&l$ $9%0'8%P#L$a#r%e$Y$!#&#K@_%I@&#V#V#j$Y$j$Z(^0#>T#.@_,g%E$K~y%L=+#T$!@y#B@V@&%m$g#w#%%+$J'e${%{#-@`# %n#}#=% ,b$t@N%K@I@y%q#.#g-H#U#j%L$S$U;p#;@l#g$e@i#m#]#U#^*P#e$i@j$_#&@p# $])W!;#5/W<'{}>2h3h4h5h6h7h8h9h0hahbh(|Z}cho>/[n[n%E$q#Z@>$W>S@E'J'U;@#$$&#t@o#V@;$B#w#I;&#K@P#w#e@ &~#U$7@&#t@y#I;@#q#p#w#A@,*|#Z@y#e@4@d#K@V#y$'#I@$#f#k@b@/#.@Y+Z@|@;@A(&>;@k]5^7's~f_V$1%e$l$F$y$H)'#5>M@P$w$M$]#x%g$&*K$E$[%2*l$Q,",
"+*g%j%|#+&v%%%u%o$c%D$O%B{L@{]3=A;:%M@D$f@-%.;*#1@c'/,n=~/@>O;A@-$f#1@e@_#K@;@J@J#m# $h#D@i@b$5,:/x@K,!*8%;@ %L$;$v/Z@_#B#V#*$@$V% ,^#]#.@!@Z@w#^#M_!#_#f#_#2#X@1*>#q#%>!#~#>$O;y#D$h@m$w#t@i@K@V@:%i@*$b#F#'#t<D%L$5%L$c$$$I@H%w$b$`#M's)k~2$E{Z^L$U;&#H%I@Z@U#i'+;!#K%}$=%I@R#;$=#I$p_7$V#I$p#B@i#e@g#m$W>s#j%X+u#m$;@5%d>((s~1@*#))Y=-&i@0#|#f# $e#C$w#I@_#r%L=y#k$,#`##$|#L$'#j#(%i@s#F#&#%$C%5%|#v%D%U#I$l#*&|#f#p%}#V#>$w$/%d>*&d$p%V#p#+;l#y# ,K;<%Q'/%+,V@U(Q)k@g>I)dh`#%%{%:&Y$V@U#=#V#:&^^>$%#_#G'j$I@J=d@B#c%]#W>I@-@0$i@I$L=b$h$]#|#N)i) -($M#p{d~;&h@s#E$9%.{h-$$~%H%|#=#r%O%*$r%g#p#T$'#I@!#L$W>b$c'a#d%j-_#2#2#]#I@B# %p#.;5%4%g#!#L$F#I@I@!*l#v/@#'# &T$!#&#=%]#Q%I;s#f@D$C'$#,]A'b%$#_#!* %;$I$|#B#h${%-@s#7@c$I@%$B@~#$$w@8#=#I@2#b@v%w$^%v%&%*$V#*$D$9%g$I@U7}#*&0#Q'E$Y@c%k'U;]#o#}#x$#$U#t%U#i#S@w$E$E{Y+%#])Z0_[q[d]ehfhghhhihjhkhlhmhnhe}ohr{L[+>'{f#n#q<8%o#V#f#0#<*.(V#9'L$0#e@w#h@u#p#q(y#p#t@>$g#I@9'O#T$;$L=$#;$;@g#&#q]`#h@]@D%-@4@B#U@&#3#6/o#&#9%o]h@>$t#%#q#_$;@W!c@r'j#k]),^:c)ph;$d%s#e@]#;%0={$c@e#K~!%E$b$Q'8%T$B>7%q$j4D$}-",
"qhD$s%v$T$h$D%f$D%w$/%Y$#>%>*$#>B~e$k$4~'*e_w$W!_@h%x,R,`^$#:$c@e@{#b@-#g@J#b@3#~#*$&#$$}#>_w$ '!>]$A'p$p#-@F/'#U@_#i#U#}#_#I@0#'#3#_#I@0'{*f{J@2#&#a$J@`#&#t@'#n$%%+;2#k@v%+$g#7'1*B#$%K@,;w#B#d$@$g#!@D$7@'&q#s%@#U#=#~#+;`#`@$%K@_#4bt&6=T@_@v_S%2#p#n%D@/#T${%**1{g#}# %$$p#i#w#D%I@*$L=g%$$v$l@c'T%c$i#n%[&*$!@o#g#G$8co3q{9{n/rhc':&3%|#T$g#]#]#,#'#a#=&,#v$S@3*P#7@V@v%s#@#P#K@V@;$o#>#M@y$4%`#9%t@V>|#p#s%S%>_x$!#t@g-}#e@I@e@!#A%k$!%0#M@,#/%/%!@/*J@h$ $y#sh`='/Y+^,thU#S%l#L=!&B#d>e#T$|#U#0#M%f%0#U#i#!#h$L=}#<&j$E$i#_%K@~&!#V#k$l#3#7,Y/9{!^p3h@M%e@G#I@$%**M@,#q#[&`#g~e@b#s#V#a#3#y%B#&#*$g$t@x$>(`#6*L@=#}#L$=#@#j-%$s#B#2#`#,%_# &S%!#s#w$@#V#m#u#_#I@'#!#d%b$>#&#V@ &_^]-z@1@/,~%U#v%e@7's#!#e${%9%F#t@T$m#K%I$S%r%d%K@g%}*M@:%|#K@g#*$ &Z@L$T$U#t@w$U#w$2#i#w#E$S@]#7't@`# %b#|#=#.;L$F#3#,*i@c@-#j%P@l)k@_$){2b$[x$F/uhvhwhxhyhzhAhBhChDh^[EhFhi3Z(9*7',*_#&#7'k#9%w$-@p@Z({% $I@&@&@_#j@%#7>d@_% ,.;_#D@i#a'g#%>i@l#w#S@~#b#P#3#A@o#+$q#U#s@6@0#A@^#1@4@5%i#x@+>K#@#c@f^(%3$]@6@G@I,2,t@i)g<Y$b#%*C$I$H%;,X#6@$$l#>$e@p#B;g#K%P#%&%&O%[*O)",
"Q&!%p#f>e#G$D%l$v%l#]#=#])h@d/x,X=v$a#9%H%L$w$$)K'V#;'=^.)/@W!c@-@_@]@O; &(%G@%#f#U#@#'#B#I(W>Y,+##{8=-&{%|#X@B97'`#c%&>l#J@&#S%-@7'_#e@y%7@}#}#f-2#8#v$B#w#3&K@w#w@_#'#H#[&P$f#5%[&y%B@Q'G#,#E$+>X@t<7'H%v$E$K@I$3#s#{#0$f@.;V#>$s#!#9*d%K@($[@%@L,s%B>_;j$=*Z;H$k$e%Ghr%=*H$f$u$S_o%&%';k$F$k$d>+&2%w%C>HhC>g-#==*_;~**&K{T{w{m@>#I@V#y%!*!@j$C_&#o#w#S%V#H%+$2#E$W>4%L$V#w#B#%%D%h%g$!#h#a#:%-@g$V@<#$%M$ $~*c%H%3% ,1*&# %i#[&<#=>V#9%&#p#V$g%s#]#*$'~*%<&}#q#v$U$5>_@>@%,3^#;!;+/w%!%k$f$D%!*/%Z!9*Ih`#^^+&h-g%P#=%/%!;';V~D%Y%#%E%@,o%'&h$m~${Y/1@)&@)>$+$E$!~s#}#B#=#D$K@_#}#7']#e@k$p#0'e@u>s#:%c@b$V$|#[&I(5%g#]#t>{;K@s#s#j$]#n#V#,*b#$$|#T;L$=#5%=#_#@#;$i#s%x(|#F#w$I@V#a#i@h@5bm)9@9{l{Z!o#W>M_2#s##$h% %x$^#!@F#<&%%!~&#g%%$g$w@j%h$I@Q'w@s#m#w# %3&v0u%~#9*g%U#*$e@P_l#4*e@s#{%j#H%H%L$V#E$a#B#m#I@!# %h@;$S>|@m^@]'dJhn[KhLhMhNhOhPhQhRhSh!2ThUhVhWh}}7'%>|$e@0#y%E$f#|#s#w#V#{#s#e@n~8#V@i@L'~#w~&#-#0#U#e@l#'#Q' ,m#*$m$&#!@>$%$x$@#_#e%;@!#6#I@_#X@t@'#I@4@]@6@J@M#>$w@_$B#4@M#-/m]h#6~ '}#q,[*V#j% &}#u$j%s_m#s@0'<#w$!#j$N$D%%%+>B@3#E$N%f0",
"k&p#c*/%2#0$1&b$#%l$l$]#U{J;/@v^K$g$9%4%}*]%_#A@5>V%I,/,T@m)u~_$1@k@O;;@T)A@_#k@o' #U@2# $B#&#u,u~c@z='; &9'N<3#:%F#i#2#I@}#_#^#;@_@'#&#4@s#p%$$@#i#g#&#&#o#m#m#i@>$>#}#&#7'T$I@U#y%j#I@w~I@@#0#!#F#w#T$0'!#V@K@x$|#n#J>*$5%T$+#O#|#Q_ %J'T&C=a@`+/)9-N,Y,E,`,z,XhN,R_i,_'Q8N,B/N,_'E,='_'B[='g,g,E[='E(U,  E( ^v_i,  d_1,6=Y+<@c)Yh|#W>m#0#w#T$H%d$g$g#_#s#}#e$&#k@!#Z+b#*$1*j$|#g%V@o#*&F#p9%$B#J@D%H%,*U#p#h-c%j-8%>$#%L=Z(&;H@;&}#%%!# &=%Z@D%@$_;h%Z@K@!#u#D$G$_#l:;=5#4@e,='Zh},='U,E(N,QdQdP/f,|,i, '},z,(,E( 'E(E(3,z,B[g5QdO,RdU,`hf,!,`'g/2$S, iu#>$p#|#]#Z@-@]#0#_#p#b$*$&#S@a#+#&#H@3&K@i#E$b#&#[&s#F_]#I$2#y%^*0#T$@#_#+%|#P#.#4%9%W>g#`#$[}#I@E$0#d$3#&#M@p#9%K@j$Q_F#9*s#%>4'#-7/*#y>!~|#}#`;]#g#H;m#G$L$g%|#<&m#V$V#c%>$o#q#R#f@H%y%T$h$|#g%v/l#0#[&v/U#t@H@i#^*T$,*[&U;3#`#p#E$}#o#>#i#l#I@m#j$`;}#F_Z/2#C)k#1@`'<~G'+>.iGe+i@i#i$i%iZ6&i*i'h=i-ir{]9n[19x(w#@#t@/%P# &l#&#I@i#B@8% ,|#%$I@X@U;j@L=6%^#J@&#j-;$$$i@K@O#$$Z@c@A@-@_#D@.#J@;@%#e@-@@#$$Z@:&m#/#q#;@*$Z@%#3&h@&@$#w@_@w@>$=]d,1@V,]<:&[*T$)&(&E%s~j#W!L=o#/%P#P%E$~&O%%%h-z%/%';O)",
"e(L=;$B%3%Y$w$^#T$D%/%h%}=^gT)K,W;E$>&g$D%l$V$k~|@9'~^b,B'*#$@Z+J@=>j@x@|@q#i#e@%#e@6$=#}$K@`#  O'Y+2)>%,#,*y#'#s#|#s#-@!#t@.#,#_#*$G#I@ &J=i#]#2#T$-@i%]*p#T$ %e@ &.{%>r%*&|#s#(%g#m#I$b$5%}#L$h@h$;@i@J@ %)$_@U#g#d$#% %~#2#Z@6*P$[&p#c%g#/_`^'/_$@>A{~>5#3$.@u~5#%#`+k@`+_@t@k@i(*#$#c@L@=@l(T@$#z@g@g@/@2$k@H#1@/@g/Z/Z+%],@c~D'*%e%{#`@&#L$^%h$_#g$/%&#I$b#U@l#{%c%X#E$I$D%i@l#6$(%!#h-l#0#;ii@C_`#.;I${%W@S$|#Y$V#/*#%^*f#-@2#e%I@6*5%K@+&/%|#w#8#-%i#}#,#j#x$**#%h$I#d-u~q@d/f^Mc%]%#:/($;@d-*@L@q{<@$@o]z@P~u~z@2$%@a@*#h#9{Z+=@*{;@ ]n@]@a@h#J_o{a#]#U#0'a#&#$$w#B@+$u% &~#L$L=|@D%U;7@H@g%{%y%U;b#|%S$0#i#&# &i#e@2#V#y# $U$,*e@+>U;f#_#v$@#]#2#M$9*y%^#Q%}>D%}#`#V#f#/%p#V#r%]#~#+:X'`+Y+>is#>$T$*$|#i@}$s#0$`#x#|#e%j%e%!@u$%#}# &I$F#e@&#{%T$p#p#j#s%l#_#P#|#@#'#f#3#h$y#v%,#|#m#j#m#+$g#i#'#}#s%{%U;]#%>v$0#$)Y+:/2$@0+}$[,i'i)i!i~i{i]i^ij6+g/i }4_(ir3Q'Q(B@x$}#0#y#o#^#K@_#q@*$,>L=A@U#0'f#I@n#=#8%f@ $>$%>I@V#x$q#I@A(2#U#[#%#&#,#4_L$A@9'8%8#$$V@f@w#i#$$A@c${:i@m@p@s@Y+A@&$Z@x@f@J@#>+'>(<-Qaj%I$w$>$';&%;,&#c'$$ %E$!*V#H$g$%&~%v$ %e*)&o,",
"L~9%=%f#D$r%o#)&v%y%)*3%_-k#_@8)B~w$W%y$g$5*~#5#L@W@),q,h#J0h#N/b@f^b@U;@#.$&@|@B(i@h#@#>##$3*|~9{m)^)%*U#8#V#>$5%f#Y@B#%#U$J@V#e@s>7@3#~#a'f#m@V%-@=#I@>$_#K@Z@&#%#V#K@u>`# &&#I@m$<&K@L$i#f@*$o#<3j$b#b${%A@]#'#!#'#4%_#m%_#'#w$>#s# &!*r$_iy{`+$#~@o'5#+$Q#[#_$b@J@5#Y@U]s@g@c{!]F@@>;#h#2$v@o'~@3$*#]@($g@v@T@q@7_x@L@$@o'J{^,>%/;v/E$&%'# &^#c%v%v%g#U#=#I$G${%M$M@'#p#&#N;o#%%Y$H;%#2#/#i#e%&#b#1{K@!#'#*&~%u$&@T$r%W%D$p#'#9%c%I@]#|#[&m#i%J@[&o#$$K@g#o#T$K@T$U;]$)@j/f^g@O#x@*#F@8@u~h#m@q@b@u~7/g@q{G;h#`+l( ]*@k~4)a@-@W!0@g@g@*#9{9{M#;#^@&@Q_]#P#l#o#U#c'I@Cae%i#V@.;:%9%M@4%Uax#9%_#Q__# &5%O;v%V@U$H;-%m#K@F$*$p# %$%'#T$m#K@_#U#f#!#E$o#6*p%t@}#2#G$5%{;E$k$e# % &s#%$]#e#a#-#!,[#q@=&!#E=e@B#y%2#u#.#p#]#|#}#w$@#b#[&B#{%*$;$2#}>j#w#6%v$j-t$@#M@f@l#w#K@s#}#l$$%_# &-@g#S%C_I@u#:&w#@#E$!@W%1*s#>$g%!#V#H)y#_$L{=c%|b*:i 2<i[i}i|i1i2i3i4i5i6i7i7=);$[}#x$8iw@c$=>g#y%U#4@&@/#}#W%c%!@g~X@}#M%v@>$G#$$h$L#s#$$I@S@u#/%'#2#A@4#B#$#|#Z+,#U#M#2#B#&#_$v@e@F_9'u>6@N@m#@#(#9{,_b@6#)#r)o'<,Y,f@s)o$b$l#Q$s#0#v$^,Z@I;i@f@L$y%V${%s%V#-&v%=%x%]#j,",
"Ff%%7$K$]#!#p%.;=%g$s%L$r@O;!@A{4~l%z%r$*&N%u'-/T)K@_-c=5@z9v@x@L@%>B#/(-$>$n#}#&>p@b#t@q#i@K@q/5#f^9)1%&#G#,*V@x#U#4@U;V%=#+$l#o#K@g#f>M@{#f#-@'&h$U#~#D$b#y#w(i#+>&@l#V#`;'#|#t<-#m_^*%%l#F#>#}#E=%>v%g-I@}#!#K@>#7%~#;>`#P#w#m#**w#s#2#y'~,B][#I/2,p=h=4=w=v=Ud1-a-$-_=5-+-]=l=w=9i;-Udj:;-s=k=c:0i3-k=h=1-ail{O>'-/-(c8@Y+<@X~H@[&e#>#=#%#/%@#p#.;f$e@d%s#m#B#&#c%1%=*;@%%V@/%,*L$h@n#{%3%d$V#]#e#b#!@|#I$T$i#B@*$k$_#9%w#p#M@g#*&K@-#>$b%b#s#&#}#i#U#d%V#A@P#&#i@f%;'$#G@9{bi(=.'#-v,^-  M9cidiO>3-k=z=]=$-e3eiU';-o,figiM9;-_f4=+-]=;-#9~(hi1@l/+':%o#&#w#_*d$5%I@w$5%g-^#l$c@q<e@H%@#U$3#1{<%{%[&p#H$Z@:%m#j-S$K@!#d*p#F#V@7>!@2#0#]#i#!@U#E$3%g$I@h$V#/% ,s#I@}#m#d$;$!~}#L$ ,P#I$ja(,-$[#/(-(>$t@m$3#U$ %!#}#v$E$I@g#Z@P#i#S%,#X%@;K@`#0>T%{%!#3&8#}#h@>$+$U$`@%%*$|#-@ $ ,V#5%0# &~#=#w#*&3#L$B@U#;$p#V#f#+$u#I@%)c@l)C)iia_]&jiDeki63liminioipiqiri(9r[siK(l$G'W>}'8%n%O;H%m#7'X@P$+$;&Z@*&i% ,f#m@!~U;Z(i%L$*$E' &,%Q'p#&$~#K@7@7@d@m#Z@;$3#@#E$J@H#.$-@u#-@h@$#Y$H@J@b{+$'@&#_@f@&@/@m@#_4#x,,,G#;=_]T$p#g$l$7@>*!^i#Y+#$/%j$w$>*z%#,p#-%h$r$y$p#r:",
"&<U#d%a#P%w$v$r%*&!%M@<>3=3&q#9)5*S@e$r%)$s#h$-$z]{%I,v_{]g@[#]@n@8##{Y+a^(#U#'@[&&@g@L$L=8%(&8--$`+n=[>K@/* &B#w#;@:%}#[&,#V#B#T$1_B#i@%$+#_#K@w#U#g#c$_#/%m$ti-@*,H%i@7$m#J@b$i#!_5%E$x$I@}#7'm${_C%$#5%r%;$n#e$T$x$%$-@U#a#j'!]i@x#-%K=K{a@($=@<)-+8/uig&f/m&@~v:2<0&p*}<mbvi@<['p*(_G*'c6<v:wiy:xiS*P:'c(<f&w':0L&f/4<]@^#1@;#Z,x$]#Q'V@S%<%]#!#m$.;q#_#&@$$D#m#{%j$/%c@b#}#%$&#{%L$w#K@ &'#e@I@p#_#y%H#/%_#)$i#_#a'K@Z@}#D%L$[*p#T$/%D%i@D@G$d*2#|#;>d@B#/% %/%:%<)Q)|/z]i)yiziJ(V(tap:+<|<::G&#*Y&S)C:+*f/}0q_V!I<Ai}0Bi'<h&[<b^X;mb5<T_/3r=@>[#z{x=7>f@/%s#_#,*o#!#l#<%i@C_&[~#i@g$M@@#(#W>;>j$M>>$j$x#r%;$!#7(L@U$E$_#k$2#E$;@I$I@3#3&K@e@'#U#v$~#<%j%!~!#c%s#|#Z@!%`#b$]#]#c%_#B~T#s~5#g@Cix*E$U#N%K@b$W>*$j#V@h$g%S%x_p#&#&#L$L$|#L$J@h^i#=#;&_#I$g%.#j$|:i@l#+;c@E$U#q@e$B#b#@#]#E$O;5%'#>#g%*$;$B#S%R(K@v%q#m#$)x@c@*#FfZ=M[Di<gEiFiGiHiIio6Ji.fKi[2K'LiMiJ[`(q<P'h%m#E$B#,*7'F#3#=#_#&>[&6#&$6$.${%p#K@e@v%j$e@d%K@J@B#W!>$w#q#w#6#Z@~#U#w#e@p#y#t@q#*$O;}#_#I;U@;@(#k>c@@#(#6@c'k@k~)#$@w@@^),f#p)o%f*)*9*b${*>%5,'>A@q#K@v%`!d*,#P%y%P=z%T$x$u$r:",
"z_0#w$]#>&F#7%I@X;<%r%;*I{&@q{C=e_v%a#i#_*|'(%q{-$$%_,[)$#c-(>L@B]Y+c'=@(%6#z]5%A@A@!#Z@0'+#V#Ni(#'/7-V(m$_#1@h^D@_$/%6#>#d% &;$L=Z@m$p%|#&#%$}#i%-@9% &s#~#I@&#%$J@_#V#f#g$L=!#[(g#&#f@s#e@3#$$`#5%8# &`#|#B#g$r%s#e@w$T$-@P#+;$%p#I@c$m@n= #_$%@K&/(H%`#]#>*s#7$,#D%)$-&v$%%v$P#r%w~w$^%'&Y$z%0#/%-%:%~%F$r%**D$l#}%/%|#V*K](>P~#>q{v/B@$#*&p#}#y%I$/#7@c$P#x##$T$=#$$l# ,C$&#L'&#M@e@v$U#}#G$ %e@&#c%5%i#^%+$e@^*U#:%J>$$V#i%g#I$6#e@W%!@~#F#(%P@I$`#h@}$'#V# &~%i@-'g@x@G;Oio'H@D%p#t@f>]#/{&#y%!#j$/%*;&*}#g#2#P@r%5%L=I@~%g$L=-%)$O%V;4%^#=;x@J@x@Z,q#[%m#e@T$V@0# &)%@$s#g#F(d*!@*$1@Y$i#=#L$!#T$C%l#m#V#M$P#I@{;Q'l#U#-@U#s#i%e@W>!@7'5%3#`#p#Pi_#c%6#U#P#s#~#r%*$L;U#~#]#u$E$F#*;[,_@5>x@@an)i@V@q(C%{%>#h$<%e*h$F_4@2#j$m#s#t<~#V#D%U#4#$$T;B#g#s#{%e@w#8%K@C_9%K@@#^#!&_#>$+;~*>$m#G#2#8#&#;&^*w#l#|#h$L$1@*&T$8)5#{]m><*8[QiRiSiTihfUiViWiXiYi*iZi`i j.j^97'g_S;l#V#T$y#K@$$@#y#h%y]Q_Q'}#,*^*D%w#V#@#j$|#e@-@ &i#t@x$*$@#&#g#1*B#e@G#&#Y+;$#%h@!>K@A@ &h$+$/#}#&@'#_#J@%#5#L@N@h@3&d/z@p@i@@'/,6#K{p$-@e$;$P#!;I%S,f#T)&#o#b$w#v%^%d$4%!#_#;$w$W'M9",
":b%%>$w$0$]#H%_%L=g$M$P#s~-@k#f)0%J$y$K$L$g$0$u~M#+@G,r{M^_$=@J#L@_@]@B#B#q(O;>#K@U#W!&#V@f@x$9-3$]$v{E9V%&@J'f-L;$%J@p#.;I@Z@0>D#Z@e@x# %/*U#h%L$}#^*e$p#$%,*w@6(|#&#$%t@u#'#w#p#i@j$L$S$Z@'>%*7'D$V#f#I@i@5%I@v$9%q#I@'#:% %L$!@K@x$/%0,)@<@Y+{)T%J@i#D%K@*$'#s#%$w${;db!#v%I$I@l@%%V#!~y#@_%#e[T$s#+;{%C%M_g#V# %i#|#y%*>p$#@*#+$9, ,b@3#o#!#c%S%w#'#3&:%b$m#g~I@=#~*]#+ji#Z@`![&>#X#%$I$l$5%&#|#!#M@V@M_s#/%L$K@ %n#W%i#a#j@d$ ,I$T$}#$%&#O%%${%e%x$c$|#5%!#9%@,!^;/T@;@2@T% ,!#p#I@'#!#%$b#==s# ,v@w$(@u#T$4@}#}#'#5%*$T$i#k'[&E$K@g#$%h%!#<:C=5#-$#]+'B#W$=#%$g$!@}>T$!#y#p#B#T$%%E$I$T$[#^*`#s#_#%>9%w#%#V#:%B@i#^%E=E$g#s# ,p#'# %3#V#{$g#4#s#!#>#K@L$ %i@m#`#`# &I$I@C%>:b$L$]#[]v]u(x@Aa.,a#y%=#2#5%%#C$S@B@*&,#g~q#!#3#{%D$[%s#p#9%s#|#,>q#I@4@_#!#|#}#s#H%i@$%L$<&l#e@B#i#|#Ca%>{*f@7@_#e@!@$%_#e$f#V@&#E'e*S@`'5#9{J{E&:[J>Ri@j#j83$j%j&j*j=j-j;jwgJ9IdI}({=%k}=>%>;@L$9'!#l#y#,#w#w#b$H'B#x(y# ,I@_#i#3#E$}#w#f@y#3#`#L'A@m#@#w$*$5#7#U#u>f@Z@'#k'^#*$>$B#1@#_m#,%Y+-@+$c$m@w@6#{]_@@(h#Y+;,l{&#a,*%_;K$*&s#m$D$'^N/m#=#'#H%f$l#!#>&v%C$^%L$F$L%Q,",
"fbh%M@**F$D$3*p$y%r$-%~%v)b{e@=]1~>*R=x$N$j%K@0~^#i#;=8-s]P{Y+Y@(#_#x@n@z($$e@2#t@*$1@o'-@B#V#E,(>/@=)E9 %'#B#U#)$1*,*'#&#-@.#!@U#<&U#1*!~-@e@_#+$L$d%5%#$=#Z@&#g%I$;>D$R(e@3#B#Q'|# ,w$^#t@E$%$^#h%{%S$l$:%^*~#N;m#T$2#T)s#y%K@J'L=9%$@w,5@'@^@yaI@{%E$p#*$P=Q'=#-@-@g$h$2#%$e@I@}#'&H%S@i#H%2#&#y'o#,%V#9%V#P@K@y%w#0$r$!#i&_-w@g@-/2/*,b#&#3&!%m#!#_#w#[&s#+;]#n#J=@#|#$%|#E$j$|#y%B#{#g# ,_%V#]# $y[i#i#8#u$@#E$g%}#P@_#w#`;q(K@;&:%P#2%E$w$7'V@K@U$`#<&E$c'g#L@$]*#Y@/= 1J':%b$C${%a#/%b#H%v$r%+;!;&# ,|#P'V$]#m#j%6#}#F#s@<&S@ $w#E$E$2#3%N(4<:(<@%]D]M%L$l#/%g$0#h'g$V#Y@#%L$L$h$|#2#}#'$;@d*p#/%l$'#=#e@f% &I@8%U#s#l#I@<%%$D%V@%$i#M@*$X@s%I@K@h-]#_#@$i#s#|#.;2#I@!%L$d%F#'*$#J,%@-$d->j{$g#m$y%$#K@|#4@h%|#'#y#I$s#b$N~%#V#N;D#@#e@D%+>^#|#p#w#{%y#2#s#e*x$&#e#f#p#V@p#i#C%y#u#j$V#S;0#j^O;o#d%E'D@[&f$!%u$L=V#I]q#@>r@<<.as<-/,j'j)j!j>g~j{j]j6f^j;>/j(j}*Z(-#<[p#5%|$V$X+h@f#9'f->$*$.(5%&#s%i#W>;@_# ,U$f- $K@u#`#I@d@f#9' ,&#:%V#;@&$j@E$G#m#w#;@T)!@S%h#i#i#$$@#'>'@_#P{-$$#*{L;<@;@Z+J@~,4-w#s=X(7%I@N%l$l$D$+'j@I/$$8%#%]#T$0$K$w$[*g%]#b**%Q,",
"6&Y$p#F$j%c%u$b$j%>&5%W$])J#A@}=E^K@9%k$)&!#V#-$(#i9,,r,q{2@_$<@h@B#L#|@b@7'c@_@w@-@t@|#_#%$~*_ji(*#A,v%u#e@m@}#7@i#B#<3y#F#8%w#~#'#~#U#e@I@ $w@d$n#l#h$B#4@I$~#/%g%'#I$n#F(T$=#%$**o#e@/*%$=#|#c%:%%#7@_#L$v%M@s#~&t<i@e#d%~*P#~#e#V>:jb@u~s@}>h$s#I@8%F#%$E$J@%$c%U#}#I@e$1%&%*$b$:%!@2#I@:%S;2#y%i@M$K@Z@T$5%'#s# &/%g%e@_#p&~@z@C'P,D%;$j$!#9%g#V#j#2#/%y#1*P#!#c$K@j$^*!#i@$$ &'#,#i#'#i@h$4#L=+$I@]#L$L%V@s#`#e%3&2#$#c$_#D%V#|#y%2#_@w#$%^# ,]#A@m#K@w$h@l$9,d@2$@>gc:$<jD%!#x#]#.;:%V#|#{%z(|#p#I$Q_V@#%&#Q%f@w#9%p#L=e$b#a'K@}#p#5%V#l#s%d~}$q@x@{]t,%%j%'#l#x$:%I;B#k$4@;$s#]#}#S%:%H%g% % &_#i#l#l#|#F#2#s#u# %0#B#`#K@~#P#F#'#m#!#d#I$m#e@|#E$}$;&s#2#K@s#C%e$'#B# $p#=&`@$]q{p@h@|@e*{%]#b#2#H;m$}#Q_q#@#h$>$e$)*p#&@F#U@0#9*K@S@|%p#{%+;Y$+#X@g#7@|#D%m@.(;>_#p%&#f@l#7@]#E'Q$U;%%e@|#t<^%)$;@_#f#0#^# %>$C$`'h@f^_$q_;>*&[j}j|j1j2j3j1g4j5j6jHgU}7j8jX>c'Z=x(|#Z@=&@#q#j-i#w#}#i@k#w#i#n%|#3&D@C#r%K@N<=#_%J@_#9*'&h@&#i#i$e@%#}#m#t@m#<#K@e@j#i#p@-@@$C$Z@'#Y+U#f@3#K@L@x#g@n@$@w@)#'/e@@)-^>$k,X<W$e#7%l#b$7b$]&#o#&@j-l$g#e@=%T$E$S$d%H%b$%%#9",
"q*{#7%g*H%!*P#r%.;{&M$&%F,6#n#n)X=Q$b$H%'#M$$$(>^#7'F,4-d-6(-$(#u>W!T)Y+-@A@=#h#]#i#!@Z@%#J#M@Y,d#%]v^|<,#3&U#3#l#=#a#i@p#g#g_T=q#4#c%d$-%H%4#'#i@{%|#B#p%;$B#v%%$3#5%|#y%A>9%b#[&*$]#g~i@I@9jB#k'X#e#D# ,x$I$_#e@k$ %j$m$&%%>4%v$k_L,$)q{a@A,8{B@p#;$L$ &+>a#>$H;}#a#!#{${%T$g#,%H$a#c%s>]#*=a#e@p#K@~#M@B@i#g#;$n#*&`#2#c%L=H;:#b@C@o'h~E%;$7'g~g#f#B@J@w#U#s%j#>&|#I$&#V#i@@_o#P#p_K@'#g$F$:%k$V#&#7'f#[&w#K@h-n#E$g%j%y#K@*$t$I@I@C_e$e*C_U#!#e@y%w$U;X@%&w%H~r=h#$@])pd %U#0#/%U@v%$#T$U#I$;$h$w$}#{%E$p%9%M;w$}#p#=#}#]#}#!@m#1*7($%Q_)#}#Y$A@p:w{6@x@9)6(]#%#g#m$w$[*C%>$D$,%}{K@*$/%|#l#-@K@K@>&e@'#w#T$l$m$+;]#y# %s#j%U;}#_#y%!#I@5%:%2#I@b#V$w#y%!@p#m$}#D%%%m#<%L$2#V#v%6#5'){{]4>j&V%0jw#V#!@g#g$i@T$*,2#'#[%'#c%y#L$>$E$,#'_F#j$g%-@d>j@'#@$}#,*!@#_E$m#*$V$P#3&e@!* ,2#l#@#a#7'3%-@B#s#u#7'U#y#K@E$ &x$u$)$4)A(-$o{ajC~1&bjcjdjejfjgj-hhj[hijjjkj-i,aL[<>3&}>}>r%y%N;F#}#W>@_b$t@F/~%L'!#O;-@=#L$H@!#3#S@!#y#A@m#h@-@}#!#-@7@I@i#K@i@}#K@h'v/ %Y$A@y%9'u>>#W> ,B#i%f#%#%#*$g@s@V@$@7/8@d@~,8-H@Y'<*a'=%2#a#l$+&5'|@a@p#&#%*I$K%x$N$>*G$V>b$r%f%O)",
"|_p#Y$N%+;!#=*s%b$V#!*K@C=m#Z@A'q$:&r%_*o#v%>&F@6@&#/=6'{/5/f^h#6/h@3#L#h@$#'>U#q#u>K@+$,*k@T$':G@q]:-.;s#^#<%w#e@I$+$c%L$i@g%&>'#&#V@0# %.;2#2#s#{%c'i#a'm#b#K@e@k#`@I$!~b$I@|# %B#%#^%,#I@^*j@[%&#3#y#{#h$i#}#I@9%;$'#(%%$v%&#[&[%6,{][#((ljc@%$s%I@x$%#|#{%=#g$e@&#0#I@:%w#k$0$*$y%*&s#@_t@L$s#V#I@:*$%I@ ,k@D%:%|#V$m$0>p#}#7a'[T@W!~,`#x$9%s#T$=#I$,#F#9%U#3#B#/%_#z%i#&#K@d@,#J=+$O;Ca&#=#c$D%L=T$I@[%)$L$~%c%w#|#;$i#I@I$~#_:b#N%S#5%h$~%*$D%w#.;D%;@3&u$}:z@8@T#H0^#k$o#e$)bi#{%3%}# ,s#_#B@2#;$]#i@c%$%7@F#I$s#0#u$[&i#h$k$F#V%)%z0#$e#E$D$Z@m$K#Y+G@',th=&g%$$@,>$s#[&C#J'U#P@s#|#g#*$P#c%i9]~D%g$!%>_7@_#g%l#|#c$*$u#K@3&a#}#%#I$&#i@D%a'I@!#D#F#!#e#S$g~[&L=D% &%%L;K@c$;,g@a@$@[%C'8%i#V><&V#r%%$w@L$B#l#g~._V%E$}>g#,#i@i#O%U#2#/#'#v%E=_#_#!@C%&#p#x#j@g#s#Q'I$~#T$!#e@s#+;K@V$-@|#|#'#D$d*|#w@]#n#V#|#Y$m$n)g@a@3=>e%>g_mjnjojpjqjrjsjtjujvjwjj9xjyj]&`(P<P'-#m_/%<&8%8%}#S;>#m$~#i@8%h@`#!#^#s#H;l#i%*$3#m#.#l#g%=#1@I@_#J@L;L;!> &&#V#c@f@q#U#e#w@|@~#k'>#h@8#l#=>3&%#!@@_Y+L@]@g@2@i@m~,,X#^)e- %g$f$e$>&j%+'A@s@Y$N;s#p#m$f-y%1{Y$%%I@@%5*&,",
"zj`#e$<%w$+&e$3%f-;$9*7%6~_#q]#>AjT$[*P#`#3#q#-$X@%>7,r,h>s(;#k@X@$$'>c@&#c@X@b@~#>$w#t@h@X@u$W/T@L@'';%Z@y#w#e@V#<>w#2#{$T$y%{%4_-@V@B#g#d$m#$%B#7'E$;@w#g#s#I@k@S@&#L$*$w#s#|%^*F#7'B#r%{;S%c%T$g-7@^#~#v<y%u#|#H%u%S$y$[%u#2#=*I,0~~>_$});; %r%=#%$T$g#~%'#m#v$m#c@Y@w#u#e@&#&#}#:%A@=%P#w#}#_#V#K@!#1*)>p#H%w#7'/%:&i#p#o#Z@*&K@#{c-w@;'_%y%L$i#k$j$]#t1 %]#S%!~w#U#2#/%E'd$e@i9f#a#3#}#9'&#h$c$t1U$@#C%!@_#!#;$V#v%&#,*!#f@V#i#i@H%w~V#p#]#*&e$L='#<%s#%%T(C=[#>#'>K#7>P$w#|# %_#U#7'g$g%b#m#]#g-~#}#p%~%s>I$`#q#T$y%a#t>3#8%z%w$ %s#V@V#d$0#g$c%i{A=k@Q@`=2]s#t@&#U#L$~%T$:%_#~#`#~#-@ ,!#$$i@5%y%U#d$_#U;U# ,N;m$~#w@V#p_w$/%A@K@:%H%_#f{2#s%l#c@*$&#+>!#j(<&#%K@^*k$V$A@J@l)n{a@!@v^0{h$Q%e# ,Y%E$F#M@y#o#g%!@L$9%Z({*%%g#s#b$b#&#[* %@#m$&#Y$1*f#g#y%B#K@q#7@S@t@8%s%8%y]e%}#!#T$E$R(p#/%s#C%Y$v$u$5%(%'{g%F#7>X@:#p@$@f^Bj8[CjDjEjFj63GjHjIjJjKjLjMj(}+(Nj%|*%'~q#0#a#X+,*+>$$l#o#!@3#0#5%l#y%V#_#_#g#e*k@$$$$+>A@%$q#~&^*l@E$m#U#+$7'&@o#m#5%&@ $p@_#8#i@+$5#V@#_.@$#t(m#g@1@t@3&O'Y+q{[#6@'@s~~,J@3=//7@i@~%=%l$5%D,|@W!-@x$7%T%E$/%D$%%;$;%M%!#G=a-",
"><3#>*#=o#~%Z!m#*%v$0$E$3=m#X@B{n>s%v%>&f$O%.;9{(#$$x)/,h#_$h@6#)@1@f@&#@#W!^#|@m#B'w@*@7@k#h%6's@x@3=+&i#2#U#w# &(#^%_#2#J'w$C_B# &v/%>&#_#[&c$+$5%Z@+;U;&#9%c'E$(%e$U#g#l#P#s%l#L$!#v%9%{%b@'#y%:*[&o#&#I@V#j$f@+$>#m$C%&#v%e#f#F,k~2$<@vb @y#E$ &c$b$I@d$H;s#7@/%=>e$D%m#i#&>S@w~g#T$K@s#g#}#p#g%P@0>N;a$V@-#U#v$S@y%u$g$j$#$Y+.=i)_$X@P,f^|#x$!#e@u$F#K@P@K@1@u$}#$$r%i#I$w%'#m$E$'#<&H%Z@E$,*K@d$U$j-I$S@h$;@8%l#B#f@/%!%|#<%]#:%[&5%c%`#l#J$J#V$Q%'}'#_@-^6@G@OjW*I%V#l#g$Z@!#e$h$e@V#/%7>4%I@s#l#n#_#;@m$K@X%U;,#S$m#C_e@m#L=>#-%u#V@p%}#K@c$l#9#)};#($h#*'+&3&^%e@E$e*-#t@!#_#L%_#w@_#^%e@i#V@p#g-:%Z@F$,* &h$f$T$&#%$D$w#4@&#]#&#_#p#%$,*R#t<K@K@!#]~i#T$U#T$U#!@.;T$!#B#a)9{2$2@@~z@V#$$b#i#0#r%s%C%P@2#I@U#g%Z@3&E$i#V#m#:%2#d%Z@`#s%I$%$S%B@b#L$S@3#v%s#/%l#y%E$}#s#f@i@[&i@o#s#s#e@_#$$.{e@[&E$j#i@w#E'D#I@m#''f^(;@>mbF_u'dhPjQj63RjSj45TjUj-2Vj%[6gVcWj~%u'K~)$0'h@>#3&'>K@B#f#a#y#5_&#{;4@B#Z@m##@i#2#_#p#V#0#0#$@e@p#_#L$&#V@ &0#k>D%@#i#c@t@c'.#2#-@e@c'I@k#]:h@u#_#V@$#_@Z@)#O'm>h0B]R,0=Z@3=.,V>F$e$)$l$v$P]-@O;W@B#4%e%E9M$I@0$$$%%T$H@9/:~",
"$0)&v%,;k$H$u$w$*&s#=%l$>]c@]@5$-&!*y%}#M@V#*&u~5>p#L,/,1@$)2$e@_$!@#]j@x@w@J#s@-#@#*$@#h%Z@c@5,x@%@0)I=2#.#~#Y+_#K@`#4#b$-@_#U$j#E'T$!#3#'#J@;$~#g#E$T$:%K@i@P#j$_#3#g#e@O; #~*+$l#I$e@S%V@t@h$c%D%!@,#+#c@s#c%E$a'p#I@}#p#F$t<:'`+#@$#=:==L$~#!@e%O#P#w$U#i@I@L$r%i@e$J@}#@#t@&#p#s#l#e$i@I@}#T$k$$#)$o#j$W!:%a#>(s%I@3#f@=#E$L=[#<~Q)f^b@V,x#!#Y$-;U#v<j$8%y%I@&#U;e@$$|#s%+$|#g-p#6*$$4@1{p#e@&%A@>$j@g#7>i@g%I$Q%[&+>t$1*B#c$M@1{*,->W$i#l#k$2%I@B#q#jan,)@x@>#'(!@~#%$**p_%$l$3&~%P#[&v<p#l#/%/%7@&#K@s%&#i%f#P#U$|#e@C^T$_#>$g$U#w$~%q#5%=#B#:%k'u%n)_@*#o'@]J=&#I@s#!@,#o#V#i#,*l#5%&#i@{%U#V#>$=#b#C%I@|'&#7'i#]#:%M@H@r%s#5%V$+>w$8%w$e@e@&@]#!#!@s#^*g%`;g%T$&#x$:%_:^>.)]$^#_-'dZ@!#i#o#J@s#>#;@s#Z@x$U#`#w#.;U;}#X@U#e@3&a#W%y#0'_#L$^*>&'#,#V@w@D#9%h$e$9'f@w#H%g#8%2#D%i@#$B@_#m#j#V#&#o#[&)$S;e@!*l#Q%=>F$C=5%(/`'icu'({Xjg1YjZj`j k.k+k@k#k$kv7Pg4^~&)>Q(o#*$$$r$0#V#L'x#q#E'Z@L=s#Z@+#`#m#c$F'[&_@L$w#]#v@Z@$$+$o#U$Y$Z@w#|@m@>$K@f#y%B#X@,#-@W!4@J#T)f#e@t@6#'#Y+7/,_x@@#_$[#{][#i(^#x,_,|$z=l$]#M@'*S%#$D:r,}('>%>k>{~e$]#r%w$!#~%h$Y$s%#;:~",
"~h]#5%x$h$E$2#%&r%%%i@V=Q;w@W>B){~[%B@~%=%Z$0'1@_#*$F,;'c-;@${_@F#i@ #_#&#;@M#V#m] #y#+#6#!>V$g,*$J@<)f$q<,#@#D%K@t@B@I$!@[&F#B#I@'#{%2#i# &L=K@K@-@&#j$b$m#2#!@i@{%h$i#}#/#|#h^J@I@I$U#g%I@0#'#c%]#P#3#F#2#|#&#O%E$i#U#!#m#7%2$k]*@$#K]%kZ@h%u$A@]#!~'#O#'#V# ,V@b@<%p#4#i#=%D$H%3#+$d*`#/%>$$$p#;&!#]#@$!%B# ,L=N~j$V@L$%$K$V$V#s#v:F{.@d/I{]{F#}#&#l#s#7@k'E=[&I$$%e@C%U#T$9%l%U#%$K%g#V$3%l#<%Y@y#y#s% %|#I@O;L$e@S@j$`#7>I@{%3&F#2#w%2#!#-@I@ ,i#4%w(y{x,J{Z^~)&k-#i%|#$%G$w$4@s#|#b#L$u'^#$%k@j$o#9%i@U$d* %d$U;p#g#w$L$w# &=#w#@#{%K@g$L$4#|#1{K@E'V:<)/@]@E]B@e@q#$%w$g#T$S%h$D@2#B#w$s#3#!#~#u%g$K@l#5%N~F#l#3#!#g%S%2#N%7(v%-@Q%1{~#p#k$i@!#[%C'#%u>K@3%7':%3#I@m#]#*{)'Z+)@G;V!C@}#p#t@K@S%i#}#'&e#L$B@g#J@h$*;|#b$3#m#h-I@,#-@}#`;)$V@D%!%0'b#c$I$+$i#v$m#m#m$i%Q_e@D%K~}#g#&#;$p#y#s#w#q#A@w#&#Z@'#D$j-[% %c$G]~#i/h##<+}9}+|*k=k83-k;k>k,k'k)k!k~k{k]kp#;>F_+>;$5%m#o#n@&@%>c@^#a#e@!#h'_#:%i%C%}#e@I@[&e@&#t@'#8#^*L$T=2_}#~#n#<&A@g#E$%#g*B#%#K@X#y#^#~#=#d#N;c@V@t@&#L@-@h@4@1@x@$@m@(#6)4-&@k)&;>*r$x$c^]#7$'^Z@->*;~&D#S%S$$&y%c$`$r%w$[&R%:~",
"{d|#y%_%-%f@D$+&b$*&r$P@2]W!J; -.,-%]#o#<*F=o#'>6(,*Z,_,$@`+v'1@|@u>m#@#^#$#6@c')@^#*$0#K@w@_;|,[#k@l{C>y#_#=#f#~#x$L$/#U;V#*$I@|#=>c%U;^#i#$$*$f#Z@c$2#Z@'#m#B#%%k'i@!@N~]#K@j$Z@_#1{K@|%m#-@T$Y$C%L=h%U#p#:*;${%W>4@2#o#J>*=%^)@p@)@L=p@t$`#|#!#I$c%S%I@Z@#$!@T;8%e@Z@3# &B@p#|#V@}$F$Y$S$V#o#w# %i#(&.;'# ,p#]#I@!#-@,#B#C~Z@&#J@t@G*e)o'I/('[&1{P#%%Y$c$U#w$a$}#v%$#e@}#K@D%f#L$c@2#y% ,^#K@F_j^i@**{%F#M@D%I@U$3#K@5%W>h-h$+#H_w#g#1{}#I@;@I^P# $l#)bH,]@x@f^Q&)@f#6*l#q#C%,*:%r%_#[&&#m#g%y%Q$2#9%c%s#B#_#^%p#b%v%4@h$:&U#p#]#y%}#`#V#[&-@9% %M@L$g%t@9{5@x@q{H<!*9*;@j@}#i#=#j%_#F#v%%$!#L=e*%#c%c%u$U#g#E$B#P#I@w#h%0>=#p#K@_#H@.{+$p#b$8%s#K@S$g#s%T;I$9*g#E$|#e$%$%%5'%,_$c{x$^% ,Y$m$F#w$Z@7@p#m#o#_#w$s#'#w#a#I;l#w$U#g#l#K@~#K@I@,#v/w#w#p%S@L=Z@/*l#t@$%<%B@p#y#v%I$%>7@Z@i@s#.({%b# ,w#$$u$m#<&>#f#T$&#T$g$C=Q{a^($m* }u'^k/k(k_k:k<k[k}k|k1kZi2_2kFe1(M%P'o#I@I@3#b#+#K@U#c@}#J'0#L$U;#%h%f#,#'#[&h@0#&>'@$%i#_#%#N;*$=#v/-@|#n#e@w#K@'>w#&#=> &G#L'^#(#-@H#3&_$+$k@^*k@6%e@$#_@J;_@K@q]/,w,f@])P%o$s#l#h$w$y$8-b@Y+l#N@!#=*+&s%w#j%n%[*k$9*b*`,",
"Gd|#E$3%B@w$W$T$/$=*K%K@a)u>^#;=f%^]f%I@B#w@}# ]W!>#m,n=T@+#)#$#'>L'&>_@%>f#u#&@_#b#J;K@m#5%@$='1@@>^)4~e@e@I@h@w~2##~3#s#y#!@I$,#Y@7@2#$$I;A@'#%$_#T$y#u#2#2#s#&@Y$=#J'*$e#y#l# &i@ ,D%,#|#e@s#/%9%[*-%*$Z@&#N%e@/%E$h$b$=%s~]$${%]p)B^l#^*$$3&f@s#K@L$!@:%'&}#d%e@E$I@!%M@2#g-b$-@~#a$p%H%_#P#e%i#!#V%h$[&|%U#L$I@t@j$)$g~/%U$ $Z%$$D$#@W!Q{d-#>S@p#*&4%T$a#B9U#X@|#L$W%7>L$v/ %i@h-_# &c%{*^#v%D%*$_#}#1@y$%$V#e@9%*%:>D%&#>_e@y#g#7@{%S%U#S%w#b%g#G$m,T#'>Y+6@x%g~#%'#g#D%[&i#g#D$:%c$y%A@U#p#a#:%r%c%9%C%T$e@u$1@;$c%.;I@&@V#h$=#s#m#M$.;c%L$l#_#Y$|$*;J&k/^>q{~[t@D%_#U;N$|#d$F#l#V@7@g%w$8%r%!#K@i#g%U#-@1*M>x#*%e@L$T$l#'#/%=#9'q@K@H%y%~#o#-@%#m#a#U;p#!&=#|#.#X>y#F9e=z([#~=z*N;s#F#K@<#3&2#d%X@&#$#_#e*_#t#k$J']#@# ,i#[%p#s#=#f#V#_#b#H%}#}#E$q<i@L=f>s#e$i@>$P#@_Y@E$.#g~B#c%J@V#Z@c%e@U;=#f@Z@W>N%5%i#V#:%]#'[&@6dW~_]:[Vhji3k4k5k6kVi7k8k9k0kaks7Zd:e);O<S;;&M%O'8%x$o#j$V@-@ $*$&#e*!~n#f#y%->E$e@i#s#m#U$*&J@L=V#&#Y$ $N;8%&@L=bkV@K@Z@m#0#@#_#q#B#u>Q{x# $=#h@S;h#@#9{J@c@k#9{9{a@s@z]5,l{.${)Q=b$M$/%h$T$0%M{<#$#Z@ &=*!#V#[*a#u%b$p#=#h$>*o,",
"D_k'[&>*Y$T$f%'#!*l#r%b%6~O;%#U)@0y%l$A%0$1%a$h#:/+$x>d,*#/@|@h#Y+o'z]Y+i#Y@Z+2#=#V%X@o] %U#U#O,_@h@>'I=S;n#{$}#4@9{J@l#m#}$B@_#^#:*}#'#j%@#c%$$;@I@$$s#M%=#d@|#e# $[&^%f@>#2#A@1*`#l#b#^%{%i@&#'#o#D@%>U#!#]#g_e$o#8% &/%a'<,+$ck3$b$w9W$6#l#Z@ %v#!#]#'#_#|#c$[&_% , ,i@l#y%=#!#L=7>$$ %~%V@D#p#!#*=.{}#j$V#~#y$7@d$g-,#**/%W%w$}#a#2#raX'b@f^dk:%U#P#|#M%t<_%^%w$u>[&;$_#p#!#y%U#V#g$F'o#n[U#U#&#_#s#d$3%h$;$&@>#`#!@U$w$C%o#j%l#F#U$p# %l#a#^*H#E$k@Y(=>}$l{ekw@^#6@9%I@L$|#G$!#8%D%4%|#H%,*h@I@T$m#}#t@e#;$%$p#I@T)g#$$E$u#U@L$s#>$=#S_w$I$>&s#_#L$2#p#k@~&=@g@i/fku%i@!#I@~%{%!@K@k$D%i#V@8#;&U#w#_#U$B@p#&#|#U$s%}#P@p#K@=#D%V#!#,#7(y#g#0>T$L$g$S@|#p#g%b$ $u$}#T$i@7,*]@>#@-%i@h$*&U#*&l#}#g%i@f@L$F#f@{%g-m$3&/%_#'#+;I@f#K@e@K@e@U#k$K@c%y%2#@#{$q#V#I$G$~*e$m#D%F#p#_#w#3#|#@#!#=#f@j@}#b#W>;$}#q#v@9% $l#c%l$A'f^5#0~p&&gf#h~gkhk@fikjkkklkmknkak-}[$I,oky'q<%>f-'#0#l#U$H@)>$$`#d@s#s#~#'#,#7>;>-@@#;@B#%$&>2#^#{;V@L=>$6#a'3#q(V@~# %*>U#e@!@c@i@J@{#w@Y@@#B#e@i@W@2%6#J@7'f@d@{$#]l@($d@,'8-Ia2)uby#n%I;p#q#P@+'h'-$_$&#>&**}#p/y$9%]#=#M@ $>*r:",
"W<o#y#Q$T$j%M@~&T$w#+&w$T{A@N@m{!&#=h$B@L%w$c75#(# ,2,7)&>q#)#1@A@Y@h#X@-@b@^#:&^#^#v%{$<&e$c'v_m@-$!)W;d$1*@#9'&# &[('#R#{#y#I(w#j$!@_#V%x$h@V#|#,>J@e@~#P@%#i@I$U;2#'#g$S@f#b#L=D%g$g#U#^#j%%>O$W%*&}#L$Z@%#l#v$g#j%Y$h$F]/@o]g@7-a&c%f@l$K@&#g#]#_#->'#E= %i#p#F#|#=# ,V#i@I@m@5%3#s#B(g#->N;K@I@x#Z$r%!#8#`#4#U$G#U##,|#&#s%7%_#I@h$~>P#]@K#K#;'$%3#1{[*B#g#h@7@E$8#9%j#,#+;{%p#K@e@B@*$e#{%'#C_=#U#z0s# %T$}#c%$$4@^*F#g%:%*&V#K@V#^%Z@!%S%g-|#M_-^o'F@c{&;~@M$5%3#w#P#U#h$ $x#5%T$3#c%l#f$U#V#s#P#{%&#-@d%E$O# %a#O#%;G#_#l#F#c%o$_#Z@C%p#>&i#/%L;V#9%D%K)gb/@9{o{%]~#{%>$,%!#&#'#j#g%L$,%|#LaS$,*&#y#[&q#6#Z@p#m#`#V#o#y%g%:&$$!#:&D%^*S@&#L$i#G$:>a#]#s9I$]#.# %A>B{8)h#l@6-pkB#j$[&%>#$k$~#U;U#U#7@l#$$e@/#h$u>,#V@&# $.;;@3#E$Y$l'L$N~S@p#*;+;2%{%s#~#h$B#B#i@$%w~g#D%h$I$f#>$3#f#T$*$_@f@l#>$c%_#b#9%}#y%w#i@x$A]x@_@-/h&X7);qkrkskagtkukvkwkxkX1yk8iwezkAk:[7iN%f#3#$#j$w#3#&#F#$$i# &&[U#;$J@I@e@S@Z@}#L'q#L={%J@}#3#5%m#V#q#x#%#m#F#'#|#J@-@6#h@!@$#=>s(g#|:'#@#A@8#X@$#>$%%<#6#=>@#6(@(^#,,I,*$9,z$l$j%d%q$!*T;7,h@$@>$_#w$&%2'i#l$h%]#V@j$_;Y%Xh",
"FfG#^%)*~%G$v$D$p#w$(&>* )9'(#I{X=T$$$F;R=I%E'g>O'I@V,{^x@]@)@E'J#($a@-/6#Z@m@,*-@_#-@}$;$3&i#o,[#k~_-U=^#x$L=7@9%_#E=^%h%s#+$e@s#t@ &I$V#V#r%p#u#5%L'~#.#3#F#~;p@ $+#m#&@;$-@ %e$i#c%9%!%j$T$-@Q%C%5%_#!%[&K@C%M@i@j$a'${D,_$c-0~P:+#_#K%Q%2#V#y#h% ,h$w#V#I@%&7@d%|@i@P'D%w$2%f#!#4@W>$$V@q#:%@#w#m$u%!@]#~#/%H@@$I@B#E$`#8#,#2%i@j#~#P#q*U{/@y]R_I@I$;$7'2#U#p#y%1@L$@#,**%m#{*K@+$e@i#i#U$Y@f>t@_#|#%>~%%%s#y%;$%#l#U#D%g%9%#$R=w#}#^%7@!#;$t@g$9{F]{]<@=]7&!#~*U;!#e*=*S@%$w# ,i#F#<%+$g#0#o#h$/%m$Y$-#{&U$b#R(v$9%j% $g#S@9%{%P$s#>$+;g#J@ $=%^*.;G#L$q(&#vao'<@_@h,L$*$D#s#g%e*2#I@A@F#V@h%r%i#F#V#h@E=]#=>2#b# %f^s#|#%;=#x$T$L=+>s%s#E$I@!~&#,#V#{%c$3#}#W$,*|#`#r,s]5>~{[cF@#$U#s#|#v@p#U$I$K@^#w#&#w#[&J@ &L$9%>#w#i#'#w#U#!#{;~#o#K@V@3&s#*$_#w#E$V#&#m#w#g#o#8%L$x#v%b#&#E$w$,*&#m#8%f#i@C%>&U;9%}#w~L$x$y%{%s~M#:/J{c~0#Wj-/BkCkpjDkEkFkGkHkIk]f^}n::)Jk&#D'8%S%f#c@h%f#;@W@>#-#(%l#>#s#L$U$W>[&!@u#3&p%G$'#i@Z@{#t@|@m#~#p#h@C%U$V#'#{%Y+3#q#X@q#*$g#^#y#|#-@_@f@3& &c@h@k'6#a^h#%>[#[#p@A,x,6%k,U==%%%M@,#T$h$q,~#h@J@a#O%.;Z@>*N$e$>&h$k%*%j%0:",
"I:r%V# %=% %u$E'p#k$f$j%;=_@+$e=]%s#F$'#_#u$0#9{J@V#m~8={@h#k~l@+$W!5#w@&@q#B#[# &m#V@k'b@&>B#1,!>[#Q;+&|#L=E$ &8%U;3#w@E$6#s#2#&#7>*&>$-@j#2#-@q#=#N<b#i@a#V$,#5%!@g~|#o#i@3#o#V@I@f#'#e@Z@4@r$U#c%B#i#I@=#s#,#B#o%^#l$]'x@`+c#G#=#s#`#V#8>g$P#/*T$o#K@d$U#-@&#=#U#2#3&9*3# &.{]*Y$e$;>y%B#J'I@_##%0#y%w$g#I$x$+$G'm#y%L$t<!#L$c%;$V#$$V#$@q_.)$@K#<,A>>$4@g%f-v/}#&%U;'#j$s#f@I@*$/%p#7@t@m#^*D%I$L$7'-@r%U$ ,j$2#=%n#h$<&D%s#x$I$l# %F#Q'}#q#g%t>W,1@m@ #J:s@'#|#~%s%k$V#|#w$[&q@w#{%V@U#J'I@>$g#;${_V#m$:%y%V$V#7%Q__#v%I$l#e#'#s%w@-@2#S%`#^*,#i@0#I@ &S@D%E$p{ ]:/G;v)g#&%S$s#,#@#9%L$_#o#f@S%2#_#f$>#e${%+,E$t@v$|#e$9%D%h%}#b$n#3#i@L'e$w#M$s#V#&#G^!@c' ,&#}#<%{^#]i(^#_)K>';U#7%g$J@2#,#I@U#w#V#8#A@]#4@3#s%2#t@t@2#m#{%f#|#Z@|#!#'#!#T$j-h$y%B#I@U#a'y#m$!#2#-@U#L$h$)$w#8%V@s#g#]@Q'9%$$!@Z@g$t$>#f#~&x$_#/%g#v{Y+O'o{@=v7x$3~Kkl6LkMkNkOkPkQkRkSk6iVf&cQ'h%.a8%x$o#c@I@3&n#=>[#9%q(i@U%t@X@$$U;i8o#U$U;_#B#!>7#y%4@_#~#$$ ,$$x#-@3#-#B#N8%>>#$#t@w#V@>#q#U@Z@&@;@C'[#8#4@t@k@|@5>L@L@$@|@5#d,'^@# )n>[%r%&[]%l$==k]%#Y+Z(u#5%j%y%a#W$w#l$F$D$3%9/Ud",
"FfU@&#a#d%J=~%`#D$+&j%r%2dC%M#s~1%L$b$!*!*H%>&Q{_$_#Jc*^_@[#J#-$*{I/&@c#L@h@>#!>+$Y+x#7'W>,#b$E(k~Q{i)G:,%e@a':&2#_#*$q#*;{%^#I$2#$#U$p#3#3#>#L@>$B#g%`(<&L=[&f@i@%$ ,F'U;w#4@T$7>e@:&e@f#w#B#^%/%<&E$h$a#e*B#_#i@j-x$Q)7,1@c{d,Ybk@2#s#1%E$D#B#T$ ,{%i%L$w$y#c%|%x$&#2#m#-@y%|#K@`#u#l#E$f#l#c$s# %V#}#x$;$/%2#i@r%/%y#$$3#Y$X@x$L$ ,g~y%S%I~q)%@^#2]c{]#P_6@N%1{E$B#&#B@/#h-T$i#-#]#&@-@>&]#s#$$J=_@n#i@>$I@U#;${#'#,*K@}#|#V#V@V# ,*&f$|#T$c%K@o{A'b@&@_&x*j$W@!@y#k$9%g#g#=#2#g%p#{#>$I$f#%#+;&@#%K@ %%#O%6%v$K~a#^*~#]#%%s#8%]%I;w$p#k#K@V#(%>$u$^%i#Z@D%B#B#x*P~u~b#fkE$'#>&'#^*e%:%{%C%I$1@w$y$$$p#y%{%`#x${#f$F(t@;@7'w9g-V@I@}#T$r$b$2#E$!@$%p#U#@$8*!@w~}#t@T)]'c- ],]'e6#g#B#g#/#-@>$g# ,f#}#K@>#l#e$m#_#l#8#U#g#g#f#8#+;V#'#9%s#K@c6+$*%c'1{p#&$i@|# &V#J@I@3#%>e@S@L$&#~#3&|#_@i#l#f@U#&#V#3#9'/%p%<&o#o#%>;$H)$#T^(>%/y%D} -,2leTkUkVkWkXkYkZk`k lh^Vc.lV$&#O'>$%>Q'i#^#;@B#h%^*'#c@e@~%6#L;P'K@p#f#7'V@J@#$K@L;)$o#B@.#'#w#t@@#-@c@L#-@U;E$O;2#w#>#h@c'f#h@A@$$V@u>[(!@&>=>%#T)Y+W!Q{;@a@;,-^$$x>K)b$_#1{=%)$-%(,$$z];$s@+>T$S=D$H%N%=#3*h%w$f~O)",
"+lN%j%V=^%e$9%e#g$k$[%/%S>@#p@K,&bf$x%J@}#k%0$!>6#q#_,z^=@($F/d#l(-@+#${k@$$m@@$m#;@~#A@f@K@e%  c-D=;,{~1{v%%$m#$%p#4@I@p%B#h${;+$|#U#>#`@^*_#^#s#x@i@L@Z@G#C%g%[#}#g#z(&#6%e@|#*$3# &P#q#t@(%[&T$H@h$:%E$3&0#|#b'[&#%o3${^gD@@l5@i#y%M@{%M@ ,G$'#f#&#{%f@>#m# &T$a#7'!~e$&#_#V$t@I$T$i#|#e@.$e@U#a#V#q#D%g#U#&#{%&#[&t@~#}#'#}#g#h$]#=#w#p/_#T&I/;#)@~,3#l$e@4%b#3#g#3#j#+$s%l#y%<%i@g#1{I@l$-@j#>$L=~#b@E$U#&#p#w@y#V#=#Z@w$V@!#d@s#*&I@*$|#U;o#^,4@l(''59h@!#s#F# ,y%#lv%-@U#V@&#x$f-C%*$!@l#b$q#8#E$S@K@{%-;w#2# ,s#_%'$3&]#H_y#n#-@+$[&T$U#s#r%K@o#y%e@ &Y$d*u#b#x@($g>[]S%S%L$>$}#s#i#_%V@U#i#!#p#{%#%V@v%!@g%|#I$I@g%K@-#+;T$^*>#U$[&,#s#W>`;{%'#4%w#g%~#I@K@c8:,($z@5>K]^%6$J%V#{%F#!#b$5%/%B#H#>#s#U$!@<&L$l#E$g#y#e@w#Q%i#B#>$|#$&V%{%K@B#)$*$2#'#_#%$b#t@{&J@&%`#|#+@F#5%i@s#s#V#l#k#1* &[&p@O;h$I@.;h$*&w$}#W%X'n@z@#]x/3&T7d-$l%l>f&l*l=l-l;l.2>l,l^f;^8[y%E'#$L=*$#_(#T$&@U#J@p#&@V#5%e@&#*%V@i#S@I@|#K@_@%#4@s#I@@#4@k@}#-@U#0#1*C%{$ ,'#&#>#q#@#_#C%*$^%v#I@b#(#H@_$*$~#h#_&6@-$x@J'd/Y+8=),!@^,'lf$i9p#2#%%];!,{;b_1*F$h$y%P@0$!#j$C>*%=#a#v%r:",
"g<p#;$ %l#1%l$y$ %l#3#b$7-N@6#Q;T$b$Y$E$E$!%.;B'^#V#n,*-,@w@B'-$-$b{-@8#;$2@;@A@w#c'k>i@f@i#N(E(B''>=)l%T$w@y#S@}#V$Z@)>b6J@i@_#7/I$s#%#!@s#!~V#%>f@m#b$&#v$9*,*>${#_@l#{$-@i#P#/#e@v%4@-@S#*$o#g$u#&#I@-& ,y%*=/%m$:#I{{/c@:=X]5%|#:&e@r%`!c%p#}# ,f#{%m_6@|*s#Z@9*/%p#y#K@u>t@J'g- $0#}#[&%$d%]#bfS%+#]#a#L$I@Z@:%y#!@2#`#*=>#&#E$I@ ,+#y%x#m#b@q{g/d]I)s%<%P@w$~* ,'#T$s#i#=#|#|#i#V@i#}#c%0#g#C%l$U#T$B#l#L$t#U#!#I@i% %U#g$W>]*`@S%5%[&0#l#F] ]($2$F$u$ ,9%L$E$s#j-l#]#v/*&c$B#i#I$,#C%9%M@f#h-g-I$|#n#8%y%U#!~w~g#T$C%}#|#t1L$I@E$ $h%l#w#3#Z@I@I$0'I$!@2#i@s#>aJ]5(c-/,F@h-e@U$`#|#k$I$U#;&V#E$7>!%o#!@|#F#|#!#U#F#U#v%s#Q%l#'#@#s%L$@#C'9%`#B#C$;$B#3&7>s#e*o{~, -[#^))l}#M@i#`#g#;$B#I@!@i#**x${# #C_;$x$c%_#]#o# &s#K@2#7@s#V@i#+%}#&#5%F$e@w#I@D%7@t@i%i#5%k']#p@w%;$I@f#/% &k@1{[%$$o#-@-@c%K@v0i@3#:*'#=%a#i#9)h@$@0~j*.}8%!lahDe@i~l{l=l]lj1Og^l/ln8H)Z>N[9},*F_5%@#-@}#Z@I@ ,+$B#f#h%Y$5%&#/@_@]#[#}#}#j$o#I@T)V@>( $p#|#A@j$0#i@^#w#7'V%@#y#`@>$&#m#O;U@f#m$J@#_S#^$($O;i@B]_@.#3{$#q@:(@^u,-@_)Y=s#=%<&M@g$X%P]$$|@^#Y$h$t<=&^%%%!#h$=#S@=#b%f0",
"x/!%T;#%h$ &U;l$n%]#m#9%n{J@h#y)[%9*h$w$W'a#e$5#>$k>i)^'Y+4)9{#]4@f@J@>@p@&>;@-#z(<>L$h@~*@({%_'&@2$0)J$i@w$.$e#_#'#&#e@y%@#w@&#B#@#!@I@h$g#J@y#B#!@D%t@]@i#0#u>-@$#X@,#V@t@k@h$b$J'P#b#K@0#'>2%e$s#B#I$E=v%-@;$a#K@f,w@_$ ](l8#|#q<|@g%L$D%=#{%&# ,M@|@g#~*%>f#!#,*S;o#f{I@e@C_y%0'F#>#f@%>c@d$g#m#U#%>$$7'*$r%t@0#m$y#/%A@5%M@&#}#C%K@8%p#|#$#3<_l#@Y@('G0*$&#_#+$c'v$b$B#b$,>@#S@}#h-j#[%Z@7@r%/%w#x$&#H; ,U$s#@#J@I@>$K@4@Z@_%|#p#[&i#2#[%_@5^h@a@i)taZ=a#n#5%0#p#T$d(H%M@]#j-]#I@4@]#X@>#d$L$f$V#r%i#@#E$G$x_W%;$|#f$I@*&^#U$_%w$w#]#'#|*%#H$0#j-;@^%a#s#5%e#{%-$f% ]L@l(Z,p#i#b#M>_#g#y%]#{%!#7@>$;$I@M$I$T$[&e@t%C%s#P#@#i#~;5%7(]#4@e$!%3&<%]#2#)@9%_%E$K@e$(,1@$@)@4'v@+,g-!#3# %!@I$h%w$y#g$m#x#$$!@c%e$|#I$Y@s#:%A@G#>&D#0#:le$i#|#F#_#t@`$w#'#O#I$|#U$m#-@_#K@l#^#I@1*%#_%C_U$c%K@1*@#$#Z@1@d%K@3#_#s%8#_#:%P#s~o]-$%@<l6[s7R{,j[l}l|l1l2l3l4l5l6l7l8l9l1(s[i#p#L$a#Z@Y$I@<#8%l#V#j^%#B#g%q#Z@m#h%X@B#V#k#c@G#U;L=>$p#O#f>^#f#U#E'V#s#`#h#i@&@|#L''#w@<[A@*$D@G@g@L$k@$#'#f@x@5#o]@#M#'>h@(#*^p=!@c)X(9*d$v$e$T$j%V,|@5>3#X@U#}#|#D$G$S$=*V#F#E$0$@-",
"x:]#w$y%P%s#%%l#K$g$2#P@n{&@W!z=>~=%%%P#y%]#)~P~m^.(2,S,u~z@*#)@3/~@;@|@J@$#f#9'1@5%*#'@i#w#s#E(u~g@A=o%$$-@;$g#_#f@$$V@M;@#U;e@*$v/'#U#e@m#J@g%@#f#k#>#e$!@F$w#U#.;)9A@4#e@m#i%K@=%*$L;S%>#P#@#5%p#i#0$e#L$%>T$s9:]T#q@m@`+;$V>2#E$_#>$*&E$-%e@=#w#N%i#i@&#!@l#w$'#g#y#U$h$V%,#]#>$h@D%E=^#p#L$9%M@S@H%.{:%0#L=x$+$S@]#T$V#I$;@I@v%>$!@-@v$|#F'->h$<@g/$),a+/e@*&~#g#V$$$L=k$2#h$K@s#o#L$I@r%&#0lM$9%u#|#V#H@!#=#,#~#h-g#!#h$w$W>K@w$2#D%g#h$g5z(h#3$q>[#4%+#U;h$x#:%&#>#_@t@g#U#&#K@&#'#i@i@s#e#c$p# $|#!&i#W>i@C$[&S%3#%>P#x$>$ ,p#c%e@|#f@>$B@!#,#K;}#F#g$H%j#7>}#E>''c@5>^@u~u$9%V#I@|#I$D$0>x$;&m#^#c$5% &3#!%_#,*s#-#o#p#i#e#B#s#W%2%u#w#g%>#L$-@|#7(!#,#V$z{j)5((#Y'{dM@a#t@l#Y$}#~#9'>&{;|#U$l#*$_#L$I$=#s#0#y%>#Q%'#x@B#h$i%&# &F#w#e@I@b#5%!@:%,#c%@$}#*&y#X#0#'&B#Z@>$5%t>w#>$w$ &~#p#Z@E$g#m#u#9'a#|@K@t(;$`#1^^#R;D{_].}8[8gmf'j[ialblcldlQkelflgl2}@d5[8[f#$[n%d*4@I@|#0#-@U#E=!:B#B#V@}#}#m#U#-@>#@#5%B#+$5%`#K@f#5%&#X@K@Y+U#w@'#+#<&+;j@>#_#8#B#e@>#I@%#i#q#@#M#4#m@M#z]1@T@Y@L@D@p@(#t,t,#$>=l%}#<%u[ %';';m~_#@#$$`@K$!#v$2#p#h%~%w#3#e$#;&,",
"&<]#g%3%0$Z%y%s#M@_#R=C$4)c@;@g);;/%:%}#X%f$1{b{3#<#I,4-g@W!:/;#'>!@b@N/%#>$>#s@Y+ &*$^#L$]#L;5,6@h#c=Z0k#7@7@w$+$J'|@@#Y+U#{$@#d@i@Z@>$e%(%%#@$Z@e@f#F#J@e*y#@#-@-@|#0#]#h@S@4@A@&#W%P#J@I$l#t$H%q(K@2#I$+$m$f%8%[,5>g@6-.b ,L=,*c'g%S%<#p#V$[&I@%#E$l#w$_#m#A@_#0#q('#e@!@c$._G$q(:%G$j%,#2#}#e#V#3&!#=#j$d$d@>}S@u>D%e#g#|#9%}#,#d@g#^*F#g$~#.;=<}=x@Y+/,k@ %m#;@=#'#}#i%3%^%r%s#*;e@/%7@6%K@t#a#i#S%y#&#p#&@&#2_I@E${%P# %L${#w$F#m#m#hlL,s{o'h@4)]_W>*%((C9 ,x%K;F#m#7%}#|#j%&#h$-$ &P#{#B#'# &g$y%|#Z@>$~*;$|#M@v@P#@_U#Z@E$U#a#>$E$|#_#K@v$-@}#s%8#<%c$~*>#_#[*z@J:r'c-k@k:M_f{2#2#=#]#M%{%K@%$I@3#x_d*v%V@`!!#U#y#6#!#|#|#K@`#L=f@_#)9s#$$y%i@g%P#U$}$C%o#6'-$_$k@m&h@U;!>p#4@^#G#b#g-L='#<%[&}#m#w#w#_#c$9%j#v%:>C%U;t@~#v#w$4#B#t@D$D$e@~#I$d$F#q#B#v%Y$L$T$h@Z@:&_#U$g$+${%S#q#e$2#_#Y$,%y%Ia9%$%I$w#<&E$u$p#'#s~_$Q(G@ilU<8[^kjlkl63ll<kmlnlolplqlrlVfyjV$<>i$m#u<L=;$f#$$$$B#;$L@K@q]}#+#_#|@Z@m#/#2#n#w#p#~#&#U;U#-@t@L=i%f#f#U;-@%#k#*$ &u#9'{%C%i@y#K@-@v@L@1[u>!>h#6#!>q{*$&@f#$#A@%,f@E]^,&#^'1~l$+&9%&;[&'*F]*;]@&@*$P@g#X%D$%%<%|#g$+&V#z'&,",
"x/i#b/i>E$e$e$!#~%/%P#g$*-&#L@V,q_a#$$~%a#M$/%0~k#[&/,7,q{z@T#f^L@O;(#w@h#Y+v@W!h%U;A@g#%>!>w$g,I/{@x,W;v%7/`#@#w#_#J@B#&#S@_#!@w#B#^#q#!#H;I@{_h@f@a#e@V#O;~#u#e@d$u#m^j$a#!#b#q#+$s%+> ,$#g$h$ , %V#q#_#e*Z@g#$a)@{]x@sle)w#b* %I@P#;$w#v%|#g#}# ,j$K@l#t14@i#^#D%U#a#~%v/~#i%2#-@7@,*Z@o#!#<&C$'#s#w$w~9%T={#D$+%f#j$S@d$c%,#)$=>D%I@|#U#0#}#l#e@%/ ])@:$I,`#m#`# & &0#a#v%0#h$8#i@m$_#}$i@ &r%|#5%V@*$h-A@L=L$P_8#e$l#I$h$*&p# $V@D%c$_#7,G@_$s)tlk@`#+$1*-@0#E$[&3&U;{&5%|#o#j$c@f#m#a#v%h$Z@]#p#F#%$e@s#|#q(&#v%c%L$G$V#>c/%8%9%]#w#K@/%E'L$g-B#I@b$|#+$o#$$K@ %O#)&g/F@%])@5]|*S%]#j$ %i@&#]#K@*&B#8%i% {)9U;|#(#u$U#~#K@{;a#]#S@l# ,3#k'_%+&i(e@+$ ,&@C_L,s~f^g@/)e$+&O;Q$j#L=f@u#@#&@/%t@l#S@a#'>B#5%,#&$]#Y$!@V#|#y%&#i#7@|#E$K@B#&#a#g%1{ &;@@#2#C''#b#M#a#}#o#;$R=3&I$7@K@L=O;[&-@l$5%3&}#>&|#c%L$5%'#.;A@0#)$}^J@c{L{ul0#%[rf<2vlagwlxlylzlAfAlMjD'5/',B$C~N;B@N;0#h^%${#%#-@f#<&-@D@9'G#y%N/o#t@c%i#-#L='#X@5%$$%$@#k@$#s#f#_#!>_#w#i#J@I$o#J'k@6#-;-@5%Y@k@_@_@o#k@&@J@^#L@_@W!k~|@b@6@(#'^!,U; )n>0$Q'-%B#[% >L,[(k@g%<#5%}#C$~%s%a#5%>**%I@>*:~",
".* %e#h$V# %W$l$j%=#>*U$Q;k@c'z;*/x%e$y%:%d%c%u~_@,#n=^,T#L/-$&@6@#]!>0'-@[#w@c@c@(#w#R('#^#@,T,$#z]#);;J@a#o#c@@{B#B#B#2#2#N(%#$$%>I$F#J@0#^#V#p#U#&#&#s#=#w#7>I@n#;>D%!@V#K@s%}#:%j#U#J'8%V@c$`#f@K@e@2#=#q$n)3={]n@!,Bl5>a# $U#J@h$d$'#D@!@V#F#6*p@s#i#c%`;~#@#D%V@N;7@Y$8%*$D%!~%%I@t@U$C%i@Y+&#$$a#s#J@-@;$2#j#f@w#&@^#}#d$p#'&&#Z@m#s#v%^*>$j$(_G;[#w@A'%@J=s%}#D%V#E$U;S@f#g#I$m#j$g$h$`#F#p#/%I@e@g$y%y%L#J@;$4%!# ,s#$$7'm#M%p#L%ClS76@_@R$C=Q'U#j#T).(U$u#i#2#g#c%*$s#)#T$&#%# ,T$Y$E=g#u$E$!@}#_%_#b$f@'&l#l#U$$$$$/%t%^^q#T$>#v%{#V#k$s#+$k'-#b#D%E=:%/% ,,#o#wi])-$'@9,f@D%H;P$;&m#c%%$Q'I@|#,#u$w$p#!@T$g%d%B#s#g%I@E$+;}#h%f$w$j#U$>#u$u$w#Q$p#G/o3W!`+4>Dlv/3&'&x$E$Z@j$ %_#Y$;@p#i@}#a#V#&#>$g#L$c%I$l#V#g#[&%$e@I@!#g%!#=#i#Z@O#V$o#X#5%>#2#|%b$.$Q'$%s#'#m#e@2#.;-@]#K@i#+#u>,%U#H%h$i#[&&>2#*&1*d$V%!#V9^#1@D{@=.}n%ElFlGlagHlIlJlKlLlMlnh lVh-e&9x$b/@#B#V#|#N;w#I@-#}#J'I@({x#i#c@ &s#4%b@,#l#F(i#e@h@Z@c@x$J@s# ,Z@5%4%D@;@2#n~W>i#s#&@p@V#e@d#h@/%c@T);$q#&#[#$#p@_@z(L@k@$#.@*#[,S,q]e,l%~%r$v$=%/%f$;,;@c@-# $3*}#]#w$y%e#!*f$w$/%x%:~",
"x:*%`#^%v$D$N$/%C%H%4%'*m{W!&>{@;(H% ,p#0$F$!#P~'>w#^,A,2$5>L@z@c@c#u#_$M#3&c'h@5%5%c@Y$Z@%>Z@/,(#$@_-Z%>$O;5%X#@#:%A@_#s@E$!@U#2#4@{_@#5%_#s#w#p#U#y%Z@ ,V#k#%$_@K@e@p#a'1*f@U#F$L'A@y#w#L=M_ &!#7@l#-@~#:%s%)'($[#)@Nl_$J@[*5%,#+#2#0#c'h$e$5%s#,#P@{%|#Y$J=,#_@U$=#2#@#I@p#[&G#y%U#3#I@.;y%7@ &E$b$|@]#s#;@I$7@ %w#N~p%%${;w#U#r%V#G$L$%>_%.%d$&#Z+'<u~b@q{.|I=I@,#L$L$T$7'k$4%&#t@d%T$&@2#s#J%%%x_T$g#_@p#,#s#F#!;J@>&$%/%@#%%s#t<'#C%8=hi4)0=Uf4@_#y#V@e$2#{%F#L$s# &S@&%s#g$ ,h$i@q#g#o#w~-@%$'#&#+$y#f@&#&#W!T$4% & ,P#_#*$B#T$C%b$Y$U#0$'&2#T$J@/;y#g#}#/%@#}#j$I@V#{$*@@>[#!,H$$$V@y#C_2#L$I;s%&#o#D%l#|#V$m#_#L$>$M$~#t>L$>$&#L$t@_#*&g$>#C_=#d%q3b7,,Q)`+^#p#3#x_;$X@|#N;m#|#c'e$I$!@e@i@d%m#-@!@,#>&>#w@c%s#y%s#^#f#c$!@#$q#&#|#H%c@Y@o#$&F#!#b#4@_#i%1{V#>$f@b$w@I;:%4#p('#b*<&;@=#0'{%s#d$X%&@h@*&E$K@s%#$ ,o)<@F@v{Gd'~C~g0OlPla3QlRlSlTl3iUlVlA}7gWlq$b*L'S;X+{];$[&!#-@'#c@7' $^#&#a#*$p#J@R(5%f#w#_@&#e@>$2#F#q#e@w@{#e@5%%>q#_#V#&#w@Z+]#&#-@-$J@t@-@{;V@J@6#&@$#{#1@$$-@~#k~A@]@w@Y+[,S,~#r@x%:%e*g#7@h$_:~^ &1@i#N;a#N$Q$I${%Q$)&V#R=v%D$C;",
"Q>H%5%Q_y$p#P@9%&#N%w$b$s~&#L@/)C0v%*%g*=#[*r$R;>$n#d,q,$@$#*#|@#@)@!#t@6#n#+$(#$$=>U#T)Q'/#Q'i,O;*]z=0%-@c'>$$$b#8>;$s#;$A@q#U$&#B# %~#Y$-@D%w#e@t@!#$$)>-@D%}#Z@e@g$_#|%y#C#2#'#_@$$q#i#_#/#I$U#L%y%7%9%3#C@M{o'*#3=XlV$b#,#]#'#U#'#T$8%m#+#B@D%e$/%B#L$t@!@}#U#|#`#:%_#|#f#T$ %{%i#^*]#|#F#3#b$a#O#S$>_B#!%t@%#i@7@I(i@ %!@9%V@'#K@I@L=I@+$E$r%,#a#L$K#p@R;+{o^a#g%w$U$9%/%^*D%I$v%3'Z9U$N%c'Q%K$/%{#e$s#S%L$u$k$/%g$K%g-u%v%/%^%T$E;[,)#5/x@{0:(]#V#'#J'_#L$,#y#h$K@^*y#e$e$f#I$]#*$+&_;O#v$h%,#k'$$s#]#r%p#s#x#i%Z@8#j%}#v~G$I@E=b#2#T$m#)$J@b#g%># ,s#=#s#|#c%c@!#A@&%U(n,*#b@I)]@y$9%,#w$v$:%h- &r%4%x#h$+;[%v$]#G$L$l$k#4%z%g~l$e>w#l#i%U$s#+/K@s#Q%%]+]g@o'c)l&x$_#p#}# #c%e@>$E$u>_#9%p@F#-@!@8#9%i@~%M@ ,7@f@m$D% %x#U#$%;$^*^#g@_#2#U$k$Z@9%{#'#]#c%V@g#J@'#_#G#i@K@w#5%H#%%Z@4#;@L=%#u#m#.;V#}#&#]#y#|#U#T$V#8=q#x@D~A[U[N;YlZl`l m.m+m@m#m$m%m&cwguc&m1(Q<t$L=K@h@ $B@-#k#b$I;+$_#%#e@b@g%w#g#1*e@k#{#i@|#t@Z@->0#Z@V#F#U#J@c@o@e@{#2#{;D#B#*#Y@o#%#u#>$z@]@_#Y+&#$#j#A@q#L;+$Y+^#X@o'`+)#x,l{O;A,1~&%P@b$x%2#7%S,%#7/6_4#0>:*~%5%o#{%g#v$s#/%k%  ",
"h*M@7%=%;~P@S%b$e$2#h$_*]]+bJ#3=b%:%+>K@M@s%h$k~f#9*,,m~'>m)Y+-@=>u>&@w@(#%#i#~#v/V#%$~#=>q#`#':'>/(8=4~0je@ &&#w#3#7@{%3#}#-@-@ &T)2#f{f#5%s#D@w#Z@+$f@I$m#*;}#d@g#S@o#.(8*K@g%*$I@B# &K@&#f-I@`#g#I@h$c%_#-^x@u~2@e(Z^V#x$F#Z@x$l$4@s#5%/%w(S%U#8#!#K@I@Z@U#@$ &K@2#n#b#e%s#Q%j$5%i@{%8%<%c%i#p#{#t@,*C_W>^%b#=#K@>&c@Y@2#]#c$y#w$m#~%@#,*e*}#B#h$t@w~y:9)t#m);/)--^I,[,i,('*m=mE,Qd4,9-;^C,7,-mg[C,g[5,7,Xh:'z,='y,P/i,},E,9,R_],4,O,I)$#p@'>=&4@E$*$]#y%!*'#w$3&i@0#q%e@g%P# %m#E'V@F#3#q#}#y#&#i@m#{$y#I$ ,l#S@3#{%F#F#y%i#c'H%2#'#f#F#_#D%w(f@y#e@i#w#v%s#5%Z@{%E$|#D$C'g69{o'h#@^9-i,O,U,8$[,,,N,:'i,i, ^d_k[;mv_R_7,9-y,*' ^(, ^<,7,>m),;^-'5,bb7,c=w,6@W!a@,m2@v%P#{%U;7>!#>$'${%J@a#I@b$-@}#:&_#}#K@K@&#!%;$**1{|#5%j# $x#y%>#*;6%V@j$-;U#V#&#[&m#U#I@e@I$Z@U#!@3&J'E$S%I@F#2#o#{_B# %}#-@,#L$@#h$T$V#*$y%o#w(7@T{|@{]C)'mD'u')m!m[lXh~m{m]m^m/m(m.jq8_mn^-[&>L'E'M@s#N;y%p#i# ,m# &w#/%J@{::*f#h@_#_#T)C%^#w#I@;$_#f#Z@,#t@:*y#$#7%i#!@J#E'`#m#w#e@w#%#(%-@U# $>$&#'#h@9'O;5%k#J@6#*#!>o'_$(#*)y,f#v^X;|#&;%%o#]#>*m~^#}$ %L;D$-%v$a#H=(&0$l$D%W$f%f0",
"qhe#C~D$v$T$i@b$>&3#s#Q$;=f#(##>w'/%l$V$]#l$=#[$c@H@n=t)2$8@5#*{_$7'A@k@6#c@o#f@v@V@e@B#V#m#M@g,w@h#k);;l#&#t@j$&#i#f#5%s#K@}#f#b#x$j#m#B#{_3&}#B#V@J@_#!@L$Q%y#U;-@-@w(@#Z@&#r%0$E$U#7@<&E'3#m#m#:%Z@C$n#!#K,5>W!z;l-D#I@p#g%m#i@K@{#g$v%]#5%i#'#K@w$c%Y$e#T$I;V%{(,#e@U#9'~#1{!~B@e#M_}#'#|#i#s#I$I$w$U#i#t@O_&@ ,e@b#2#%%Y@%$g#U# %i#s#^*p#7$>$|#m#c%.#!%1@Y+f^h02$c-%@`+x@%]($h#n@o's]6@*@[#$#_$$@^#k@(>*#1@o'k@[#J0_$g/m>'@~@b@g@6@b@S#C=:mW%h$-@P#B@B#x$c%}#|#m#b*4@I$d>,#J@k$>#H@s#I$e@|#U#V@w~~#p#,*F#j- ,E$V@V#l#l@W%I$g$d@s#3#o#l#K@=#l#[&/%K@F#}#O;;$[&,#,*E$L$w#c'A%s)_$)@#@k@Q@=@1@'>6/L@#{-$^#:$5#:$T#9#T)c@]@x@x#|@q{M#W!v@n@z@d@a@6/*#J@a@^$P{Z^c@,@@%a#E$E$I@}#/%[&G0E$ $e%b@I$w#!@|#U#'#c%&#q#B@3#g#D%o#!#e@B#D$~*r%v$~*/%+;l#-#y%y#q#i@*$&#2#p#S@T$n@7@J@}#|%.;7@0#c@U;j@m_t@'#3#B#I@V#V#/%d%^:-@E$Z@Q_6=_@k~X'mb][u<<m[m}m/h|m1m2m3m>h4m5mS}[$;'[><&o#d/I^Q_J#c%L=N~0$V#-@6#,#q#j#>$z@-@i#'#i@I@$#B#Y@i#*$,#_# &!@1*x#J@l@U#y%,#I@&#!>B#Z@f#N;_#^#3&u>c@J'c@>(m@x@p@c'$$f@(#O;x@r=m#7).|_#_)f~ %4%7%w$D$a%;'&#A@q#*$&#3%p#]#}#L%u$ %N%-#u%r:",
"$0v%d>J$>%l#p#d*+&S$`;e$3=O'x@#>A~=*0$2#7%=&}%{@B'n~!^~,0@M^q@O@$$m@q{x@-$W!c$$$=#$#_@|@>&,*A@-,]@c@3,+:;$Z@H#v%%#c%~#U# &B#'#&#@#^%$$=# &|#m#b/1@!@m#7'>$!#U#e@#$o#s#8#~#e@~#K;{#_#;$;$B#E$K@|#3#-@_#|#J':%a]l@*@J#V%1*P#f#7@_#;$&#g%!@~#s#g#L=<&^%b#h$w#P#&#%#-@v$,#9*3#M@;@p#;${;=#e@ &p#H%[&~#2#}#b$3#B#y%P#I@~#-@l#k$'#/%*$=#]#J@Z@!@Y$_#i@I@t>Q' %Z=y#O{k~u~8@r'u~o')@'/c{9{]$P~z{9{R;9{#>*@.)0@4{P~Q)T#9{o':/z{($F@T@_$c-*{I#2$_$/@,]n)t>`;M$i@K@k$r%g$}#_#|#@#K@Y$J=]#1{V#h$ %[&{%L$^#I@Y$H%c%w#}#O;*&K@v$F#T$.;i@/;}#8#3#m#j$2#+;N',#k$U$i@ %s#C%o#L#i@o# %!#v%c%#%L$0~Q;c-f^,$h>/@m)5@@>g@~@P{G@9{Z^-/c-6/P~9{o'K#[#q{o'$@*@n(9{*##>n@r#P~g/j/(#-$T@d-d-d-p#T$&@!#g$f#-@B#]#W>j%!@/%:%%# &I@q#I@,*7'H;|#'#c'|#(#-@o#p#x$U#&#^%i#v%+$v%s#7(V% &~#K@+$p#i@e#K@U#^#i#!@k@`#D%|%0#F$[&P#$#o#0#=#*&&#Z%`$I@L=%$=#U00$/,p@_$C=ta(}b>_g6m7m8m9m0m1iambmcmbh2}ig(ix$<>w#*=&#Z@-#g#f#_#E'p#6(9%i#0#&>&#q#;$[&T)-#7's#c@H%K~e@F#*;1@~#a#*$m#g-p#2(e@y%f#_#w#u#2#A@&@7'b@k@c@T$_@i#A@J@&@T)c@f#n@=@g@_@p@_-,,%>(,f~l%H%b$g$|#x%M{{$&>l#!>v$e#s#!#0#H%,#!%K$q#!%O)",
"c0+;0#j%e$[*/%M@E$k$g$ %P]U#$@K{e-W$p#m$h$H$M%R;+@-ik,/=<@h@B]z@c@Z+Y+4@L@%#$#}$~#`@`$w#O;A@~%3,O;g@R,l^L=*$e@Y$k>A@`#>$s#$#<#}#@#.#C%O;v$V%%#V@f@w#,*_#u#U#g#Y$3#q(h$o#T$R(e#_#&#m#s#e@7'^#0#}#|#{%>$t@S;}#T^h#u>J,M$g#P#a$V#$% &'#&#W$}#k$s#%>I$K@'#h${%!@_# %`#2#l#o#4%1{f'I@=#M@m#!#C%B#_#&@;$T$F#I@'#s#B@f#[*U#N;K@3#w#~#I@i@O#%$v$}#i@h$l$I@e%}#S$s#7=%@j/Y+#)1,  p~O)s'dm}&89p~U'k-t]O)l=!(33c3q/C;)(.'Ud-_emM9e3R,M9u,T,8$p>9-n{x@Q)P{l{&#o#~&}#'#f#P#K@L=D%j$|#s%h$o#D%:%K@@$g$s%i%&#c$E$m#m$|#U#I@0#p#a#t@{%h$B#|#L$5%4%b#K@V#*;w$p#i%^%U#I@y%<34%m#R=f#y'm0A@w$%#G$2,.)c@9@-$k=a-P0)-8:Q,)(fi1,@-}-f0|,p>l=O)j,+~fm/>1,!(p>k=%=)(/>)(/>s'O)U'u,{=5#0~1@n=-&J@;$e*S%K@g#_#v/i@m#L=w#f#$#2#i@+$w#]#s#w@X@p# $d$4#B#&#V#p#2#`#I@v$D%I$t@i#B@}#]#s#+>B#2#s#d@3#,#%$b@(%&#]#U;e%|#v% %*$_#w# ,8%/%7(-@L$e@o#f#,*I@M@B)-$Q{@]I:8i1[gmhmSgufimjm~jkmlmmmnmA|omc]l$#['#Q'5%}#-#i#&@-@i#Q_@#@#.#2#h$u>f@^#h@I@_@@$5% ,}#V#i#V@`@G$!>}#&@3#f@-@t@h%%#y@2#:%3#A@h@;@6#,%m#_@j#i@2@;@7/|@)@q#k@g@b@'>~@(#a,8-O;:,{~W9V#j%s%/%:%]^h'%#e@>&x$9%B@w$:%I@y#l$5%7%!*:~",
"{d &d%4*H%Y%D%c%b$=%k$f%C=6#O;j)1~_#e#]#V%0$*&W!J@M_Q9-'%,2$q{q{@#I;_#k@n@+#>$5#Z@h@$$w@X#7(7'r:x@&$e=L%S%w#J@)$J@e@{$~#&#n#&#&#g%|%[&a#w#}#&@w$y#w#*&+; _7@e@f@j%U;g@&#!#!#g#-@w$D#w$H%H@~#I@W>X@g%f@D@c%F$}=-$Z/K{J@|@b$ ,'#U;U#I@f#h@_#r% ,>#|#l$}#y%!#A(g%v%p#^#=%C%d@ ,B#D$[%E$g#w@p#l#!#a'<&}#0#$&hbu$I@w#F#U$^:i#s%j%E$x#k$7@v/0#x$S%s#P#e% $V#*;p@5'6@F/-)pmqm=0y;1dSbrmsm[d)d[dtmumvmwmxmymKbzmAmb0XbBmCmDmKbeka!Bm/0y;EmFmGmKbC=)@|@d,*$3%I@Q$a#D%<%g%s#S% %&#b#'#=#S@i%(#f#0>~#g~I@m#F#S@slI;D% ,N~1{}#t@g~s#v$a#_@I@m#:%e@E$~#h$`#2#g#|#K@/%~#m#U#I@+$R(9%b$0#:%$@8)$#o{Z+Y@HmH[*!w.T~ImP!JmKmLm`:o.MmNm4&pml[.cNm@|]0JbOmPmQmRmSmr]paTmj&UmVmWmC)k@h@n)s,j%f#|#k@g#2#/%e@@#V#i@V#U#V#+$h@]@&#7(I;*$I@'#E$i@f@L$0#f#T$i%$$}#f@;&b#g#)>f#c$$%M$4@c% &K@K@J@K@$$Y+y%U#U#m#I@K@+$}#W>!#7'h$s#!#&#+>)$L$}#!@q#T$I@^_J#Y+E{!{'{6iXmYmfga3Zm`m n.n+n@n#n|dQ(:e==N;y%!# &g%7''#i#{$m#K@K@m#j@%>S@o#}$9'8#4@,*V@f@s@B#$#$$V#@#i#}#%#0'Y$e@e@n#f#4@k'K@^#*$]@A@t@t@8#k@Y+l#t@[#q#f#;@k@b@9'h@A(C@^#f^+'E](#1)2~<>%%#%X=~%a#+'c'k@o]h% %H%8%9%L$I@K=e$7@<%p9C;",
"$n*%F$LdL$3*!#T$d$/%!#l#;,c@-$$]j%~%U#-&K$)$y%=@a_l#I,x)8@q{1_)@k~$#5%u>[#e@}$&#_#4@U;_#e@+$p#l=c'$#b,F%A@e@V@*$v%s%[&s#&#2#e@U#{#@#|#l#W>I@_&,#_#5% &V@:&*$%%B#A@^#:&_#&#I@[&q#+$z]y#V#2# %V@9't@V#Z@'#^*J'+<`=*#d@-,'#i@a#x$9'H;s#I(+&B@h$t@V#w#I@C%C%&# ,!#.{y%t@=%g#%$<&I$@#L'f{%#9%;$,#U;S$L=i@e$e*!#c@>}}#@#w#8%/;T):&M@-@D%E$&@!#=#V#L$S%U$-@D%Y%Z,_$<@6@y#l#~&M@y%5%0#B@ &!@9%f$I@B#I$g%K@N%l#S$g~t>b$!#2#T$C$D>>&<%l#a#_#5_~%C>J$J@L@k~(,J=i#s#K@j%P#w#g# %&#p#B@s#B#e$g#p#&#_#P#5%m#g#T$K@[&2(7'U#c%4#c%Y@:&M);$&#2#.;%%e$T$g$y%H;w%S%]#F#=#~*j$7@j$|#&#p#:%!#7@D$',<@#{8#,@ibs#h-=%Y$ ,2#H$_*s%D$f#l$`#s#w~&%g%%$s%a# %T$g#p#T$=%]#g%b$9')$h${%5%v&v]-$x@(,P'I@_#T)c%V#_#I@w#!_]#J=&#m@s#F#'#9'S%Q'V@I@[&J@I@+&>&h@/%,#2_h@h-7'y%c$n#U;c%$$l#o#x#w#}#B#5%A^U#U;|#&#J@b*[&G#W>^#,**&|#K@l#0#k'n#h%]#U;9*2#`#7>B@]-k@Y+($//f#)&%n&n*n-g=n-n;n>n,n'k8j!h'n;^,#J$,*Y$-@*$E$|#K@;@i#p@V%J'm#Z@'#/@;@v@>$$%{%w#U$&#2#,#X@U#g#&@4#.$k@+$)n'#U#f> &H#@#B#c'%# %U#L@e@m#-@>#q#A@&@w@Y+J@+#}$1@x@Y+0@f[;'S, &6)F%'#D%3*)&y%k$;''>d/y% &h-m$0*L$=#=#e$R=,}{&#;C;",
"phg#7@<%;$>&a#v$(&X!K%!*<)&@9'C=o$E$/%s#0*w$8%2$'>8'''<,w@u~_$p@t@L@}$z]Z@t@I@h^K@c@&#m@m#'#m#J,g@k@&)D:&#b$D#:*T$b#y'c$U;e@-@e@Z@:&,#M@,#~#$%'#G$$$,*&@>$'#.;)$|#~#I@b#^%$@!#|#^#_@v/W%Y$V@B#p#F#.;U#>$$%g~g#k@*]%,Y_W{b$h$5%,*i%p#U$i@@#T$0#U#e$m#B#e#t17%D%S;'#K@}#%#*$K@g~W>V@K@&#<&p#v/L$@_[&&#g% ,e*f#d%p#r% ,e#F#q# ,@#f@I$)$c$U$>&6>8#d$=**$w$n)5$U]a@y)!ny%D#U#h$;@C$w#`#y%i#9*F#U#!@Y$I$U#f$5%S$]#o# ,g#D$!#p#$%%$p#+$w$P#x$+$E^})W!$@e=${%%e%w$|#|#U#E$x#~#I(L=7'$%c%M${$j%r%&#Y$Q%B#x$]#I$h-I$B#7@X@ %q%L=2#V@]#!#9'~#,#T$&#|#e@,#s#k$J@I$g~g%h-2# &i#g#I@h-g#}^B=2$x@*#!no'u$+>~n&#B#o#m# &$&]#*&s#{%]#B@s#,#{%g%=#s#B#y%,#3#%$s#B#D$!#!*y%_#p#M^z$d-h#B'!lV%w#E' %D$w$I@^#+;5%>#~#;$&#U#u$|#g#y#I@S@-@!@T$/#K@;$y%L$^#^*f$y%m#_#U#$%|#!#9'`;w#.# &U#i#'#~*&#_#d#T;T$i@*$e@3#<% $c@U;o#3#W>`#@#F#&@U$ ,!#*$S%3^$@b@U)G_c's${n]n}f^n/n(n2m_nOl:n<nK(5(;^$=n#>$P'V%Z@L=&#*=-@&#L$;@G#B#I@0#-@=#I@U@i#Z@,*$$V#<&[n#$>#n~I@V#m#j#*@ &9' &m#J@0#f@q@6#i@d@U#q#U#i@_#u>_@!@h@w@e@;@-@h@@#B'Q)$#{]D,Y,*$:,B%O%e$]#e$]#e$m~$$6(c'i#[*e#}#j%/&g$e%+&8%T$>%b3",
"Q/ &!%>&g#P#y%j%]%I$X>e$n,v@A@#>0*D%M@*%4~g%e$-$m9_#d,('*#q@L@1@($f@9's@3#[#3#c@b#c$j#;@+$Z+V#],W!_$C=%(w@!@D@6*S@v<e@ &%$S@t@e$'#L$X#a'm#-#i@'#7/{%f#T$$%g#$$i%b#Y@@#'#G$.@]#%$|#%%N<@#j#w#Y$o#,#U#%#.;y#i@+$Bi''W!_$o3T$u'+;B@'#;:>#|#'#t<!@&#3&s#'#h$q#B#h${%,#G>|#w$$%s#`#i@b$g%m%d@W>U$l#&#1*F#'#!#3#W%;$U;j#F'w#U#g#B#,#=#@#{%Z@*$`@w@ ,V#R$h$a*g5m@a@=@}nb@ %0$w%L$5% $!#k$7(H%8#_#]#y%s#e@U;}#m#B#3#P#L$.;C%E$]#g#C%~%e@!#y%U#f$Z+X(W{5>b#9,m#>$j%t@ ,@#]~,*^%;$!@k#p#U#{%g#I$J@i%O#~#s#_#|#]#V@'#q#7@T$w$&# ,2#|#:%I@]#]#i#U@5%h-T$,#3#%#8#3#]#`#|#r%P#F#B#I@$%w#,^9#a@L@w@c%W$H#F#K@x$T)g%a#l#/%D%S@!#`;%%+$>#g~I@-@+>:*q#*$>$B#~#p#J@[&a#F#S$A@f@P$.<A,z@2$%'$#2#g%0#s#r%S@w#C_K@Z@g%c'L$L$f#S%&#|#}#&#(& $I$Y@+%i#2#'#]#F#I@$%H;V#h$m#s#3#u#L;-%;*Z@f@'#y%J@D%^:g#K@~#b#K@E$L$W>B#&@&#;$W>*&<%#%b#Q$%$V#w$g~/%a)Y+{]R{V(!:`({n|n1npg2n3n4n5n6n7n`e8n8l9n2')9a$=#x(g#3#D@q#V#I@p@F#6@K@s#J@y%F#t@I;{$0#i@Z@[&=#^# $J@L$V@}#{$Y@*$q#b#S;U#k'-@f@|#i@4@e@+$@#+$$#K@v#J#4@ #J@$#L@&>b@h# #!$k~-$8-/, &i)a%~*h$D$c%O%1~6'O;p@4%o#M$#=!#:&d%g$P@H%h$7%]%j,",
"u*9*V$=*o$L$I@M@]#R==%s%H)$$k#8)e~s%L$>*l$T$*$u~%>I@]^]^($o'T@5#&>x@6#-$k@i@J'&@i@b@&#e@[#H$:&5,d@5>0n{a>$w#e@|#j$U$J; &*$.{{%T)Z@l$c@i@!@E$7'i#Z@u'k'M@c'c$_#L$F$p#H#g$|#t@d%L$;@s#h-%$K@5%!@9%K~%#B#2#|#g#>$r#:&q@7#;#d,S%v%E$*%.$C$p@e*#$f@ %}#$$$$/%*;{;(%]#T$:&K@i#p#V@~#L$:%p#U@]#x$a#a'0#m#$$9%'#~#'#G$K@9'<>/%I$$$ ,7'Z@u$D%|#s#F' ,k$g$E==%s~F@%]O'}=p'8%f#M_;$-@e@'#6#v$g$F#{%e*|#Q'2#;&i#f#i#*$V#s#>#9%x$m#&#'#S%S;I@|#B@-%-@x%3*@)x@w@r@T#w$h%j$d%}{v$V% ,U#>&|#'#g~J@s#u<,*/%^#h$E$C_I@!#L$K;d$ ,1{}#I@>$w~S@L%w$L=7'^%w#!#T$E$|#[&i@>#:%~%L$h-Z@o#8#v%M@D%anQ)Z+c@:#BlU;c%w#l#[&K@w#i@Q'H%p#l#p@B@:&e$c%I@a#T$s#y#B#T$~&E$K@c%&#I@9#b$#$%#f>e@p#5>.<9{2$)@n,F$L$H%l#7'a#B#U#0#i#u#%#B#~&p#w$|#0#!#7@<&S%m$7@&#a#=#'#o#c%K;M#e@}#7@&>,*[&B#m#I@4@g$P@I@c@q#,*K@s# #|#L'D%k'2#i#L'N;c@w$'#L$e@E$2#->s#_#@#!#e*5$-$$@D{k&kjP=o)u7bnI_cndnenfngnhnTh8[.} )!#_#$$c@V#+$*%@#o#;>&#t@5%i#W>m#w#@#y#8%c@;$*$I@&@q#l#K@_@!@f@=#!#{$L=k@T$@$c@|#L/c@*$]:t@I@-@+#'#*$f#%$w@K@q#U;*$t@L;'>W!&@:/L@g@6#w,,'N/2)ajY%g-F#l#B@:*~'I;t@-#w#K@x$M@v$!#7%s%v%7%h%f%O)",
".*T$!*0$Q$h$+>&#g$`#v$d*K,&@J@R;X;r%p#x$y$,%4%D/L@S;{^_,9{($x@h#|@n@q#c@'>u>V@;@n#!]p@-@T$8#g#N,T@h#x]l-^#h$b@B#^%x(1{e@}#t@J@S%3&m#3#Y$i#Z@t@h%=#i@w#Y@U#9%Y$g%F(E$x#!:2#,#!#m#V@^#p#=#U#_# ,q#i@B#i@a#x#i#g#x$z:I,-$_@5'G#c@x(p#`$~#T$D%;@4@|#m#&#D%)#}{a'E$s#,#_#D%F#e#L$Z@]#I@|#g-I$p#~*V$q#b$F#H@}#_#S@i#e@%>M$F_ ,i#L=w#L$=#%>x#*%o#w$D%=#F#]@+'p@U]C=-aJ#Z@W$_#5%U#Y$U#w#V#/#|#^*$@s#|#l#>$r$7@'&Z@m# %C_9%]#f#I@!*B@-@T)j$ ,-#+&S@U;+=S{$@P~ '[&m$W>,#5%f@p# %S@/%i@c'I@00^*,*%$g$U$p#7@{%R(g-e@y%1*5%g%0#5%_#x#5%+;~#G#U#h%h's#B#;@!%~;[&Z@L$%$^#v%v%!#!@3#}#G@}^x@c-Z^p*5>(&T$T$h$i#]#9'g%L'a'i#e@K@V#/;m#x$K@U#[(I@T$i#e@U#3&u$3#I@w#,#/%l#L$/#D%H%O%*%;#Z^G@j)(;#$L$K@-%5%I@w$'#y%o#D@w$|#V#}#%$1{m$C%D%K@e@'#,#`#K@|#p#|#S@i#q(g%{%{$N;>$f@@#V@y%3#`#i@{*v%T$g#%>&@&#-#.#y%M@T$t@7#C$Y@U# %7'g#9%M$e@1@{%>&e@C=!]_$3{R%e*U<injnknlnmnnn=lonpnKjqna_ j:eo$p#o#P'%>t@H@V@J'7'c$n#e%!@4@h@6#I$&#,#f#_#A@Q_i%+$U#V#i#u#c%U#|#6%q#m#!@1*$$Y+f#%#Z=f#Y+j@T)&#J#,#_$6#m#R({_C_Z@>#c@A@O'6@a^Y/a@^#k,),q]@^4*I$L=p#Y$E%G^B)(#-@*&V#>&9*b$=,s#x$K$f$e$o#W9.'",
"F:-$j%x$M@i#d%`#v%P%v$=~T{c@g@$)[*-%2#Q$b$r%e$h#c@f#n,E]P~ ];@1@W!A@[#e@*$U#rn]#!@!@B#6#Z@`#j$e3W!a@8-!{$$e$^#+$K@&#!@K@8#_#E${#:>b#c%A@^#T$>#&#7@=>w#/%g#5% %e@>$@#h$0'F#|@f@;$~#B#g#S#1*V#b@l@}#E=&#}#s#h%'#V@$#V'%@Q{]@-,';k$y#d*h$a'i@!#+,v$s@ ,}#S$d%{%-@ ,I@ %p%`@r%l#;$f#`#c$j-M@L$W!>$K@9%<&f@p#s#j$J@c%C_v/2#w$g#y#/%1@;@E$d$h$$$V#i#k@g#F,k@c-*$I@L$<&g#T$p#Q_T$<&9*!@y%O#g%I$Z@P#e@Y@2#j$m#$%*&7'L$w#g#F#E$/%&@V$9'a${%I$3#{%`$!#-%q@5@n@u~V,!*M@I$%$$$t@Q%!#o#/%'#K@C%0'/%e@ %c%,#3%2#1*I@i@f@i#m#E$;$|#!#%$c$s#c$C$m#s#{%l#l$2#F#V#X@2#R=!~l#p#v@e@b$<>P@)'%]Y+Y+_)-(!~I@h$I$2#l#c$=#V#>$p#p#|%_#<%i# %t>A@g#U;!%l#I@D$F#*$H%U#f#g#G$}#]#e@|#(%o#!#f@=cr@h#!]]'g~T$P@w$l#H%B#e*'#X@j$[& $c@1*]#K@ &}#K@0#+;P$c%q<e@&#L$g-y#V#p@&#}#Z@5% &H%;&g# &<&}#V@i#J'*$,#G#I@J@2#U#B@,%e%L;a#u$s#$@i@c%P=7@!@&#I@$%;>T$5$c@$@q{L&o#i#sn&ntnunvnwnxnynznAnBnTdCnm=E$;>D' $}>a#!:c% %u#3#g$+#@#V#3&I@B#6#Z@I@|#*$s#K@_@V#c@}#u#_#0# $-@>$<&&@3#,%L#K@t@e@m#{$u#Z@@#%#0#J@^#!@W!-@E$$#L@[#h@J@1@($(#h#g@m,f,U#c)B~b$g$E$}#L$a%T,V#I;e@^#%%D$*&+$C$N$u$3*;$p'[*+~",
"R&a#7$W$h$h$C$!##%!*L$u%L,s@X@>]#;}#|#'#D$:%O%F@K@c'-^t^ ]-$F@7/2$k#d@[#A@;@Z+~#&# ,J;x#'@Y@L$|,Y+g@<)==1@&#<#4@K@!]1@a's#!~5%I@e@v#c%&#y#~#:%w@A^h-l#S@V#<&p#~#V@K@e@a# %0'i#s#o#9' %+$'&t(8#p#V#-@L$&#|#W>}#F=K@X;%)Y+Z+j)x{p#Q% %B@u#V#K@->$%P#8#P#U$w%** $Y@B#!#B#N;g#U#b$x#I@j-P$h-:%w~5%U#+;&#D%F#T$|#-@2#|#K@L$=>g#D%w#B#}#`;4%9%v%)9!#v%`{C=(>0@!^6<I$_#K@T$f#D%f#a# %p#K@`#;$c$F#%$ %k',#D%U$e@6#L$y%L$w$3#L$C%]#Q_%%^%y%}#E=_#p#~*-#y:C)h#B(fkb'G$B#w@I@j$'#|#]#k$s#L=/%w#s#i#D#2#U;S@B#4#+$U#9%'#B#*&i@_&Y$b{;$g%E$&#~#6*)$$%;@s#f@p#}#7@q9,%K@1{P#+;$$P#+]9)g@|@9@c0M#K@m#*$Q%%#_#Z@'#I@h$/%g~|#5>q#a#D#l#i@]#g#g#i#!@/%m$_*u>}#5%!#h-K@[&'#}#=>X+i@3%$#I%D^*{d-5$/%+;%%m#2#^*9'V#&#>#c%v%!#g#U#/%I$V@ ,Y$i@m$b@s#B#{%~#>$g#b#g~]#&#Z@->a$T$g#&#w#`#K@+#s#U#]#L$K@J@$#@{M_7'l#s#i#L$U#g#w$N@~#D%K@%$'#{%I$&#>&;=;@;]5/a&X@N;%@Dnmea3EnFnGnHnBhInMjF_*g7,Y;7'f#u#D%e@%>U;;$;$V;;@{$b@g#_#K@J@y[I$w#e@s#B#*$w#=#y#q#L;7@T)g#*$k@@#{#X@_#p@_@h^3&I@^#c@K@s#_@_@(#&#+$Y$&@x@>$^#/#$@b{-$6(T@3$i@^,u=0' )Jnw$E=w%e$e$H$4-_#;@j#{$M@^***y$u$i#g%w$T$v%'*O)",
"e(G[w$v$v%v$g#v$b$P%U$1%%)x@c'C=>~b$F$9*e$*%=#]$h'&@z=m,x@2@@>*@A@|@s@=>7'M# ,_@c@Y@m#@#;$u#|#8$J@2$_-@02#f#U#J@4@P#Z@~#B#T$<#[&+$5%i#l#f#!%B#g$p#2#>_;@_#C%2#|#G#5%V#i#7'<&y#S%e$K@i@N~H@e@7@f@G@}%J@r%~%l#g#U;I@`+::+^`+$#],8%X@D%Q'3#f# &i@+/L#y#K@}#|#a'F#1*c%i@g#E$s#I$`}-#m#,*-#p#t@S%%>b#B@!#g~,#'#K@w#|#m_I@U$2#V#_#8%&#>&Z@M@t@w$,*T)V# ^d-x@Q@P>8@l#5%M@a#e@y#|# ,h$i#=#|#B#w$J=p#i#_#i#9%_#K@'&|#A@J@}#~*i#V#s#]#I$s#n#t<h$T$S@H%-#H%d@o{g@W!q,f$l#e%i#w~L$B#0#G#3#C%*%f#X@g$b#E$!#S%x$%#l#d$$$ &e$s#O#h$L$_#+%7@g#:%~%1*p#>&w#0$[&g%f#g#w#0>g#!%l#L$W>c@7,_$W!s]n)g#I@=#V#3#w#d$S@H;E$;$t@-%5% &f@m#U#f#I$c$ %I@&#L$8% &'#{%L=u#e$>$U#h@!@l#J#>#$%3&^*V#<:z=g@[# )B#p#I@V@>#2#i#U#U$M=j-U#9%t<H$i#:%0#s%,#l#t@D$I@i%,*I$U;l#l@I@%>w#L=/%U#}#e%c%s%m#i#>$L$i%f#D%j$j#k_ %}#N$j#J@{%l#c@*$c'=>b$;@_#]*E$-@ #V#K@:,e@@>#]v::&e*{nKnLnMnNnOn nPnQnRnSnZ(Tn/,Uno#A(y%U#<%*$V@x$|#B#I@m#U;&#B#p%q(*;=>&#]#c%F#$$h@3&>$V#2#p#L=6@f#k@,#x#m#{]J#F#f#V%3#k@(#J@>$w#J#t@X@-@u#c'z]k@-$VnA@z]^#L^p@2$=>M{.- &x,X=a#[*|#[%g%y%6'>$6#y#K([&G$~%b$ ,b*0$d$M$U#M$j,",
"Q/!#z%|#E$-%y$v$g#!*V$f$J{c@$#3=U(H%/%j%-%L'L=q{%$M#L,S,h#9{s@($~>m@-$+#N@^#x#s#5##_^#*$}#P~1*5,/@L@k,A;K@3#;@Y$}#N;&@m#q#p#x#I@@#I@.#9%'#B#K@U#i#I;f@D@[&K@W>H#t@C_C_U#>_4@=#`$f#!@S%g#U#I$E$f#;>V@>#^*E$f'W>o#'#i#_#-@-$u~2/6~D$[&5%3#s#6#V#+;u#4@i#v%o#&@F#T$';;@$%D%w$U#[&i#^%Z@`#p#}#^*'#|#Z@T$7@v%s%m#B#i@}#;$$%>$%$9'&#%#'#F#v%i%,#!~T;8)^)+#->X'V(B9L=5%}#&#g$h$*$c$k@{;k$|#e#H;w#w#7@w#w#=#L$,#2#Y+2#s#o#f@i@j%8%N;c$b@e%E$,*d%g#-@&#;@V'X'C@b@r^D@v#y#P'e@W>.%9%3%e#g%i#:&I@6@p#|#D%W%7'}#$%d$!#m#U$t@%%w#|#:%p#`#f{a#-@w$8#}#m#<&g%k_g#B#u$i#[&M$h$-@]#F,,]z@_$i)GmI@*,h$%%~&,*l#5%|#9%i@}%!~3#b$i#l#Y$_#i#w$J'W%&#Wn &T$t1>&y#a# &%$<&s#[% &B#+$V@g$@#c$#@<lx@u~o'J,w%E$P#m#c%^#)$L$7@c%v%L$9*-@ %$$5%s>B#m#!#}#|#V#c@C%i#'#,#:%+;R(U#c%$#>&b$7'i%I$n@7@;$ &&@ &'#J'V#a#+;*&e@B# #!@U;u$2#y#-@J@{;H@V#!#P#%%0#Z{A@_$#]R)2_O<j]XnGeYnZn`n o.o+o~2/i2_@on,Xl0#0'E=+#_@P@Y$;@_#5%K@J@ ,b#e@2#%#f#I@e@*$c'D@I@.;+$s#V@O;J@+;J@s@%>I@V@g#*$f#f@O#i@8#A@~*=>Y+&@w#f#t@_#w#Y+D@f#w@#@L@'@s@]@<@2@>$A,':.@6~z'b$#%l#%%#=}aa,s@J@*$V@c%j$E$E$s#=*b$f#s#)&6>@-",
"#o/%;>&#}#&#I@&# %D$C~2%6=|@4@u{v$H$D$P@,#F$=%~/O;I@!^~^`+F@W!3$m@;@Y+m#]@%>%>(#c' ,8#,_[&!@B(f0(#1@x,/{U$V#f#s#!#^#u$%>|# ,$#6#]#Z@i@K@ &|#i@3#j%_#U@8#q#D@_#'#Q'1@e*m$U#A@]#'#w#,#{%-@C%X@f#I@y%|#q(5%q@*;F#7'}#|#o#T__-/@$#:)3#i#!#%$t@x$U#;$r$i%m#a#&#_@L$'#b$B(H@{%p#C_^#|#5%H%U;p%L$G$f#g#u#|#,*T$7'[&$%;>F#;$2#i@}#G0|#g$L'!@4%H@{;[&f#/,h@x@E~pka{ &j#{$x#%%~#V@U#C%K@&#+$D@h-i@*&U#3#g#I$U#T${#$$m#S@_@i@w$[&!#A_b#0#e%%$_#h%M@D$7@}#$%5%_;K#c@B]sdP@!#I$i@g#|#2#2#}#Z@%$V#0#i@_#`$2#;@:&j%{%L$ &J@W%-@6#K@%$&#d%k>2#f#m#d#B@y%_#M@|#0#m$;$v%0#!*_#,%P@q]w,b_=>1@e-^#P%T$U@B#!&s%F# %I@%&6#{#3#h$x(:%X#@#I^U#M@r%s@U#s#=#@#c%H@*&|%]#K@~#->:%/%y%`#y#_#g$U#,#D%,,k@_$;'|@3&j%L=T$9%4%d%1*c%-@l#<#p#e#&#&#s#V$(#B#v%Q_~%e@N;B@i#a#!@q(e@V#l#3#'&P#~#<#j#!@e@l#k'`#W%:%'#N;g#L$_#0#'#i@~#b@7'{%&#{$T$6>~#i@Z@$$h@7'e=x@_$T@J_-#E'ef$o%o&o*o=oml-o;o>o=f>(_eg0}%V$0'k@5%b$f#S$%$ #o#i#4#t@U;M@I@3&{#L@>#Z@;@{;3#7(b@K@$$_@m#_#i@m#i@f#3#+;=#_#f#i@>$&#m#e@&# &8#&#p#^#V@-@4#O'T@e@0'n@$@u~h@h#J@'/M{^,#_Y'X(]#%%E$K$K@/%+',%'>-@6%&;=*E$>$l#b$E%Q')$%%]#o,",
"u0:&{%!**&j%h$l$h$V#j%2#K{&>]@U)C0T$ &*%y$!#F$ -8'!#e,(,]$*@U]&@P~_$e@h#G#`@&#&@'#c@i(_@*$C%p#f,(>q{I)D<c@3%!@u#C%w$ #L=_# $$#q#f@i@x#-$w#m#!#o#J@U;J@e@b$.$o#J@7#e%U;!#V@s#I@+${%l#%>D$g#;@3&!#c$w$w#,o&#s# %I@h$U$K@h@f%q@Q)!>t0{(w@,#I@&#s#{%q#e$!#4@s#Z@|#CaD$h$&@P$$$}#H%e$I$l#0#0#|# ,*$m$'#*$s#/%h$=#K@r%8%{%|#U#s#>#c$Z@v$(%H;V#!%{%n=w{*#h#Ia9%V$k$`@%%|#&#]#]#!@-@@$c$m#g#K@]#|$-@6#,#l#Y$s#k#]#!@V#p#E$f#'#P@h-_#+>g#^%}#[&_#]#|#2#U#F$'o#>`+6#C)R;F_n#0*}#~#b#A>g%X@b#K@p#;$,#^*I@1**=&#8%%$k$2#g$;$f$I@m$2#b$x#u'5%{%t@}#P#(%e#t>V%u#g#M@&#+#g#,#f$4-)]#]@>q)V!Y$=#p%_#h%k$C$3%K@X@s#D%s#c%h-{%f@*&y#P#I@;$$$U#l#T$6#**V#]#3#L$|#B@ %i@n#a#'#I@g%p#N;|#%%=#G:g@-$%@~']%p#q#%#$%i@-@$$m$p#'#i%j$ &U#L$U$@# %g#$%e@0#4%s>7'+;I@[&^*[&00s#K@*$U#a$w#V@2#t@&#y# &p#e@M@i#!#d$]#i#I@y#3#I@g#!@i#b$%$P#o#4#D'W>U#'&d,>#}$#>)o|'7'r=!o~owj{o]o^o/o(o{f$k}>_o:oG> ,I@l#-@J@B#_#%#;@I@T)m# &4@7@T$t@>#=#~#(#$$w#I;{#e@g#$@C%{#Z@k@I@~#*$(%~#2#L=g@e@$@2#e@s@X@6#&#W>-@i#~#>#>$ #g@s@!@g/@#1@9{w@p@T)D[c=+$L,h{s%p#*&}#j$B>F{A@W!@#>(M@!%!#p#w$U#V$v$*%j$+&j,",
"J<f%g$^%t%E$]#]#_*p#p%)*^>*$w@N{>%!*&#!#E$0#b%S{:/)>+';,5@!]T@q{D@_@m@t@h^e@f^t@8#c@k'~#q#_#E$<'g@L@9,P95_,$Y$g#5%B#q#|#w#t@$#K@g#'#h@ $|#&@Y@l#V#8%J@U;g#V#&#I@|#U$,#(%K@f@K@#$m# %}#~%)#9%t#D%M;U#,#V#!#D@3&Y$f#U#r$V$R%3=h#a@v{Y/*=&#U#C%q#f@ %p#S$_#8%i#p#H@^#/%3#t1!@8%$$w$i@N(x#c%s#w#}#(%J@v%~%n%I'p% $2#!#x$-@w#*;/#{#*&R(L$5%m#l$ $F]c@A@9)R07'_#L$7@>&V@=#p#h@}#m#s%2#W>p#>&}#B#'#2#;@V$!@+$T$i#U;I$m#E'&#S$S;J>p#]#B#h$m#w#U#C$7'U$k$l$a#J_0~{]f^w,M$L= %o#i#L;/% &D$w$]#{%;$:%%#,*2#R=W>!#s#(%V#T$E$=%{#V#_#2#S%M$%%s#s#V#b#U#B#~#7@7@!@7%E$:%E$`;L{C)>/#@q#V](/U#j$.;0'l#d%|#D%f@|#I@h$X@v%s#n#}#&$g#S%{$;@V#C%2#U$ $~%U;L$+#U;e$O#U#_@p#c@x$j$V#y%)$_#t<g#8#&:_$$#*]7]<b&#L'_#!#I$S@{%5%]#[&9'!#P$i#U#y%m#l#e@F#3&L$y%i#+$I@w#=&$$J@m#U#I;!@2#2#}#&@w#|#+;W>h%a$!#9%X@q#}#I$s#U$B#I@f@s#^%!@o#L$5%U#y#V#V@}#5^$@f^P{B^F$S;<o[o}o|o1o2o3o4o5o+o6oZ( }+'1%5%8%K@<&7' &h$*$i#(%0#>#U#Z@w#>#j#%>X@H;^#;@I@l#*$c@|#-@x#V#E'e@J@q#L'w#'#}#t@O;5%c'k@x@|#p@f@;@K@I@6#@$c'c@Y+%#z@c@'>)@p@;@w0_$A@+'*mQ(n,N=k$h${%3*h$b$e,!>t@V%B@S%p#y%s# %V$f$w$D$d%S$v,",
"(_a#>&b$x$y%K%4%x$E$S;x$%:&@k@#>U(,#b$p#v$$$ [p{z]{$d,{^g@*#)@$@t@Y@s([#4@q#J@L;A@Z@q#1@i@g#]#[--@=@H~GhL=2#f#I@E$ ,;@B#f#i# &Z@({V@t@%>K@m#o#.@Z@]#;$'# %Z@A@q#%$%$|#Z@w#B#a#=>p# #F#W>i%M#~&7'x#}#+;}#*$_#:*$%]#!@E$X%1@w:p{/@.@n,!#!#'*m#4%_#w#g#t#g$;$s#d%b$~*+;5%<#Q'U$ ,<&2#L=7'{*f@y%7's#9**$7'L$g%i@U;3&!@B#{;g$F#}#]#2#K@c$j$i#V;7,h#[#~>!{8@h%!*>$}#I@k$e@U#G$t@>$A%]#{;s#K@i#e@_#_#({U;I@|#K;D#0$o#a$H%p#j${$w# %>#N$%$]#_#5%!@g$D$L=y#M$[{${T^o]u~3=k$Y$w#a#u#s%L$K@^:*$J@a#_#P#|#8%X@V@c%h$x#c%I@{#g# ,G>3#7@I@W>L$I@P@T$q#U#;@l#,*%#M@{#<&i#x$P_R96#o{;@<=k^]#f#4@=,7>!>)$s#C%-@B#e%&#!#L$D%c$+& &4%8%.;S%:&@#i#`# ,&#i@I@q(w%I;T$F(L$@#-%Q$_#m#=#m#i#@#]%=*vi')F/s@~,p#3%b${%+>W>p#i%Z@H@}#p@I$-@w#$$|#L$}#5%V$}#;@8%5%-@ %K@V@Z@_#%#B#'#;$7'U;f@2#7@>$o#Z@s#&#B#E=D%s#E$e@1@0# &m#I@i#6#i#{%T$@#H%m#0#H%j$H,g/`+k~[^e*6% f&n7o/>8o9o0oaobo+gcodoO'k]t>j#J'+>U;h%m#V#i#;@U$<#w#&#'#_#s#B#(%!@#%c$6#e@_#K@i#`@f#@#h%c@Z@;@^#c{{%_#C%I^m#T) &_#>#h@^#w@#_*$c$w@f#&@u>h@[#p#|@s@2$1@-@9{C'6@--9,T)s)eoi$D$0#L$p#>*+'s@6(I@@$p#c%g%l$i#h$1%~#-%m%P%O)",
"j*@{Y%v[I@P=l#F$h$!%0#>%F,-#Z@K{4~d%r$g$L$a#E$;]3#}#I,n=x@*#;@*#$@k##@#$@#7'c@Z@@#%>A(B#u#x(M@<'n@*{<)p$^#}#g@$$,#%>n#K@2#m#i@ & %'#F#-@m#[&|#*$}#3#'>g#`#_#k>n#p#q@V%9%}#%$&#'#>#_#2#m#j$T$B#L=/#D$3#w#&#q#f#2#_#2#2#S%l#b%/)g@G@@>s)c$~#%#!#5%B@J@S@=#L=O;_#y%i#;&v/i#K@@#m#L$G$w#5%>$I@D%_#g$}#u$L#|#j%x#`#b#Z@2#0$!@s%&#H;}#I@&@5%L$L{m{c-|@c)|<9*N~'##%U#K@f#'#H=E$f#g$U#D@5%K$:%i# #)&,*}#U;p#4*{#D%:%!%&@K@e@>$ &-@p#~%$$%& %l#+;=#l#p#+;7$L$U#fbI)9{1@t0V#;$k>D@C%Z+K@8%c%s#P$&#=&6%g#+;i@0#g$I@2#L=-@8#U;(%w#h$!~$$v%|#>9p#~#}'o#J@V#+>g-q#v%g#P@T$e9M^@>s@A{Fb%,m#$%{$&#$$p#|#]#I@g#g-s#M@s#T$Y$x$o#}#y%&#>$J%!#s#$#g#&#a#,#]#}#I@7@h$g$m#/*/@ %;$h%m#E$I@!#$#2#p@w%q{ ]($;==&D%g#.#>#N@w$I@3&V@w@M@N%V#w(i@I@^#F#V%U;V@!#V@i@q#V%e@I@2#{%;$X@H%7'2_H%_#1%;$Q'i#h$w#f@V#g$g$q#Z@U#U#8#e@3&&#%#D%(@s#|#~#I$Q'F#*&D]4@-$'/v*0'M%5$<2me:~fogohoiojokolo<|Cnr{_*7'5%g@*$m#<#U#$$o#g#$$s#2#5%|#]#>#8%f#f#J@>$>#F#U$5%n#i#h'&#*$&#c'+$N;i%u>e@.;e@1@!>O#d@3#A@+$}#X@9'k#6%q#'@M@c@q#L@x@5#X@*@k#a@B'z=n^%>c)P>y%a'j%q#s%i-mo &b@;@5%X;O%*&D$8*b$>$e$T$!@X%y,",
"R&L=D$D%F${#f$%%{%/%w$I$e=8#O;8)A;C$I$K$`;D$l%$)Dc^*n,/,L@p@T#+#1*${^#b@f@k@f@g@!@k@w#$#z]9'<%no1@p@r,x% ,.$Z@V%U#c@T)&#0#n@%>>#b{}#5%4%-@q@F(L$9%L'e@f#/#V;'#@#Y$>&h@|#E'(%;$V#j-~#2#+#V@b#i#~#1{V#.#v# &g#p#g#^%i#V$c%V$'$|_g/]@u~m,l#i#V$I@i#V@L$L$}#6_U;F#u#T$_#p#I@d$^*&#>$4*,#}#D$]#'#{*2#2#w#*&&@2#9%L=G#-@K@w#e@p#P#L$$$T$_#Q%I$;,*#Q{T^.1v@{%[*{&(#e@s#L=>#]#E$ _U;g$G$g%s#%#I@7@Z+K@o#b$a#-#a#{$U;1{V@M@S$f#3#L'B#*,i@u$j#2#w#G$P'm#$%g#k$~#^*&#D=r)%,[,s%'97>!*H;!~p#1%w~y%D%v/S@c%2#~&f>g%c@W%K@o#K@!~}#l$d$J@,*H# &k$y#[&[&g#2#7@1@2#.$D#i@I$D@':2$jdg@)#+&N;!~N@P$F#g%U$v<2#b$.;J@V$K@|#m#I@j-0#b$<&-@[&g%i#i%;&K@p#n#x$J@}#i#%>y%%;h@p#K@~#c%m#f#s#u$i@/%5%_#8/n)2$@>0,O#t@g#c%&@ %U;g$m#P#M_[&S@T$w#3#o#D%*$w#>_&#`#,#3#o#.#E$V#>#>#p%I@I@l#>#A@s#B#,* &7'y%d*}#W%!#g#Z@|#w#L$3#>#w@%>q#s#y%b$I@0$5%{$V#a#^)6@2$T#p*j@s(_goopoR_qorosotouovowo2_D/^,H@:%6*3#V%q#O;2_.$3&V@J@e@~#V@_#D#!@C%e@-#c'00e@M@w#i%U;-@ &P$6#w#K~s#_@I@f#w@*$Z@*$O;/@e@A(I$t@k@|@!@&#@#y%=>$$Z+((=#z]|@[#`^'/*#5#I,b,!>w,R%L$>&}#g#w$E%;,Y@X@!#&@3#L$l#}%D$/%f-B@p#>*w$'-",
"$<p#E$>%!#e$/%#%=%F#h$g$H)q#c@q,K>3*k$/%^%v$V%P{k@V#;,)^<#4{_@%@f^6#6@ $+#B#c@_@e@^#Y+$#c@q@U$o,(#_@;=/$0$g#e@`#!#K@g#!@e@s#:%%#I@,*(%~#,>l#i@c'5%c%w#)$}#p#@#3#i@S@I$&#.;C%Z@I$R=e*y#[#>$i#y#U#S$K@@#s#B@L$c@!#<%U#D%C%K~ ,j%~#h@#]i/,,<%-@Z@i#i@L=_#p#s#/%=#|#8%V@.#C%i@'#f#E$;@{%I@X#5%>$W>-@B@I@y%D%{*=#3#/;i#W>7@g~U#&#T$~*|#m$~*7]V9_@8#X/=&.{Y$h$W>P#L$U#!#.;5%B#U#x#5%_#h$'&1{w$_#h$&#X@W>]#$$=#!%i#b#&#%%m$g#F#e@!*;$h^C$@#_#S%p%|#J@2#P#>$L#:&P)3=)@[#D,^#h-L$O;}#c@a#]#i@=>w$`#U#8%&#f#&#&#9%8%j$J@3%}#i@.;K@^*q#%%{%s#p#J@g~f#Q%{;i@I@.{!#]#%%%'u~'/($q)P:k#o#&#b$B#{#3*W>a#!#|#c%)>|#7@_#|#+$m#Z@g%y%f@W%|#K@U$+,_#,#I@!~!#5%D%V#|#!#o#_@2#[&E$@#i#Z+|#N@4@q#i#;>J=S{1@,@B/j%U#t@L=!~b#~#=%!@'#c%i#-$F#6%x#5%B@i#D%I(,*_#3#-@v/h$*;^:f#m#w$!#}# %U$&#&#E$^%2#C_Y@l#B@:%T$A@l#p#Y@B#=#*$e@5%&@w$V#K@e@}#f@I@r%I,9#z{P~&<V#a#xoyozoO)AoBoCoDo`d+gEom^((',Fos#B@i9-@'#n#m#'#U;,#f#U#4@V@G#w#]#*$g%6$T$^#2#e@e@!#L'h@o#K( $A@-@w#m#U;@#p@f@>$%>I(&@n#Y+i#D@+#&@%$e@&@e@c@1@ &N;V#!@5%k@Q@W!u~g@S,7-|@K,k{N$u$L$e$ &W$K,!>(#<&$$h%g$w$s#y$L${%`$s%K$G=.'",
"w' %Y$p#0$X+x$]#H%3&j%p#^) (c@A'C0/%g~1%2#b*I@F@Z@3#w,^,u~n@{>Y+Y+b@)@|@=#$#-@'#V@d@i#e@|#Y+Q%E,#_2$x,Go&#%#&@U#Ho-@+#^#f-U;7@C%e@I$E$-@A@m#7>Z@I@;@>$^#4@~#K@5%m#>#+;L$/#f#1*w#h$|#I@_#A@U;K;m#g#g%p#j@!#Q']#b#y#m#s%;$L$e%a#&<^)5/x@a)l#|#W>m$2#D$p@%#%>I@y%s#=&%$w$Y+V%K~G$U$F#w~d>V#+;V%@#m#w$y#4%{;A@U$F$'#w#S@/#}#I@0#P#g#Q_{%C$5'1@*@F@wa@#m_J@E$w$g$U$!#+&S%f@L$!#h$`;L=I@|@>&5%B#f*m_D%k@G#^%N%m#;$~#]#d% ,~#s#7@V#!#i%n#[&9%O;}#'&w#i#i#~*}#>#Z@f%*#x@;@9,*&K@K@j$ ,3#v$c%3&*%=#s#>$Z@c%c%w#/%L#&#P#i@y%w#/%I@I@U#j$@$[&:%p#}#l#U#i#b#S%e$ $}#_[T{x@z@B'e^~@ ,s#_#2#v%9'&#&#`#=#!@`# &U#m#W>w# %+$V#1{D%V#[#y%@#I$p#g#w#b#7@0'K@I@B#!@W>2#S;g#y#V#c%o#!#j$I=y%e@w#T)E%0@B]Y+e=q{V@B#K@x$g#{$L=w#u$k$d#V@x$h-e$y#_#b#V@`@3#t@|#C%h-4@2#s%'#K@^#!@$$y%h@i@3&D$9%2#D%i#+;j#3#f#I@6>e@B@2#a#L'%>o#J@9%{%7'}#m#d%j%!~A'$@3$d-J(o(c@X~[mkn&,IoJoKoLoj7*iIdMo[$;^t%I@K@&@l#p#%$g%&@7@&#D@7@F'I;U#}#i@F#D@P#e@=>O#4@e@m#h%p#e@,>-#3#^*>#D@;@_#7'm#U$!@O;_@m#}(&@Z@T)h'^#&#@#3#|@$#M#f@!>5>x@m@_$-$L@*$}:4-;$^'.>]#9%;;0#=%&%;,d#c@]#0#%%}#/%2#&#M@e$e*=&H@e>O)",
"L~)&:%M@B#H$F#s#l$P#V#l#Q;M#|@5$No_#=%@,N%=*V# ]6@;$;,S,5#u~b{J#c-I;i%v@${W!^#O;g$w@^#$#c%9'!#*'k@k@l,x%(%}#f#}#&@n#V@Y$3# ,6#V@1*.#0'Z@<&|#-@s#B#i#!#L=:&V@t@I@B(|@V@c@)>V#f#x$V%Y;Z+S@-@ ,.@i#7'S#D%~%&#'#}#&#s@#%/%V@6%E$e*m@W$J;3$W]':!%D#c%O;_#l#`#q#!@W'0'OoW!I@0'9%!#_#I$o#K@V# &I@_%V@5%%#_#q#j%L=g#U#}#-@U;=#-@A@=&8%t@@{e%D]#{x@W!B#L$J=k#g$3#2#$$~%g-_#T$b#2#Z@~%@#{%@$e*K@Z@s#w#H#,*,#[&|#-@F#&#e$|#t@}#y#h$c%2#i#I$p#r%V#x$=%y%^#K@+;2#g*V@L$Y=r=l@d-Wh+]/%j@!#0#]#e$`#(3_#b#^*I@T$7@l#_#L$g#/%g~@#j#g#G#B#b$!#B#7'J%[&w#!#C$v%!@e@=#b#a'b#/,2$3$o'~=0&l#%#O;P#.;B#y#V#Z@~%(%E$w$8%s#L$8#Z@g#<%b#|#u#q<@${#s#i#>$5% $y%{;i#>$!@j#P#s#_#N'B#d%C_d%1{I$7@&#V#[&,#y%+$ :T#`+2$.:!%_#I@A@g$I@K@V@i@V#q#%$H@a#b# &|#7@Z@T$ $Z@&@i#.;B#=#f#e$K@ %s#7@w#e@ ,m# ,e@j$m#w$E$h@_#L$}$=#T$c$,#^#l#&#2#g%%%i#l#}$p#>#h'E%e,!>)@h~V/=#p#%:uhPoQ,QoRoSoToUo91Vo[$_$R,$;V#^#m_S;}#k$q#$#w@|#t@i@X@Y+[#e$5%@#f@_@~*m#>#K@~#E$u>m#X@$$p@b#b#q#K@!@!@k'g#-@i#@#N'!@ ,%#I@A@p@[#I@x@h#h@H#m#b@*$-@1@.@9{|$|@b@&)^,-@<=9>9(0$V#[*E$k{ 's@6(]@Y$g#2*y$4%f$C$@#r%>*s#=*_'",
"(_Ea}%|#D%/$V#]#g#g%r%S$e,J#k~w^0$/%!;L=s%]#-#u~!@2_q,;=Q)_$c{|@W!%#Y+&@*@Y@-@O;w#D@9'A@J@2#I@_'d/o'-->%I@s#4@$#u$Z@V#x@m#e@2# %i@U#I@>$=#_#E_V#+$i@|#7@i@D%|#T$f{k'_#I@r%D@f#(%I@_#Iaf@_@Y$&#~#U#;$t@o#]#%$t$i#D#^*v%c@x#I@~#>$|<C=k~F@<)3$_#V#7@D#g%a#-@&#=#=%[*-@|#U#}#h@M$h@m%e@T$I@f@g#}#y#1*/%&#_#&#+;F$m#I$%%V@p#h$Q'&#+>L$`@,,h#3$;=j*h%I@e#;&]#i#*$s% ,j$S@i%l#0$.#/%}#!#_#W>_#$%M_'#Z@2#~%U#;@:*B#H%^*{%Q'e@D#T$-@%#h$8%-@=#v%K@e#x({%=#C%:%v$L=t@sh($*#6@L,g%g#P#Z@P#S#w$8%c^U#T$L$#%V#n#L$g#G#K@]#p#I@>#I$9*K@p#Z@B#T$h% %V@n$_#e#Y$m#-@}#I@_-3@J)''9!L@L=<&X#J'H=]#J=e@|#,#K@0$.{J@ &h$y%w$E$Z@'#%>$$m#**%$g#V#K@p#-@F#0'U#g$F#*$P@i@{%3#g#{%K@,*f#U#!~,#^*+>p9e$M$s%z@F@2$=:o)h-Y$h$T$7@A(I@H;|#:%-@O#/%G#s#U#Wo~#]#~*l#Y@f>@#_#`$h$~#3af#@${%y'9'U;I@u>_#%#[&'#!@m#T$&#'#V@'#^%F$e@L$3#o#@#J@$$,#V#i%M@|#}#P]Y@^@#>y:&@x(%:XoDeYoZo`ocl p.p+pLi-#a@S,P>O;3#U#u#7'j@w#&@>${#Z@k#@#p#k@|#z@[&&#B#o#&@i@{#-#T$|#W%$#3#h@!#n@c@&#-@{;k@L@Q'm#3#b#2#A@6#@$&>w@p#_#$#U$j#U;%>j^:&'@6#z@Y+z@'/)@j0{,H@P]Z%b$V$I@#%=%[%A'c@k~Y$@#U#,&+&f$T$g#l$>&7%L$C>p~",
"e(Y@Q$i9~%H%W$I@:%9%'&';$)$#M#${/{v%x(D$&%8%|#|/6%q#z=d,3$.)u>N;_#V@B# &@#L@A@m@>#m$.#i@H@$$l#N,@>x@D,c8}#h%i#w@+$=#-@@$*$y%s#s#'#o#L=o# $h%_#B#>#B'U$*$t@a'>$*$5%s#-@Z@V#]@K@s@t@+$*$ &@#J@%$'#I@@#c%0#V#K@}#E$|#{;d$M@c%Y$_%'#|*4<4>P~Y+5^F>m$V#&#9%'#Y${%l#m#I@+#[(e@p#*$5%p#i#&#!#D%I@x#|#K@&#4@D@W>]#7@{%4%}#i#!%b$L$*$b#e@H%-^G@$#w@*/v@I@t>&#t@_#j#]#u#S$!@6*g#U$V#-@_%>$&#b#!@t@b#x$V%4@a$7'7@[&&#I$ ,;$p@T$T$<#g~D%L$|#s>V#7'!~Q%V#}#A@x(L$9%f#!@p#M_r@M/*{K<}^s%*$g# ,e$x$g% $P#_#I$&#L$i%';E$I$9%;$!#U#~#!@k$o#L$$%}#I$g#c%c$w#4@T$g~f@]#!#3&)$#]f^8#G>,>}#N; &)$;[s#q#00*$Q%6$M__&l#w#U#~%*$B#g%>#+>e@K@}#!#-@m#-@^#({v/3%i@[&$%;&c%7@{;$% &E's#-@w$!#&#]#T$n#4@>$2#x$+=^)2$w@R9 &U$j$v$D$w#K~3&c%I@b$%>9'g#V>m# %[&T$-@&#m#U;{;O;i@%>j$b$J@I@y#E$i@ %d>;@U;|#m#i#V@[&e@)>s#x$x#~&=>y%L=u#^*D%;$K@q#{#j#*$K@_#s~s(_@p{;(G>%>@p>1Cj#p$p%p&p*p|}[}=p4_-pn,e^$$a_@#'#U; %,*f#-@3&b#p#_#E$!@w#f#i@5%|#;@7'J@k'_#+#V$U#I'5%,*@#=#)@j#*$4@X@U$p@C'B#e@v/V#8#m#(#<#]#J@|#1@}#d@!#W!H@m@X@Y+&>@>p@k9/,/,3#/,4'b$f%%#,~G$/$n=*$ #m#=#/%w$7@*;0$o#[*I@+>3*P@8$",
"X]2#|#f%s#f$|#<%g#T$k$x$e=c@h^e=5d3&>* %w$Y$!# -U#@#I,,,A@_$_@1@g@!>m@ &F_w@J@J#_@k@-@1@c@3#1{[-)@c-I,K=D%e$U;t@a'@#t@x$[#*#>&2#m#;$A@n#p#W> &&#T$i_ #$$b*V@J@V%2#$$$#|#$#I@_@_#~#-@_#8% &_#>#s#&#h$I$L'o#c@ ,x#!@I@|#-@'&Z@=#<&,_D$Z+b@.@^)z@H%H@]*'$h-5%|%[%u>U#g-i9;$]#0#h-z%9%o#y%I@]#!#_#Z@V#!@ ,[&8#U#=#U#]#|#+;J@i#}#7><>o{L,'>U]$)0%]%k$e@~&T$D@T$e@s#,*g#U#3#x#]#w#a#1{7@|#y%o#g#c@o#7>u#&@!#U#_#4*&#W%;&~#3&T$V@%$8#~#)$i#:%(%h$g$V#!#u$^*p#~#{$4@w$D:5]<@k@-'/*(%+>-#v%A@_#y#]#j$@_D%U;x$9*B#~%|#)%M_e$a#P#w#S@>#g%K@n#V#L$R#/%3&{%#%L$g~Y$|*v@0~B{ 1N;!#l#+;$$Y$i@f@>$J@-@Q'5%I@D%S@{;Q'n#~*a#w#Z@3#&#c#!%{%0$!@/*s#A@h-4@r%:&m#i%>$K@b#D#_#@#B#_#2#U;p#m#L$B#y%D%|#K@3#d/I/*@X';pU$!@,*y%&#|#b@_#V@e@]#l#D@C_e@L=E$0';@|#3#I@U$;$g#i#I@Z@A@e$L=r%2#J@4@y%f#g#|#|#l# %+$v$V#,*&[[&3#h$K@@#<%}#r%M@3&-@-@-#v<l#A=Y+x@x@V(P'm${@Cf>p,p'p)p!p~p(9{pb]c'a@V,s$i#a_b$i#K@V@;@c$>#>#w@|@;@w#J@f#5%.@w#@$%#,#,#O#N@j$M>%> ,3&U$A@0#h@B#h@e@_#m#+$V#!@w#7'&@f#m#'#&#w#%#2#n#c'p@$$V@}$7#6(8#/@Y+J@Q(F{q/;$c))*Z%B#]p7@`#=='^{$1@&@L'k$b$f$g%!*Y$t$w$M@a#b%O)",
"@=a$!#g$_@K%|#E$/%I@s%%%0]9{_@I)A:H%$$%%b$U%/%Q;n~@#L,d,0@G@h#h#l(.@6$l(9{3$w#&@y#W]e@l(s#q#H%],h@:/x,4~&#u#S%{#n~{%^%L='#t@!@f#i#s#/@&#m#D@y%j-f#K@m#v%[&N;C%~#e@s#}#&#_#{;Z@3#k@c''#|#=>/%f#g$_#9%$$ &`#v%;$}#p#S$s%;$2#D@f@&#g$x@Y&6~G@9{i,b$Q%L$0#U$U@e@v<Z@/#2#K@W@I@]#|#`#!%-@*&H@6%*&H%U;v%2#I@h$>&I@B#E'`;V#&#]#5%L=>$&#C,g@*@P{aj]$s#e@U#.;V#s#D%y#h%V#K@!#'#K%<#E$P$Y$H%`@>&`#s#;$p#Q%7@I$$$0$s#|#s#!~B#!#F#c'i#&#}%i@}#^%]#D$U$U$+;}#[(K@&#U$p%v$H%,#*$h#0@F/[,g%F$i#e#s#E$U$|#<&F#C'$&`#y#&#j$i@C%]#;$*$<&d$}'U;m$G$&#]#h@s#^%I@'#T$h%s#'&G$~'$#~)I:[&F# ,B#I$V#V#,*F#e%c@&%b*!*_#S@E$D%p#n#L$B#z%k'`;|#1*d@&#f#D%g~ ,|#+$J@h%V@5%V#{%|#o#d$x#B#a#i#V#,*q#e@]#g$ , ,5%p#$*K]T@w@C(w#L=T$!~j#b#b$g%,#G$6#Q'}#)>3#l#K@ ,,#>$A@~#_#I@M@c$/%5%x#^#F#l#!@o#s#2#U;5%T)e@s#*$K@5%.;w#s({%5%7@;@>$+; $c%I@P#}#i#;&y#**S>s@j/w{+<h%a$Whu}[}^p/p}l(p_p:pi|I,&>@>m,b[5%l#=#l#w@i#w$.@!@g#U#y#i#X@w#y%e%F'j$}#-@^#H#$$c'a#6#9%S@h$W!$$J@ &Z@*$I@q#u#W!&#6%'$7'e@ $`#n#!@[&U;*$_#$$Y+c'A@f@U#d#k@q{T#A@-$d,n,+#3=R%4* %l$M@j$]#k,@#c@ %p#E$9%/;7@-@]%:>M$!%H%7$.'",
"$/d$z%)*B>v%[%]#7$L$K@f$4>(#q]A'.>9%!#T$D$!#W>l)^#$$x>$]c-w@g@Y+5#_@x@m@W!J@O;f@|#m#U#!>[&K@8%_'6#^#l,o$]#V$h@4%+$U$i#c@-@'#'#y#e%}#{#v@e$i@V@i#I$N'X@&@,%v@g#f#L$0'g#2#L=t@V@_@^*i@U;U#_@c$>#H@&#8#}#V# &G$i#+$_#,#y%*$^*s#!#l#!@m_<&m$[#g@x@C{|#i@=#g#B#m#f$f#J%w#Z@a'1*:/L=2#f#&#+$i#!%K@{%x$7@p%j$*;u>g~p#U;v%c%{#9%,# ,U$$]h~1_n@4>b%<%!:0#L=&#K@Y$1* ,|#b#E$g#J=V#U# %^*e@I@C%i@e@y#V$@#f#E$U;0#I@^#!#'#3#{%N;w#$$,#%;V$4#=#I$&#%%O9[&b_*&R$+$n#-@$$|#*$;@[~]=_@$@a)u>J@T$|#3%K@g#}#2#%;W$A@Q''#b$R(R(5%V#D$&% ,S@>:.;{%g%V@S@p#j#,#v%b#I$U#I$s#+$]^*@u&G@2#!@l'_#>&[&2#k$s#P#h$3#9%a's#1*d$F#~#w@m#I$.(l#5%U#!#E$ ,y#w#~#6#n%C$/%!# &@#o#g#i%x#s#M$V#{%L=0#L$y#b$E$M$&>_#Y%y%&@[%x@I#5/%'e%{%'#:&o#S@&#V#l#u>n#g$`;B#C%L$h@V#>#&#_@_#B#3#|#L@'#>$S@!@_#.;j#L=c@]#^%Y@a'$$4%Z@k$f@,#<&U$U7|#h@T$ , &x(=#d#I$a#x#K@K@3=1@6#F@<^&#o#C{G'k#E}<p[p}p|p8}q[[]{:a@&)N=f#y%!@!@V#*$X@K@J@;@`#X@i@I@O#l#'#5%&#!@2#-@A@m#J@,#{%3#-@o#g~0#t@C%V@l#B#_$i#J''>z($$@$f-*&q#L'=#-#U@V#;@f@3#%#{$^#;@c@<@-$_@2$)#/,8-^#''Qae$!#l$g$!%7%;'q#A@f#O'=%k$g$]#Q=h$h$g#S$_%s%ab",
">{}#T=c$b$J$,#Y$~%w$H%g$H)[#%>e=w*M=S%g#3*2#H%F@q#5%6'&)_@F@~@<#5@#@{]5#x@^#h@J@;@|#L@&#N;e$2#_'*@#@<)y$X@-@=#A@V@!@j@f^o#V@m#9%o#b#&@~#L'_#K@`#5%Q'w#8#!@;$e@3&Z@>$i#_#[&g~.;!@5%K@g#V@/%o#L'}#K@T$B#3#T$$%;$D$U$}#@#>$m#y#U#V@l$C%6#G:X~a@2$~,Z(7@O%t@N;e@g%i%(&!#&#h$H%-#*$V#K;%>Z@T$f#u#i#|$4@Z@t@L=W>[&I@!#m$U0J@k$*%~#F#R]]@)@Q)P:K@S;p%V$_@}#I;~%&#!@D%'#y%i#+$g#U#u>/#]#h@l##$i@{%U#7'`#m$i#&#f@V%|#+$v/&@w@m_>$|# &9%c%I@%#J=j${%g#~*]#q#|#Z@^#f>2%}#T$,@V(J{2$_$9,>*g#F#}'s#a#L$<&}#&#i#g~K@f{i@ ,%$I@t>^#L's#[>U#~%g$t@j$b$!#~&E$b#D%I@%%p#_,W!/=1~:&,*G#7@e@J@i#W>+$b$S@Y$M@5%g#_#w#%$}#I$X#w$&#p#+; $_#g$;$b@o#U$_#h%L$/%w#a#i@'#C%B#0#4@m#$&0#s#g$U#^#H$_@h%p#># %}#g#k$W;e,($w@+'#_ &E$2#_#M@U#p#|#c$0#e$}#[&*$@#!%J'e@e@l#&>{%2#L=K;V#l#i#J'S@Z@C%s#S$-@`#$$m#E$-@n#,*|#+$!@N'=>E'g%Z@V#9%4@o#h-|@i#K@U$}#y)B']@]-::i@y'a)k#5>[]1p.[j^I@Y;D'7,*$ f,,e-w#$$ ,'>B@l#^#%>&@=#~*{$J'm#k#c'c%}(5%A#&#!@^#b#a#j#x$-@W>w#c@h@i#e@~#B#&@$$-#I@H#9'<&Y@>$*$@$s(&@f@=>&#%#t@z]>#$@_#@#I;8#[#;@(#e@z=S,3#4-A:i#k'X@L=p#>%/,M/A@f@k>v$y%e@M$e$b$k$e$G^J$N$i^",
"Y:a#j%[*i@w%s% &>$>&p#Q$x,~#e@n{>*8*w$h$w$Z%f$z{6#$$^,S,:$=>$@M/_$=>>#L@ #J#g@A@J@!@K@%>7@3#^*N,:/u~e,U>i#I@K@2# &.;$%<#$#:%+$L;e@U#E$K@9'e@w#7@'@ &K@w#g$$$T$x$-#>#1{U;7'I@L$ &X@3#U#'_k'E$3&[&S@i#i#t@y%k>7@ &K@O;g#B#^%i#W%2#T$&#g#b#=&6@=@q@;']g`#a#:%m#l#,%N;m#,%y%y#!@Z@}#%>g~h@!%U#~*L=l#&#o#;$e$r%a#K@j$f#.#}#@#V#<%}=I{a@Z+'&Z+d$]#7'/%!% &h$-@0#v%B#u#4%T$s#0'Z@&#T$t@f#7(L$]#7@w~g#V#>$ %b$S$i#c%i#g#e*7's%$$}#]#>#>$k$%>e@w#l$%$D%a#4%K@]#r%!#=& &5%!%m*6-)@Z+n/@>H=C$v%H;x$K@P#;$f#&#g$a# ,h$_#m#+%+;w#,# $}#K@7@%$!%*&Z@<%7'i@0#!#o# ,g#a)_@%%_#x$>#!~Z@B#U#,#i#V#%$E$!#o#_#L$!#h$K@K@m#q#p#s#P#{%&#Y$u#V$'#T$i@3#U#;@t1 &[&!~M@[&Z@F#%$D$m$i@l# $8%!#{%;@>$j$[&K@w$~*T)+$'dY+b@-/9,s%{%v%:%e@{%h@f@l#-@l#c%e$/#o#o#>$&# #p#@#Z@=#e*c'6#9%1{_#9#2#y%h@}#q#B#!~;$!@!@f#7@j@S%w#-@c$$%i@s#t@b/2#K@V#!@6%f#J@t@:]w@k~#)Q>B@+>2p_@L^y{z'X+n%M=;}x(J,1_=>:)(~s#>$m#s#;@i#D%~#w#j@W%w@)$;@$$K@*$P#{;6#K@%#g#_@y%E$/#<&*$7/g#w@W!$$g%G# &_#!%-@E$V#m#7'U;Y$-@>#>$c@v@$#@#&>*$p@O;q@|@f^(#Z+h>Q@|@s^!,_#a)D_,&L$p#o$]#%*V,3#q]w#0#z$h_>%e*T$ %D$p#!~v%[*_j",
"V()$`;l$!#%&b$J=fd`#v%x$s~q@Z/x=P% $%%w$w$`#g#4>w#c%^,<,9{w{<@M^)@6@k@Y+L@L@f#-@;@|@&>;@s#L$0#z,U])@n,!{i#^#=#B#T)b#O;2#m#s#K@g#]#>$&@&#{%4#.#w#_#2#u#`#-@$$e%k#e@.;U;>_s#;@K@'#w#U;i@(#H#F#$#s#*&]#Z@i@x$&@G[O;s#i#`@E$.$[&&#3#4@]#i#U#Q&I,g@_$D,'@U#e$&@l#:&'#c'P$I$3#}#y#e@7'&#_#S%p@=#8#g#{#9%E$3&;@5%_# &|#y@'#'# &3#3#k,b@%,s=S8_#;&n%+, &V%T$x#-@ &/%I@t<h$|#W@D%V%i#B#|#.(9%e@E=c@m#$%{%[&n@f#h$I$L$K@3#a#+;{;_@L$k#Q'r%[&p%|#U#3#s#U#{%5%|#;$[&w$7'l#V#a#I;#*Q;>@8@'^[%&#2#w$j@Y%4%p# &+&Y$;@&#7'w#}#I$>#1{,# ,&#2#}#p%e@U#r%/%-@F$0#D$q#g$!,/@A=V'<&S$k$U$+;4#|#;$ ,w#c%I@%$!~^#]~t@L$P$F(&@,#O'y#|#m#8#}#w(S%_#E$g#^*-@q#!~K@-@i@2#2#>#D$&@*&^#}#u#g%'$L$j$>&U#&#c'<&&#y%s#I@<~6=@><@1)f]]#n#w$1*7@$$^*[&!# &e$a$B#~#&@>$u$6#B@V#y%.{U#e@o#B#k$&@L=l#6@g#m#s#k@%#L$$%F#H%|#;@+$+$F#(#}#'#%$Z@U;w@a#E$.;t@g#,#Z>Q)s@($o{!;*&U;l)6%a_A,f$x$*=m_U$I(8,u>5>),e-o#j$y%b@g#m#O;B#B#'#e@f@v/E'e@g#z(*;~#f#Y+V#,#V@3#L'q# &(#_#$%J#>$L@b@&#J@I@-@A@t@1@!@=#I^-@U#g@5#WnG#%#_#e@h@4@k@R(Y+9{W!M# ]/@8'w,(,m#n=k{'&'*9%g$<%y$D,!>O;N;i#e#y$3#9*%%J%a#C$b$D%3%C;",
"3pV#:%I>G$%&h$';]#N;7@|#_-5>$#}=R)D$d%Q$I$!*}#@>>(i#t)x,1@m@_$q{%#6@c@@#@#F(d@k@T)p@M#N;|@ $$$<'=@1@8=K$i@g#=>'$}#%$K@C%L=b@B@;@g@e@J=!@g#_#&#I@w#U$|#V@Z@^#>#E':& $&#o#I@1@p#!#L$|#I@~#,#u# &C%L=h%*$F#+$&@e@3#}#V#o#m#e#l#~#i@y%t@q#s@M#G_*#u~L@!'M>^*T$k$ ,P#<3I@j-G$s#B>P@/%g~=*1{^%4p]#l$e$9%w(W(g%j$X@P@g$!*}#o#u%^^6'~>(#)@'<PgF#y#p#j${;i@h@^*e#i#K@W>C% ,!#s%9%g# ,_#3#4%F#|#^#t1,#I@s#U#U;o# %~#*$]#=&I$<&j$%%I@C%F#2#s#:%a#g#D%[&}#I@=#L'a#>$>$K@!#s%#%g#3&)@_@n@~@/,}#c%F#P#I$s%m#]#*$s#M_/%/%p%E$&%7'E$e*E$^%K%<%h$I$s%s#|#<%g~-@1*[%$@m{-@f@z@L='#D%!~2#w#F(_#F$D% _A@_#p#{#D%d$B#X@%$`#w$f'W>2#2#U#L$3#}#I@U#[&^*U#V#L=S$v%,#g#@#U#Z@{%e@~#y#g#~#p#g#5%T$S@2#I@2#)$ $;@D%/(J_ -2$$@,,}#s#`#m#I$7//#-@'#>$ , ,!%L=h@!#E${$|#U$/%H;i@i#!#&#2#a'+$i#I$f@B(2#U#_#;$]#T$Q%B#d%+$B# %B#$%.(m#v%8#!@ &U$L$L'U#Z@}#x,k@/(@]<~&#Y>+{+#%]~,o<P'-#f#V$%%-^-#q{=^==8%!#,#=#;@h@d@m#p#]@-@^#m#b@K@^#/#I@X@>#@#f#;@>$;$h#V#7@t@J@_#N@^#<#&#*&;@6#`@P$g#U#>#-$c$d$F'$$H%Q{3&'>T)i%>$e@h@s@M^G@_@b@h@,$_@r,t,9'K,;(j$s#l#%&]#K$;'f@k@*&'#+&b#f%%%L$>*_%G$ &K$!*f0",
"5pL=P%4%OaI$/$l$'&E$+&g#B{W!^#A,'c/%;%v%-%0$E$3/Z/i# )8=9{$#4@|@$@k@Q{Z==>O;8#*$C%j@{%)@.#t@:%_'k~r@-)F%V@8#&#_#'#t< #_#<#Z@%#-@L=f^p#2#X@j@}# ,y#O;'#L$e@p#A(q#>$y%-@A^B#i#n%n#U$L=J%%#m#g%h@9%o#H$H#{%I@x$|#y#a$Z@4@U#F#[&H%'#U#U#%$p@{%w$x=]@Z+T^U,},&'R_w,5,Z,J,>mi,$' ^~^r,4^9-;'-,Z,8=9,:'S, '~,+a}:E,d_i,4-H<[,-^},V,9{1@u>_;V#y$|#~*V#R=/%`#;@|#G''#D%!#5%8#+$,#H%T$i@e#0#_#)$@#'#y#v@s#`#U$*>i@T$I@:&E=Q_I@^#5%B@i%c@m#V#%$-@u#f-Z@O#g#p#H$p#7(*$v#Y$_#w#V#Z@k&u) ][#p^[,6,e=8=4^X,S,('9,J,n,J,;'/,Rd-m^,r,r,),9-~'8-4-4^;'D]E((,',w,m,Z,{,:/`':0-#<&f#A@~%Z@I@h$6$V#k#0#3*{%.;*%+$!#i@!@U;L$,*b#_#]#7'/%s%o#e@C$)$B'<%'#U#+;#%}#_#V$7@j#;$U;U#v% &M@B#9'D%K@2#/%w#K@l@d$a#G#g$2%X;Z^s][#Q)`=!@ ,b#g#>&7@7'e#e@j@N~&#v%*=_#{%K@w#@$U#i@D%>#%>;&1{}#T$T$s#u#V#}#}#V@'#T)U#8%|$V#5%y#Y$;&W>J'{% #B#,#d%2#I@B#&#q#y%e,=>a@o{D;y#l#E{1_b@8,`%u$_#Y$/*B@:,l/W!A,j_]#e@}#B#<#Z@P#N;h@._Z@>#&@}#$$J@v%V#Z@X#c@U;$$V#J'j-5%e$C'V@&#_#%#m$h%&#{#N@|#$$-@f#V#1{X@[&f#($5%k@Z/G#&@ $c@&@h@;@$@c'[#k~6@F/L@/=@^n#z=|<M@N$ %g# $1%;,t@}$j^q<b$E'c%7@ %i#Y$M@a#%%P@8$",
"Z&e$M_a#[&[*7%&#g$!*P@>%p)~#$#5$s%o$&#o$/%:%s#Z^^gf-z=+'v@u~5#3$_@&>b#]@B#+#$$@#w#8#v%^#B@u#w(*'w@[#=^_*_#|$=>/#t@Y@7>w@D@K@v@&#!@}#Z@I$ , ,b#i#&@C$@#D%|#t@`#>$2%L#I@e@B#R(_#$&I@]#m$s@1{i#y%C_|#K@(%]#`#3# %>$V#=# , & %/%u$i@H%L$U;2#j$l(6pc@5#${/@=>g@/@k~3$1@Y@#@h#/(o'*#5#R;Q{m>5#*#*@c--$`{a^o{.@J#g@,]3$W!k@]@}$M^C@T@Q)W$w@;$a#7@U;4@P#>$7(I@j%m#v%1@]#g~ &y%}#w#l#k%f$g#U$]#3#&@=#u'K@7'|@K@i@s#7>h-Z@ &o#'#T$I$!@`;+#&#U$H$3#{_ $@#V#M@K@p#d%D$}#f#;@V#2#l#Z@1bH#{]_$(#3$:$3$c{o'`{h@T@)@3$K#%]$@h#Y+[#Q{M#_$/@Y+k<g@p@)@9{h#[#_$k~h#C)W!K#s];$,#R(5%*%I@y%8#D%y%U#2#}#+$B#E=<%U#S@>#2#K@9%_#l#I@7@v$>#d/y#j$t@D%+&b@K@d$'#m#%%D%}#e@H%i@&#k$J@2#&#L$j$j#m#8%F#{%|#K@$$S@4@I@g#Z@u%#@c#q{X~P@,# ,`#'#E$K@D#E$;@B#&#!@h$ %w#Z@m$V@@#c@5%Z@|#U$m#+;7/&#d@j@w#_#*&+$p#[&<&s@h$7'U#2#4@&@i#^#t@M_N;q#Z@h^K@ ,f@[&c'}=%#o'I]e-O;=#n{q@((r{E>}%S%=#}#o#b]%]{@A,B~ ,&#K@N;c'}#%#w({; &!@C%t@>$I@)>U#m#K@^#&#e@B#5%c@&>&@!#v/|:~#m#.(n#^#b#y#B@+@L={_S;H@i%V@f@%#U#-@h@p#x$c@c@J@ &^#s@6#Y+6(x@c@k~e@k,u,>#])D:5%y$}#P@9%K%%'&#^#f-U#%%>$2#v$g$}#~%}#g$K@<%t]",
"+*!#7p{%E$P@/%G>}#F#K$*%h~J#O;j)Da4*c*=#b$J$Z>$)!@(#-mI,A@-@($6@M#d@d#-@$$>#J'&>i%>#U$!>+$c%g#_'6/c@F,==%%h$p#[&V@A@]#V#=# ,K@p#W!]#!@i@Z@U;h@H% %k'O;6#~#U#,*D$-@g#U;[&_#c%B#m#!#K@*%p#q#Q'y%s#/%I@5%=%m#W>P#9%L=k@e@V#3#}#y#W>`+s#7'l#&@U#8%T@-$$#Q)>@G@>/k9R;/@o']$u~($;#'/[#U]A{F@A{0@#]]@^@P~w@x@`+F@Q),]5@D^($K#o{L@7#~@g@r^s%e@T$&#g#g#s%p#D%v$w#`$e%$%c%p#|#y#!~|#)>g#X#s#P#0#|#^% %.{9'p#d>m#G#U$I$Z@L$b#/%w#X@^*w#I@h-r%y%I@y#h%e$w$]#B#'#U@N~}#7$o#i@G$y%I$F%X~z]g@0@#@k@C@d-f^Z^^@)@2@Z+o'*#o{J{Z+m)m@)@`+R;9{2$a@`+Q){]A{2$*{2@^@_$8p9{g@C=#=V#Y@0#$%v%I$x$_#B#g~v%J@g$^*P#'#w$J'N%g$U;U#3&I@s#I$w#K@|#-@i#{%m$D%T$u$h@p#d*L$7'>$c%|#)$E$T$&#P#,*B#>#2#/%K@*&M@s#i# &N@Y$}#R>/%h@n)*#$@[)B@:%'#w#R=g#~#d$B#!>>$I@_#3#X@C%j-c$i#@#~&^#&#>#K@g~[&K@.#=#!#g#E$i@ ,h@I$y%q#W>/%(%I@B#]#F$2#y#q#f#g#t@J@~#m#i#w%K@I]%>n@,]y<p#p#l~->c@7,F$i#D$x$E's#/,F'q#F,]<Y$1*i@D%t@;$!@.$L'k>f@7'6$-@K@-#V%$$q#k@ ,7/e@4@m#*$!@J0t@^#{;@#t@*$I;i@E$f#x#'#!@D%e@c@j-3&V$u>Z+p#E$w#^#J@&@h@U#b@q@M^&@u>c@Z+u#s^:'h@t,'ls<F#';*&j%X;I,U]O;q#;$I@/%,*+&'&.;r$P#[>e_d>+~",
"pbg#s#k$#=j%7$g$'*u$1&&#U{@#M#B{yb!*l$P%E$T$`#T{7#_@6'{'2$5><#^#c@h@_$u>_#J@2#m#g%$#;@,#@#Z@/%g,1@$#%-L_<#V#{%w#T)_#y#^#O#&# $o#9%!@=#h@b#,#$#i@b#h-K@(%e@C%!@e@}#$$o#h$p%K;'&g#'#F#t@V#=#_#f@|#3#1*J@5%_#h@|%+>{%`#f@&@K@K@**w#S%;@o#l#I@l#_#NoG^u,;)--l{}-8-h=>^*-t,x,/'7-[-2)u=5-w=:#.-h=c:'-c=k,[-[,@)*-R,)-R,.-l=%-+-]@z@z@G,f^B@{$!@V#!#<% ,e@|#%$$$L$[&9%_#d>h$5%2#i@T$K@}#7(i@5%5%`#V@_#~&C%I@v$0'3*$:T$m#f#v%2#&@_#-#y%I@U;t@g#d%T$B#c%}#7@}#:*<*f>e@'#8# %E'+$''$@h#{:i=*-c=n=z==^7-n,K,n,c)%ch=0)%-0)G)c)Q;4-k,c)k,+)3-y)>^E]9p]^Y,u=&>Q{;@R,&@)$7'U#D%]#}#;$|#I$5%I@g~w~&#U$S@I@3#w#h$;&W>A@%$G#e@!#;$y#=#!#}# %c$d@J@U${%&#a#Z@K@g%>_B#A@w#o#v%w#p#w$U$'#}#w@c@B#g$0#e%D%K@g#A>s_6/=@*@S$_#^%%>/% ,V#i#j-L@|#}#I${%.{s#m$v/2#}#I@>#M_&#I@{%!@$$B#F#e@_@K@O;.;,*i#Y+y#w~j'*$-@m#B#E$]#b#e@s#B#d>># %g$m_*$@#i@Q;n@c{r@~bw#w$P^8#A(!^j_q<0#V#Q'@#m,;@[#^@F;V#_#e#m#%#^#&@ &{%/@y%O;K@;$@#5%U#a'v@K@=>$$$$^#V@j$Q'7'h#^%h@ ,6%e@W>*$K@8#+$J@n#x@S@G#_#=#~#c@V#4#[#F#=#@$7'O'6(s@'>c@c'l@%#U;^#I,t9V%4,4'l$h$&#l$H%x%k,A@c@^#Q$ %w$W$f-2#'#/%Y$+&**+&o,",
"Kc0#/%4%L$%%L$H%>&i@=&!#C]u~J#o)!*p#I@7%%%T$'}C=t@.#]a_,[#Y+~@J@G@w#x{L;H#w@>@6%$$i#O;5%D%g#d%k[0p1@/=Y$s#Z@e$5%6ds#y#G$m$|# %^#>#|#y'$$W>|#O;S$!@->m#K@p#c@|#_#i#-#~#/#n#3#l#{;#$8#'#=#_#$$I(c% ,C%&#C%5%I@]#m#V#B#!#e#$$f@O#q# ,!@i#s#x$w#J@T$0@ap'0R!bpF! +'!8+cpR!d!n+ c>.F+&!a 6.dpF+L.Mbep(+t:L+g!fpSbd gpP-JmHm^+hp})n@b@~@k,Ta&#!*V@>&b$^%;$J;S% $b$S#/%@#g-_#b#V$H%y%%&U#[&5%=#L=s#w#v%<&B#e$@$m#i#w#}#_#h$C$e$-@2#J@|#V#h%j#%$.#y#3#2#d*:%f#Q'w$5%_@w#K@c'r%@^)@K#`+g#ip{ =!2.a!Nb'!<.dpjpNb7 s+y;i 2+kp$clpI mpCbf npGma!f!y+opl.Y )!$@Q@#@%@~,`;+>x$$$ ,g#_#%>~#_%R(#$h@e@E$$%i#_#=#b#p# %;@!#o#I@I@ $w#5%e#!#m#y%e@w#w#/%!@#$y%>$/#g$'#K@]#~#Q'i#o#}#B#F$V@B@B#t@i@s#e$9'&#Y%y{8)F@k@*-J<g#}#i#B#U#x#d%&#%$!@7'i#|#&#Z@m#3#5%U#I@%$o#M@^#{%!#B#D%K@ $U#$$U;|#m#8%5%@$b#{$5%e@t@b#W>A@7@4#g$;$)$,#>$L=&#&# %'>A'B]*# ]&(b#&#F@Z@|@k,E$H%!#b#6#&>;,]@W^')+&&%V#5%{*&@x$Z(e@V@&@f#N;B#@#_#F'i@[&;@-@X#;@Z+&@o#}#K#p#h@z]Y$w# &>$ &U;t@B#A@T$B#%>Z@B#M#%>.#$%-@&#->t@e@c@J']@-@[#_@+#w@;@(#B]J@x,c=w#S>I>x$`#p#x$T%O$5'0'm#k>2#I@Z(0$g#f%y%w$d%^%!%W$Q,",
"h*$[|#e$!*i#[*d%E$/%=#o#F{[#-$3=f%>&K$=#K$j$U#@>u><#Y'S,/@M#g@;@^#Z@o#1@O'h#_@I@f@W!-$2#$$e@T$W,k@1@3^X<m#W>9%U#x$;@~#w#L$0#l#b#!@Z@1@&#]#Z@U$8#G$s#G#~#B#c%S@I$=%8#)#(%V#K@|@e@^#V$3#7@&#K@V#_#Z@I$p%P$e@c$!~ &F#C%B#I@d@i#3#-@|@U#$#Y$o#4@[&D$i#j-d>[#V@!@]#Y+i#0'8#~#7@s#G#'#e@t@@#f@u>h#Q'l#k@L'w# #e@/%1*p#J@*%'#Y@C@u&g)(>(;}~L'V@V@~*r%3#}#a#/%b#B@h@Q$K@+;T$l#f#%#m#~#{#2# %W(t@U$}#g#1_F#b$U$d$s#I@+;I@2#}#N;]#S@w#,*&#r%m#J%/%h%%#I${%w~~*8*M@a#.;y#l#G#w%v{^>w0*#A,ppB#_#W>q(f#_#E=G#J@*$i%h_@#M^d@5%6@!@h@U#1@m#Z@D%i#'>x@J'j$->L$X@T'^))@-$I,*$@#s#|#9'$$e@A@*$|#/%&#h_K%e@O#f@I$i@c''#f@L$b$B#!~y#R(w#;$W>t$%#y%F#$%k@L$S%w#I$M@^*B#^%g~t@{%V#y%V#|#7@>$~*_#S@D%U;K@&@&#g#x~9,F@%]G@)$N~P#s#:%U$^#!#;&'#K@|#&#F#q#%#7#_#U$K@4@e@J@m_@#!@^#!#&#U;I@C%H%F#!@>&T$ &I$f@J'>$`>U#0'I@J@F$c%a'*&x$!>f#2#>#b$J'*$D@#>f^Y@'',{2#B#o)_@d@v)s#S%:%g%$$c%[,B#-$L,G=L$G#~#H#>#e@-@W!A@4@_#K@8#w@F#>#=#t@|@Z@i@i#Z@m#i%*$v@g#`#x$f@b@e@8#m#A@'#|@7/Z(B#u#h@h@q#w#H#i#'#{%4@M#B@x@S@t@h@t@h@m@p@%#$#*@f#n,2,i@--1~h%!*L$L$W$/%$]_#_$~#B@w$Y$y$+;a#+;b$,*u$s#{~'-",
"+lU;)*^*F$l#U$=&w$S%O%!##)_#(#6)B%_%e#H%H%]%2(5$t@4@V,>^Y+-/Z{+#%#@#m@&@1@U#|#6#W!_#_#M#^#%#L$o,_$5(z=H$U@V@d$J@0';@i#6#>$'#*;i%h%F#|#B#_@>$6%e@S;+;E$&#t@q#U#+$V@i@I@I@g#c'V@w$p#g#;@x$&@R#k@$%-@$$h$b#{%L$w$3&^#y%/#v$w$-@'#E=m$d%-@$$}# &f@r$T)|#e@T$ ,i##$W%g#!@K@2#{$i@_* #|#U#E$i#*$p#s#C%U#T$p#|#_#B@j$K@|#{%B#r$!#[#]#1@ ]Z+},j%j$_# ,7%b#h$s#c%U#w#!@<%c$7@h$s# &+$[&D%l#w#c%G#&@W>*&i@ &|#!#K@`$~*t<V#L$_#h$0#3&S%}#U# %E$~#>#q#v%v$Z@i#v$h$<# &,#{%-@z]*$Y([#a@z@Ybc#H%:%=& &;$>$g%w#=#{%&#7>J@I@j%]#|#L$T$;$;$#$B#w#H%g#F#]#I@h@5%i@w@Y=k~z@x@o:/%j$/;U#i@9*i@i@i@&#x$e@ ,-@!@d$|#D%g#i@U#n#U;F#{%%>e@9'~#D#2#`#w#J@+;C%m#e$o#L$D%B#V#~%l#m#5%K@:%m#5%b#,#c%e#}{{#@#!~V#.%w(F,($q{{]B{k&=>x#^*+$/%U#+%U# %I@S@W>d>%${%t>I$>$+$~#T)<#o#Z@g#C%p#y#%$+$^#s#c%8#I$V#:&V@E$I@w@~*~#M_L;K@-@@#I$J'1@ %L=9% ,<#k$U#Q'j)o's@<)g&E$u$){L@_$9)f%R(0#l#c'!#G,1@Q)6-F%7'w#g#>$>$3#=#_@/%!@A@!>!@d@2#;@x#H;@#J@U#t@7@q#*${$V@@#-@I@2# %q#f@g#;@q]L=V$C%!@Z@`#1*I;c'8#2#+>V@[(_#f@i@.#!><@A@@#u>|@g@8@a@)#,,;'s@F,*0K$s#^%v%T$5*d, &@#v$}>1{e$E$}#v%0$>$|#D$T$D$  ",
"qp_#]#7$7%w$f*M@+&3*!@V$I,c@q@z{;;j%b$l$p#v$&#z{d@&@e=i)'>z@h@*@x@c@[$a@t@y'B]L'N@[&q#B'%#|@u$='T#n@8=B;K@r%%#|#!@/*(%~#p%>#-@_@e@j$9' %g$w#D%m#1*V@ %i@s#7@d%L=0#w#E$V#*;U#*$|#^#4@I@e@B#L$V@!#+%]#V@(3|#6@E'y#g#w@i#B#p#J'|#I@ &I$}#f#L$K@g$'#c%<& &|#B#S%4@m#L$F'p#j$`@/%.#V#{%g%|#U#;>_#m#l#x$+$j$A@4#Z@&#'#!@%%y%D%&#.(&br@$@*#u^P{E$g%T$3&5%M$h$g#N@e*g$-@C%=#G$m$&#e@e@1*d*g#>#|#@#s#7@y'5%0#w#C%+${#a#B#|#I@ $_#s# $E$V#m#B@P#e@l#g#h$$%y%g%^*i@b$t@s#s#|*n{O]z@Q{9c2#7@9'Y$I$g#I@_#&#S@I$L$I$E$I@I@p#&#I@q#e#|#t@,*J@u<%%D%`#V@p#K@J=K@x$g&;,b@9#;'|@S@v%X%K@w#^*f'`#G$i#X%$#w#!@'#J@!*i@a$7' &Y$b$I$U#D%v#;@;@`@f#1*e@V@v%0#V#C%M@'#d$^#w%p#K@e$g#-@w%J@-@'#K@|#_;N%{%j-,#a#*$s_0@`+b@p$-$$%e@e@&#n#~#,%!@i@|#!#_#o#Z@e@c@ ,m#&#f@8%^%b# ,!>/%=>H%_#-@V@p#i@@_J@i#j$K@+$^#~&%$!~x#}#E$m#,_e@y%-@|# %_#-@[&U#A@>&V,]@T^''V/K@{%e=n@q@H)X=N;q(C#|#!~5^Z+o'x,k{d%o#!@>$U#A@_@V@0#g#U#A@&#,#e@`#J@}$&#(#>$^#h@^#w#e@}#U${$U#Y/t@K@k'@#i@C~d/U#L$2#&@f-1@q#i@@#i@p#^%+$A@A@z]4@N;v#L;s@f@$$(#n@Y+{$m~l=U$S,d[p%P#P#g$]%b$A]c{7#p#m#]#l#Q'R=!#Y$o#]#'#T$e$8$",
"Q/7@B@E='&/%!#j%*%!%s%k'o{(#)#y{F[|#`#F$g$~&]#@>]{l#V,-^*#a@h# ]i#/@@#6_k@+#x@c@6#b@@#c@q#7'N;C;(;($s~&0F#K@f^3#-@[&I@,#m#b@s#~#`#{#>$H@*$>_|#~#0'3#|#b#;$ ,.#e@+>@#D%s#7@6#&#h$5%Z+Z@e@V#j#A_'#V@U#$#b#2#{%m#<&m#i@&#c$|@j#d@&#K@E$p#G#+$L=`@e@S$=>H;.{3#v%~#U#}>V#f#4@n#i#_#e@V#{$2#&#5% %-@e@0#m# &G#i#I@B#T$j$p#o#o#K@H;B#a%0@Q(N/9-a#g#t@+>f#L$[&s#F#p#M_2#=#<&c@L$F#%&2#g#U$ #,#g#r%2#{;D%S;M@}#I$d$[&g#L$V# ,I@D%g#r%Y@f@m#o#=#i@]#H%m#!#s#c$n%P'g%<%}'P#!#9-m@f^x=-=rpH%u#3#F#f#k$8%U$K@e@&#/#U;@#k$9'{$P#g~J@}#K@s%*;%$g$e@3&$$E$j$e$d%i#w#>a ]@>l@,,D#U#U#m$q#E$5%b'W%`}L$b#M@F#D@V#}#p#S%K@F#y#{%&#V#w#%$9%W>!@X@L=U;|#y%Z@V#}#e@k$'#k$3#3#w#j%l#g#'#7(&#2#!#u$i@4@2#e@'#2%R]E{:$`+k)X(3&2#x#d@h@p@^*}#|#%>!@;$c%F#$%@#t@*&.$|#m#U#l$J#d% $1*i@5%F#*&U$a#t@P#[&4@g#!#Z@_#i%@$%#m#U;U;w@:%U#2# ,K@w$h$F#H%f#w#0_f,_$g@n,>;a#*%+{[#h^ )_*-@ ,m#|#!#,, #$#8=sp.# &Z+I'A#f#(%6#Z@I(K@,*J@l#.#%>B#|#^#_@b${%7/y%+bY+U$p#^#@#V@g#%#N;I@%#V@eb_#V@&@+#,#1@{#q#Z@&>_#f#l#w#h>Y+e@k@O;!@H@Q)-@k~s@/@_@@^:'%#0=H%K$]%}#w$E$[%2,6@F/{$_%%%)&]#l$]%h%f$H%/%l$4~j,",
">{I$u$~%b$v$>&9%4%g#V#0$W~e@x@Z^B~]#h$I@9*~&)*%,M##_{^P]c-N#Y+W!*#_$_@*{%#C%^#>$*$|@t@O;F#C_M_|,W!#]c=y$J@tp;>}#<&w#Y+&#K;a#1*l#|@g#-@I@e@W>V@_#U$-@!@U#;@Y$.;$#2#m#u$&@I@,#h@o#3#-@&#`#/#-@^%!#U#t$*$'#_#|#$%{;i#%$c'|$z[f#i@x(1@M@-@w#=&g#c@y%S@n#m$.;{%9%u>m#=#!#8#b$_#y#f# %p#B#v%}#]#e@K@b#t1Y$T$3%}#%$ $D%f#I@s#V@I@I@%>c~_3_$*{9{L,H%Z@h$S%:%x#U#j$+$u#~#*$j#!#^#>#l#$$>&+;V#3&b#*$w$1{;$3&y%V#^^^*7@.@u$E$B#+;K@L$b#K@^#{%_#,*k@S@3#~#a'@#e@I@!#/%l#'#(&uph>)#N@H$g@b#s#I@L=`#t$g%W>*$a#s#>$8#2#e@U#H%7$g@5%i#m$&@i@&#!~9%^#]#c%e@g#I@Z@K@O;K@y]<@:/]]h@b#s#F#Z@p_!~D%g# ,w#4@O#Z@v%.;x@`#p#Z@-@+$V#;$!#$#~*S#g%i#p#w#i@3&L$t@|#;$'#&#7@E$E$F'0#!#w#Z@>$V#m#w#E$s#g#I@b$g#Q_G#~,i/x@^)i*[#V#a#m#m#S%T$Y+Y$[&@#A@w@r%~#v%h$U#g%Z@i%7@s#i@ %i@D@H@~#I@w#m#L=j#*$!#B# &Y@ %F#D@>#I@|#{%}#>$&#C%V#'#B@|#i@F#=%7@,#g#->+]2$5(&)Q%.;T$J,a@_@I]0%l#{%3#P#z%Y(=>p@s~>%[&e@x#L= &Y@,*e@U#e@e@@#D%|#^#m#$@ ]^*j@|#J@c'&# $T)U#4@e@J@f@i@i@6@0'%$&@J#p#_#h@ %O;7@b@-@s#*$[#9'X@1@Y+/@e@w#$#Z@O#B#D@|@$#h@%#_,',q#l,f%t>w$}%[>=%7$n=O;_@3#E$e$u$0#M@|#;$2#Y$o#[*f%_j",
"vp'#I@p#j$M@3%E$O%i@e#e$W~B(Z/N{=_L=s%L$,%=%9%C)~#!@G,@^;#f^$@n@u~&@_@ &%#$#d@&@h#q#e@e@h@I$s%='=>h#i);%_#G@+$$$e@B#4#2#y#U#%${;f@*$W@L$c%*;^#5%g#L$n#J@5%>&'#j$f{o#>#&# %E$)9t@m@|#w@&# ,c%i#I@S@[&o#_#>&{#|#U#d%7>^%J@g#}#c$r%V#)>{$h-i@>$;>f@ &U#>$&#&#P#g# $b#L$n%i#e@:%B# %$$L=0']#{;U;I$w#Z@3%4%_#4@s#V#K@h$b$8#}#}#V$S;J#r&#{=@x@_,'#N%c@K@_#e@,# &n#e$+>7'f{s%s#g#b#3#>#p#7'h@Z@t$U#%$e@c'/%-@f'R$W>*&B#T$e#w#y%I@e@}#|#U$5%s#h$i@|#}#f-O;@#f#i@h%,#h-B']'k@b@}=Z&y%0#Y$K@ $>$Z@w#|#-@-@/&g$w#%$-@%#=#,*v$1@L$|#4%B#!#B@.;_#l#{%C%g%m#g$0#i#_#wp~{z{x@^,g%!@q#C$I@Pcm$L$_#j$!#'#w#3#%>Y$&#K@m#|# $g#i#I@3*<%S%|#B#J@l#>(i@!@}#j#S;U#T$y#X@_%s%B#B#g%V@u#M@7@I@P#e$.;B#'&#$/%H<o'3$5#9@fai#I@v$!#P#d@c'y#i@O#h$+#0#w#B#_#1*#$=#!~R=^%s#4@H#g%I@'#h$T$7@&@5%}#U#+$'#5%0#;$->a#K@s#J@Z@n#@_M@>$U#>#j$c%g#k$@#h%x#%% ):${]#@i>b@q#v$~'$@b{l)`#a#3&+>&#L$9,4#a@v^W=]#{#-@i@;$J@+;/*I(1*'#i#m#i@I;|#@#6#7'S%f@A@:&O;L=$$f#@#L@$#>#+$w#_#M%;@J@I$O;1@h@>#V@h@=#X@s@/@t@}#(#_#$#;@x@*$B#B#w@b@N@@@|@-/>#E]~,3#8=c>V#j%9%^*U$1%,,3#J@-#~#>*k$j$K@L$w$p#=&}#B@!*'-",
"xpd>7@g$=&v%~%d%!*7$%&#%P]t@s@$]q$[%k'l#M@l$V$X'O;q#k,}:j/*@Y+9{/@M#->3$~>-$A@u>O;F/d#,*[#[&=#yp2/9{5,B~y#U#h${;i#c@$$3#e@{#o#|#B#y'T$K@c$4#]#l#>#2#Z@c%>@V@@#5%i@7@V#&#V@}#u>U#.{|#>$U#*;&#E$ &k'L$!>e@-@q#g#&#C%-@b#U#U##{}#-#h$q(o#q#:&e@_#K@1*/;X#V#T$8%$$ %K@F#K@}#}#f# %U;l#e@l$g$T$i#o#Z@B#E$f#+>}#c@]#b#w$t@g#T$.{w$G$2#v/i#{]_$u~:e[& &c$g#k$V@T)D%~*I${%w~k$D%i@ ,L= &9%f@V#0$ %}#B@w#&@M_K;_#H#9%U#&@O;%#G$w$_#~#7@.;c${%C'0>v%B@s#i@3#U;}#>*2#w#{%('(>$#/@RaE~l#L$d*+$t>|#0#$%y#V#p#e@;@$%6#P#U#'#$#!@l#,#I$s(7'S;Z@M_'#e@i#g#,#6*i@r$R#/#J@>$z@R;C=I]c%K@V#a#%$e@i#h$t#T$V#!#;$!#&#U#;$7@{;$$D%s#T$l#/%>$9%|#Z@S@B#=#|#&#}#*$_#o#%$_#G#@#v%V@I@B#=#K%P#S@j$4%!#u%$$i@N/,aw{N@n)zpm#l$B#}#K@3#E=y#@$s#P#b*&#U#e@]@I@I@L$p%V@k>1{L$/%g$i#n$$$&#*$t%S@U#B#=# &m$2#d%q#$%(#t@m#&#y#^#w#7# ,D>g#E$w@w#U$T$m_U$]@~,L/z{T@ua,#L$.#}=h#-$M%`+P#g~e@_#~*k:_@ ]_-n>^%S@w$V%)@U#(@{;|#G#_#e@'#p@!@8#V#_#c'>#^#c@+$>$(%_#i@V#&@j$q#o#@#k@$#%#+;6@'#U#(%J@B#*${#Z@,#N@c'$$;@J%g~4@A@'@*$_@c@_@x@1@(#1#O;l,),f@<,[*h%u$|#'*D%P=;,h#O#H@g#q#r$ %s#2#E$>$i#h-h$4'_'",
"Ap $w$r$b$H%|#g$/%s%}#<%6'w@&>r=[>~~J'y$h$7@E$o)*$O;]'d,g@M#A@3&c@^#@#K~^#'>$#J@f^!@'>+$k@B#D$u,i/3$^,U=u#q#g#i@>#$#4_c@f#i#m#Z@_#e%U#t@e@%$U#E'A@}#m#U7V#2#5%_#U#}#U#_#&@*&[&|#V$i@q(;$!]I@l#I$ &0#(#2#l#e@,*C'>#m# ,l#y',*e#a'I@c%&#Z@2#K@_#i%W><%Q'P#&#m#E$=#0#c%%>p%`#&#5%2#2#Y$e*J@V#,*i@D%F#,%%%'#{%<&&#r%}#H$5%e@o#>#%>[*g#M&}=@>%]3=$(M#H%!#&@|#y%i#j#U#v%/%X#-@~%I$!@&#n#s#t%-@I@i#Q%1{x$V#;$K@V$|#2#e%'#f@&#2#g#*$^*J@h$;$l#*$@#u$U;V$x$^^d~$%v%+>9{$]W]/@])d^k#h@d@h$w$K@/%=#|#s#B@I^J'K@^%c$K@S@h$;$`@s#*&]#w$[&g$B#V#=#s#h%}#'#~#I$d*`$s#U#P>6)/@$@',6%Z@&#}#L;_@D$=%8%;@C%E$h# $f@e#C__#i#f@[%h%e$l#H%V$s#U#F#_#.;F#;$,*C$c$E$2#!#t@]#K@C$6@s#c@>&0#5%S$%$w$j^V#J=b$-^h>=@A@L=~#c%C%'#|#7@Z@%$p#i%w#;$~#3#f#d*Y$=#2#%>>$i@v$U;f#&$B#H@c#_#!#y#T${%K@ ,;$-@~#=>e*j$>#b@&#v%5%t@a$Z@7'i@_#*$'#U#e@D${%9%E${'n)l@l@K#q_f#:%V,E#l@{@edJ'm#$#-#J@|#-'!$A@]-P@s#+;>&n#!>.#B#T$.{ ,Z@W@^%}#.#}#y#T)f@$#C#-@-@_#$#g_5%Y+3#L$f#5%!@P$@#|@_@I$s#|@C%3#.;Y+;$J@#@g_^#I@V@0#k@i@_#U#4@|@[#$#[#z@c@)#&@V,d=V@8=!{B;o#j%i#p#[%q,&#p@&#!#1c{#d$T$1%o$ %5%D$!~f%y,",
"m*#$N$p#]#p#j$_;w$]#g#l#<)(#q{9)>;a#b$I@*&%%1%l)*$I;I,t,,]_$u~9{)#_$O'%#!@$#N'K@^#j@d@t@K@f#x$5,h@Y+<=-%Z@{%w#w#T$)$-@[&o#L=%#f#T$|#*$g#!@I@V@A^E$+$x$v@U#q#C%-@o#k'O#@#s#!#D$5%!#p#Z@|#`#|#i#y#S@9%!@V#i#v$F#K@%*-@w@sb7@B#p%g*F#U#8#m#|#I@}#!#+$ %w#@#v%y#G#7@x@m#,*g#g{t@V#7@T$w#J@c%L=&@u#7@f#`#I@5%I@J@]#4@@$I@=#c$S%}#&#3#,#1@#~*#)@$@-'Ia@#L#S;v$i@w#L$W>y#7'e%b#{$p#@#y%W>!#U#;$!#i_V#,#h$!@J@`#f#V#`#r% $E$l#m# %%$-@ ,K@-@w#s#c$U#M@7@;@Q'X@,#;$M@~'g@_@~@Bp=@I$V@s#%#|#u#~#a$ &f#!@}#f@a#=#*$e@$%o#!#f#3#v%U#p#_#B#F_+;|#7@'#q#q#0#i@%>*&&#i@L'b[u~`+k~e,<bd%{%&#|#W!D%B#s#$@Z@c%3&(#`# ,i#m#'#;@}#_%t@9#&#u#l#e@V#s%b$p#h-D%3&h-f#k@q#S%b#E'e#p#U$9*{$T$i#=#=%/%>#g#n)k]z@|@:-Y*$%k>i#J@g%'#2#&#i@ &3#3&U#e#&# ,h$c$e$ &!#T$I$e@S@j#^#<#3#^*&# ,P#K@$$!#9%&#d$=>'#d$ %D$W>*$D%_#t@w#]#$%V#E$B#&#D%!@H@g#d-I)_@6@~) =B#L$C=M{h@_@-'L&2#@#y#H={;+,D{F@ #K]W>k$5#Z@y# &V@@#|#s@L'y%;@{$a#v@I(;@>$Z@>#c@4#U;m#!@+$i@c'e@`@h#^#L=;@!@&#|#_@j^E'|@Z@Y+|@L'_#W@X@U#*$L; ,~#^#5(c@D@'>v@$#=>5>$@8#w#w,'^e@t,K$C%'&T$e$E$d>y>f@<#k@x(e$f$%%]#l#&#I@T$5%F$H$o,",
"#<4~+;y#7%!;p#g#>&e$f$0$s~f#># )(~e$s%c%]#]%d%R;!>L'n=8-<@o]2$%>L^(;6#c@U#=>|#9'O;&#4@6#x$@#|#g,u~K#I,m-3#W!U;m#c$%#5%I@@#8#_@>#q#}#~#f#K@&@C~w~M@W>m#U#4#&@U;v%F#E=w#j$6@9'3&m#V#;@h%_#8#s#n#f@g#i@ ,[&H#Z@U#t<i@K@<#X@V#p_}#;@l#_#{;h%6#3#!@[&l# %8%,#sli@h@L=T$_#%#w#i@m#*$L$I@0#$${%'#&#<#N%p9s#c@.@h$l#s#;$k$!#7@I@[*3#*$A@D$I$B%M{.)'/w{r@r%U;w#k'0'_#&#'>!@|#e%G#a#d$^*e@!#&@u$,*@# %,#t@ $V#-@L$L$U$>#|#-@S@,#U#>&I@o#1{9%P#V%<&|#s#2#N;3&y%,#^#l#C{K{g@9{U$J)I@v/;$y%V#w#l$~#d#L$E$b$!@&#&@c$L$Q$!@h$f#h@Z@5% %=#m#K@f@_#g#y#U#K@3#s#>$Y$L$d$0$ ,;%p)6#g@H,1{*$*%p#U#c%&#a#E$U;/#v$b$y#i@F#r%N;!#U#-@f@Z@q<D@`#!~ ,,*I@{;T$h$.;5%g#L$L=!#C%a#&#I@'#m#i#D%5%i# &P@~#b$g#<,;#8@d-J_%]w#U#s#a#j$b#f@;@'#p#k$w#'#e@l$f@i@5%p#Z+v$*$J@U#;$B#[&!@J@+#=#U;e@ ${%D@Q'L$l#m#s#U#;$n#o#D%->0#3%p@%#]#x$!#_#M@s#@#!#I#-,e0$@9=Cp60p/U#9,p@Y@b@G:T@;$ ,c%-@J@`+9{1@%#g@V#w#l#I@V%_#o#5%'>>#q]_#i#f#I@&@I@^#A@r%t@*$A@#$}#3#9{{;J@@#h@=#m#!>@#V@$$5%O; &n#&@8#I@&#v/S@q#9'j#8#_#>#q#=@x@|@i%A@!@z@k@N@K#s@;@~^2,S@R,Ga5%#$L$E$V#+&,,t@L'4%<#;$!#p#j%+>#%o$h%}'c%Y%p~",
"Ff&#g$]% %I$i%l#%%E$e$v$8,6%f^9)Z;b$T$0$E$g-!#j)6#:/;'Cl`+)@(;k@q#m@k@d/6#;@g@L;+$c@c@&#&@>#0'4-${x@0=4~i@$$w@J@'#^%@#M#W%a#&@E$=#s#V#_#_#C$m#w#m#r%i#y#h$!#[&2#9%`@e@0#G#7@&#Q%^%3#J@+/|#E=i#C$|#y%s#&@}#4%_#$${(c$&#&#,#;@I@T$Y+(#U#g#k'7%p#h$,#h@T$3#d@K@{&d@}#m#w@g%o#_@P#w@b#I@w#=#'#o#U;h$$$ ,]#E$-@b#0#w#T$=#i@,*_#7@V#%&f@e@&@7c0~x@l@~'Dps#B#T$}#v@7's#b@m#b@a'@#L$J@;$1{3#&%[&|#k@,#!#7@s#I@;@K@+#|#/%I@a#.#{%=#D%B#U;'#`#&#=*00,#!#3#0#|#5%j#=#[,h@'/I{S&3&_#V@l#<&/%:%l#D%@#F#n#K@Z@3#Z@>#)$$$%%B#=#]#H;B#y#g#P#}#!@v%^*.;b#;@I$I@ &y#v%F#{%&$t@K$%,%#P~(,J=;@T$X@e@,#'#h$L$'#!@]#%>m$T$W%/#|#g%e@%#D#>$e@%>@$I@v%;@L$u%&#9*P#g#I;J@w$ ,3&'#^*3#;@i#I@-@U#G$j$`#7@6~ )Y+0'B)G^F$=#h-;@9'3%%#m#2%j#'#_@U$h$@#t@}#t@i@e@b$}#]#.;}#8%U#q9,*3&S%A@c%H@d@g$B#Q'J;->a# &_#}#e@_#=>_# #I;j#|#l#h@_#.;h@i#y#^#t,i8_@*)Ep0)0#k_-,%]f^%#r'@%I@^*{%w#i#F#),:/x@8@#=T@f-!@B#3#J@N@N~,#e@d@%>-@F';@!@W!^#g#f@|#!@+$y#b@V@%#@#'#B]i@U;L=}#>$d@l@B#(%Z@J@q#4#f@U#x#^#U#W>O;t@J@_#i@v/Y+.(K@6#b@t@x@B'!@A@u>''3,t@*-O$g$/%!#g#]#[*k]c'*#9{M@e$h-d*>&w$C$6>~%+/g%d(='",
"p&4*^]K@k$I$%%y#y%0$!#d%'^Y+A@s~X=S%V#c%h-=&F$.)-@L'{^l{3/f)$@1@^#2$O'A(;@t@A@T)N;%#p@,#S%9'U$T,:/C@,,7$+$L=K@*$c@/@&#80~>3&^#|#V@^#_#,#H@l#X#_#K@;$D%Z@|#P# %j$n#D%@#b#]#S@(%E$k'2#I$'#5%_#f@/%w#:%!#$$f#I@'#I$]#.{K;H%T$b$o#&@$$;$3#T$/;y#f#i#|#B#h%b$B#[&i#2#+$%>q#L$}#t@K@g#o#)9N%o#s#t@0#.;!@Z@_#c%!]^%~%<# $l#l#N%;$&#H%&#Q'v@b$,#q#$#u~G@/,v%H#b$&#>#%%U#V#y#i#l(5% $s#[%!#>$c':%K@i@U#%>u$Q_ ,I@e$3&2#2#|#Z@i%h$J@W! &*%Q's#c%%$L$}#x#L=y#0#k'80,aT@~@@>d0#{*$,*g$V#q<p#L${#$$I@-@b#m#s#j%b#,#'#3#K@;$K@ &w#l#-@ %U#w#U#k#J=2#g%B#d@f#B#C%f#I@b$K@Z@J$})Q{h#o{Y+$$P#2_^#H#K@&# ,!#l#e@v$.;7@&#%$i#V#P#e@L$c'g$2#o#i#S@b#$$y#*&U;p#U;>$g$f#M_t@V#/%n#^%U#f#!#N<f>I@x$i[5^Q)x@n)Fph@e@k';&r%%>r%k@l#}# &l#7'c%G#f#l@@#E'i#I@+$6@e@ &9*m#g#}#%#2#I$@# ,I@0'{%$#v%i#%#(%j$J@U$$# %i%&#'#w@[&o#w#!@N%7@&@y$k~)'l(6#A=Md5#P#L=k,P~Y+w@#)Y*h#>$t<~&P$n#8afkq@h@${R:d@V#U#*$w@>$>$h%R# ,K@M@c%$#f@h@T)f#h$m#O;8#W!I@e@s#t@}#J#I@!#=#H;-$[&}#I@w#$#.@&#g#c'%#_@-$+$Z@!@w#!@s#X@$#U#[&!>-@}#&>g@6@z]$@[#Y+,,3,o#k,a%*%g#V#o${#l%;,$$Y+i' &S%g%=#T$]#*%-%W$n%W'S%Gp",
"Hp0$o#%%T$N$w#d%<%s#v$]*r=O;h@v{b$!#T%*&f#H=p#@>x(&@I,!^1_9{b@c@(#%@!@=>~#T)L@&@f@s@S@q#A@m#o#Y(Y+h#,,>%V#8#K@U#6%D@&@t@u#6$w@$%q#d$A@D%T$_#g#0$!>u#+;V@2#m@A@*$B#k@e@>#i#e@}#1{ ,a#U$6@/%J'S@h%!#s#U#_#P#e#@{+[S@E$_#7'.;e@F_|#D%I${%B#U; %t@f@i#I$L;H#P#i%,*+>Q%V#.;8#X+I@J@}#{%_#}#g# ,*$y%3#I@f#E'h-s#u$|#!#c%7@;$p@l#D@y%&#-@D$m#;$x*p{g@)@8=^#w$%>*$&#~#'&<%T)K@0#*>7@L=-@7>j$F#i#L'c%g#D%7@S@0>+$Y$&#g~j$'#c%p#P#T$T$I@-@c% $!#T$ $h$m#e@k@S%a#5>;'h@_@k)Ip]#!%I;;$>#t<<3$$:%i#%$B#h@<%p#p#i@ $9#$&w#]#g#4%g$e@n%|#a#W>3&5%L$&#L=x$*;9%e@F#g#S$I@>$U#8%p*g>g@($2,k$s#Y@p@j$G#;@:_k''$T$V#p#K@>$;$!@m#.$i@f-%%}#V#1@2#m#T$/%V@S%h$y%|#`#Z@D$|#s#B@!@^%c'i@`#<%U0U;e@l$-^;#=@g@Jps( &1&v@{%g%X@J@p#H@K@|#V#f@o#K@:%>$-#V@K@7(o#K@_#}#0#}$~#3#T$W>I$a#7(*$V$>$I$7@t@<#o$5%t@D@B#4@m#f#_#w#M=_# %%$2#%$_#x@t9T@W!v^[0lg$$T$@'Q)J@)@KpLpA_2# ,*&=> #-@b@}~]@L'JdQ>$$V@g#d%j#%#n@_#_&3&2#@#8#J@[&_@]#&#'#m#&#&#_#-@l#K@&@'#9{{_A@y#m#h@w#e@$@Qg|@i#f#y#^#t@Z+Y$-@t@-@)@m#q@9{4@Z+Y+j#u~w#$#c@f@m@9#L@8';'8=A@8-$,';<%b$Q%l$f$l_j@u>_@C%H%c%%%[%k'+&/%p#q$w%3*&,",
"u*B@F#e$9%w$b$D$S$!#!*-%=)L^1@Q;R=!#i#2#e$]#c@n)~#Mp'','D^k@2$g@A@u>L@b{$@M#J@A@^#+$&#x(0'W>y#3,{$J#z=l$h'u#.;7@&@w#!>b*Z@w#I@Q_-@2#c$@#&#b#Q$*$&#F(&#;$*$V%e@;$_#=#U;T$^#w#H%2#&@p#e@,> &7#U#{_H%|#{$&#S@*$K@w$,*g#,*T$M#+$x$2#U;'#K@V#[&L=UaL=Z@Y0d$k$f#L$-@[&s@)$<#i@g#I@h@0'+%s#f#i9:@H$+$~#-@v%F# #Y$}#L$j-{$F#9'c$ &/%J@h$Z@L$I@D%t@Z!5(5>1@D,`;+$o#G$&#&@l#<%_#{%]#y$]#_#2#K@E$ &e@$$I@h%&#B#2#S${;c$_@;@w#U#}# %l#f@7@[&S$h@_#J=U$ ,E$ ,U#g%s%,,)@Q{2@cd2$;$&#i#w$]#v$;$-@K@3&d%D$2#~#}#*$e@d%P@J@d*<& &g#_#]#$$]#|#e@2#|#=#+#{#E$s#w$0#I$c%3#!@f#u$p# %~@Z/W!K,c{u$c%*$_#`;B#!# &s#c@@#h$e@b$~#+;U#$$v%p#)$^#@{3#q(U#`#U$U#[&9%L$T$s#a']#F$U#v%|#(%w#$${>g#^%k@y#J#+'Y+f^2)D&E$|#c'm#5%.;&#_#|#i@8#V$B#>#3&`#+$6@2#@#i#3#;$K@h@%%:&a#h@(%w#L=&@V@o#j#B@>$t1;@H@I@I@+$^#1*P#B#{%v$l#_#w@E$A@0>U#P@V@dk:(_@a@d8})]# %^,o{6#B']-Np))i#7@}% &g#3#Q%d_6#)@/@B0`+h@K@'#+$;@ #s#f@L'I@ %*$H;s@>#~#!>Z+i#m#>#I;j@&@%>i#}#Q'%#}$t@*$'#M#]@u# h^*f@-@{%G#.;f@ &f@X@Z@+;J@w@c@e@-@h@c@|@k@b@t@$#9{w@n@*#]@{^n=L@*-9$H%[%Y$!%3%e*D]b{#_~#Z@>&p#a#=#Q$F$d$e$M@}%>%v,",
"#*k$}%>&!#g%1{H%B%v$4%~&L,$#q@2]A~e$O9e*0$!*G$5$!>V%_ir,9{a@w@9{]@%#_$$#d@L@@#s#`@4@ $+$*$g#E$(,x@[#/,R%I@S@h@U#i@~#z@]#t@T$I@-@'#V@&@;$L=!@3#&>;>|#K@5%U;J@J@>#9%Y@ ,c@K@;@-@A@=#._P#C'p%|#-@h$'#g% ,L==#>#m#V@p#&@b#s#~%3#0#m$;@I@g$@#3#_#b#K@~#+;7#P#I$!#}#|#>#E=i@3# %B#R=V$5%i%]#'&k$l#g#;>b$g%'#a#}#|#Z@&>_#D$)>c% %|#^#T)g#'#D% &-@p*=]<@-$H]P~>&V#D@!*i#^*b@g#;$9%g#i@c'%$t@D%g#a#;$$&F#m$1{I$Z@e$~#x#B@2#%$s#g#F#+$&#g#6#;@S%~%$%!#'#g#|#p%u{p)F/W!o'1%u$y%V##$V@s#H=L$w#y%2#5(^*m#e@g-l#g#e@ ,I$1*E$f@Z@W%|#U#>_.#V#c$0#.;1cZ@=#G$B#)$I@g#g#]#}#U#EarpS*Q;6@f^4,|#}(L$g#t#`#P#{#U;C%3#'#~#w#d%K@g#U#c'_#%#K@l#5%+$E$y%e@]#[&C%w~,#!@j-'#=>e*-#d@e%Z@'#:*+>T$8#Op)-($%@-$4~z@0'I@i%i@T)m#w#^#V#B#_#F#i#f#I@a'm#3#u#B@!#;$V@/#w#~#K@@#A@t(K@+$V#x#-@g$g-D$+;C_f@V@&#*; &K@{% %k#Q%1*}#m#P#>#{%%>%>>dZ+-$u~PpZ/C_3%Qps~J@h>8)!dRpi@w~g#f-S%g$c%I,5$(/c@h=J*V%Y+ %+#y#^#&@e@_@l#X@k@o#m#J@$$4# %x@w@ ,I@+$_@y%E''#]@B#|#m#e@y% &7@g#3#e@6@6@j#S@A@S@S@-@/@q#U;t@Z@>@4@*$|@_# #@#]@T@_$A@^%m@n)]$%#h85,(%+-%/y%/%^%G$/%3%a)7/$#>$V%d%u<^%%%g$S$;>y%O%vc#0f0",
"I:X#h$C$}#*=l$L$H%/%]#u$S,J@O;K,^&o#F$t%M=I$M@*]6@#_k,o^a@u(Z^9{8@1@$@A@1@p@Z+e@&@U;X@Y@+#-@A@),(;($9=x%*$,_-#Z@Z@'#d@<%B#u#`@i'1@&@;@I@A@K@y#U$k@J=E$*$>#_#f#*;f#4@_@&#K@3#b$U;5%B#I@;@6%^#9%m#!>j$%#U#9%|#w#5%E$}#&#+$g#!#V@g#o#s#*$S@j$E$(%Y$y#B#{%V@-@g#g%{#x$i#J@1*i%g#-><&Z@c%c$6@B#U#|@%#T$R#8#e#K@`#.(h$E$f#f#I@b@1{e@B#}#'#L$@#[&o@lb;#O^*#Y(<%3#_#[&_;m#=#`#1{V#0>E$v$`#]# %'#m#U#!#b#I@L;'#*&,#`@2#3#Y$m#s#!@ $K@U;5%8%B#+$/%{%y%U;o#T$N;}:W]`+ @Sp!@7'I$t@_*e$s#:&e@Q'Z@y#>$m#g#m#M@i#d*_# %&@/%'#2#U;p#~%&#K@L$G#p#l#w@$#s$H@y%l#7@+>3#{%~#c%d$F__#V@ >Y+;# ]-]j$&#*&K@B9h@T$F'm#g#s#!~D%!#-@/#S$!#%$D%Z@/%b#9'a#B#D%m#B#K@J@4@I$=#>$v%V#i#S;w%+;J'l#b#;@D%Q)I{u~C@*-I:D$T)>$f@j$/#y%m#1@Y@s#y#^#B#0'i#5%g%J;,#;$ &L'K@s#>$6#Z@~%g~s#=#&>_@e@4@ %c@>#F_k$%#g#V$w$M;c@%%;$>$&>7@5%g#i#V#B#e@!,(#>@9@w'@@*&P#H,F]_@#]r=W*k@V#}$|#K@f#&#{#V@;'6(b@6@b$~@K@3#}#t@>$_#;@i#3&'@Z@_#+$%>L$!>H#-@}#l#G#i@(#m# &u>K@!@&@1*>#-@f#t@_#!@e@U@p#J#>#q#D@v@m#L;J'$$T)$@%#g@l#A@_#A(h@_#A@-$1@A@K#b@_@P{Z+,,T,m#R,k^]#!%H%:%x$:%0,*$*#%>E$ &0$}#e#D$,#{%-%E$&%s%.'",
"+*+>3*D$b%5%C>v%y%^*4*h$n,5>1@A'q1[&Q$k>e*~%]#%@h'[(t,]'8@3{|@P{Y+L#x@a@M#z9e@$#=#Z@n#u#_#t@t@W^d-P~8)j_{#9'}#t@g#m#f@Z@)#e@K@!@-@q#V#t@;>>#t@p#*$t@>#,# &*$p#i%j#}#w@)%2#7/$%c%1$U;~*i#m#%$t@L$[&b#@_5%|#D%U$j@_#5%h@K@b#|#4@ ,7$p#V#g#;>j${#H=5%w#!#!@e@S%i@I@L$F#Z@g$V#0'C_^#g$a#J@%$E$i#x#|#h$3#|#D@x$ &*$a#!#0#i@`$h$7'o#_#F#U#h%g#a#,#K$*@*#1@g@V,d$X%J#K@-@I$h$F#s#S@[&M_%#]#B#!#s#D%&#h$F#B#|%;$~&k${%]#x$W%i#)>&#W>k'g#x$L$H=Y@I@IaK@!%S$e,n)Q{h#l$/*y%F#j$g#I@m#m#G$!~L$p#I$C%!@>$I@K@y%'&L=i@]#S@K@|#3# $2#f#E''#w$i%2#^#m#8#L$0>|#9%X@/%!#U#|#f#T$L$w$h$a)Y+0@<)c@K@3#V#K@b*E$v%I@h$$#l#|#-@&#3#&@>&!@_#v%i#o#q#!#t@&#I@K@$$i@]#&#[&9*J@$$M@3&0'C_;$]#i#B#;&P,W!8@0@'<Q@}#'#g# &B#}#Y+,#`#[&m#L$&#-@U#'#5%%>/@ #w#P#y#}#)$c']#.;U;h$S;!:}#l#_#8#9%o#B@F$m#]#K@e@c$i@I$e@|#S@e@9'$$w~&@X#U#m,9{#{z@Tps#!#T$2]m{-@B]i(#*l@S;,*M@F#q#&#Z@P@k,3{%]q@L,#oU#Z@|#b@9%q#U#G#`@d@l#J@}#g/c%A@A@'#{>c@q#K@V#@#,#!@B#I(t@^#c@(#u>1@ &2#-@-@->.#g#;@}#_@8#4@c@d@J@;$f@}$U;e@b@+$B#_#>#o'@#7'3$t@*$<@2$=> )^,{;&)O$s$!#K$c%p#[*z^e@Y+L$$$i#B@H%/% ,:%S$!#M$d%1%}-",
"J_a#e$P@&@I@+&:%y$0#3%j%A,K@a{A'1%%%w#|#%&i#H%$)l/U#k,-'*@3=Z+1)_$-$g@W!m@z@k@'>u>X@|@i#->_#f^y#@>~@#_+|e@*#P#;@.;Y/m#h@e@&@h@_@&#p/B#%$J@V#w#C%B#w@f@o#,#$$!@I@q#w#c$,#)>-@U@+$I@[&t@s#f#^%B#S@f#q#f#0$I@*$g#&#@#e@(#{;3#K%-@!@'#U#z[5%O;7>!#e@X@t<&#~#U#&#%>K@&#g%V#|#o#_#-@V#l#j%p%U#d$-@~np#8#5%g#7@{;i@h$-@c$e$c@V$u#;$&#_#]#;$w$i@4@q#|@{<})2$>@:,I@&@`#B#g#1@m$4@[&~%]#w#|#b#@#>&,#7(9'{%e%b6j$d$!#G$/%m#B#p#I@c%0#p#_#[&0>]#}# ,$#B#w#2#m_9-a@:/>=t&(%0>G#!@p#g~P#L$i#t@f#V@M@E$E$E$x$w@3#!@F$}#v$+&!@*$&#,#!~Y${% &o#h$y%@_h@E$m$o#V@w#O;m#S@P$s#Z@`#&#X;$#K)]$($9@D,w(L=7@w@|@w(L=u>^*i%<&y%6# %0#2#b$ %7>D%:%$%{%7@!#1*7'Q_L=o#w~&#g$U#I@v%I@H%j$I@,#_#&#'9~^A{R;h@^)e@v[!@b#g#N%^#_#}#=>s#m#P#_#]#o#Y$:%J@!@U#W>c'V@U$e%U#d$!#K@E=%>g$g#i#_#&#M@s#K@A@6$n#&#{#y%w#K@T$&#D@L$K@B# &d%n#!#r,<@z@i(F%h$u>G$|/6~L;,]o/9bZ@U$I@5%_#g#y%F#=*K{H~x@-@1#V!_@l# $n#&%%>!@~#_@/%$$># $Z@L$.#1*6#w#`#7@/#_#X@e@&@(#6#8#p#q#@#P#_$K@J#_#_# &.#Z@_#g~e@!>c@|@|#L'J@!@C%i@h@x#0#&#d@5%w@*$0#]@A@~#h@W]v's@u=p,'>0)&;P@F$D$=&K@E$C]$@q{q# %;>3#9%h$T$]#S%M${;P=@%0:",
"!a1*T$m$Y$I@'#]#V#s#S$g$D,=>p@y{l%H=!%9*V#u$D$F@.(c@6~Q;[@q{+#h#M#N@x@(#9{k@W!s@ #_#w@3${$0'W!e-R;2$6#w,-@i@Z@%>w@B#^#j@&@,#(#^#i#-@!#g#_#t@d@Y@._;$|#Y$&#g#g#,*m#L$u>!#q#b#g#_# _!@*$J@P#h$T$e@m$y%}#U#/#l#o#->o]B#'#-#%$u$J@j$S@;$e@B#%$`#c%j##%b#2#e@d$-@c'B@@#!@_#s#2#-#I@m$w~q#T$x$m$d$y%-@w#V@8%e#>#f#0#e@C%!@H%-@|#F#4#3#i@y#w#|#3#y#l#;@q%)@Z+j~-^U$`#f# %B#g%`#L=+$Y$h@}#>#h@@#2#t>a#%#:&g#G$L=&> &$$>$l#.{s#|#2# %N%h$^%!#K@[&`;B#6@%;;'n)%@S^S:q)p#}#K@p9}#s#K@}#7@V#g#]#c@{;I@[&a'%>K@&#!#i#8#V$D@9%h$B#L'V#^*t$9'i#h#]#U#_#_#;&'#l#U#l#J@C%5%d*~%`;V%1{~%g/5#6#A,<@2#w#I@3#2#I$g#P#K@ #e@C%m#p#;@p#2#U#f#t@4@s%a#m#K@f>/%b*;$a#I$H@3#V@{%*$k#K@h-v$)$C#u>Y(_@)@UpqaZ@4@`#Z@D%K@i@J@L$]#&#l#b#S@j#i#&#G${#t@*$J'-#K@b#w$6@w#m#O;!@ %K@e@m#D%K@J'Z@#$&#9%{#f@`#b#F#_#p#D%f@V$J'L=6%e@m#4-*#<#P~V~Vpu>:%^)e,jdY+k@-(k~@$d@S;v#|#*$e@w#J#k,q@Y@)@A;d-b$x#K@m#=#=>q#p@I@$%U;^#f#&#B#A@$%i#L$&#{$_#a'L;b$@#w#w#3&$$%#l#k#m#g%y%w@1*;@O__#K@f@(#&#p#*$&@c@d#Z@h%e@}(!$t@%#[&i@&>{:e@x@6#*#_#*@B]h#F{c=b#$];;s%$&x%N%h$;*~,&@]@q#<#C%T$Q$P$y%y%H%L=K$I@=*Q,",
"W:|#E%P%r$h$C$0#=%-%Q$a#;,@#.#k,>%s%+>+>_*p#_*F@O;q#$]5,)@2$-$k@[#Q{(>`+M/9{h@>#O;F#Z+e@^#V#{;N$/,c{{/T{.;c@Z/:%&#I@>#X@w#|#i@5%0'4#_#J#!@_#Z@>#k>i@F#1@b#}#'#>$ &7@[&W!4@I@I$,_W>O#B#g#}#_#&#i#c^{#,#*$q#n$g#U$&#1*c@3&;@A@^:^%]#2#w$P#W>S;L$b#q#-@>&B#U#f@&#q(i#t@0$U@*;i%E$]#b#B#d@{$w#I@[&c@p#%#O#c%w#l#b$K@r%F#K@z(m#p#B#~#2#&#L$k'a#I@p# &Wp0-`+P~T{L@s#U#V@7'y%i#h$i#m$0#!#>#E$i%K@|#F#x#:%U#|#G#K@D%B#I;I@,*_#i@s#H%t@U;T$.$U$w#s#g#d$($D,a@h#H{j$]#K@2#K@y%l$U;|#,#K@U$b#x#2#|#I$m#;&d$U#M@U$,#w#|#I@h-/%V#i%'#U;2#3&|#E$y#2#&#c%p#h@i#h%J@^%w$!@-@F#&#Z@f#e#DaN{[#x{:'1{:%h@D%B#!%>#T$_#&@g#$% &$$e@g#K@V@)#/%K;!#!#*&y%X@l#!#L$w#w#+$s#{$|#}#,*-#;@F#&@+&n, ]h@5>U$*#[&,#>#e@e%u#!#h%V@[&m#&#!#|#@#U# $+$s#$$B#|#w#M@3&q#l# ,c$h%5%U# #_#_#G#p#I@>#=#i@'#B#K@&@F#*$e@j%x#t@p#^#2#-#B#o3o{=@&@Z#O&h%a#}~*^t@1@r'Y:h@]#9*l#7@F#3&!@3&!>',h#W!q#c'=%7'L't@I$_@q#,_Y+Y+&@|#_#k@t@#@1@6%B#g@)@i@v~w#8%e@I@7@U$2#L$t@1*|@k#!>a#;@6#&#4@-#^#9'q#]#&>i@,#s(_#s@/@C%c'j@;@}#3#($|#b@w#A(*#A@n@-$K#c-i@7)t,v~*--*M$#%7$a#0$M%e,q#L@h'd>#$t@p#g$M=|#N;k$g$0#)$}-",
"['Y$<%7$f@/%D$e#_#a#u$%%e=}$u>f)T$s#P@y%)$t>{%8)V@Z@;,-,`=9{5#2$-@5>B'-@[#*#&>h@1@-@f@s@$$@#&@L@M#)#_@'>('7>%>i#i%t@2#m#Z@@#-@/#i#y#p@>&*$%$A@&#C% &i#o#J#;$_#&#I;>$T)U$|#%#p#g#u>J#'#!#m#=#|@B#@__#K@g%=#f@0#&@!@n#;@^*-@^:R(s#&#[&>$:%|#!#g$8#y'K@e@'#B#*%e@F#v%[&D%%>e#W>B#y%V@1*s# &K@c%D%=#L$P#i@2#I@i#m$m#W>t@0>}#@{J@_#|#s#@#=#|#%$U$y#4%1@e-J#Y+-$('`;l#m#<&>&i@h@a#w#_#:%/%)9T$9%{;]#8#:%:*U#B#B#D@,>y%c@3%{%-#+;e@v/v%6#g$w(,*h$M$$:~'c-1@4)Xpb@7@^*&#w$@#/%[&e@!#0#$%i@w#T$e@V#U#!@B#i#s#2#w# %f#3&Y$]#B#H@I$s#l#U#I@{$w(w@'#'#e@0#`#j$_#+$`#s#;@_#E=V#h%p#L$I@u~=@x@p{}#w#*$t@}#F#R(@#i@{%h@I@ ,+$s#&#t@+;2#;$`$_#]#3#w#-@[(!#t(S%i#y%E$I$i#t@3&h-s#l#)#d,2$)@9)=cH%;$>#.#F#J'%$g#u#7/e@D%-@^*i@x#U#@#-@g#^#b#J@s#}#&#>$:%%#*&m#T)e@H%;@}#Z@g#_#]#!@I$V@>#m# &`#f@|#~&_#_#J@^%m#`;V,o{Y+1@z;Ypg@n~k#;'$#J@`+d<=>S;/%!@L$h$n#H@1{)>Zph#$#z@;=D_-@G#e$4@g#T$U$k@J@y%'#m#U#b#Z@'#n#_@_# &_#6@!@_#1@U$g$U;Y+=>$#e@Y@&@|#b@-$ %Y+e#e@%$Y$_@1@e@U#H@H@w@-@7'+$m#G#&@B#D@D@W#X@>#W!_#q@c@~#(#k@Y+W!8--^:/*-.%H%L=P#f%V$A>I,:/#_K@-@f$c> &x$-@B#j$e@&#b$=,_'",
"u*{;S;p#s#]%'#H%N%*%%%v%a)i@&@&]+&[*D$a#%%S%2_R;{$$(m,''Mc#]<@+$b@[#_@Q{4@~#o'<#T){#@#@#$$/#)>n~0&e=m@[(s{*#!#h@f#J@_#$#2#+#t@|#k@%#y% &W!I$Q'y',#|#s#V@f@,*y]-@u>3#3#f#h$f#j#J@>$Z@g#$$p#e@o#-@e@V#&#->E$3%j#W%s#4@)@[&{%V#|#m#[&[&e@b#6#A@B#e@s#U;|#E$b#E$s#w#>$-@&#)9T)Z@J@l# &<%!~E$E$W>{_'>,*3#U#o#i@L$D@E$j-/%i#!#_@i#u$*$|#i%m#i#U#I$U#K@`#)[B{9{g@@>k]M_&#,*Z@A@9%J@d>h$;$p#b#4#k@U$V@S%8%U;H%~#M@!*e@;$K@_@}#B@f#&#b#8#m$g$c$L$'#c@I{n)2$x@*$F$f-;$!#-@y%f@c%U#@#l#U;L$D'a#2#V@3#5% &<&{*p/V#g~-@Z@s#:%^#'#J@J@s#-#T$I@-@e@;$ ,S$V#&@>&h@c%!@,# %}$;$D%V@w#m#V#2~!)'@w{[,s9S$t@B#:%*@V#T)m#g#g%+>g~]#w#!#|#I@T$K@ &U#m$5%~% ,)$_#R({%q(D%;&`#y%i#I@c%%# &],G@h#[#P@k@b$X@f#U#e$|#m#K@l#>&w#!@&#U# ,{%~*g#K@u$7#c'K@K@U#,*Y$7'U$6#b$U#B#f@/#%#*$U#}#h@;$k>I@*$p#b#;@U#3#w# &w#1*X@2%8]~,}$c@Y'`p:$b#s#Y(_$]@h#I:v]p#x(O#a*i9U;7@T$>$,,%#}$D@h=M<{$f#_#f#q#h@!@g#_#&#!@T)L${$f#7@-#@#a#A@^#d*I;&#+$g~c$&>;@p@Y+;@@#V@I(6#|#3# %|#m#J@&@l@d@q#-#~#3#2#-$$%,#V@q@/#U#i#+$m#*$V@/@+$$#J@@>T@1@W!_${]!'z^4@>'W;I@~%a#M@g#E%Q;O;L@b*L'T;$%a#L$)$K%|#c%I@x$[*.'",
"/:d%l#s#b$^*I$e@I()*!#7%B{$@-$P]r%7%>$D$a#T$|#%,e@Z<',8-*@8@Z^2@d#l(6@{$x@J@k@m@<@$#-@ _w@5><& qE$k#6(2$}$d_!@w#!@_#F#[&v/B#c'{#v$j#v@b@^%_#l#|@~#0#@#e@:&7@W>}#e@|#i#-@Z@*@Y$<%3#%$~#>$<#K@5%T)w(D@^#+;@#d$w@V@j#+$J@K@^#B#e@;@O#1{V@~#'#[%0'1@}$&#4#!>+$]#i%H@{%m#4#I$v@]#m#!@{%2_ ,`$T)q<h%m$i%-@1*i@w$L=]#J@7@[&h$M@_#'#=#e@0#3#G#w#l$U#_#U$-@/#n&P~@@g@F]B#f@8#c'q#&# ,H%c'T$V#$$3&|#8#g~p#.; &%$h@3#-@}#n# &[&H@'#I@y#]#C%J@g~&#g#%&P=}:r@7/6=-aJ'Z(2#V#f@J@!@{%>&=#]#}#I@c@W>l##$v#v%4%f@S@{% ,&@~%o#x$T$7@F# %+>7'Z@9%9%|#3#-@m#{;i#P$8%q#w#K@C%i@c%&#p#&#p# %f@.qed#]x@*@F,|#o#V@g#'##%;@+;t@-@u#|#h$_#P#P$ ,(%,#{%H%3#K;<%D%I$4%c%t@_#i#-@i@L=c$>#Z@!#K{b)q{J@z;>aZ@L'p#g%l$_@4%g#K@U#%#t@+#q#*&v%'#!#@$U$H;w#K@i@i%K#*$g~%$2#p#|#V@m@U#e$+$ #3#+$H@@#e@2#U#!~L$y'U@!#x(c%I@t@F#_$w,b@_$x=/bL@d$j$b,u{^#8@S'j$U#!@e@f#+;Z@B@I@e%f,[#2$g@c)=0W!|#/#w#=>Z@.;w#U$2#$@Z@e@i@I@;$&@J@e@-@Z@=#$#|#)$f@U;m#7'F#D@5%K@&#V#k@%#s#J'*$[#*$c@M#2#]~6@_#>$=#D@e@5#@#6@5%|#*$&#j^M^X#K@!>%#}$+_c@{$[#k@b@x@7,l=%#q,l%-@:%-%T$E$v$(,=>B] &(#=#o%K%7$!#K$s#d%b$j@=&r:",
")oU;<>V#j%]#a#,#D$w$s#)*:#3#r)I)@%s#~%j%C$D$c%~@($7'^,C,($m^f^B'&@$@w@k@(#A@A@h@m#!@&@U#i#1@2#!@f^n&u=(#-$ ]s^U$8%f@-@2#l#f@u#_@>#g#}#+$Z@g%u#S@*$T)u#i@(%V%{%U#&>|#&#t@S%O#3&^*i@_@i@'#'>J'i#h@w#i%U@ %m#{%s#>$$$w@2#e@j@V#Y@T$e@{%c$K@-@w#[&p#-#W%$%1*P#p#e*l#|#~%[&p#i#.$s#%#I@~#y%e*u$;@!~i@g$&# &J@ &g#*&l#P#K@d*K@M@>#!~@$f#V#}#e@|%-@w#B#a#}#f>^@.@K#o'[,**9%e$8bw$;@'# &_#5%^#-@U#J'6#f#^*p#t@[&k@=#W>O#L$f@{%i#i#|#D#8%{% %n~p#T$o/u^p@*#x%C@k$Z+m#3#L$e@e@B#p#&#f#E$@#B@s@U#K@{%;$i#I$e#9'`#.@{%w$w$]#s%c$n#|#w#q#J@;@X%B#9%S@K@I$1{e@U;/%P$g#+$w#|#0#;$h@w#s#M$K)}=W!`+),h'h-{%$$6#1{t@n#w#~#5%g#|@5%{%%$*$R=y#;$;$i#.#i#2#9*@; %u#v%Y@u$F$]#,*l#/%:3f,%].))#<%!#x$6$C_J'%$D%d%=>6#x_J@p#y#i#i#0#-#&#,*L=!@'#E=7@m#%$b#a#&#%$_@^*}#m#*$Z@3#E=k#4@J'g#J@U#3#w#&@j-8%&@f#$$i9!#P#,^g>Y+($+qT#N;[&-^^@h@.@I~W>:&-%m#;$$$+$8%g#%$<,z@{]1@v^!dM^&#+$_#k@q#t@i@k#s#+#g#O;u>;@B#O;q#3#*$U;e@V#i#c'b@w@_#c@}#V@V@L;-@;$+$d@!@e@s#3&U#5>>#D@&@A@t@m#5#m$u#%>}#h^!>X@y#L=)#6@%#$#c@q#%#@#M#/@L''/x@Y+6#[,^,n#F,O$y%a#7>,#l#o$>dN@J@c@!#@$r%%%z% $l$=%U$~&_*l$j,",
"@qd%d>[&p#/%*$p#2#E$N%M@Q;J@0'/)o$7%]#/%=%u$>*J{)@c@s,A' ]w{k~_$2$a@3#5>6#+$$#f@L;,#w#f@q#-$^#J@K@T#4'0~^#8@@]Jcw#e#o#e@-$j$A@;$q#h@g_q#8#f@t$I@ &K@M@Z+V#V$B#c%V#~#-@g# &~#g#^#g#z@t@!#L$K@2#g%W>y%K;f@j$h$b$D%O#J@h_X@|#I@e*!#7'!@!#c@ $m#3#7@2#%#_#4%m$-@-@c%^%S@e*Z+_#V#^*g%i@w$k@-@>$1@5%}#L'Z@7' &+$`#->U#5%p#_#%#F'M%I@]#;$K(U#m$s#@_h@_#+$_#m$raC=u~x@v{v(g%K@!@~#0#L$g@[&l@X@}$t@t@m#0#g#7%>#|#8%I$V#%$;$f#f#K@~%0#J@2#n#c$I$b$3#[,2$_$#qQ/I$/%s%S%7>s#g#A_ &U;:&2#_#o#-#.#V#_#l#&#j$_#w#w#I@1*E$w@E$Z@5%M${#s>%&P#7'E$i#y#B# ,t@X%n@g#y%,*T$J'!#{%w$8%U@*$e*2#I@*$D_E{z@P~;'/%%$T$6@!#w#z]d%E't@I@D@7>H@c']#'*&>*$_#B'K@D@f#X@Y+~%t@}#B#8#U#o#F'`#a#~,W]x@-$z=s&~#_#E$d%j-Z+`#v/J@f#g#0'Z( &|#p#4@g-}#i#O#U#e@f@h@Z@6# $s#e@>#$$O; &&#(#0'Z@!#%$1@&#v%d%6#M@-@|#-@B#G#h^H@K@'#c$r,Y+-$x@U=T$T;~^;/>#_@,#[%W>!@e$!@8%h$A@<%r%H<5@9{Y+n).=(-T)B#5#m#N;}#x('#m#X@7'%>K;H;e@@#g#_$V%-@q(h@h@5%y#!@T)Y@h%1*K@h@o#v/(%e@O;K~;@I@I;'#K@$#)$}#Y$J#7/A@v@,#h@Y+e@V# ,5(!>_#d@^#{_e@I;6/&@_@J@/(/@G;($6%^,]=$$:-2>p%v$i#Q_)&f$~,u>8'd%+>/%>$C$V%]#E$L$h$M$f#E%p>",
"$ql$<*^*s#g#H%l$/%4%T$P@q,h@@#l,W$w$Y;Q$L$!*%>}~-#f#;'/,-#h@[#h%2$~@q#+#I;q]1@-#k@-@U$4@1@+$*$]@3#5%h$K#9{#@M#E/I, %5%7@H$2#e@~#U$!@'#U$q#Y@p#.;O;J@_# &i@R>M@O#U#&#J@-@g%U#_@e$$$2#B#k>v#;@i#-@K@g%K@l#q#|#m#U#w@1*Y$'#e@K@H;U#|#]#e@;$c$!@*$1@I@B#%#*&B#i#]#U#1*;$-#q#I@K@%#L'%$&#n#V#L$!@Z@t@3#4%!@g#1*e@+$3&}#3&L#w$p%b$l#^%{_->[&<#8#@#&%5%+$l#/%$#)$p@a@2$]a7>y#9'K@b$b#:%6*I@~%i@u#_#!#i#i#.;{%2#}#c'E=U#}#8%U#<&{#E$e%=#/%_#w~_#q,K96#_$Rcf^H@a#a#w#I@&@:%}#%$b# %]#v/,*b#_#+$x$k#g$v$!#w#g#s#m#a#I@@#g%2#j-d$K@d$T$U$I@M@.$o#I$e#{%7>!#&#!~[&J=D$p#^#~#g#Q'V@[&y#!*{$~#'/[#6~a@g#]#x(**y#e*Opi%K@U#[&d(H@y#F#>$p#}#>& ,T$l#!*s#a#$#!~f#g#K% ,P#7'|c%)r{b@h#^#5pJ#m#y%y%i@J@}#g~{#8*2#e@j$U#i#i@e@w#>( %>$S@{;f@Z@+;T)}#k$J#V$m#e@U;F__#F#0'_#m#;@_# %P$h@j@s#3#E$~%:%!#g%_#m#V$:,`+4_1)%q*&{%`=q,b@u>A,d[$$m#@#q#:&'#]@E'J@R,:$T@H#u~r&b@>&X@$#n#a#f#g%&>H%U#i@D%5%@#%>d%_@{$i#3&9{h$=#w$i#%$ $&#`@G#~#o#=>$$I@&@!@3&>#L;w#&@J@e@*$=@$$L=0#C%8#y#T$i@U;u#-@f#/#|#n@|#4@U@e@U;=>m#b@f@b@q@C@:(>$~'/,!>/=x%U#w#]#E${*~%/,_@L;q#v%v$Q'v%U#%&s#a#s#8%H%@,  ",
"f&>$g#L$3%X%a*>&y$]#S$e$D,8#B'U{K>1%W%L$w$B@@#k~=>&@+'!^-$x@_@b@h@w@ ]f^a@~@2#%$e@ ,9'A@.@X@&#V@]#J@^#ndg>%#_$a@N]s{e@i@,#|#~#q(-@g@~#=#L$>#.$l#}#i%t@%#e@_#U#i%P$2#>$U;t@!#D%2#]#+#V#I@Z@t@l#I@'#!#!#S@4*,#p#L$i@U#T$&>f#e@g%2#{%,*w@D$;$!@w#I@'#y#/#=#x$*$V@V@-#'#^#*$S@S@p#u#e@n#l#T$%#;@'#9%$$y#p9|#&#m#_#W% &W>H%&#w$*$^*i%+;i@|#r%q#+;y#T$}#Z@~*l#$*l,[#1@2$R,]-5$#> )X'T{X~w{F]C=v{8)L]>]Z^#>J{S^P] ]m{H~3=Q;Z^m,u~{@3=a)W~j)@]I)A,X/Y+&qH%>&B#>#@#>&>#C$e%v%+$U;N@g#e@0#w#i[0>]~p#i#U#!@~#/%'#_#V%!@e#x#^#d$&@h$U$;$5%p%V@a#V#d*L;r%V#,#>$]#I$u>[*S$u$w#,#i#w$1*V$A@q#*qn(q{C@I,A,L,;,I,]'x,m~~^2,L,'^@^A,r,F]m~0,JcL,'^k,$]@'$]]'H<',+'z^t,H~,,=qf,H]2/`+M#<=[{=#%><&t@!@ ,3&q#s@=#|@d@y%,#3&C%|#{#w#i#.$v/L$B#I@l#&#:%-@g#5%N@B#m#Z@L=!@t@V#0#y#'#!@:&{%a#$$%>-@f#i9^#U$e@F#K@(,f@*{r@!*i# %C,($n(:#6<_#p#L=|*w#1*'@&#P#R9}^)#9{y]a%&#b'm#n'l(t@+;V#,#I@L$Y+t@i@f^-@;@5%E$-@V@8#9%l('#L$d@W!;$}#4@e@!@!@$%H%u>w@>#t@t@^#m#Y@~#U#v@J@J@I$J@$&-@i%B#v@(#]@.{1@q#_@d#@#&@i@w@z]3#7#L@-@t@x@A@W!u#,,<,t@G,$>g%k$F$ &D$J$L,^#(#$$*$2#k$!#b%}#u$T$/%p#P@-qp~",
"_>,&'#I@M$@#~%g$9*l$!#G$K,@#^#K{[^-%v%l#/%s%|#($B'-@r,R,*{M#Y+(;x@($U@2$_$_$&#$#B#/@W!Y+u#$$F'q#m#$$0#~@d8w)g/F@->X'#)<%;$2#Y@_#'#;&i#I@m#{$2%'#e@&#B#$$h@l@I@+$T)*$e@g#f#V#z@w#@#K@2%L=1@u#'#i%[&5%}$$#T$5%'#x#g%%#}#4@m#3#|#V@y%n#K@c@d$H$o#s@x@x@J@h$V#U;B@y#}#F#>#+$E$-@q#{_/%(#!@ ,m#Z@p#x#;$y%7/~#5%>$v/@{q#g-I@_#&#;$|%7@,#$% & ,_#f>]#3&!#Q'6#i%N#g&}$K#]$o'I)I)C)v{I{C)))n)4>4>I)-/I]n)@]z{o)$)o{p{u^K#k/r=,@U)n)4>I{d-v{2@K,}]{/2$^>b&K@`#|#-@E${;+;m#^%&@m#D%3&H%!#X@B@{$.;C'a#P#B@^%w$8#h$>&|#s#U#s(*$d$n#V#}#i#4@I@m#b@=#y%o#D%E$Y+|#>$p#h$>$b$'#5%P@-@m#}#q#|#_#%%j)#{[#($)@ -l)U{o{*#Q)w{*#2$@>`^Y+x@2$*#($z@){a@2$=@9{($($~@{]0@5>W!P~T@Q)(>a@T@d@8);q@#m#}#d>|#L=t@J@^#x$)$K@`#Z@w#=#!@%#V@F#Z@I$D%{;9#a#U;q#+;e@p#*$f#.@I@L@&#Q'p#+$s#_#;$I$3#'#(%@#'#V#->Z@U$h%)$-@!#0,_$b@m$a@E'I@N{G@W!p#{#2#4@_#6%g#v%V#~*4]K,/@5>L'%%>qc$>#n#&#e@h% &'#!>>$i@|#^#w#!@I@{_w#I;J#f#,*d$q#M#J@i@D%=>w@>$@#8'Z@m#9'{$&#i@A@3#Z@|@q#}#I$n@!@ %k#]@5%}$.#$#5#J@c@V@[#3#=#-@6$$$s@C'+$B]-@N@h'C'1_O'z@Q(  T, %I,QaU$>&s#!*7@=%G{%>%,F#-#k$Y;j%8%]%]#l#a#^*k$b$&,",
"q>/%G$%%4%%%0$T$w$ &i#|#X~*{k@u{Z%~%[&g#%%x$%%C)>#|@L]*^G@9'a@1@1@)#d-(%/@J@%#h@t@_#K@$#h@ ,'#~>a#H@i#}#4)#aL,A(u>[#l,>],#~#L$e@!@*$ $_@'#*$T$%#K@K@<3f@+;i@i#I@(3p@2#V%q#L$Y$I@5#J'@#_#L' ,k@P#:&0$b@;$_#E$ &i@2#d#_@i#i@i@g#w~E_4#{%x$L$L=j$K@j$w#r$+;$$t@-@W%i@i%w$'#o#i@I@I@3#'#>$i@$%x@^*w#m#v/_#0#i# ,&@A@]#g@2#K@7's#B#x$:&m$U$B@`#l#>#I@K@_#g~L$S%s>Y^.@a@h#b@3@x@g>(>`+,@)@x@${c{J{-$x@A#r@x@(>u~Y/o]^@{@.@($c{Q)T@u~%,(>x@)@*#)@`+e=x~p#&#:&a#b#,*}#C%y#p#I@B#~%p#|%b@v%q#F#F#|#&#E$%$%#T$H$!@}>v$-@d%!#&@;&4%h$c$[&I@$#>$!> ,`#|#@#U;m#Z@%$7@%$$$3#g#w#R#9%|#&#1@!#K@$]8'h#`+h#_$($*#3$C@o'a@c-_@}$a@{]w{h#_$o'<@:$:$1@*#=@;#`+C@3@,@`=o'5#]$*@n@v@p@x=j*q(+$G$e$c%3&r$u#|#g%C@+$b#=>^*X#_#|#w#S%g#{$D%I@&#2#U;_#'#f#X+V#w#e@E$-@y% ,Z@W!S%J@%&&@}#$#+$'#O#2#I@_#`#]#5%8%+$L=P~o'b{T;&#'*!,k~x@]-,<W>D%K$Z@u#I$b@j$l)+'c@:/c@Y%`;O;G#w#=>Z@q#E$s#}#L$i@K@3&H;N;q#$$q#@#Z@2#;$u>+$&#e@!#&#3#Q%!#!@U#f@+[q#w@{$_#=>$$|#[#D@m#'@!@&#e@=#e@i%J@d@-@e@D@Y@f@&#q#&>3#h@*$u#Z@4#e@$#Y+C'G@_$Y+($v{B#!'p,W!K,>;I$*%i@!&0#H_e,M#_@5%H%}#D$V#k$M@_*o#4%e$e#f$bb",
"K)Z=;%s#}#/%P#e#+&b$+%b$/,L@~@S>a%U$]#P#s#g%E$*]O;I@0)d,9{(>=@2$d/h@(#Q@L@*#f^x@J#t@m#&#c$Z+C%@#b@h@&@]#}#d-/b_)$#%]d#n=y{W$c$3&,#(#,*&@&#Z@@#Z+i@5%w@ %*;y#5%e#3#b@c%c$_#L=3& %g%+$*$2#6#&#I$q#U#2#s#1*$#v%s#%$0'*$U#l#g$;@k@^#3#y#I@_#=>s#~#y%B#2%c@b$0#&#&#L=l#G#&#|#k#_#e@1@g$2# %n#w#@_i#o#-@_@I@|%L''#I@g#_#-@|#&#g#4@i# &d%'#l#-@i#J@]#3#h%n#J@e$4%D,Y+~/Y@0@u=6~6=7)0=8-e)A',qi)_-z=z=n,l{y=K,--l{I,$]!)}=l{_='q^'^)i)@)8)!)U{X'P~8@C=j))&p/D@D%g#P#{$L$Z@I$a#d*+;!#K@v$g# %1{3#|#I$5%E$!#$@}#L=p#*$s%-@`@8#>$[&'#&#a#V#'#g$L$ %p#t<%#-@}#|#o(D@~;^%,#&#_#c@I$_#y%h$X%3=9)q@J@O'Q;f=H{x,!^;=6=4=B)K]/,p=F,2d_-3=^='=`=%-y)<)/=}=Q;b)v{A=<)x=<=_-_-{,6:K950J@<&@#@#<&&#2#E'g%'#b#]#|#*;;$O;~#B#L==#i#7'U#V$i#l#i#9'7@!#m#J@J@9*&#'#}#B#7'6#_#>#*$g#;$I@L$B#p#y%K@g#P#k@,*4@B@3&O;,]6@#{n>e$I>E,&>-@`=}#i%k$!>k'q(L'@_8'/,#_*@6@_@4'*=U;k@&#(#J'f#|#+>U#/%-@[&$#3&c@!@$$;>b#;@f@*$>#&#f@t@W@A@w#c@I@n@w#K@@#'#k@_@k@W>A@K@c@@_6#D# &5%N;+$f@M#j#+$K@w#f@-@!@q]c%A@c$X@C%8%}$f#6(5%b{'>|@:/_@_$B]k@:'3,~#=)G=M@L$K%v$I$G>6~I^Y+=%;$B%s#7%$%*%M@s#Q$k$C$)b&,",
"Q/W>H%_#4%s#!*y%}#V$g%!#(,6@_@e,K=7%M'h$e$b$*;U{B#i@q,n,-/h#m@c#[#f@k#_@z@c@@#d@_@+#1@{$I@c$&>J@q#%#U#X#x@J@B=Pmy_a@(;h>n)F,%%!@I@|#C%j@~#Y@o#-@N;A@'#i@-@B@_#k#h#t@,#/%T$H%c@{;8#z@9%e@s#T)A@&#B#I$f@f#K@s#`#;@g#&# %a''&>_]~U# &f#9%}#I(&@$@_@p#4@K@I@4@i@s#@#b#-@0#^%i%c%I@ ,H%'#U#0#B@n#%%$$%#C_|# $s#B@+$p#a#u$%#%%3#2#k$U;e#X#q#$%L$|#!#e%.;J@!#!#Z/]^h#T#^')q%.E+i;C!u+!q)l~qzm1+(.{q@ z+jp]qt 2+G.)lF+d![! c^q~ .+/qB w.e (q2.`:o'l@Y+}:B#q<S@e$**+$,#$$=#!@f#s#/#>&`#j$i#K%]#8#!*e@3##_I@j#%$*$U$I$N~>#=>&#5%x$g#>$o#'#V#>#E$I@7$e#I$g#4@L$m@ %*,K;w#!@I@q#p#$$s%(#f%k][#g@/@q^_qu.:qj+<q[qQ V.y+}q|qj!Db1q^!<q0 o.1aG.2q3q4qD!l+5q6q7q8q9qn!o.R!s+j8x'@@K@@#F#|#$$k$;@&#B#9%m#V@V@!#e@w#p#*&{%e@%>u>5%o#U#L={&'#_#@#7@4#8#L$f#p#L'i%I@w@D%}#T$O;w$2#A@Y$'#6#c%C$=#u#!@[&'#*$${F@6@d=W$e@X%!,k@{>1>N# &&#s#0'-@=#;$*m$@g@q])@ >U;-@2(X0&#O#g@ ,s@t@p#@#m#<$i%_#+$B#T$A@!#-@ ,5%=#c@n#'#.;!@U#}#>#;@6#f@I$>#d%m#-@ ,3#5#J@1@n#q#->k@n%6@@#B#k@!>l(s#w@'#k#@#V@;@f@%#^#J'@#_#~#L@N;9{6#j@+$%#_@[#_-u=V@VdNoJ$Q%&@w$i#^%}=1@w@i#6#%&E$*&Q%M@s#g%e$0#g#C><'",
"iie*g%!#`#7%/%G$|#3*t@h%}=q{&>n)c>%*H%/%y$0#}#W^_#_@r,<)($x@=@Y+2$<3W!V@&$x@]@V@w@J@M#A@&>t@f^^#~#h@-@~#E$;@7'd-0q')x@*#_$u{5$g#I@%#~#9%]@B#!@;$_#d*i# ,_#c'c@I$w#D@f#@#B#V@y#w#`#s#*$3&5%V#6#,#!@$$ $-@!#y%[&V#^#@#I@x#3#^:n#!@D%C%h@l#e@y%}#f@!~f#J@;$)>c@,>q#F#+;&#i@$#i# ,I$ ,%$_#&#I@F#[&i%]#4@9%u#laK@o#c$V#%>_#~#*$Z@|#1*;$f#9%`#x$i@&#@#d*j$l#V$g5)#)#J@ &i#g@d%|@w@k#+#S#3#'#A@5%Z@8#]@-@-@^#|#^#;@h@<@e@x@2_>$+#U#b@2#h#<&c@3&''#@1@m{N{&%)9U#j$e@Z@k@y#h%1*K@i#A@4#c''#j#E$w#*; $'#]#m#F#I$'#[*|#-@3#|#s#I@]#f@>&i@|#_#9%s#h@&#K@!#l#|#d@w#/%4@r%!#!#w#C$>&c%y%e$-eB{U]1@^)!no'V@q#m#U#Y@J#K@B#q#O#f$-@b#J@*&m#s#i#~*9'S%)>J#x@)@&@C'*>_#w#h#u~H;]~8#q@s#V# ,w@m$o#N;.(h@~>p#_#o#C$w@l#$#&#>#f@U;K@w#n$'#5%m#D$Y@ &7@E$F#x$*;v$B#c@y'!@e$@#->B#S@Y@e@c'm#-@l#x$^#1$'#y%t@$$a@_$'>h=0%m#A>^,=@1@mbN@U;g#K@;$s%8%.#s~T#A@7)D&-@6#.$g#$#L=J@h@>@T)$#}#'#0#U#9{'#;&C'w#v/(%Z@(%4_H%w#d@b@M#6#&@p@@#V#Z@*&j#i@Z@I@&@i@!@;$I;J@s@!@U;b#b@p@t>*#G'X#$#c@V#$#7@k@ $e@M#|@Z++#}#U#~#>#$@d@&@Y+1@P{#{k#E]),m#2,-*%#a#d%R=b$b$n,U@n@}(_#F$~*c%k$p#]#i#h$`#E$y$O)",
"'c$$!#E$M$)*b$s#T$2#==v$<=!>d#C=#;x$k$q$M=a#+>y{D@q#p)r,u~o{]@.#$@I/B#h@Z@k#_@-$6#^#i%l9y#E'I$i#i%|#p@F#U#}$C%y#Y+^b_)W!q{5#D,E{g#s@A@&#>$N;|# ,/*}#-@L;Z+c$o#j@p@3&x$m#_#!#O;]# &m#f@f#C%U@X#}$-#^#y%.$k@p_!@t12#h@y#j$X#'#%#_#L$5%b#->p#'#i@n#p@M#!#b#!@U#Z@D%B#@#;@#%t@B#3&Z@>#,*e#L$A@u#o#'#X@U#c'E$i#g#_#f@&@L$g#-@5%&#A@W>>& &s#U#&#o#p%s#<#l#_%F@a)a@A@]=,c3&V@!@i%p#=#{%C%'#V%*$]#l# ,K@=#x#L=m#N%w#K@U@]#K@|#{%e@s#!#!@i@(#9'q#[<Z^c-6@^,!#}#I$Ia{#L$~&O#g#w#P#i@L$T$b#j$M@f@w#,*Q%b*U#U#D#5%7(c%;@i#1{N$_#r%t@=%*$y%'#g#j#f#j$j#Y@K@&#H#U@k@$%8%1*&#}#7@'#0#9%V%b@,,%@u~h0H> #[&Q'5%3#F$&#x$D%$$a#*$}#v$1*D%L$[&l#c%g%u$i@-%8#|#V#%$C%s#I@b#V#&#u#m#s# ,@#H=|#e$c@S@8%J@,#1*]#k@,#{#{#>#}#U$!~m#V@e@i#F#i#!#&#f^m#^#C%Q'*$B#g%1@+$&#I@&#Z@k$|#s#V#|@n#I@h$h@i#T$q#%%x#T$K~ %u~.@g@L,X;B#S%z=9{5$<~,}i#,#K@&@I@v%N{C)J#b@V$Y+g#&#p#w#q#$#e@f#&#5%4#V@V@^#w#U#t@N~m#_@e@%#^#F#1*=#B#g#Y@$$j#@$X@G#D@%>&#m#@{&#$#!#w@&#w@>$U#=>&>h@7#h@4@[#Y+*;!@J%}'h^w#e@*$_#*$U;B#e@'>p@A@b@=>c'U;(#C'q@Z+Y+/#b,u,h@n,D:l$f$g#M@y%=*-^%#p@^#8%u$h$s%=*B#W>B@h$Q'P@3%j,",
"q*H%%;]#'#a#'#S%,%G=}#~&8==>t@x,9//;}'P@D$0#d%P~q#&#L]d, ]o'/@O'=>$#@#s]Z/'>1@+$+$&>B#B# &i#-@6#K@m#2#_@ &i@K@>$!@o/j87:c{$#1@,,T@I$h$l#'#{%U$3#S%Z@I@|#!#^#I$Z@!#U$}#*$i#=@!@p#}#_#V#W!I$2#N;K@X#k@&#+#&#d$-@I@)$s#k@e@+&J@}(M>Q%N;K@U;e@7@m#T)X@s#x$!#%%&#3#B@=#!#s#7'=>0#&#w#w#w#~#~#`#l#9%7/@#w#B#%#@#>$_#V#{%f#B#'#$%i@-@&#Z@$$&@i@_#Z@h$O;>_&#8%w,4@ ])#J~%>[&l#!@)$&#3#$%-@b#e@E$I$*$G#4*J@*$)&.{I@e@h@~%|#8%g#P#i#.#q<k@~#V#V$9%V#T)T@5/_$S,:%}#M%j$'#d@e@e@V#+;P#U;t@u>X@s#^:%#}#B#Z@&#f@i#5%_%!#S%~#/%X@<&J@M$6@&#L=C#8%x$o#9%|#{%h@$#|#P#L$:>_@g$J@!@+#c@Q$!@N%w,5$9{c#s)j*/%K@y%K@4#L$&#*$y%+$3&B#A@J@u<,%3#B#D% &&#W!g#Q%h-&#|#7'V#6_.#o##l0#w#^#}#D%-@c'i#L@*$T${%w#K@B@X@m#t@g#6@I@t@i#)>i@5%'&,#w@^#^*4@K@'#h$&#7%B#x@{%>$C%m#h%e@w#}#o#`#f@k@+$^#l#$#7@6#}#o#A@;$n#O;T^L;*#Q;D%!#=*_,T@f)E9s#;$m#'#l#,#s#A'+#_$#]&*;@V@2#m#&#d@~#~#6#~#F#V@L$ ,,#C_.(,#%$O;&#>$U;-@I@Y+*&+;Z@f^ &Z@Y@G#_#,#B#c$$%m#$$d#m#u>A@c' &>#@#U#n#@#c@_#b{,*E'M#b#e@Z++$M#Z@m#>#o#t@Y@>#!>p@-@-@!@Z+[#$#1@6d}$n(9,n=*$--x'w$i@f$j%M$0*z^c@@#O;n#I@g$l$I$>$I$w#*&E$/%J$@-",
"WpW>I$g$b$s#W$D%=*w$<%V=z^$#Y+{@w%Q%_*E$r$b$;>F@=>A@$]9-N@]@[#)@<@/(<#+#4#k@'/p@;@y#$#k#a'>$=>#@f#}#:*L'U#u$N;|@=#9*2@H*v^9#k~|@ '&@%$>#f@*$x$c@:%>&L$p#!@ |q@>#U#F#*$f@B#c'@#<&m#w#|#3&^#D%e@c'v@2#j#Y$_@n#i#!>t@Z@p#i@2#m#q#&#4#m#B#G$|#S@w#C%e@m#;@0#L=U#F'Z@7@M@{#&#J@3#Z@{%Z@f#d*e@c%b#^#q#d@V#'#f#&#|#'#X@2#1@S$.;C9I@K@+$D$s#i@0#i@i#>#V@k>#$5]#>W]6#^@v%%$1{ &~&V@B#:%_#A@m#y#g#h@p#!@|#h$}%]@L=^*B#9'H%^:K@|#i#'#T$*&;$w$L$*$e$*$1~K]k@-$a)4@L= %V$&#K@s#%$'&D%}#P#e@}#~#T$_@|#Z@/*)$B#i@{% ,d%}#t@~#[&~#Z@D%}#u>w~2#a#+#.;-@C%q#s#s#=#*%y# ,5%Z@U#&#2_L$s#=#D%M^I{`^o's]aq8@F#_#i#'# ,e@F#V#M)K@O#0$p#J'd/!@T$Q'J@c@K%$%;@{%b#h@]@'#_#t@6%!@v/J@w#I@W>v%2#i%&#s#m#5%_#&#|#M@c$d%,>@#u#_#g~%>{#i%u#&#U$_#K@`#D%3#f#'#t@6#|#]#>#s#F#I@3#w(e@o#_#'#x#2#i@I$e@e@+#2#e@Y+M@>#s#z]h>S#(#n,a%k>g%k,q{;=%/j$L=f#{%D%L$w$#^Y+[#g>`~y'{;e@y#_#6#L'e@!@O;e@t<I$D%V@'#!@;$ ,k$J'e@U#m#I'h@ &e@.{L;&@+$&#w#p@U;^:B#-$&#*$j@-@e@&#*#U#J'V%J@>$-@[#|#H@j#Z@m@'@^#c'b'^:j#'#e@1*b@_#g@K@h@$# &6%_@6#T@I/bq6#=@_,e|M;u=O$b$j%I@e$q#X;C].@:/Y$y%J$L=K@=&Y%V#E$ %p#s%f$o,",
"{h_*l$g$c%/%=#K$/%u$c%!%~^s(@>T{W;)$!%s%0#v%v$>]&@i%_-n,%@d/'/d#Z+f@;/_@1@&@2$`+9#V@+$x#;@_#8#+#3&q@B#2#$$Y+&#n#X@i@V#,$cqs)f@G@c@~'h@1*l#4%h@s% ,c@g#n@F#V@-@J@f@}#!@I@k'_@m@2#&@F#V#w# &v@K@8#8%&#I@ #|#4#c@c@y%%$J@ &+>i#f@7't@T$(#%$=#w#U#2#f#*$e@K@80y%c@_@_#|#'>y#O;2%t@3#_#Y$!#&#]#s#h@w# &%#5%_#e@3&+>s#=#w#|@5%j-%#q#i@w@j$>&i_m#y#Z(j$|#c{l,_$'/6/)ql@-%+;!@g#p#X@w#b$U#f#)$G$,#0'&#,#B#.;/%V$0#h@I@&#s#;$F#)@y#7'4@s#w#H%!@5%s#K~!{0@]@R;9-h-&#i#m#U#h-e@ &j%m#)9,#'#~#g~b@^%B#U#2#a#Y$V$V#*%=#m#B#Z@)$G#(%'#V#6@v/'#K@w#!#+$p#'#(%t@5%E$i@V#2#B9B#g#m#&@v%F#*'~@x@=@`+}#o#q#~%K@i#H%>#0#:%!@)$>$I@U#p#l#E$O#=>h$s#B#V#w#I@P#g#h$|#i#{%&#F'T$Z@i#s%%#e@w#3%C%7'D%I;n#_#!]b#_#m$I@@#!>I$f#}#Z@!@i@c'C%@#u#i#&#B@'>&#q#C_I@p#,#_#B#c%J@'&@$|#,#^*.;p@!@-@&#r%e@ &E$L=h$s#2#-@`=9{J{z=O$8#j4^,=@e=V:c'L=C$&@D$l#g$s,p@ ]H~A;L=5%g%e@L$Z@'#W>2#'#~#4@B#u#$$-@!@J@a'@#((Z@@_i@K@&#Z@O;U#k'i@V@L#i%3#A@$#u#&#b#1@|#w#e@1@m#@$U;q#c@&@i@=#V#i#-@U#*@_#=>>#J@f#q#.#6#_@h'{;Y@5%m#e@d@>#h#m]q@[#2/'>-@2,k,i#*-f~s#/%=%y$$$t>5^h'!>L'D%9%a#g$B@d%v$'#>*-&p#!*o,",
"5pe$(&p#%%E$I@7%V#J=(&E$3=#_1@X/<^Q$>%d*;$<*7$$)V%u<''p,q@G@[#^#~#a@4@L@]$$#8#2#'@m#~#Z/W>&#I@*$%#i@h@s#w#@#+#]#$#!@c%I@_)dqn(*@!/Z+~'!@{%o#l#}#W!i@3#5%s#&@Z@ %I@V@V%$$x${#K@p#i%H;u>8#V#'#m${%]#e@U;B#u>,%G#!~^% &!@E$-@V@K@-@>$*$$$,#]#Y@I$i(w#x#I@f#U#V#t@O#f#w#j#I@5%V#~#u$g@e@w#w#U;I@!@{$C%~#b$-@y%K@Z@$$i#+>~#w#T$>#o#s#d$b#-#w#}#<&&#_@%&@^z{($[#[#p#!%!#|#K@w#=@8%C_ ,}#q#&#:&`#3#H;*$+$,#3%y#-@ %9*j-Z$Q_}#L$K@T$s#<%E$K@p#G# #V#L_H{g@[# ])@U$$$!@f#H#e$U#]#%#]#*$m#y#e@]#F#L=U;|#$$V#g->#&#{%J@_#@#c%G#|#u'g#{%h$&@i%b*G$E'J@t@B#7'p#S@&#5%V#|#v/^#7(g$j$g05$;@)@0)Spt@d*/%*$T=s#K@w#_#W>!#t@>$P'&#U#3&>$0#m#m#l#s#F#T)e@C%&# #B#!#8#v#U#>$r%&#_#V@%#X@p#+$|#1**$y#{%s#k#E$q<&@{#,#F#K@U#(#x$i#.;J@V#b#2#1*y#W>n#7'w#q@t@E$w@m$y',#J@S${%V@F#F#J@8% ,;$g#g#I@Z@=#&#5%p#%#%,c@($v)*%I@d$3,u#''C>&@,#e@b#&@U#|#L,$$*#3=0%n#'#i@w#w@%#w#-@.#;@i#|#X@Z@V#K@%$L$e@-@7@U$V$+#-#H@3&U;t@m#^#g%w#B#q#-@I@L'i@9'h@$#@#_#J@Y+,#*;Z+->-$8%U# ,f^6@y#&@U;.;.;J'v%_#J'0#>$X#J@2#}$/#e@>#J@U#-@-$^#*#k@J@x,w,I$c=-(M@m$1&+&h$]%N{_#b@c'^*0$$#9%7$u$K$E$`;v$t@k$t]",
"Q/E$x$O%t>j#+&u$U#p#b$a#^,h@O#8)U=S'I@E%s#W>)$I)m^K@!^*-)@i/q{]$$$k@!])#%#J@($a@q#&@-@&@q#)@@# &6%_#E=L$J@$$ &U;P$|@h@B#-@9%v&8@5#%,(#'^L@ ,-@'#6#-#}#s@e@m#n#:&N~l#%#w#$%9'~#$$f@V@}#t@$%K@q#J@-@3&V@2#E$'>^#;$~#`$S#s#K@D%8%}#^*^#~#.;:*J@-@h$.#}#w#w#3#v%$$=##%;$i#c$7/^#U#$#U#e#I^ &1*y#F#[&*;B#I@!@2#'#P#d*h@`@0'^#m#d@Z@&@s#=#V$.{F$~#|#I$#@h89@{>6=/0$#S@u#-@h$*$y%;$_#!@p#&#$$|#e@E$}$z%D$h$0'_#,#}#k@^#b#8%Z@s#h$5%e@ & %*;&%L$p%F_L;u]{@/@_@<,S%t@5%c$s#P#B@ ,;@^#p#v%3#'#^:K@[&2#b#d$k>'#&@h$:%q#Z@G#T$_${#_#J@e@o#g#2#V@E$U;L=i@y#q#%%0#e@e@;$_#K@K@c'|@p#Y(_$g>J#==`+u$}#k@{;U;[*'#5%U$7'd%h%E$C_'&a#p#c%9%m_f>>#g%$$;@B#-@p#v#5%e@&#g#l#P#*$;$B#j$e#0#f#f@ &y%P$`@i#E$/;C$,%w# ,|%>$c%w#3#Y$K@m#=#/#I@M_=# , ,,#,#h@m$'#/# &j#n@8%e@G#|%f@_#U#,#4#'#V@i#U#^*j^!@m#D$%%g@9{]@2$r,k^m#8>m,$@Q;0{F#a#N~7>E$w#S;L,n@<@L,A&}#c@f#d@K@t@f@I$6@m#&#B#@#3#G#!@X@;@{%i@g#k@%#3#I@`#H@4@f#I$y#p#o#%#>$o#8#C%V#:&4#6@l#m#T)Z@=#;$f#>$u>%#T$2#~#C%@$X@W!$#e@_@[&a@@#3#q#c%C%J@(#-$!]_@A@x@&#m#F@q#g@L@n,('t@z=1~x$p#_#f$/%B@H~L@T)W!m#L$v$t%E$y%a*H$g#i%-&3*)(",
"X]L=,#M=0*P%)*=*S$9%D$a'_,^:-@S>L%B~1@=#>%P%0#^@$$$#q,(,W!2$8#6(+$$$h@->)@*$b@8's@3#W!O;;@d#8%-@e#]@q#g'p#B# %1@*${;Z@_@E$`#,#l*:#:/,$4#:'Z+g~V#|@c@U#y#4%t@~&e@V@w#_#H#m$=#D@e@K@>#U#@#2#w#_@I$0#s#c@!# &@#;$L=t@T$3#t1_#s#|#}#e@6%&>n#G#F#>#-@8#p#{$L$d>6#d$m#E'>#B#d%g%g%i@E$j#p#Z@9%b#M_L@T)u#,#D%Y$!@b#~#(%o#K@b$S@s#S@|#h$U#2#V%K@i#d*K@7>S,$#T@0~I=)@>$>$'#m$h@2#J@^#E$&#3#m#;$c@J@I@=#w@i@.{G#&#m#u#>&I@$$b$G#p#_%U#D%M%=#i@D$|@0$h$B#V~9@J@3$]$F]I$J@}#t@7>-@7@Z@&#c%&#.;!~q#/%d$T$i@T$L$x$**U;I$&#s#v/t@s# #/%s#B#4%S$2#!#p#|%I@L$h@/;Y+>$L$$%B#!#-@I@I$Y$P]d-L@u~>=5<h$I@m#f$B@ &*@|%I@G$i#J@&#s#w#V@ ,K@e#^#'#_&&#}#~#I$/#$$t@K@s#V@f>0#'#'#w#I@s#I@;$<&3#,#L$y#.{m#i%i@j-y#j#g%>#K@D% $E$i@i% $U#L$0#;$&#=#4*i@c@3#p#P#&#Z@I$@$f@.;S@9%2#U;>$e*@#U#s#-@h$Y$T$'#=#c'7@,#v/F@_@2$e8!{c%j$7,C'r=P>>&=#o#Y+i@^%e%n,c@$#G]H(d$1*]@i@}#*$+$>#}#Y@3#O#U#$%U;B#G#|@!@q@f{Z@U#+$ &;@J@_#w$$$i@N'!@&@2#t@|@L$_#a'y#5%U#6#J@b{/#j#!@c@&@Y@-@q#g~=>=#_@V@d@+$^#J@7'}$m@O;t#5%h@c@6@+$!@~#-@1@a@T@/@q@8@%_8-B#-^]_>%]#0$ &w$1%[,|@]@=#L=/%=&o#g#[*X%0#M@%%K@';8$",
"z_V#l#b$'#[*h$Q$y$7@l$0#+'%@<#0=c>w$2%k$>&g$T$T#&@*$8,z^Y+_$0@w@n@c@h^T)A@f@c@@#.#H@*$[#k@4@I@U#k#Y+*$~#e@I@f#'#F#Y+=#:%k>w#j-!]0&Q).@*@J@3,Dci@n%:%i#~#5%i@*$5%&@h@9'j#g#i#D@'#!:f#N;~#h@F# &>$Z@j#!@K@=#9'U#4@_#>$+$e#V@'#^#I@&#~;V#g#2#H%O#-#w#U#L$o#g#u>_#g#3&I@K@g%i@f#!@t@%;_#@_>$I$c@U$B#q#=#b$!@p#0#k>I$}$C%G#8#I@q#&#J@V#d%T$2#j-;@L=,/<).@3$0)n>m$a#s#%#h%_#&#p_i#;$-@]#U#2#U# %&@b@u##%Z@w@}#{;'#w$}#V#L$Z@e@L#-@S@&#*$2#T$I@}#j$c'|#.~#>)@'/m,]#x$D@C%!#Z@j$S@'#1*@#Z@1@S%V#{%->&#%$ %D% &p#s#4@g#i#g%+$e$K@U#&#L$U${$D@;>e@T$x#F#]#m#w@<%c@*&V@I@f#d@|*<)c{f^q{g^0@J'w$J@I@k$^#K@l#&@i@@#g$s@|#o#B@Q'[&,#^#E$_#|#l#7>V#h@}#f#I(%$s#y%U$'#v%|#E$ ,s#B#u#s#V@4*b@I@>$$#*$&#t@&#4#}#s#_#1@|#;@A@|#k#I@D%U#9'g#T${%*$'#V@!@8%_#0#$#->W>K@f@v$U#3#l#e@U#I@q#K@3&h^]#s#,#:%3&n~P~J#]@9-mbB#l#;=J93=&*j$_#'#i#*@j%9%e=c@u~}=t_&@+$k@e@B@W>&#=#Z@|#x$l#j#K@f@[&I@$#w#J@V#m#l#Y+ ,f@_#v@d@-@$$*$h@*$Y@V@w#h@J@&@U@c$=>u#_#7#^#9'^#i#@(=#7/{_t@6@^#k@!>q#C'D@{]@#m#G#m#U#(#@#&#Y+%> ${__#;@k@B'$#%,((I,~->$c=`%|#y%F$[&e>r%0,-@_@b$y#d$^*f%s%]#=%{*$$-&3*[*8$",
"Ff'#b$e$j%{#!;j%M@/%g%T$x,5%$@x=&;`#7>'#/%a#b$i/O;_#^,k,Y+c{I/9{(#c@h@p@b@!@J#h@x@v@J@A@C%|#n@L;!@U;!@n#i@,#K@H@I@K@0#U#K@e@f#V@~#p*F@L@{]n@[,m#-@S@$#d$-@-@,*P#e@K@}#*&.#c'K(L=Y$|#c@L=p#_#|#h$~#k#;@>&;@h@f#c't@y%&@-@ #I@U#|#-@g% &l(q#H@;@h%^#H@h-Z>V#K@-@w$2#L$I@S@*$+$^#c@+%l#%$I$V#5%p@~#c@Z@E=x#,;f#U;&#w#$%2#E$_#L=Z@w#a'f@[&x#/%*;q#Z,2$B];#Y:g@B#7@}#!#]#@_l#I@>#V#s#]~Z@2#/%<%U#e@m#E'e@F#I$y#-@!@q#%#&#{%h$&%!@ ,f@s#|#Q'e@&#m$U#]#u>za9{o{*#',:%_%!#3# %&@l#=#o#!#|#.#}(_#&#&#K@]#k>K@i#'#l#{_{%P#T$$%'$,#|#c@w$k'!~L'B#h% $x$i#f#I@V@i@g~'#w$k'V#j_+'5/~@T@Y'I=_#g_I@V#&#+#Z(g~Y+e@U$'#i#_#|#u#S@P#*$y%I$C%m#2#w#S%]@`#3&># %&#K@r%`#!#t@D%>$S% $p# ,2#c$+$s#f#x#e$B#{#_#9'_@s#'#*&a@K@f#w#8%U@L$|#|#e@9%B#L#b#A@>#;$U#y%!@]#Z@7@_@D%L#1*y't@!@y#i#>#2#*;2#7'a#=%0'*$j#u~^#h(_,I= %Y$8-h#:)q_ $y%s#y#$$&#g%;=_$_$a)9/I@3&!@i@A@&#5%5%g#_#(%J'+#]#~#(%U#h$V@}#!#_#f@_#$#e@f#-@;$w@t@6%'#@#+$J@@#>$V#8#0#w@*$/#4@V@@#~#(#e@M#p@N(e@_@%>f@-#j@&>1@(#$#+#w@Z+B]j#k@i@U@L;+$;@`+ ]->Y@A{Y+)@e@,,4-7';=-();^%s#9%D$j_ )!>-$<@=#N%0$1%:%4%+&G$I@l#O$g$  ",
"fbX#C$d*>*j%9%v%^%!*V#*&P,$#!>}=B~E$i#7%k@J$p#h~f@%>P],,$#N@$@-$$@6#$@j@*$W!<[>@&@%>U#v@N~[#y%i#h@L#Y+I@m#=#$#Z@X@2#*$@#|@u#}#E=2#n@><J{N@d@Z+7,A@>#w#=#I@p#'#}#e@-@Z@b#7'%#&#u>f#w#&@m#%#f#e@7(C@8#p#A@7%w#g$6#^%_#.$v$|@I@,#<3f#V@v%E'}#m#5%b$i#.; $ %m%I@e@f@K@<#3&w#]#0#.#i#-@{%:%&#i#V@s#L='#p@Z@5%B@U#'# % $$$*$L$s#U#m#f#e#i@h-@#M>H$eq:$j~J@R,-&Z+]#1*f#2#m#B#,#Y+C%h%U$+,3&]#8%i@e@r%0#V@3#6*D%@#}#'#$$&#_#s#e$'#U#&#T$j$l#m#}#`#%#l#%>->B~/)B'_$m{`'u$}#V#h$y%-@ &%>p#+;b*.;w$6@u#i@I@u#&#+#=#;@f@Q%&@*$i%y%=#n#7@J@&@U#}#s#i# &B#_#e@+$:%&@o#^%m#s#U#${;'%,o]u~r&Y@U#m#w#E$7@]#T$I$w$_#K@L$$$v$s#v/=#-@I@E$U#w#/*I@c$U$_%x# %>#l#E$,*v$w(L=-@J@0#&#<&!@'#M@h$s#s#V%4#;@}#I@V@w$6#5%x#J@5%D%%> ,m#F#&#->K;;$f@%$i#8%n#B#J#V$q#C%5>-#m#K@%>3#J@e@$%B@^#2#I^n#M@>_A@&@&@v$@#+##].@_$<,U=/%Y$/,q@4)G:*$6@Y$u#U#7#6#`'5#w@$]8/B#7'L=U#_#$#t@_#i@2#Y@M#&#&#@#w#I@x#|@'#e@&#Y@!>F_I@h@~#C%h@&#$$t@7@W>-@i@;$+$m#O#B#o#V@&#w#F#H@J@f#8#h@G#p@f#-@e@e@>#$#f#g@e@V@_$,#f#9'p@Z@%#h@i@-$d@k@=@@#}$!>[#J@,,4,2%fqK$a#B%>$h$l#b*{^|#z]k>}#>&%&S%>*h$7%=#j%V#l$=&j,",
"u*H$K$>$<& %w$%&f$=#2%w$;'p@m@`'g$1%/%k$ %g%L=I]|@f#L,d,b{o{$@x@-@h@#_{]`@^#-$K@s@J@J@N@k@_#3am$,>U#m#|@ &g#}#G#g#)@N@f#K@$$p#5>2#<&b@ac3=7#l@9{~,b'e@W>3#,#d@2#'$V#j-<#2#!@J@&@5%&#+#h_$$4@j@0#g#I@w#C%I@^#5#|#i@e@[&L'w$!@f#g#e@ %*$7@|#.#8#E$I$_#=#p#g#P#p#^%j@}#0#.$p#T$K@a#8#]*;$e@,#g#;@_#e@m#V#;@C%J@g#{%E$w#f->$q#Z@K@d$[&U#u#C%a$;$_,*@Z+@bgqk@0$'#F#{%U#[&w@t@+$P#I$o#A@V#^#M#!@2#B#U#,#'#/%i@s#!#^#5%V@5%o#.;s#I@.;h@ ,l#L=V@=#w#e@h$<&u~B~2@*#${8-V#g#-@2#3#D%C_D%$$|#J@{%g#$%}#'#p#d$;@J'_@D#m#U#.;P#-@%%'#&#I$;$V@C'[&G#-@h$U#-@+$}#y#s#j@h$U#E$N%/,T@ ]_$#{V_T$n#.;v%:%g$`#a#_#^*$%c$$#H%c'w$%>c'U#i#m#!#<&%>.{p#@$e@_#e@4%s#}#c$&#s#i#u>K@o#i%6#4@f#5%e@C%+;U#i@j-i#b#J@'#d@r$>#f@}#7@e@6@P#`#V$I$^#i@2#'#E$x#B#K@m##_,#{%s#I(5%$%7'P$&@7@*$q#P#m#w@i#b'J@2# $y%k>$$c@.)J@.)6'G^|#y#^,($;=mbU;Q'0$K@t@w#+;H~c@1@;=X=F#J@%#i@t@,#4#%>B#B#e@Q'@#f#b@L$f@4@-@ &.;1@ &&#B#=>|@K@&#j-k';@w#e@j-Z@$$m$9'*$$$&@!@*$$$X# _q#%#w@J@m@hq4%{%/@@#-@{$}$H#e@8#J@h@$#}$A@g#e@b#x@8#h@c$q#A@b#@>_$Q{_$'^~'f@n,1%3#=*{&h$j%u$4-w@9{(%6@^*G$f@u%l$C%H=,%k$c%k$  ",
"$0e@B;w#z%p#Y$v$'&[*S%E$,,B'Y+}='dK@}#>%1%9%=%S{@#I(a,m,*#^@1@`+6@J#b@a@c@*@Q@!>f#k#.;Y+-@->C%*$f@w#8#J@g#I$A@8#m#e@+$V@;@p@A(K@-@b#f#b@%/~@L@Z+k@ ^g%/@*$%#S@.;e@I@K@B#3&i#)$u>)$4@*$q#n@B#B#3#o#+$-#.#3#K@U$i#o#!$_#|#o#B#3&f#U;t@8%t@Z@j$'#O;E$1*q#>_e@g~;$I@e@f#U#X@U;t@+$&#i#K@e@g-*$y#!@<&|@7@.;h@b#i#1*2#J'4%2#s#2#i@q<y%<%>$o#9%j$;'R;*#*{d@=%K$L=3'->*$V#j$i@k$5%}#%$5%/%*$L={;J@Z@e*v%[&'# &P#U#F#d$U#_@-@V#+$Z@<>e@3#5%K@_#c%)$2#B#Z@y#-%]~h#a@c@%@4]u$s#U$ ,!#7@P_K@Y$k'[&B#Z@v$S%4@ $V#h%g%U#q#E$0#$#&[L$!@V#g@8#d%w$g%[&j%!@y%^#2#'#i#|%}#H@_#U$S{a)%@ ]`|ImC%L=Z>|#'#|#K@{#b#D%_#Z@3#e@8#&#V#=#A@I@T$i@M@_#p#!#K@U#3&&#6*X@u$&@*$-@f@T$P#[&p#V#b#y%e@V#|#p#L${*6$6@l#Z@c%f#B>h%#$+#1*Z@s#{$V@7's(t@}#@#&#L=i@L=X@c@^#3#~#T$(#[#{$f-/%U#K@*$C$]#m$x(.;&#/%|#G#}#v/X@ %m$c-6(<@3=[&Z@L$,a~>r{k^3&6#<&=#4%w#%>u{(#9{Q;0%b$q#^#q#C$I@F#!@_# &v0`@&#g#Y@_@e@2#&@p#8#a#e@5% &m#&#m#$#c@o#J@$$n#|@7/x$y@-@K@}$}#S@8#u>6@{#<#%#A@X@@#(#f#j@$#Z@t@g@z@)@I@B#X@k@~@V@!@k@c'=>Y+!:G#A@($ ]!@t@~@*@N/,,-'.$7-g8b$T$p#*=f$M@$]#_;@(#s#I@<%G$*;!#_; &g%E$.{=*o,",
"icp#>&|'T$y%Q$_*e$s#%%s#$](# ]j)l$e$b*2#)$|#e@*#|@O;_--'F/)#$#'>Y+)#T@6#$$;@A@ &&>@#(#B#t#*$>#^#w@R(&@+$ &(%q#_#,*f@;&&@}$T$3&i@V@X@U#j$b#X=:#[#$@9{iq.[ &k'0#}$h$z@c'=#!@U#e@!@9*4@N;i%-@h@t@&#e@d*c$_#i@w@L=~#m#m$c@:>w#:_$$@#y#&#L$t@@#|#c',#$$2#w#}#&#l@6@`$V#`#'#U;w#V#$$<&|#i#o#X@ $c%I@i@Z@L$k$m$&#e$c'U#E'i#e@B#!#L;&# ,{%q#-@&#O;e=f^P~I{zpd#}>d>t@L$K@N@%>!#@#&#{$|#3#I;T) ,m_}#a#k$ &K@5%i@H%&#U#m#m#E$_#s#7@i@I@}#&#d%0#9%{%]#O;f#I(a#s#o#q*2)a@2$n,W>2#n#e@_#i@i@i#'#U#Z@*&!#-#!#I$;&]#U;L=9%I@&#-@>#6%Y@W>&#6#]#<&-@d$8%-@v/5%P$>$0#7'|#c@s#l#X%-^)#K#]@3>Y+I@i@i@P#!@3%I@&#&@qb+;_#x$L$U#3#S@E$L=w$v/<%/#'#!%g@V@b@v$i@o#I$|#8%,%=#L$I$i#B#7@=#U;1@|#~#G#y%>#I@K@f# &_#1*c%k>y#M@.#L$a#g#>c#$.{-#9%e@$#}#!>~#}#5%e@{%7@h%2#e@f^b'q#o#I@~%9%*$,#;$c@0*_#A@%%%> ,&#i@l#o#{/W!2$/=U(T$k$+'W!E/f/e@K@o#>$i#g#{;`'J@0@r{jq7'*&F#f@$$X@e$K@'#m#_$/#K@o#A^_#_#I@3#&@}#B#o#Z@J@V@n#C%~#_#K~;@t@*$q#v@$$d@&#9'L= &V@m#B#*$A@U;&#Z/_@>$V@V@8#i%Y@{$B#n@6#5%Z@6@n#t@t@K@%#^#6@A(2/W>!]*#h@k@W!Y+=@5#*-t,!>l{K$J$=#E$e#*&k$6~t@)@&#0#e$]#*&e$H$$#;&B@L=y$I=C;",
"dcP%X+!%g$<%N$/%_*)$B@>*j)6@1@s~`%}#l$:&0#c$O%8)J#Z(]^w,%@_@L@J#q{7/c@_$1@a@$#a@6@$$)@=>6@%#!>q#c@.#_#-#e% &1@J@2#_@G#s#w@u>I@i#2#L'_# &V$=&5<=]Y+_$z@f,1{%$$$J'6%J'x$|%c%_@[&J#A#{%+#6#&#'#e@l#^**$Y$|#j#i#V@:*I@M@2#>$>#o#M@->|#d@ ,2#m#j#%$>#e$2#*$;$]#V#!#!@_#l#'#&#<&w#,%f@}#U#F#=>:%'#P#$# #L$^#V%I@3#-@k$4%b*y%x#e@c'-@K@'#!@m#X%e93$`+Z/~#k#S@+;K@T=f@>$&# &_#e@B#B# %&#L$f#f# &G$}#u#&#&@K@8*k#2# $J@&#K@^#_#3#|@l#V@M@I@D%&@Y$g#h$p#<&s#;$V#h@>&%](>k@6'E$I$L'+;m$U#7(3#E$D$o#!@;$^#3#i%=#!#w~i#f#0#5%$$3#o#K@V@w$@$p#i@U#f#w~m#]#h@$$'#/% ,+$I${%C)9)z9T@y)S:H%>#5%U#i@!@f#B#s#K@{$'#*;J@g~~#7'E$'#|#9%'#@#c$e@h%U#c%u#_#l#w#3#c@&@a#q#w#I@L=C%%$b#c@g%Z@9%5%|#_#_#s#u>3%!#f@j#&#]#3&L=Z@i@U#l$c%{$i_'@O#K@#$=#o#0#!>*;n#`#0'U#a#f#w#p#.#T$,#_#P#,#1{}#h@I@L'}#&#!@K@_#F#-#($5#%@6,O$K@I@;_z@S>B~A_z(+;t@&#@#E$k,^#<@l{l4U;>(I@7@3&U#A@P#-#T$4@1*K@F#'#># &k@e@H@@#'#L${%*$^#'$s#U#&@r9&#3#5%-@x@x$J'u#&#c%K@D%&#g#-@&#q(_@v~:(2#|#&@F$}(_#f@L;D@>#d#'#k@ ,I@_#D@&@N'^#f@^#q#T#g@c@3/=@(>g@j@4-t,y#!)>*|#M=t%G$[%X$''6#-#L=h@K%s%l#=%c*H%>&8*.{0%b$|~",
"D_N%y$|#|#g%x$B@m#g#$$B@''w@;#^)0%[*b$/%3#l$I$P~6#h'*-r,~/a@1@|@I/u(c@L@]@g@k#/#H#@#i@t@e@R#n@L'V%J@$$@#U;}#h@3&I@X+J't@8%m# &;>H#]#'#D%%>t<U$';p{5#T@c@*'i#>$w@W!-@G'y#f@d# %`@_#1{j#g#&#I@%>p#.;w@%#w#_#K@%#$#@#&@P#k'f#1*|#k@%#B#}>&@]#g%/#Wn-@U${%&#F#B#E$_#_#c@z]`#2#A@!>x#i#|#}#5%u>w@-@,#+$m#-#~#!>k$H#3#e$N~Y$f@I@g#v%i@3#a#>$@>M{[#|@0iw&Z@2#G#O;|#Z@]#g#_#i#Z@e#H%0#-@{%U#m$ &I@s#+#}#/%>#c$0#r%n~!@U#|#|#D%&#g%L${%(#i@2#B#/%V@%>x$,#f@C@i@)$Q$ )*#W]<)/@y#U#'#}#l$8#2#%#|@{%3#;@f# &$$&>M#V#s#0#6[W>*&U;:%V#V#_#D%i#U#|#Y$,#$%]#*$v@g#]#d%L$K@p__,c{1@W!J_W!V$}#s#-@}#]#]#2#K@`#]#A@+$-@S@M=%$I$g#8#C#|#(%x$ %x@L$2#I@f'%%b*{%h@W>'#f@!@-#>$_%U$N~O;J'w#&#g#_#-@j%i@+;&#~#J@G#D%s@l#T$_#%#c%d#y#P#K@2#t@&#$$w$B#>#v% &F#:* &&#B# % &m#4@B#;@i@`;%>_@a'}#b#q#C%u#g-Y$U$h-y#5#6#d/)-l$n#T;5,m@f)J^5%I@h%l#h@g#/#j)$#F@B)k^d$~#$$F#E'%#w#-#&@$%6#U$n~1@m#.#3&i#s#@#B#*$^#K@7' &%>!@n~!@J@L#G#*$8#J@!@0#c@-@|#-@i%i#k@I@C%i@^#4@w@[#+#Z@Z/2#t@!>~#%#p@y#$#h@A@W!6#T)&>^#X@k@s@h@6#z[*#m@L@J@T#q{6'3,=#I,f%x$%%*&v$V#[*:,&@4@S$e$d%4%j%M$s#U${%T$4%r%T98$",
":bU;*%~%/%U$r$/%9%]#a#w$N{W! ]I]P%i#{%*%w$E$ %G;&@@#x,t,]@{]p{w@[#!>&>-$4_1@-@!@f#_@%>6%q#i#z]c@e@J@&@`@=#$$+$7@g#h@%#i@l# , ,^#%#2#3&%#j$m#I(1%e-v@9{>@r)6,M_J@*$5>7$;$S@e$l#&#}#_@D%g#E$!#m#-@w#Y+j%~#I@K@ &5%5%V@+$+$c' %0'Q';$i#I@Y$B#{#o#6#A@4@~#$$F$l#g#V@B#|#>#h@q#U$u# &i@o#-@F#'>-@B#&#-@I@S;y#3#&#6#/#%#e@i#y#'#K@y%V#q@y%H%'^k~p@I/M:4)g%|#_#U#I@,#i#U# &{#t@[&$$}#E$V@F#v@+&|#<#}#T${%}#j-H@s#b$G#@#L$F#'#B#k~,#'#l#*$U$_#&#5%K@y#>$_#V#=>i@.@v:0@q{$#m,]%H%X#]#y%$%'#[&g-+#%>L$f@o#9%p/ &i%/%V#e@g#e@8#_@I@]@y%_#V#!%E$f@v/}#/%w@-@@_V%i#+#'#-^l)f^'>o/Da0>p#3#9%b@e@S%^%1{;@&#O; ,`#I$n#'#;>B#%$g# ,}#F's#$$9#a#}#|#,*]#j#w~2#6#-@!#j-=#l#H#*$,*7(~#t@U#E=Q_p#I@L'@$f#-@g~{%I@w#9%e@5%c'i#I$I;Y$ ,,*l#m#g$_#7'%&U#f#L$;$5%k@*$w@;@[&+;004@*$=#=>d$e@n#w@|#h@|#Z@w#b$H;K@:$W!u(c=l%o#N%),'/3=.0_@>$0'-@x$-@D%q,]@z@D,$;&#_#w#m#:%U$t@x@4@7@>$J#D@_#U#F#w#^#h@t@%#{#b$t@t@ %w#->V@Y@y'&@.;$@K@V@s@m#J@{% $&#-@!@A@8#T$^#Y+J@K@|#q#-@D%+$9%A@h@g#J@)@l#6@J@b#&@!>m#e@6#'>I;>$c'$@_@c'-$1@Q)6#0,();$A,L%v%u$0$E$K@l-m{%#5#L=/%%%~%I@+$w#!#n%`#T%>&!;C;",
"q>h$t@e$|#l#f-M@U#I$)$y%c=n@&#4)%*K$Y;f$-%+&'#U)^#w#c=c=b@R;L@K#_@|@1@-$I;$@$$$@}$L;>$L#T@%>j-J@a'e@,%Y+l#@# ,i#t@y#B#f@{#@# & &$@J@-#B#f@J@i#I@~&&#8)^#$@g>},M>[#{%-#t@J@/#9%8%V@k@ ,-@^#-@=&y#2#U#w$J@o#b#@#i%!@L=V@k@(%&@Y$e@i#I$_%%>e@Z@|#+# &~#L$&@t@)>p#f@D%i@K@*$B@w#_#.$V@J@e@K@m@!@/*q</%e@t#l#;$}#E$2#7'S@K@l#^#>#m#7'd$r%K,T#8@x@!)R) &K@s#,#w$&#*$Z@K@|#!@t@&#w#7@u#}#&#'#w9F#2#J'|#i# ,f#0$n%7@m$B#$$$%d>]@{*'#%>c%t@`#Q_e@B#2#<%S@6$l#l#M$w#{~x=(#u~r@r=0#U@x@s#=#]#d#y%L$n~*$o#D#B#j$0'!#i#p#b$!#&#e@k'K@8%e@K@K@=#{_i@Q'l#!~U#a#{%a'^#o#z]a)*#)@;#B*#{u$}#v$ ,|#X+I@3&x$ %m$/%@#c%t@s#c'.;P#g#~#@#!@y%|#>#O#%$/#j- %~#+;!~y#`#x#D@j#2#i#t@s#h@y#._^#|#J@K@&#d%b#@#D%0#B#A@O;6%w#5%c$J@{%8#m#L$}#7'e@e@Z@;$}#G#s#k'i#Y$l#$$6#3#f#3&J'&@~*D%T$ &c@V@+#@_%>;@N;D@&#=#J@{%C)/#M^p=E^t@D$;'$#S,G_-#w#{%u#T$Y$`$&)(#f^B{kq*;7'>$I@K@e@]#/%I@~#3#[&^#%$$$&#L$Y+I@h@%#q#h#Y+e@2#k#_#e@K@h%>#B#J% &g#:&-#!@B#>#A@8#+$f#$$b@i@|#6#Z+!@i@'#J@Y+e@*;J@J@b#e@m@c'e@<@5%+$4@&>_#!@^#V@$@A@6#'>x@w@M^A@),u= ,n,z$G$~%80e$s%D%I)_@^#'>L'/%h'}#3%)$K%H=y$h%_*#=;-",
"#* %IaV%a#C$g%j-w#!%i#T=K,C%L@x,)*}#I@x% ,w#}%d-A@_@I,p,l)-/`+G@-@h@6@*#q@Y+5#Y+W!7'B#u##$@>>$A@z(q#@#&#^#S$c@g#f@J@y#1@3#-#f#t@'#8#*$y#c@U#H;e*v%[*3*[#S#M#w{^,+&Z+_#j->_w@H#*$%$y#>$K@,#^:K@4@d$;@J@y%A@Z@7'p#2#k$p#V#*$O#V@^#f#-@_#&@;$ &w#k@w$|#B#8%>$u#q<L$p%d$o#I$x$;@!@2#&#f#f#i#u#}#)>2#I@e@!@^#|#>#S%p/&%c$q#V@V@-@=#U#4@!#6,_@l(5@J:lq-@I@%>^*h@$$9%Z@V@w$g#}#b$j#I@}#T);$x$|@&#K@d*>$*$i#I$%$h$3&U#g#I@b#_%C$t# %p#mq*%V#@#f#Z@t$}#4#t$h$'#&#O;_#D(@]F@S#5^k$f@Bcy%_#'#!#y#D%`# ,i@g# &2#8#!@|#S@9%V$`;I$|#'# %R#h$q(L=I@Z@^%!@U#:%M@@#c_/%e@(,(;;#n@nqq$K@2# &q#s#5%6#x@ %V@J@b#K@t@$%{%/#7'&#1@k@I@&@Y@O;0#!#T$i#e#k'm$&#{;Q%h@,*8#s#&@i#c@c%X@P#'#&#|#p#L$W!U#e@_#o_e$*$f#f@s%->7@s#!@y%4@!*m#f#c@@#w#g$_#->U;+#i#'#@#2(2#-@+#'# &B#{%-@{;3#V@m#E$A@ $h$h@d%t@i#1@Y$!@(#v{5#J{/=U( &G=8-a@^@|<i@u#Q{;@f@{;g%z=Z+2$S,`]]#5%~#L@B#-@I@b#U#_#@#>#J@k#+$~#>#m#U#O;;@,*L=@#}#z@t@i@G#4#O;(%>$C%|#s#|@x@q#y#d*e@.;{;2#c@a_f#t@L' &j#l#7'Z@A@_@v/ %e@_#i#c@I;B#Z@Z@-@8#6$&@i@_@h#]@Z/$#$#6#u~_$_@~,<-I(}@K=a#F#K@3%=%Y%8,N@*{!:4@d$l$T$b$V#3%d$,#/$2#H$f0",
"h*e*=#*;P#E$r%L$J$E%F#9*,,1@1@`=N%%>o$V#-%0#B@D~6@>#/,<,`^[#[#6#e@O'w@'/&@w#i@6#V@>#f#$#3&H@w@!>J'q#u>C@5#+$>_-@`@Z@k@-@^#B#&#T$ &-@>$B#|#@#b#u$,%w$G:e@9@'_)@Q@7,<%K@(%&#J@7@$#E'g#E$hb(@%$W>-@]@&#x$_#T)e@f#v@@#m#@#e@(%_@l#0#t@I@@$>#;$m#5%'#b_V@V#T$@#k'I@e@$% #O#}#H#U$g$&@6%I@p#0#V@S$ &B#!#{%+$3#^*}#h$k@}#7@v%e$!@h-L$f##%0,]$*#9{H{>;H@|#_#v#i#+$%#'#I@V@J@}#+;!#]#B#0>Y+P#e@q#d#Z@e@N@|#C%S%O;+;`;&#!# &E'y#/%|#d#`;{%g#2#g#'#+$|#U#}#g#x#_#i@i%l$4@A(l@ ]($6'i#$%7'K;{#|@t@/%>&p#&@{$->U$_#=#h$0>&#+$}#!#4@V#l#;@[&^*m#S@-@0#F#'# ,.#:_,*c$>/]]@>q{3=oq{#h@q]s#|#j#!#I@&#N;U#i@j-+$4#!@c%s#p#6@w#l#_#D@I@@# %&#|#I${%U@%$y#i#s#K@'#I@g#U;&@%$m#1*c@`#!@y#c%-@|#x$K@d%=#W>O;+$g~B#_#k>~%|@c@/%{%2#5%Y@L$*$,*l#_#d$@#Z@L$-@K@(#j#B#K@@{+$u>L=$#{%.#m#'#C%}#B]T)}#K@w#,#e@I@W%v(B#p{;=h{U#&%d,{@B)tbq#[&-@+;Z@t$=#;,1_]${^k{%%e@^*_#U;d@3#t@!>i#e@4@^#L$9%&#+$.@Q@{%&#H@!@U#+$k@D%/@Z@$$]@u#c'd$-@o#$$L=u>p@%>$@f#7'D@m#8#A@f@5#c'+#^#%#->%$w#q#Z@.#W!+$$#+#n@3#f@_#V@&#Y@6@2#A@*$ ,M^k@&>>@9{d#2,_,}()-&*v%+>*%]#V#c>K{b{>#l#+$V@v$u$0$K$g$J@K@O%s%K%j,",
"j*$$E$r$-%j%L0L$H%]#l#C$q,@#$@A'e(L=M=M=P%D$0#`/X@i@',*-*@9{`+_@W!+#2/^#A@4@c#&#;@_#/@-@-@w@,>n@]@y#;@^#Ba&#J#b#Y$c'_#V@U#C%$$_$'#B#B#e@*$i#I@-@ ,%>3#F#+& ],]n@d@g,(&;@&>&@w$3&Z@-@|#^#L$c$&@ ,I@k#-@i@I@z]i#I@h$j#h@ %3#_#;@-@f-w@V@g#2#y#>$&#.;G#>#=#n#K@;@T$m#3&f@}$w#y%b#_@f#U#=#^%@#m#Z@f#K@ ,t@~#>#|#I$U#_#2# &v@w#U#t@O;)@,,)#Z+ ]6&t@j#*$ &=>i#&#J@I@b$w#i@V$^*q#l#I@M;>#L$0#A@I@ $F#K@w#{%K@9%H%D%}#^#_# [I@g#D$s#U#n$>$y%h@'#$$8%7'q#f#i@A@@#q#m#7@#16=n@z@/,l@|#p#t@h@F#%>e@>#.#}#/%J@_#8#j-E'U;}#S@B@$#h@L$3&2#V#K@a$h-m#g~m#-#[&H%f$m$r%0,0~$@W!T$($>$t@p%A@p#m#{%I$V#l#@#;@9'J'_#t@&#f'<%*$&#B#K@s#d#d@w$,#R(-@t@U#o# ,Z@E$pqJ@U#F_x#e@s#}#y#_#i@$#3#y%s#u#{%i#U7w#|%{%%#8%I@q{P#'>g~}#N@&>5%+;K@@#t#y#L=&$U;S@B#I@}#-@e@1@o#i@,# $*$E$f@j$;&}$h-Z@9'_#K@j$E$W!+>m$>#i#`+'>$@j0o$+>a#L,x@}=D_C@s#:* %8%U#@_S,6@9{D]x0q#0#L$^#I@w#+$]#,#-@w# %}#_#I@v@N;/#%>n%-@>#@#L=;@*$c@c$-@|#Z+1@$#Z+!#D@V#U#q#+$|#&#c@'#u#-@L=&#^#&@6@L'~#v/w#o#_#=@1@'#~#1@^#L;Z@O;`+$#l#M#Y+)#6@&@_@Y/'>4@l@*#*#x@E]R,f#2,/{ ,u%T<}#p#r%6~&@@#}#f#k$^%!#g$%%%%d%v$3#D%s%bi",
"@<w$F'';:&/%y$Z$+;|#h$~%L,@>8'A'&~V~v$D$ %x$f@Q)Y+s(q,_,c{g@1@;#{]@({]u#@$;@y'e@=>+#1@;@'#%>O']@i@y%_#Z@i#!>7'@#I;*$;$@#.#=#%#_#Y+Z@Z@w#m#&#c'w$I@f#}#k's#p#8@]@c@q@Y,h$;@}#F#K@i#B#%$<&p@&@Z@ #$%I@}#p#u#y%=#B#+$U#K@}# $i#k>=#$$_#h@p#,#b#c'[&e@ ,3#g#o#K@K@J@s#<&&#=#:&I@s#W>M@-#U#V%w#|%e@/#j#!@'>w#l#2$B@N@e@H#$%p#q#,#!@T$7,r@'>$@>#L$,%w$L$&#$%%>r%J@,*1*g#y#c$X@K%s#~#K@;$;@|#m#s#{% #'#j$&#f-e@i@ ,<&'>X@'#U#w#I@|#I@:%i@U#I$|#-@g#+$ %+&&#1*v%;$f^V$B@I$]@'>2/7,U>s%*$i@s#U$'#*&L$/%`#=#^#|#g#w@&>A@y%i@}#%$>#_#b#s#o#s#g$'#9%I$,#K@}#&#Q'g>n)Z+($;)qqo#i#I@~#>#;$m#7'f@+$U;;&#$&#V@>&9%i#*$R=W>;&e@{%/#V#]#J@!@g$&#P#y%U#Z@c$ %V#S#!@m#e@}(e@2# %6#O'U$!~c@_#_#y%7@$$L;2(^#A@&#o#/%(%B@e@.;y#v$q#0'b#*&-@X#!%Z@-@p#B#i#,#f@s#5%B#Z@8%I@3#D@[&V#L=I@_@V@V@U#-#[&|@I$y#_#P$W%C)B'`+!,rqV@E%6=){])%dX@!@^#{%e#h$-@J,{>*#sqDaw@S#&#I;-@%#&>q@O;g#=#H#p@N<,#M#K@_#f@w@u#5%J@K@I$!@j$x@'#@#*$Z@'#i@J@*$6@S@-@{_g~i%e*H# $c'+$x#T)Z+e@3#[&.;L=w#u>n#l#J@i@{_=#k@1@w@n@C%p@&#V@q#J@C@&@1@6@$@_@0@b@`+%^z;%>~,e-p#>&p#g$f$)&>]X@+#o#I@7'g%[%M@E$u%/%Y$e$U#f*}-",
"Qa}#_*!#F$g%y%/%F#H_%%~%$]1@_@r@G=}#)$9%`$o>$$`=h@%#0)w,C)$@J#$#[#c@L@3/&>d@$@1@->^#,_h@>#*$h@u#Y+c'(#|@I@7/K#0#e@,*>#^#L$I@U$-#(%2#K@i@O;m#m#K@&>_#0'}#B#,{J>n(a@v@8@*'a#,#&#.#f#X@J@J@'#9%D@+$_#o#Y+f@0#w$N;e@ $e@t@K@P#p#f#I@.@'#q#k@&#l#Z@*$g#i#-@&#i%W>@#v/{$5%w$6#i@U#h@d$@#!#7(f@q#i#7'>#!#w#c$i%}$;$$#c'`#p_e*i#^#6>e%-]S>)#($]-q}t@w#&@5%!@V@-@$%=#|#-@u#6#c@c%K@3&E'-@q#U#F$I@ %c%D@i#i#w# ,a# %0#># $M@w~c%c@q#L=f@-@_#*$f#x#K@V#C%w~f#*$s#S@n#C$P#c'U( )Z+I/ ]o{F#0'U;%>h$+$O;^#E$y%/#,*+$U#`;>$_#I@I$<&|@2#U$W>'&I$%#{;_#m#]#x#~#i#&#7@[-a@-/x@><r' %n#$$m#X#p#w#H#B#E$9*i@p/i#E$P$B#{&S;'#I@->D%L$>$V#l#c'T$J@E'i#K@'#o#e@f@*=c%J@@#>$J@V#&#w#c%m#+#}#X@N;&@c@w#_#w#|#5%h$L=J@;@<&'#J@X#'#G#|@'# %&#2#*;J@w$Z@,#&#w#,#t@Z(V#*$g%(%{;U$S;i#-@/%,#V$q#m#(#@_J@K@%#}#m@k$%>#]9{<@F,w>x$e$c=Y+8)W;_#H%g#B#+#c%>$k,_@0@E]M:K%i#B#K@5%S%Z@_#Y@U#>$t@k@>@$#V@T)5%&#N<`+L$I@J@%#|#f#f#%>-@&@w#!#w@&#6#U#&@e@-@|#}#M#m#&#V@~#m#k'e@q#+$i#W!5#S#X@c{_@$$f#!@t@c@f#<@|@6@d@q#p@x@Z@e@3$W!]@(#$$N#b{o't^)-&@c=F=y%H%!%]#I@#;/,e@>@i@&@M$}#g#j$e$|#v$F$%*s%=*j:",
"d0h$F#v%U;$&7$]#_#g$ %^%I]k@m@#>e$:%N%;&s#M$p##>L'q#;'m~$#r'_@:$A@9#%#h#1@^#F#|@$%A@Y+^#C#-$K@x{b#h@*$$#O#v@U#(#A@@#w#B#w#V@J@x$i# &$#B#3#o#s#4@Y$.@u#U#p%D#P=]#-@p@Y+m)6,E$6@H@i#i@6#-#e@J@i%%#f@x$Z@&@y#z]b*>$L'8#w(>$h@$$5%p#2#3#I@F#2#m#-@s#L$1{!@%$!@Z@3#/(x$w@_#}#q#4@!@i#!@$%F'&#p_3#~#o#,#e@@#{#|'~*}#f@-@M$2#:%g%*$,#6,I#E~$@tq$$V#o#p#5#T$K@H%b#&#L@s#'#Z@l#e@+%@_K@y%e@U#L=I@,#!#*@L=X0b#!@o#G#2#s#j#2#'#j#)$,#~#I@+${%x#5%F#x#]#$%&@t#2#h@!@'#w$D%u#$#T9k~*{_(/,I@}#~#m#U# ,B@i@!#U#^#$$i@>$L$g~b$&@D%!;%$v%,#'#I@U$i#*#I@2#V#J@*&o#v%r@W~a@*@z=x%~*&#0'x#q#]~w#.;x$L$U#W>I${%_# % &e*5%9'}#_#+%i@4%^#I$V#y@-@*$3#$#&#k$1*>#c$^:3#>$[&Z@!#9%l#-@>#q#e$J@>$J@j-`#e@6(p#f#d$Y$^%!#O#I$p#s#7@i@f#%>h$i#m@&@I@k>t@9'}#$$J@h@U#*$K@i#{$K@%#t@.$J@d$5%]#g#0'.$B#t@k'J#@#&#O9K@&#5>C'h#!^I=^*C%{^c-_-`%e@>$~#0#e%+$/%m~~#Z+n=E9{_b$Y+s#Z@ ,(%7'}#w#'#@_c@Z@'#C_N@T)+#$$-#b#K@<#8#O;q{'#L#i%f@J@p@J@/#K@7/m$B#/*6@2#$%/#_#&@{%!@V@_$_#t@K@>$Z@m#u>{$8#(#># &~#h@k@&@&@>#!@A@W!s@e@{;Y@$#$#P{g@}$$#h@[,u=-#3^V~M$e$*&i#h$9%W~]@&@&#s#3%l$/$9%s#r%}#*$^*b$}#[-",
"J_|%a#]#E$g#*%]#G#!#d%/%%'2$Z@r=;%c>w$*&B#h$}%j)^#$$''/,p@h#I)%#8#q{*{u(m#c@_$h@@#w#_#+#0't@e@@#T)~#'#t@ #w(B#.;x#t@f#O;p#@#H;7'm#t#l#w$0#T$V#$$|#_#B#g$.(I@l#V]k'b@{]R;G@Y(3*'$o#w@|# %e@=#_#+$%>$$O;5%`$i@_#L=_#2#'#V# %s#A@J@-@c'}#t@_#J@ $o#|@U;L=i%h@K@$#^:[&'#9%!@G#9'c%q#4#I@L$*$x#,#f#m#W>x@j#`#y%i@d@6*q#u#U#i%~@T$Q;E{%,`+z=K)&#V#,*(%C%T$3#t@~#_#K@}#i#>#2#V# %$#U#O;&#e@,#&#y%<&2#p#<&h@ ,5%5%e@~#I$e@*$E$/#K@5%I@[&y'!@+;,#c%g%T$f#2#,* #V$%%j-c%/%5%#=uq[##{P~C=m$&#u#D#@#S@]#1*>&&@-@,#_#|#c@_#3#x#2#w#v%i@{%r%}#i@l#%#$$$#0#}#B#,#;,9@q{T@B*n/E$C~<&V#}#x$J'c@g#b@;@~#w$X@-@g%s#E't@<&i#!@j#U;Z+_#5%n#Z@[&K%!#E$7@!@ ,j#V#5%f@_#y#g#U;_#5%e@&#s#>#;$9's#U;'#D@3&*$c% &q#3&T$w#x$}#I@5%!#L$%$7'V#u#/%j$I;{%4@f$F#k@8#i#D#5%e@%>g~I@l#Z@U#-#p_!@j-q#!@>$S%&#m#j#h^E$k#L'#>1@f^6';%;$_;<))@6=w:_#w#%%'#7'T$G'[-h@f^~=b[&#>#@#i@[&_@4@4@*$f@B#V@m^w#w@ ,)#$$w#@#c@e@;@M_+#Z+k##@i@+$3&+$N@+>I;c@I@+#k@U#{#h@f#_[V@4_$$5%w@d$-@>@&#H@^#B#h^!@u#9'L@A@-@f@~#V@~#J;;@_@_@s@c@w@9{n@U#(>c@)@z@g@2,3,c@Jd}*p#d%+;]#D$<*^'o]L@8%~%f>U@K=K%F$K@O9g$|#U$-%^n",
"vq]#t>i#s%~%K@Q$:%y%K$E$K,T@/@''A~-#_#o#Q%w#p#y{m@G'c=c=G@v]J@[#((u~>#*@(%^#s@$@k@v@m#q#4@2#c@X@e@H#~#7'-@w#'$-@>$V@[#c@t@]#@_h@;$_@<_h@w#&#.@8#w@A@o#%#>$L=H@=#DaY+L@-@q{u~^,d>U;,#H#^#e@!#k@_#m#w#e@Z@w#E$'#b@H@`$&#s#d%p@-@w#&@|#9'{%`$2#$$6@m#%#+;+#>&X#U${#w#m@w@>$s#U;y#D@2#5%b#F#**8#w#g% &I$9'_#i@g#B#I$C%&@j$3&u$Z+O,tcZ+}~@0+#I@e@e@T$i@&@'#|#P#s#v#!#K@+$k$!@w$n@b#1{_#s#!#K@B#4@b$l#P#1@0#w#e@_#K@k@}#s#%>i@_#i#h$'>]#!#>#9%p#6@4@i@V@+$=#.;w#}#%#A@2#&#e(])o'f^_-u>B#k_i%g#9%V#r%i#%&V#&#L=-@`#q@E=;&Z@I$o#i%=#r%U#7@y#!#p%]#w#C$a'x)`=D/A(g@;$p#s#k$U#j$>$q#a#;@1*D@e@~#,%^*|#i#V@I;/%5%f@*$!~H#I@g#y#m#|#p#p@V#t@7@7@K@s#U;2#~#I@'#]#K@y%m#i@B#w#`#3#Q'm#S@$$Y@H#T$j#.;U#-@B#m#x#*$^:J@f#_#t@=#y%N'>$m#|#e@f@6@7'h@*$4@L$|:1@i@I@5%W>7'U#f#=>2#g#b$$@'#&@-@&#S@}#+#k#9'(#A@z@0=E$8#Q_E(~>s~%/8%3#t# ,~&H@;[p^6#Q);=,&U;N~-@x$|@'#7'V@}$q@$#{#tc!@3#$#W>-@3#U#n#b#J@e@`@!~B#w#X#i@m#;@V@X#_#e@3#h@>#9{6$(%5%K@%#{_6%!>]@($'#f@+$4@f@A@w#W>~#6@.;o#U@%#&@[#h^.#q#{%#@=>6#d#x@W!*@$#*#<@*@*#0=),J@i)a%b$h%D$I;L=_*G,-@1@k@U#[&f$O$s$=%g#w$g%A@F$#=:~",
"J(O;9'F;e# &g%/%~%5%]#M@;,k#x@4>>;p#`#r$V$s#[%+'*$t@z=4-u><@a@s@Q{)@X@<@_$Y+_@k@t@5%+#@#M#i#U#c@$$%#e@}#6#Z@k#c@*$w#>#~#i%!#(#_@e@{%h@V%_#I@k@A@6#>#3#@#f@m#n#|#p_::>@F@o'g@%,h8S% ,d#0#|#.;0#t@U#h@i@(%&@!@@#3#}#n#6@{%@$*$S;f#6@8#t@~#}#U@-@=#~#h@L=!#d@I$n#C%b$u#m#>#5>&@c@|#Z@)>'#f#{%W>V@I@e@i%e@'#*;3#u#x$-#m#~#/%h$+'P~*@3$})=;f@t1o#M$^#K@J@3&;@c'}#p#p@i@e@%#x$h$B#&#K@$$_@k>N@e@3#`#_#I@!#V#>$_#j$6#L$p#!#*$l#X#{;b#n#(#)$U# ,U@k@X@e@Z@M$ &$$6@m#p#M@@#%%Z@v@9{9@a@;'),;=6'@)H)j)D]D,F]u{t,@^8-I,,,'^e,L,+'''/,:#n,%'k,r,0,$]S,S,F,/,~,)#0~c=V*;$E'J#j$m#f@;@}#W>K@,#.;6%9*@#C%4#&#K@%#s#P#;$x#g$s#T$g#*$+#D%e@b@4%+$M#e@K;_#I@w@p# &_#,#$#I@e@I@W!2#V#q#m#e@m$-@s#9%}#8%K@&#I$S; # ,s#^#j$U#x$t@F#s#y%>#y%E',#V#U#_#X@K@f@B#M@i#y%%$!#5%a# &p@h%v/@$0#J@;@|#$$^#A@j$I@E$&@3$<@>/;'e^@_3*a,=@x,K)V@t$&#>$;$ &p%:,Z/1@!^X;*$~#|#p#2#c%i'K@*$U#~#8#&@5%U#*$;@Y@B#@#>$>#J@E$Z@|@q#9'M;->q#'#|#q#%#e@w@g#+$y#f#*&I@r%|#h^;$s@U#X@A@8#O'&#L;;@j#'#x@q@&#t@e@#@u#>#q#I;A@(#=>2$4@>#;@>#+@$#+;(#P~J'_,}-@_'')~y$T$U@5%k$y$e,_@6#%#0#K%D$!#T$d%$;1%V#V#{*9*a-",
"a/e$<%]d=%K@s#P@/%x$g$!*/'t#;@D~1%b$I$}#+;o#t$X~^#M#n,_,[#h@1@&@g@$#a@-$J/;#&@6@7'z]n@$@6#6#-@%>$#I$f#6#i#Z@+@2#G#&#&#4#p#;$i#;$>$$#7@k@Z@!#e@V@%#*$B(q#F#+#L$f#q#i#wq]$ ]6@g@R;'^K@D%'}&@=#k@T$J@I@w#I@4*,#U#Z@U;;$&@f@B#!#y#w$J@-@>#}#A@%>|#3#I@e@%#U#}#p#V#F#2#&@w@G#-@s#-@n#S@M$Q_ #v$'#W>f@8#Z@D%F#9%g#Z@|#W%T)^%K@'#6~h#2$xqD9L# &u#U#!@U;M#7@;$J@-@i@e@s#b$&%K@|#e@x#~#=#V@X@{%'#e$(#>&i@y#2#g~2#$$i@W%s#/#Z@i@s#G$ $-@A@F#Y+4#d%e@L=w#c$K@0#_#p#V@V#J@V@i@%#V#3dyqz@)@@>k~{]k@>@h#d-g@f)G@~@(@u~g@[@z@c{n)a@z@9{)@/@Q){>8@6@h#c-<@(>5$_$3/Q)e'*&-@W9x$ $}#l#`#X@&#>$I$^#M@7@C'b@'#~#_#|@'#s#_#V#@$K@&#U;h$u#}#$#C_Y$^#1{9%P#K@#%>$s#!@w@7@Z@U#w@&#-#C%f@&#2# &m@s#q(I@_#'#k#I$&#4@J@ %&#A@w# $=#&#|#!@U#L@T$V@#%c%l#$$5%d$[&5%~%7@Q__@}#6*i@c@-@7>+#{$3#G#e@V@2#{%^%5%O;_#~#^#($J's]q,5b8#H$;'w{k)5{2#+;l#,#*&|#~*G,)@5#A,R)v@*$&#k@i%k'P@k#v/V@&#8%F#@#J@U;-@_#+$%#k@B#f#;@t#K@6#c%Z@_#6@@#b@f@@#g#^#g#N@I@Y+K@i@L'%#=>'#I$,#c@%#C%t@$#;@k@>$p@K@!@d/f#d@m#8%J@1@{%f@`#8#w@+#f^Q{b{z]9{($3@W!l@*^^,*$&)=%(&g$I@V#s#[*m~h#^#$%P$M@a#v%T$'#!#~%d${;g%Y%='",
"Wc+>C$$&u%B@/%=%=*e@/%)$),_@*#Q;-*]#F$]#a#s%o#z{f['>V,7-6@9{@>9{A@h(Z@2$H@&@&#w@X@f@*$x@f#;@x$4@^#$%=#J@m@i@=>H@F_}$;@-$;>>#e@i@%>N(Z@_@`#I;{*@#G# ,c@J@i#b@_#I@5%Q'Y+R&0@g@[#p@D{[,%;2#d@-@u>V#d@w@9%*$A@$%J@K@%$=#t@'&i#%>5%&#q#s#D@7@l#*$J@q#8#l#_#c%U#f#+#5%Z@h%p#A@R(!@[&@# %'#7'->s@U#2#V@y#>#U#p/<&p#,*t@]#/%7/i@2#Q@~@9#n=V%s#a#B@o#{%F#l#K@d@s#p_o# ,w$&#!#6$D@;@B#8#e@}#$$D%K@V#C%U;'#R(!#Z@9'4@c$h$-@_@-@6%B@v$ %n#!@x$B#&#|#c$&@V#[&i#_#y%U;+>s#}#W>{#p#!%9%x,C%u~n<$@5@q@9{o'%]($9@q{0@<@T#%]*@h#c-z@0@[#-/{] ]1@*#%,a@2$(>Q)h#_$_$g@L@9{*$I@}#3&V@w#s#i#!@I@i@I@U#;$5%I@|#&#*&i@g%}#a# #&#}$i#b#%$_#O#w#x#h%_#n#A@l#R(~#p#T$k$5%+;k#'>x$9'N(%>&#'@x(S@^#v#K@F#w#K@/%0#=#J@c%{%H@5%w#M@>#_#p#w$-@*&U# ,+$7@%>1*7@K@V#e@,*w#e@L=m#c@U#$$|#y#g#>$#$J@^#f#V#>$-@B#w#Q'3#5%*#w{Z+<@n,V($$c%~,5@L,I<~#=#'#_#'#U#s%A,9{*#D]=_}#x$[&i@'#s#m#%#I@6%W>&#f@c']#3#'#}$-@D@i@J@$#$$>$u#~#J'*$$@I;6#{#t@i#'# &x#B#;$|#k@Z@V@_#q#D'm#$$A@f#R8a$b@W>Z@[&I@5/+$t@>#i#p#)@U#c'J@^#2$[#(/s@&@%]O;b@V@x@)#P~{$,,%'J@8,l%s#B@}>/%*&x%2{+@q@I@d$/%v$x$v%R=P#L$<%h$Z@C$bb",
"V(4%p#]#x$S%}#h$1&%%p#*%6=4@L@N{B%r$r$S%K@%%%>n)@#i@n,*^g@T@M#i8-$>@(#Y+[#L'Y+k@$$}$k@7(z@h#=>C_Q'_@c%4@<&e@m#=>/@&@>#~#8#5%L;@#'#B#w@s#%#h$}$B@m#'#c'f#c@_@&#w#'#)#L=9#/]x@<@P~`+5/O,|#2#%$I@>#j$V@L=K@l#w#!~c$a'd@Y$%$`#g#4#*$B#&# #q#%#7'B#L@&@>$+$g#k@T$U#d@w#i#V@y#6#h@m@L$J'%$U#C%t@;&i#-@e@Z@@#Z@I@ &|#a#G$B#|#|#g@*{*@%,6'zq0'e@@$ ,}#g#;@'#A@D@[&$%Y$w#>#~#~%s#%#V#c$<%5%!@/%m#L$i@I$`# $*$I;2#>#Z@i%w#w$b#B#i#y#}#e@k@&#*$!@L$K@U#H#g#f@%>B#U#5%_#v$K@s#o#;$z@b)Z+z@z@i=]=t,'-8-R,=^7-y=v=:==^0=/=--E]abi:z==^--.-2=Aq+-:-_='=%-aiBqy)a@#@m>&)P#}#C%E'!>I@H@K@s#Z@Y$!@;@g#u#_@&#g%i@i#{%a#d%h$j-p@6*i@p@G#F#|#b#)$-@F#e@$$t@8#q#K@'#e@%$w#7@!#|#L$i%$$i% #B#&#V@t@a#*$U@n#d$-@w#I@q#q#>#_#U;B#y#$#{%D@2# $U#!#c%3&J@J@-@[&o#~#&#,*~#w$-@7(3# #$$>#$$W>*$i@e@V@e@i#y#i@w$_#_@5@-$)#4-1%*=&%r,/@I)f~!@g#>#$$s#Y+~#r{)@%];,>;2#e@'#4@5%$$b#}#+$j#L#:&'>*$e@3#y#*$~#f#f@;@M#B#f#_@n#S@&#J@-@'@O#v/f@J#+#5%>#T)Z+w#w#m#{#+$L'+$Y@%#W>x#J#]#w@,#J@Z@h@*$j@b#;@t@{#J@!>a@d@(#i@~>d@-@q#$#$#)#;@$@u~k#r, 'l#;=4'M$-#<%P#l#G=j)-$K#^#o#/%k$%&T$]#!#I$C_*$<>B;|~",
"Cq.;_{%%2#]#5*7%9%:*b$l#~,k'$#F{f%B~M@~%m$w$r$<)-#^#m,6'c-)@f^;@m@Y@J@e@#__$_#q#~#>#c@-@Y+/(M@N@A@c'/#T)&@w#e@-@G#j#]#@#}#6@L=c$V#m#^#V@[#;@U#;@K@]@D%V#&#w@m$K@=#V#i@i@{%DqY+k~8@`+P~F,0*L=$%+$c@7(m#~#-@{%3#*$e@K~5%^#q#!@|#&#u>+;*$c'b#j@g#V@e@}#*&|@s#>$2#e*g#0#,#U;Z@!@Z@S@e@qb_#e@&#W>g$!#g#V#h@H%I@N~k@<%U#6@t@w$#;>]L@1@R;4>_#|#V@5%w@i#V#b#7>I@2#i#+$+$;$I@|#$%=#q#m#e@!#p#c@I@S;g%!@_#s#2#,#|#K@b#2#m#V@|#'#,#i#U#p_5%s#i@0#(%i%I@e*~#I$,*%#C%V@7(%% ,%%U;j$U,x@T@A(EqxmG&,dFqMbGb^!V7Gq$!J+Hqc Iq_dJqKq1 LqMqNq6+Lq{./q8!M OqSbNbGm9qn<T@ ]/)F@];h%I@w#T$ &$#&#+;&#O#@_w#'#_#Y+y$W!{%,#F#}#X@Y@$%U;_#p#:&H#&@&@E$m#;$w#i@'#-@=#$%I$E'&>K@T)4#%$$#B#2#V#g#_#h__%$%v@V#B#Z@e@w#Y@I;^#e@{;g-j-w#$$5%K@h$O'@#L;'#u#W><#Y$h@((Z@V#C$h#B#i@M@e@_@f#>$%> %Y+w@B#9%@#K@U#n~,*K@4@2#$@@#h@],k{=#g-+'v~x,G_W>>#|#5%q#>&k${^q#T@B{l^w#i@c$e@=>U#^#I;$@8#h@6#Y+_#+$B#,*>$g#&#=> #g@A@Z@3&$#B#|#;@!@(#A@5%f@b#U#m#O;%$-#*$U#+$I@T)>$M#f@e@/#i#8#V@h@M#B#m#&@D@L=y@y#e@!@^#3#-@b@S@c@X@^#*$h#*#R;6/6/b@[#)@p, 't@2,j%M$$%m%e$W>l$S>T)9{#$j$f$M@T$)$w$a#s%S%Y$*&-%  ",
"Pq=*K$O;U=v$+#d*h$b$v%d%L]_@5(j)!%w$->!:3*)$g%;=$$1_+'n,'/Y+6/$@m@B#6#s@1@x@i'Y@;$b@_#L;C%>@A@J@t@@#g#z@T$B#$$(#M#J#Z@<#e@~#>#q]v/f@_#K@>$_@ &5%L=~%!@1@L$(%Z@<%n#w#%#Z@Y@:(9b1@$@6@5@M(>,p_2#z]u>c@>#k@w#Z@~#G#|#i@J@{$;$=>`@c@J@l(_#o#;$3&m${;1@-@h@>#># &+#&#B# $&>>$w$ ,f@&#P'%$&>B#J@U$Z@=#j#2#k@-@n#[&/#m#'#j-w@q#L$v][#{@4@[,s#U#!#&# ,{$k@0#>#'#e@^#S@w#$%'#2%_@%#}#J@_#c$f#C%h@U#~#~#;$-@L$y#K;_#+;;$g#w@+;m#K@2#E$@#|#K@}# &-@K@$$i@ ,N<>#6@!@w~-#D@M@-@@#*#r@F@)#6-}0b@_;p_S%,#B#B#Y$6#I@I$_#f#u#W>$$K@@#5%^#;$J#!]&@E$7@g#z]s%{%e@c$m-($`+(#h8o#4#q#h$I;V#@#_#h@g#e6Z@K@U$J'~* #`;f#p#;$V#7@-@W!G$w$T$K@$$o#@#'# &g%&>w#$$i#m#$${%A^{%$%g#h@b#%#~#I@K@|#U#x@'#-@>$F(g#%>@#*$3#`;b#H#,%i@d@J@I$!@I;Z@I$D@*;8# &>#T$9#q#S$ ,!~5%B@3#[&&@;@-@(;7@U#*$6*_@7'<#W!=#y#H%6%&@a#q@2$$#${a,<>d#g%m,T#^)<^$$'#U$'#@_c's#I,=@-$Q;;%0#u#s#U#U#W!L$B#p#W@T$f@D%g@2#&#!@6@W!i#$#U#e@v@g#N@&#'>0#h@8#Z@w#l#6#b@+$q#E$_#Y@ &;@e@t@$$.;@#I@4@G#i@i#c@_#U;>#6@f@4@u#h@B]j#]@Y+&@Z@6#+$1@A@I;A@[#_@l@$@J@b@G;9{ '*^B#0)Qql#M$U$M@M@r$m~A@>#Y$$$^*W$o#r%V>r%g$=&>*U$s%@-",
"Rql$w$l$n#^%D$j%o#j$I@y%T#g@I'v{0**&s#1%[>|#>&W~k#Z@P,,,{]a@h#5#c@o][#L@Z+_$L#Y+,#~@L@_$U#z]-#j@_#O#&@J@2#|@<_-#C_%#Z@J@~#e@*$,#I@]@~*U$i#L=^#3#5%@#|#~#U$l#2#|@,#x$y#^#B#^#n@Sqd-]$0@F@S>n,D$_@B]F#d$s#W>V@;$U#4@K@j@j$s#_#*;i9c$-@!@0'B#k#_@I$}$I@I@f#I$_#!@c'_#e@g$F#Y+;@t@{#I@y#>&,#_#c@t@,>|#/#;&L';@e@~#'# %I$U#F#_#Hfo{:$Q@5]:ee$i%D@t@!~;$$$*;s>|#B#B#5%m#7@V@$#J@c%-@^:|#w#f#4*1@|#i@3*>#K@L=V@`;k@]#[&7'g%f#[&Z@^#[&8# ,t@ &;@J@>#-@!@3&L$w#!#c@6#/%~#e*b$3,($((^#V]@$|#L$f^ ,&#_#}#I@5%=#g%e$-@l#$$d@}#g#>#7@g$&#$%_#0#{#o#T$*$c@9%D@g</=L@x@8)]]C$|#{%'&^%(%i#S$i@|#&#I$g%8#!~s#C_>#l#*&b/8#L$.#}#2#g#f@r%*$>$=>9%h@;>i@6$c'E$q(:>q#>#!#<#c#S@h@/@s#|#|#~#s#3&V#B@t@f-$$I@}#_#i@I@g#I@J@f@m#>&!@K@C$V#W>B#n#K@]@~%N<4#c@7'U#q(+#J@0$5%O#1@'#[#q#c$e@}#6#i@>$%#g~^#g#;>}#~@&@9{2$I,S=*$=*^,`+ )A;;@E$K@y#_#e@@_+'@#Y+A'V:*$*&;@1@O;~#y%@#q#&#i#_@!@J@n@!#X#&#;$I;T)3#U#&#h@ ,$$c@;@,#.((#f#|#A@3#h@V#!@{%A@@#c@b@$%K@3#t@&#$$*$f#k#d@e#f@(#e$^#(#f#V@Y+;@-#h^J@T)2#*$O;&>O;_#J@I/a@L@a^%,*#/#;'8-c@$]p'}#=#`#E$u$T$O]O'.(P#~#P$F# ,P#|#i%4%-%Y;*&=%Q,",
"Kcr%W>**=%m$I@L$}#w$'#I%I,u>u~C=%*9%!#F$h$H%s#`'1@c@A'8--$L@k#o'd@c# #L@-@q#6#k@]@ #[&'#d@t@u~.#w@6#B#+$1@@#f#m#f#V#I;+#%#N(2#t#y#m#[&%@c'n#t@e@>#V#&#=#N;I@,#s#c@<#v#O;m#I@F#b@Tq(>F/3$9{r=L,y#P$E$O;;$@#L$!@$#.@U#!@1@5%{%l#g#(%+$I@$$q#C#i@I@e@3#Y+2#m#,#a$Z@|#8@Z@4#d%[&B#;@|#-@>$u#%#!#B#|#*$h@I(;$(%g#D%4@!@;@e@K@7@-#o'6@q{>@-^+#t@U#i#*$I@E$i#E$Y+2#'#'#f@U$[&t@`# &-@ &U#w#f@L$I$|#l#B#L$x$5%v%w(8>-@4#e@J@>$D%w@L$K@<&J@*$U#h-o#A@&#V@p#x#&@_#d%s#`#)>'#5$I];#(#Y'_>)$&@s#_#_#]#K@A@f@D%I$o#@#m_y#V#t@e@;$&#K@-@]#]#T$J@@#*$U#_#<%e@!%v@Y=]$h#Y@C, &c%I@v$x#U#C%2#b#f#V#v#i#~#g#b@}#!~ #^#**q]q#f@K@m#w#_#;@v$s#t@E=K@;@;@w#f@J@|#A@-@H%!#0#5%_#~&r%A@5%1@K@3&y%o@-@u#>$$#|#A@m#_#h$w#c$-@&#3#D@@$H#U#7'i@b#w#B#B#D'F#&@H@[&F#_@ ,y%7'}#,*,*0#L=L=p#o#g%w$w#f@K@w#F#^#G#Z@L=^#q@c-(,+1H%E$t,9{n)p:o#w@h$5%L'b$U$^,x@6@n{;(^#{%e@ #V@I@=>d@k#-@U;u#B#,#p#q#_#k@U$f#u#h@-@>#q#w@l@8#|@)@k@+#%>1@o#e@U#&>*&q#!@|@-#U;s#f@L;*;d#B#8%w#&$)#hiX@w@H#-@@#V%_@@#e@w#h#4@4@u#k@#@a@k@-$_@d@;@F@G@/(8@q#4^&'m#_)D:c%y%S%;$w$7$K,T)W!d#e@!#X%v$)$!@s#y%~*T$/;k$@-",
"Uq4%Q$w$=%s#v$)$M@h$K$5%P]I;k@s~j%s#N;E=M@6>f#I)8#c'8-r,h#3$_$_@h#g@*$u>-$(#k@I@`+&@E$d@!@@#_@=#1@6@_#@#m#3#@#3#/(N@i#|#_@%#a'L;S@Y@d@e@A@e@h$U#t@O#$$e@1@=#{;$$$$o#&#3&c$Y$I$u#4@;b7-k@q{p@3=:#a#o#q@|#f@i#@#9%i# &3#w@s#g#&@*$*$J@o#p%~#B@&#{% &i#3#c' &{%U#q#Ia%>e@c@;$s@U;'#G#+$`#V#5%k$m#.{7@s#V@U#6@.{_#{#s#j#N@e@*$ $Uf`'(/5#>@I,N%-#l#>#5%B#~&W>J%m#E$3#$${%@$J#V#2#s#8#Z@-@Y$}#i_7@a#!@}# $0#!>9%>#s#@$~#&@$%_#U#$$t#8#:&p@/%3#9%1{+$k'_@E$}#A^2#J@y%}#e@2,L@W!n)Vq$@Wqj%9%7@}#g$k@p#T$;#o$!@+;`#_#s#A@]#j%:%{%;@B#{%.(V@I@A@y%e$i%L$I$e@';<)~@;#^@''I$*;s#c@g%1{!@5%S;|#O#I@^:4#'#_%|:_#6%J'|#B#y%3#l#B#s#V#V#*;U;I@t@ &I@s%$#f@/%|*i@B#&#J@'#6%U$&#>$c'y#e@p#6@g#;>x#_@|#I@>#B#y#-@&@m#$$U#{# %b#m#p/2( $A@g#`#B#>#d@%>2#'#>#I@f@c$9%7''#%#%#o#s#G$h%$#-#N~n#E'V#q#@#Z@o#s@h^p@$@z=X(o#7%A,x@9)D_,*'#=#L$1@g#k#9,*@$#k,>%l$f@h@9'.# $3#|#^%I$w#[#K@@#U#&#m# $Y@+$a@;$<#4@,#B#U#U#q(A(!#1@6@,#M/^#&@V#@#U;o#J'5%5>g@i#v~J@<#c@(#=>4_B]S%u$v$u(c@;@B#B#,#Z@v@9'+$V@z]m#I@J@%#k@~@Y#A@Y+1@2$v@h@_,,,>$s);%O%v%(%D%J=w%S,(#!]/;I@*& &v$K@9%{%g#I@v$D%>*@-",
"@0l#8[b$/%u%v%H%]#:%l$h$R]t@_@$)T9e$=*s#S%x$a#U{n@@>I,*^F@c{v@_@O;z@T@s@L@a@O'h@s@*$D@@#s@B#3#Y+^#e@-#Y@5%y]@#6@!@g#i@A@^:<#V@k>Y$e#*$%#'# %)#K@&#w#.$%#e@B# %<&l#%#+#f#6#V@ &>$ ,O#/0#>)#Y+d@$];=Xq&#D#i@P#U#T)!@+#3#j#b#c%m#$@h@_#&@A@I;7'U#o#3#{_K@|#}#3#E$B#6#N@'#$#d$J@[#w#+$j$x$%#W%V$_#j-y#!#@$B(i%(3U$I@q#L=-#c%B@J@4@%%^#2$A#P]Y+3#h-E$+$q#u#7@v%q(w#'#w(^*w#w#S$l#1*i@U$j#c@K@5%/@w#m$~>n#;>^# ,I$+$D%I@B#K@'#x#'#;@U$g%B#&#Z@]@|#w#!@!@4@&#@$@#s%L$c%6'E{o':/`+s%3#t@&#L's%'#V@`#<&*$i@w#L'y#U#!@m#f#*$U#I@I$`$e@i@m#e*,#l#C%!#3&k@h$L=`@ *T#Q#Z+/,~#b#'#+$g#M@{%O;V@T$i@&#3# %-@I@1*`#!@F#j#i#g#s%*$Y$b@l#&#@$[&h$D#V@e@w#|#C%*$8%q#{$h%j$C%i@e@C%t@&#!@h$i% &f#~#e@3#*$*$!>&#q#x#t$i#d@|#V@t@W>j-m#=#J'$$&#-@V#u#!@h@*$0#m#!@%$3#`$l#/*d$U#U#A@L=N;G$-@7'b@Z+%#j@{#7'#$i#*{5#b@&).,=#Kd(,2/A'8/m#w$6@l$=#I$|#;=^#n<e=K$I(}#]@Y@+$M;^# ,O#2#6@D@_#5#e@%#|*-@A@!@i%!>!> #H@{%>$-@q#&#%#w#f@f@B#{$'#p@f@$#-@J@;@1@1@Z@1*!@t@J@%#i@U#j#v~/@'>V#v/&#>#c'h@v@V@7/A@[#q@&@x@*$Y@6#h@J@d/*#_@u((>]@s=*-&@2)T'>*N%i@g%X%,#6~d@{$c@@#W$i#l#'#1%:%V#]#e#/%P@:~",
"Yq4%d%!*p#d%[&)&];D%E$M@I)W!3$v{O$x$9%x$!#/%*&o{A@&@,,z=a^1@_$Y+&@@@b{%@L#J@d@4@J#W!@#c'8#4@C_J#Z@=>t@;$;@~#&@h$Z@U;_@@#*$y#k#%#'#_#i#U;&@I@{]$$l#|#e@|@%>$# %_#h%D#f#(#=#&@L=U;Q''&K#Zqz;W!:/$$3=L,[&f@9%_#^#^#[&c''#L$H;&@K@>$_#h@L=i#+$_#`@<&%$y#y%I@K(J'S@y#F_B#u#/*((2#5%m#o#5%t@[&_#'#w#p#p#,%'#i#f@ ,c$,#g#w#m#E$d%h%S@^;P^g@<@H'r{]#I$-@l#+>:%2#j#k$U;{%D@B#>#_#5%5%B#$$>$/@f#`#+$L'e@e@A@!@J@T)r%I@V@~#p#}#_#'#g~Y$.{.#h$!@}#5%_#!@`#6$F#|#p#2#I@d@e$h@6,W!F@''`qf@[&E$i@o#g#-@U#Z@@#[%L=U#i#2#'# r&#b$_#7>9%w#Z@>#'#k$F$y#I@4%-#2#I@g#s#U#|#e@B'2$u~3,S_p#V#C_D%v#w#.;U;^#}#>#j$1*0#|#>#e@@$S@k@H;=#]#}$*%q#}{i#y#!@J@@#,#c@>#X#`#t@h@B#/#w#/#;$I@c'*$}#C_w#%$h@T$y#h@[&F#q#D%g%q#-@W!i%_#D@v/Z@,#b@-@0'%>j$4#~#&>f#U#&#w#*@|#&#U#i@5%p@i$U;c@t@W>_#(#&#L#I@$$ ,g-*$[#}$3&;@a@h@[#A,1%7@:%9,r#3=S)_#'#y%l$+$%%!~A,J#($R].,M#u#&@;$I@&@s#b#+#J@[&f#-#|#^#h@&#8#_#i#k@p@&# &6$K@_#I;}#K#c'p@e@Z@Z@!@V#W!d@X#'@Z@+$2#J@L'A@Y@f#-@9'B#V@&#e@_#x@t@;@G#N;g@w@Y@[&b@J@h@3#c@$#k#8@!@h@5#`+B]Y@Z/Y@:$r,^,|@t,e~]#S$&#>&v$]~=]f#O;m#*$+#]#K$T$3#v%a#r$j$g#I@@-",
"Cqk$f$v$h$P=I@0#N%p#h$Q%3==>_#I)%(%%Q'4*N;H$;>S{k@~#_,r,R;k~Y@J#6(<@9#d@u>w@.(x#X#A@_#k#c@t@ ,@#@$k@T)t@{%h@i#f^h#t@$$^#*$U#@#p@d@V#e@J@V#b@Y$+#8#U#T)$$-@f@%>x$e@=@*&<#i#(%V$-@)9.#t@9@P!2@*@[#-@e,2d~#*$D@e@*;7#s#e@^#$@_#9'>#e@@#6%@#&@m#%$q#L',#;@e@I@}#@#s#u>5%c@M#w#.#|$!@E$T$-@~#e$8%Z@U$x$y%J@%>4@m#B#-@/%w@&#f@{%i%$${#::r'x@)@U{B{I@Q_w~m#7@c%5%2#J'c%U#8%f@Q%@#*$@#8#x#!#|#s%|@_#b#&#t@e@Q_i@~#~*i@!@J@w#g$W>i@{%p#[&!%^%H@f#V#}#F_2#T)5%4@{*<&f@W()'_$u~=@a$.$=#!#p#=>J@K@'#{$;@B#{;.;K@U$2#y#_#;@O#'#V#M%B@>#-@K@-@2#K@h#D@F#5%v@2#w#y#J@x/Y'9{x@s~D= &L$o#z({;@#P#!#!@'#b$K@3#x$}#H;_#T$;&f#D@W>*$7#'#H;S@s#B@!@'#^%Y$a'1*T$s#v@P#f@p#%$e#U#Y@[&-@-@B#e$$%y% ,@# $8%~#5%i#=>L$9'V#1$;&!@8#m#U;|#Z@v/M;>#w#d%6@g$s#5%i#w#K@n#>#'@s#I$>$=>L$Z@/%6#e@+;V%X@L$+#F#!#V%U@<#;$B]M#W!A,H$|#&# 's]/,~b%>%%n#<@'#~#O;m~M#~@!^U(>#}#C_!@S@$$G@V#X#C%k@ &L#_#m#V@A@e@_#7'5%I;$$'#%#J' &p#t@K@X@@#2#_#e@c'&#L=,#i(h@'#bfZ@H#w@x(w@b@-@V@i(c@-@X@B#y#*$h@$#5%J#f@*$+#h#Y@+$}$]@_#}$%#+$T)Y+$#Y@0@d@A@_@n=f,N;/,e~9%!#W>y#=%0*6~{]$@-@+$#%b$K@3*f$!@C$ $a#f#<%:~",
".rw$0##=>&I@*%l%g$Q$~%g#^)Z@1_$)X;P@{%}#T$g%9*0~^#i@A,;'+#Z^($s@s@6#$$Y+_@Z@-@.@d#x@+#+$6#H#;@b@'/s#-$c'e@d@_#c@$# &,*}$6#K@B#V@ ,B#%>m#|@|@t@i#$$%$c'I@+;>#s#4@5#&@m#A@i'[#V>$$J@H@*$Z@a@q}~{x@b@f@;=]'g#-# $~*o#W>D%c%Y+l#'#q#I@$#(%J#Y$;@I$i@J@k@X@{$f@>#l#_#'#L#q#J@h@;@Z@U#c@N@X%%# $P#M@i#I@/%o#$@d@ %U#J@-@L$f#!><>m#a#D%S$5(w@d-%>I,|#K;2#F#c@2#Y$f@0#|#E$_#&$e@^*m@c@%#e@;>&@_#J@]@k#5%5% ,_#*$._>$}#_#C%E$2%~%d$V#_#_#|%@#O'i#!#l#!#s#e@K@|#i@_#v$U)B{d-%]%-A*->=#l@I@!@_#9%;$%%&$c'I@g#P$A@~#k'K%i#^%w#t@5%;$&#w$|#s#o#a#7@}#D%8#|#_#U#{$e@-$/$d-I;p@m~P#|@3&>#;&c$J@F(9%C_l#$$n#$$~#e$/#i#@#L=,#y#T) & %B#,*Z@W>B@w#'#i@m#%#~%:&+$e$}#D@&#I@Z@$$~#!#J@8%H@~#]#.#9'K@m#+$y@%>Y$~>k#g%>$U#,*7/e@2#K@&##$v$>#^#>$9*q#V#;@l#Y@^#3&P#U#e@}(D@/@$#C%e@-@g$V#K@H#u#'#2#k@._2#X@p#q@L@F@P,==$$a#n,a@n{+r9'B@V@%$Z@U;'#K,/@x@=^A;U#A@e@e*k@1@U#L''#t@x@Z@e$9'v@&#-@!#e@_$t@(#=@e@H@,#f#!@.{i#L'!@u#-@c$6#J@V$J@6@%>U#4#t@U;8#m#b@p#T)&@%#Y@5%U#c'(#f#{$&@w@4@B]h@_#5>s@m#&@c@Y$T);#c#1@%#w@)#(@Y+)@h'5,5,m#x,R'=&;>!#_# $>;n,^#*#h^V@]#E$/%E$2#0*k'T$M@u$[*o,",
"k^h$P@h$#%g#c$]#G$=&!#j$G]&@T)#)s:s%0#%~v$}#s%N{&@k~_,^,q{h#k@-$q@6#$@s@)#Y+Y+-@~#G#'#&@c@c@Z( #Y@%$f@%#!@ ,B#_#J@h@_@U#(%q#8#k@~#g#@#I@>#L#i9-@M#W>3#+#B#;@J@-@,#i#U;*;_#C%'#b# & _!#w@S%T#=0[)L@]@-@@rU{N~A@*&J@%$,%k#e@c$-$Z@e@@#T$@#u>i%7@Z@f#Z@U@L$;@&#3&7@.;7@I;f@&#~#j$c$@#!#i@i@K@/#p#!@2#&#l#e$i@A@8#u#j-t@%#U#B#d>A@*&`+#r9@'/9@h#$re#E_!~K@_#'#D%+;t@g#2#h$N;`@,#C%_#K@f#@#e@}#H#i@S%L=d@c'q#%%S@@_*&>#g#m#'#{$8#U$n#B#;@ ,2#^%V@&@K@|#i@#=c%q#w%t,(>D^(#::]$)*y#~#*$/;&#U#$#c%w#t@!@G#d@E$Y@D%V@O;_#B#%$/#e#~#_#+$Z@Y$>#p#F'f#5%l#H%+;y#g#p#J&$]a@F@9)X/i%}#2#w#Q%x#f@X@U#g-x@]~i#0#s@B#]#&#f#8#k@F_!#-@e%%#q#B#~#U#~#&#U$K@V@!@~# $]~ ,U;2#d$p#4@c@+$V$&@e@^*g#_#7#!@y#-@!@e@w#'&}#+$<%Y@i%~# #U#3#&#'# ,{#<#B#p#i#C#e%>#U#->D@i#{;;$e%d*e@-@Z@s#>#;@'#L'!@@$e@>$H@g#n$s#v{*#W]J]5*4#B#S,'/$)&b>$X@2#Z@V#$$_#]-h@[#i)#0$%5#C%@#-@*$s@^#J@s@Z+3#d$$%0#+#@#:&A@z@|#i@m@*$m#-@i#Z+4@c^-@t@W!m#'#x#q#V@}#K@!@m#-@A@c$5%B#1@q@I@&@U#{]c@N'Z@;@L;h@J#]@-@+#C%'@U#3&f@>#+#+$c@G#(%J@'>m@G#h#_$*@d#^'<,&@c)n>H%]#g#=&N%x$,,N/%]V%5%e#=%3#s%]#i@L$s#}#$%_%j,",
"u*#%y#o$M$K@*%w$=&H%N$.;;,L'A@O^Jns#G$D%<*U$&#D{T@N'+'7)<@T@A@'/_$A@+$q#M#9{J@B# ,4@2#-@p@:(m#f@[&(#%#>$6@|#e@o#^#;$Y+{%I;@_)>6@I@_#a_&@e@k#k@ $m#_#1*}#B@Z@p@F#e@%> %'>|#x#~#&#C%((+>9#e@+$@#u&=]n@5(F'A'r@@,c@j@w#n#&#e@/%&@i@K~}$J@E=X@$$X@V%$$k$h@6# $+$-#'#y''#Z@^#g%$$O;d#9'F#i@!~c%f@&#g~Z@5%V@6#+>2#(%3#!#U#^#;@v%;@e@Z@i@3#F#C'Z/x@e=1@q#s#/%_#+$w#5%+;y#s#{%6#d@x#$%~#w~W!t@|#}#w#e@2#q#8b&#f#i@_#p#k~<#y%U$p#g#U;^*}#K@Z@&#_#,#e@>#s#0#}#6#K@l$X'w{9{~@x,1~p#8%^#I@I$.;!#8#h@Z@I@c@ %s#Y+m#b##$l#'# &m#c'7@>#<#&@}#%>>$|#q#^#-#y[|@'#p#y#^#7>_@D:{@h#x@;m;&l#~%p#h@e@_#5#Z@ ,7/F#|#J@_#f#h$!@<&Z#g%+$E$ &h$C_W>m#T$s#c'e@W>Z@@#m#u#I$&#~#H@f#!@V#_#$$!@0'q#e@s#%$7@+$0#8#K@,*Z@B#+$j$g#I@%#U#&@I@*$ %I@A@!#1*&#U#m#e@M#c%v@{%P'W>i@e$$$I@-@J@=%K;_#5%K@_#^#y%B9^#U#A@V$Z@%#2$-@)@u=Oay%I$;mY+5]V:%>(%1@*%m#&@P=),&@5# )'li#A@w#1*t@+#d/S@>#3&'>Y@o#+$=>i#_@&#X@B#h@~#N(V%M#_@_#-@H@1@o#=#j@h@(#6#G#i@c^ &~#8#e@|# &6@W!`@e@4@*${#U#-@@#w@~#z(e@h@-@V@8#g@&#J@k@o#m@C%|@$@&@W!4#f@*{h#,]$@c'J@8-c=m#9)X<%&9%[&|#)$t>M{(#6@$#J@f$+;l#d%0#:%M@w$j$P'T$Fc",
"U&H%[% %c%[&S%)&D$s#-%U#@]s@N;$)M$s#f$B@-@~*+>($-@+#S,}@6(I/%#i(w@>#&@c@Y@d@Z@^#Z@f@h@_@0#&#+$6#^#]@'#)@4@D@V@y#e@;$i%i'j#Z@3#&#%#>#@#6@&#3#+#D%h'[&U;@#0';@c@ &V$o#$$k# ,Z@U;J@ $u$I@+#$%Y$2#c{%rr=o'>@]@I)`==&!@[#%$;$h@C%m#@#*$c@e@<#6%g-V@S@~#E$|#S%A@H#V@A@5% ,%>R($$<&K@V@!~D@ ,x$~#5%J@_@q#`}!#U#5%g$|@Z@x$S@m#*$U#Z@,%V#Z@,#<~_-_$(#=@e,&%5%_#K@w#s#m#2#7@@#{#i#(%b#j$s#3&D$y#:%b#b@ ,,#V@t@%$w#W>$#:&c%j#i@h% ,i@u$7@m#f@2#:*-@ ,V#4%I@2#9'T$5%M_5^u~b{d-Pm{]&#h$w@p#9*e@h@e@B#9%8#w#K@L;}#m#p_;@K@3&_#m#F#&#.#g#g@i#j@c@l#~*b@>$@#^#|#_#g-4#@#|#P>[@]@>@Y_b)u$B#m#H%'@$$&>j$.#U#m#J@i#e@:& #!#|#=#+>g$g$i($$|#|#f#$@h@q#s#s#V#q#k@t@$%>#7>L@y%@#-@%>w#N;K@U$w#L$1@L'I$)#k@'#/#^#^#p#W!K@k@*$[&.{V@L'w#i#6@h^V#&@>#.$m#>$x$&@-@[#4@._ &;$1*(%$$<@d*k@f@(#X@,*i@k#5%i@C%*$f@P#_$z@q@;=i{}#T$,,v'#)=_5%a#%$b#U;U;j$8-;@$@n,W=_#B#|#^#8@&@^# #D%@#~#5%A@w#J@~#->*$*$9#{#B#3#m#s@|#A@K@n#f#0'm#Y@|#>#D@i#|#;>6#w#$$ #*${%>#q#-#[#A@e@H;h@0#&@c@+$8%f@H@J@-@-#5#L;e@@#g#x@!>!@*$s@c@A@#@>@=>_@}$3@k#~,R_&@G]A~h%T$|#p#c%P%I)h@f@c$4#=%}#=&!#!&*&I$e@Z>j%z%@-",
"&0M@<>E$=#d%i#*&L$|#%%p#<)6#&@9)i>b$ %e$L$x$l$5$B'O'9,'^6@F@8@&#e@<@!@B]6@Z/0>g@H@-@0'|@7/%>$@->.@5%;@i#_#J'i%+$q#V@D@*$Y+~#@#Z@~#]@B#i#d#B#;$_#M#X@L'~#!>3&m#f@I;w#%#-@e@n@<#}#j@%#!@&#A@~#h@L$r#R&C)t@5#;@./4)`#>#+#_#-@L@e@I@L@U$t@>$=#}#Z@U#u>F#U#f@'#V#5%e@|@8%3#j-A@x#y#%#H@f#;@g$-@c%D#'# &+#V@2#J@l#J@^#<#V%w@s#f#c@f#K@T$O;z(b%b{ -$# -Y+_#h$e$B#!#~#c'h@K@w#-%=#1*q#e@&r_#A@B0+$_#Z@q#w#i@i#V@V@k#y#E= %w#w$+$>#e@p#3#^%c@M$*&>#b@m#Z@l@s#h%:%6' -o'W!8%D%<%Z@g#m#i@;>i#C%h@R(g#&#K@U#_#I@g$*$!@I$!~^*1*}>K@P$s#L=$$Y@j$V@|#c@'#$$c'h@u$l$C$4@ ,((k*_-2$2$ 'I@_#D$%#b*i%h$c'o#J@&#$$g# ,{$b$5#y#!#&#J@_#I@T$F#u#B#~#U#]#o#E=K@ &X#*$_#@#3#f#,#$$V@*$D@9'F'@#9%s@-@~#D#f#w#f#'#d%m#y#y#4#q#U;D@ #9'y#*&'#L$D#X@f#8%f@ %+#%>E$&#}#j$i#3&8#e@6%Q'v#6#w# &|#-@_#f#q#U#5%J@$#+#e$P{5/F@!){~%>d$(,$)I{m*-@y%'#p#i@K@P$a)_@x@7,9$e@8#U;!@*$O'V@U$q#^#t@^#!@f@V@U;I@X@h@w@;@B#e@ , %$#B#1@_#w@4@1@!@]@>$I@8#=@*$h@g@@#w#e@|@m##:X@$#e@Z@F';@w@@#9%1@t@U#-@c@V@q#h@Z@&#f#C'+$e@$#B#8@#@Y@O'&$a@*#u~2$x@n=4-X#^)e-S$}#%%e$p#d$K,s@<@X@(%I$$$9%T$p(s#K@T$w$<#y$Q,",
"R:f$!*g#d>m#]%}#2#l#{;+&K,Z+(#w{r$k%P$_%e$S%;$#>{:w#+'^']@l@k~*@!>~>!@[#o_H#8%v/(/(#@#,#y#m#>#k@p#;@n#g@%#!@-@t@ &m#G'u>m#E'_@;@$#3&h@A@C9c@$$Z@8#p#e@d@_#$$H@N<I@c@_#h@|@f#f@A@~#[&~# ,[&y%h@V#v/6/;0y)U#c-L@d,W~j#=>m#2#f@h@3#_#V#e@&#|#-@i#d@*$Y+._m$t@|@J@Y+{$I@|#I$*$J@4@&@}$h@.#e@g#K;#_@#2#&@.;3#L;|#U#w#]#3#{%V@U#_@}$|@2#d$}#+&_)g@5(b@ 'w$I(u#8#m#}#f@*;K;p#N;i#K@I$h@7@a#m#_#f@7@e@D%3#-@c'|#%$f#w#c@w#+>V#s@l#4@+$g#=#:%o#&#*$3#c@e@,*!@4%${ )k~F@q)T/,*{;f@|%W>*;$@x#6%f@e@V#q#y#y%i@;&b#D$*&&#(%f#j@5%L=K@;@>#A@8#f#U#h@N@$#$$I$i@0#S@g#w#-@8#m#9%q@z@z@M{g-w#Y@+$A@h$}#*&'#P#e@!#q#K@I@$$>#=>B# %f@@#h'f@L=-@h$0#!@e$p@># ,c$}#_#,> $f#>$$#-@~#q#g%q@d@~#8#%$I@/%w#-@q# ,-@B#M#L$;@_#$$i#%#I@g#]#i#5%K@!#&#g#I@L=i@i#J@.;t@w#T$|#f#K@_#b@{;b#w#|@C'e@j@E$M#a$|@L;B#f#!@@>N@+{6)&*g#~*/,$#B{<~:%V@U#d@V#&>M@^)Q(-$2{X%@_f#k'S@Z@U#t#J#4#M#V#q#Y/g#0#e@e@O;_#I@9'd@%>t@I@K@6#i(4#^#4#c@j#J@>$L$m#@#J@6#<&i@i#w@-@k@4#>#w@_@f#G#4#2#o#&#f@n%p#F#_@{$b@w#w#h#f@%>>#7/$#M#J@-$!$g@[#q{-$9@w{f@w,),i@]^Da!#/%4%T$T$=%;,A@M#P$K@&#!#!#~#m$!#T$m$U@a#f$1,",
"qhp#Z%v%x$x$p#:%i@B@p#P@A'_$h@J{%*X=%&4%s$#%D%Q^m#c';,^,8@ld1@x@-$|@q@9't@B#6/+#h@ ,6#)@!>C@t@l#c@b@^#-$I@$#I@t@%>q#!@d@X@Y+o#2#7's#}#m#Z@k@!>q#&@'#{%_#s#L$}#<#Z@M#;>A@3&0'B'Y@t#-@f@L'>#8#9% &!@I@R@p3~(A@_$*#(,x@(#'#B#d/H;/%y#t@y%$$_#c'|#_# ,2#%>!@f@Z@y#|#F$&#K@B#*$E$p#h@&#o#I;@#|#Z@[#F#%$+#f@i#R(^#w$3&f@'#c@*$i#'#f#4@%>$$h$Y+hca@_@])]]I)U;i@q#>#E$Z@o#!~B#I@l#u#T=0#!@3&c@2##@m$=#h@}#V# _'#L$i#V#L=i%M@b#g%Y$m#4#E$S;3#e#)>2#h$.{3#2#~#v$k:g@9#+$*rK#y%p#.#Z@e@2#m#(%B#_#i@7'p_J@Y$0#x#0#&#}#'#*&!@y' &[&[&`#V#7@+#s#/%3#w#L#Q%}#q#-# $B#Y$*$!#K@q&*-:/a@;'J';@U#I@,>I$9'c'b#+#f#{%}$%$E$T$m#w$0#^#>#B#p@o#m#[&p@B#B#@#V#I@ % ,&#%#5%_#,#e@^*t@_@^#e@^#<#Y+,#_#>$>$>$~*@#e$C% &%$L;6#-@p#g~ &&#i@b#&#>#&#&#e@C'*$K@h@e@@#V@M_<#e@|#I@i@0>}#@#e@&#]#>&T)O;m#-@ %t@5>^#K@^#D/J@Q@--e(%%4~;=2$K,0&{%c%y%.@e@}'=%+'A@g@d,>;K@e$O;+$p#;@@#n#w#b@k#e@m#!@-@I$)@g$J@V@e6L$O;L=4@V@c$$#@$U#$$'@&@Z@q#c@t#&#X@V@A@4@@#>#>#Z+B'i#>$4#%#f#v@L=U$7@~#=#u#K#X@f@f#7'm@f@{%c'1@e@9{6#b@~#k~8#b@^#P~2$)@$#n,h,f@=^b~b$d%l$j$,%]g6'q]7/3#}#I@!*@# %5%*$^#x$]#v%!%O)",
"0&H=I@<>P#Y$l#m#x%_*M@&#<)J#|@7~)[j%c%f->&O$|#=r#@~#2,8=|@#{->h#$#:/_#J#_$C#n@@#c@s@f#d@M#>c6#K@-@k@h@C%O;_#y'_@3#_#T$D%'#A@Z@+$j^M#S@K@ &m#|#m@-@$$&@I@$$_#n#h#8%U#@# ,y#f#&#/*D%Z@-@I@8%;$S#&#w@e@{%^)-rn(g/Y+_@6,W!1{3#M#U#g# %}#&@U#j$~*C%@#U#_#>$f@F_&@j#S@+$3#n#[&I@&#v@g@Z@_#$%=#i@w#i_e@V@;&2#{%;@{%0'b#*&J@j#+$I$U#m#!@B#=#w#5%<%;@c{6@Q{7, ,!@/%&#~#b$@#$$>@e@;@I@h@I@h@]#@#K@5%t@1*q#m#^#h$I@[&}#W!{%^#^#c'D@7'h@l#l#P#J@5%7'4#>$B#{%V@H$|@K,Z+k~A,v:'#2#U$U;E$i_U#|#=#|#h-{%>$!#e@S@U#_#$#K@&@.{8#7(|#t@T$%>~#%$e@~#F#;@/*>_E$s#&@-@E$x$|#7@I@C%9%v#>~%,L@_$c=>&`#c#m#K@L%m#4%2#(%p#L$_@~*j#G#t#,#v/U;_#|#&#A@_#&# $8%+;t@J@w#6#@# &8%n#w@m#|#O;U#U#Z@s#;$i#H#$%I@+$o#V@'#i@f#V@3&j#f#J@V@J@d@s#3& $0'J@=#J@K@&#3#$$%#9''#_#d#V%2#e@B# ,A@|#{$3&,#-@%$i@w$i@~#t@5%7'y#i#'#;r5%%,,,4'[&h-(,]$ ]H%|#I(8#}#'#>$]#A'Z+&>),a%3#2#6#w#w#-@f@-@(%!@4@Z@V$S@i@+$t@1@&#*$k#&@c'o#D%|@e@i#@#}#h#+;h@4@%#^#&# #@#q#'##$+;c@ &k@{%d@>#J@y#O#I@t@O;-@ ,U#{%U;>@$$-@&@B#e@A@%>_@q#{$@#$#e@(#h@1@A@z{l@:$w{n,),t@!^xd(%P@z%~%j$s%0,|@B]~#$$u$p#P#w$d%q%)[5%~%!#v$Q,",
"v&~%)$_*T$/%v%**=#Y$e$,#a)$@'>r@<*>&m#K@E$l#f-6~z]{$d,0=rp6#:$$$x@6#x@(#-@+#4@b@|@k@8# #-$!@Y+X@s@!@{$'>&#g@6@J'~#$#m#A@V#&@.#8#*$b@{$_#f@+$]@'#%#E$A@m#6#j^i#*;g#-@p#e@-#Z@J'g#_#V#i#j@f@h@-#$$F#&@U#T=[@Y:r=%#]@6#8-!@~%p#s#f@~#i#|#O;!#f@s#b@d*s#}#m#e@i#@#B0=#L$b#I@U#4@K@I$&#y#L'w#~# &D$L@&@A@.#E$9%f@ %;@w#!#U#d@&#'#g#3#=#T$e@;$C#n&[)'>)@z@s,s%g#_#}#{$v%K@I@B#}#$#K@7'8#|#g$ %=#U;}#8#3#B#U#%>7'A@O;{%{$|#@#m#=#B#6@*%E$&#7'h$|#:%z@I$g%7'k:a@2$%]Z&$#'#o#t#y%f@K@i@,_>$y%b#E$p# &%#/%s#V@.#,#S$_#e@X@.{B#s#y#h$t@5%L$!@!@f#d%B#I@p@s#T$a#L=_#f#_#U#l#`%y)Y@-$N{q#e@!#-@i@9%,#*$i@k#{;V@s#5#>#L=;$i#E$3#J@e@!#K@y% &e@K@u#m#!@7'W>X@3&*$U$+>'#'#z](#t@A@D@;&l#a#_@~#|#m#*$I$q#!#F# $i%+$F#&#M@3#3#_#i@2#C%5% ,*&2#+$Z@o#w@-#w#>$U#w$_@R('#0#f#e@,%7'i#@#C's@=#F#i@&#d$f# #s@o{5>)#/'&~8#j$I,g@X'T'^# &$%;$k#&#@#7,=>5>q,>%%>w#h$>#6#L=k##_w#$$Z@@#c@v@C'w$0#I;_@~#x#&@4#00/**$}#(#p@6@-@u#]@d@-@D%_@a#F(&@ &e@W!5%i#_@c@i@l#,#i'd@d@^#Y@e@|d]@g#(#$#^*_@V@ ,q#b@F#@#m#{$k@q#A@v/;@{]h@W!-$q{$#{'t,R#Vdv*]%f%<%E$g%&%8_5#.@_#J@g#P#;$&#e#g-{&K@g# %-&}-",
"T&o#w$0#%%=%%$0$<>E$~%m#c=-@M#M]X%E$L=)$c7j$p#v{6%W@n=-,c-5>w@u~C'k@~>L@x@+#c@j#&@J@*$%#x#%#h@1@$@6@L@%#)@-@&@g#V@2#(%>$H@w@<@I;%#t#5%&#q#4@i#Z@'#l@*$&#-@}$;&U#c@k@B]e@a#;@_@@#3&s#@#&@i@D%5%&@*$&#-@U$7@p@[':$ #_$W!v_d/2#(#^#V@L;W!c''#:&_#*$F#/@_#=%c$e@U$<#(%J@1@i#j#E$~#~#@#Y$C%+$ %m$ $U#_#1*f@@#[&C%3#~#w@>#%#&@J@-@V@J@U#;@0'-@y#0'=,a@f^f^m~O'T@f#4@^*g#i%i9m$;@>#^#~#_#*$F#P@e@y#j-V#G#s#I@|#Y+:%&#}#C%3&h@L$f@B#L'Z@.;|#%#c$M@L$ &;>!%@)r@($D=8@g$@{]#h$3#_# ,=>w#>$*$`@|#Q_J@C%9%j#-#y#-@N@!#'$b$1*j#p#_#U#_#I@_@b$K%}#D@&@&@e*i#dbw$j#-@8%I@!@S@8#K#p*v{($h@^,y% &/@C%2#Y+|@@# ,+$i@I$ %,#>$K@6%/#c%2#+#B#U#&@&@U#[( &b@a#*$_@$$,#&#q#U#9%F#:%$$ %_#'#@#4@$%~#.;g~f@,#3&4@_#F#.$_#o#%$0'e@i%F#2#l#I@V@J@i#i@!@H@6#^*C_<@$$b#9'$$3&i#L$=#&@S@^#]@m#B#U$d@_# &[&=&!#%>2#i'{]s@Y+a,}%&#g$),c{_-8/&#;&B#Z@;@E$M@_'|@P~A,4'*$-@!@m# &]#L=m# $f#@#&$H@4#K#Z+b@_@L$_#t@c@j#p_V#{$T)_#n@w#V#J@m#!@H@]#4#f@c#L=J@n@m#i@W!.;J@'#6@s@i#J@@#>rZ@}$4@~#w@m# ,e@t@U#e@^g@#Y@5%p@-$a@B'h@}$A@%]9{#@)@ ];@)-~-T)q,&0!;w#h$L$e*f$5^m@p@W>:*j%e$I@f#t%I@D%&#v%|#!#='",
"J_S;d%-#>_;>{;&#f-g%~&y%e=Y+6#`==_3#p#U#v%t>Q'S{wek@',d,n@2/x@s@h#M^g@h@h@g/f^b#k#q#'>h@e@5%]@/#[#7'U#c'@#1@J@~@+#!#B#6#4@t@[('#U#k@+$$%}#>#.@ $&@T)A@I@|@P#t@g%/#>#I@I@+#h$w@=>5%t@t@&#>$h@+$V@|#O;c@7'B#c$9'G*:#|@c@:/F,1@S@_#@_9'0'|#&@{#-@q#$#w#Y+&>/%t#U#T)*$u#U#e@@__#}$.(#$L=W>d$h@t@e@x@e@s@,#h#{$5%g%b#_#S@*;e@q(}#|@7#5%y%e@Z@U@*$.<,r)@1@c#;'w(U#J#w@&#h$h@,#;@4bs#%~c@I@e@B#-@=#U;V@I@U#|#i# $}#e@i@%#!:$#i@c$I@E$!@_#&#Z@i@c'I@i@i_Z@I,q@Z+#>w<>$|#f#-@;$f$i@:%Z@m$$$/%00!#|#K@K@h@B@n%.{5%A@m$S;x#*&B#n#&#L$g#{%3#E$2#@#b#*$_#|@'#8#>({%I@u#0#f@K@U#%%8)F@h#:]s@g$l#-@D$F' &_#f#J@j$c$-@I$t@L$i@V@l#;@V#[&U#+$i#;$U;b@_#0#Z@m#@_ %i#_@q<*$<&~#w#&#>$&>>_!@Y+w#V@T$f@i@V#!@+;e@{%B#e@g$%#@#K@h@~#B#t@l#*;$$Z@y%s(5%J#L$$$c%_#m#B#-@&$V$y#c@ &b#=#K@y#T).;4@0'x@J@2#$$i# $q{*{Z+c=%*E=<%;,P~^>9a &F#w#+;Y@v/[&:,c@v@2,;(l#X@V@w#A(J@*&J't@6@6$l@Z@2#m@~#J@V@|@|#1@>$%#Z@&@c@+#&@k@c@S@n#A@u#f#C%J'P$&#&>J@@$I@$#+#C#J@7'^#f#U;c'4#&#c@J@C_3#'#;@&@U;k#+#h@w@e@n@_@|@d@t@J#W!(#W!c@I/)@)@g/f@^,*'w#{,b%T$=*:%}#p#g$e=;@)@;$x$E$]#.{T$ $!~I@=,f#=#r%Ud",
"aj`%W$T%w$T;T$]#g#j%D%w$Q;w@4@M^`;H%0#y$0$[&y%v{Z@c@I,^,W! ]%]x@->*#p@j^*$C@<#->c@(#4@@#h@.#c@t@C@J'k@=>&@e@J@8#q(6@<#Z@4#[_>$_#h@P#h@t@!>S@8#|@c@a# $V@e@_#L;F#i(J@&@Z@;@4@g@-@$#j@g#V@;@P#&# &f#w@x(k#L=4@'#q]W:[@$#w@*@d_-@0$i#V%b@y%>$H@@#^#U;g%m#L=m#k$m#e@'>C%@#w#e*PcU;w#V#n@%>o'b$'#>#>#e@I@Y$^*;$L$X@J@K@h@I$p%`@t@U$g#B#A@Ia_#;@S@%>K=r=]@u~m{(;p#4#+$$%s#m#U#(%k@V#U#h@F'M@{#q#K@B#j-%>p@@{U#-@O#J@/%p#U#0'{%e@H%&@{;%$=#K@w#I@*&*&g%Y(;]h#T@f#A@v~`$d#d$y#*$i#|#2#,*j#^#,#*;%>-> ,l#V#U;I;f@C$w#7@|#->F#{#e@f#b#y%&#}#>#U$Z@V@c$@#:%A#'#!#{;Z@J@n#e@o#b@YaI,%].@b,'rc@d$p#p#e@.{s@c$p@`#g#t@T)n$B#U#p@|#/#V@I@{%Y@I@w#H#>#w#f#b#m#+$'# &K;L$b#2#|@D%h@!#]~V@_#w#^*&#;$E$X@o#Z@X@]#+$e@K@$$_# &^#|#>#>$4#;$p#t@(%(%'#{$Z@i#g#->f8e@V#&@|#p#s#'#I@_# &*;e@8#-@K@c%3&=#0'D%y%a@_@_$8=G^^#S%^,-$6~mbh^V#!#=#(#)&=#8=P~x@;,#;f#I@~#_#k@_#|@@(B#%$f@0#B@/#<#~#_# &o#*$t@c@l@;@!@L$S;%#V@g#~#w#~#@$w#&#m#Y@7'e@k@h@)#i@/@'#$#-@m#;@y#>#'#&>}$I@y#e@e@%#*$8#Z/B#->@$f#5%h@$#)#.#=>$#p@A@T)9@Y+`+5#T@r,{,c@t,R'y%!#N%~%p#j$x,Z@M#g#*$l$l#/%I$D%V#{*T$T$~%H%-_",
"j{g%L$t$Q$H%D%}#b$]#)*=*e=U;(#$)X%b$[&V@>&X@Q$A'J@X@;'A,2$)@`+M#s@m@.(h@f^n@J;$$-$h@u#6%C%+$!@f#f@j#A@+$e@'#I$E'_@,#b#Y+i@i@4@;@w#_@6#h@!@'#@#t@^*C%h-^#!#W!,#D@f#Z@}$ ,m#b@~#*$6#t@g@J@m#%>+$(%&#g#m#&#&@=#B#0#&#V:u(N/[@_&^,7/|#|@-@i@'#{%b#>#c%t@e@f#^#0'c'I@U#%#8%3#!@e@w#i#i@K@J@g#h@Z@i# $.;+;U#V#;$w#d%/@$$o#-@_@^#.#H@ ,U#c$%$(#s#w$p#$$/#|@($k@/,I$*& &C%$$&#h@.;;$F'L=L$'#b#0#v@t>=>^* &V#A@G#e@I$M_e@{(!#f#L$b#p%L='#A@}#U;B#_*_@5%2$T{w@f[,)M&B#3#/%W$!@j$3&Z@e@&#i%t@$$[&h@6#$$=#A@C%~#u#V#s>f#I^-@i%h@p#i%>$p/N;c@|#t@~*w#2#&#h$K@H%j$F#*=+$w#S@-@$$l#_@<#I/Y+C{#>!#7'{%e*'#@#t#+;I$-@4@|#K(*$p#$$a'}#^%,*q#_#7@[&L$V@F#f6-@O'&#g#}#m#+$*$I$Y@e@!#g%*$9'c@,%q#%#+#_@h-&@-@_#y# _e@/#m#$$T)3&h@e@g%{;x#E'5%%#w#'>i@!@s#i@w#-@y%!@S;e@p#6@6%9%f-$$q#;$t@%#w$i#t@ &l#]#B#)@R;;@{@l{=&%$j%h,*@d]P>B(L$+>~#b$>#}#d,Y+$@,,#=H@5#-@^#f@-@=#q#3#5%3#8#>$J#&@V@2#Z@4@*$(%,#)@X@0#2_6@o#O;Y+B#0'U#V@s@U#t@h@$# ,_#-@}#6@i#%$y#;@t@R(_@<@D'_@-@'#p#|# &6@x@<&@#=>x@9'j#1@$@J@T)!>5#]@c{}$)#w@3/c#,]2$G,e8 %r,=;D$V$ ,6*^%';a)5>q{0#*&E$e$7$e$k$:%e$O$Q$-%3*O)",
"L~*&<%W$1{2#a#`#x$y% %4%]^;@(#0~4~f$}# %g$[%~%C]c@c@0,n,(>/@>@a@/@h#L@-@i@x@*@m#J@@#(#A@=>@#_@u#k@b@<&6#l(3&Y@W! &i@|@X@c'5#m#R(6@-@3#Z@J@i@J@e@'#7'6@(&~#/#U;{#d@u#K@ &6@2#h@B#n#B#i@N;'#h@!#x@{;I$[&c'K%i@l#.ap#e@1<Q)S#x@w@5^o]w#y#i% &!#+# # %>#i@y#4%+$*$~#!>g#S@j$:&m#=>(%b@0# &Z@~#f@V@E=_@I@w#3#I@m#6@I$g@c$i@1*_#e@6%^*]@w@Q'i#K@!@8#^#%r#>)@I/C=n{5% &}#k@B#g%!#d$j@m#e@U#S@L$|# #L;6%~#3#g-U#I@;&`#|#3#g#$$I@S%u>S;>#D%S@p#i%b#|#{(Z,`+C@F/_>G@l#9%i@]#f#i#i@D%K@I@*$&#i#8#>#d@*$O;L$&#U#%#~#|@y#&#CaI@&#=#!#q#m#4@Q'_#,#U#k'X@s@n#9%3# $B#V#s#&#e${$/%;$$@q*d,h#:@6'D@J@K@$$m#}#_#m#c@M@ %D@m$m$5%K@-@=#=#f@.;Z@O#,*c%K@e@|@!@.;!@h@h@V@K@_#I$b#!>j#~#3#L=L;i@y%Y@]#K@J@ , $K@Pi&@2# %w#e@*$I@$#+#&#_#+$v#Y$!@+#+>-#g$p%h@.;-@X@6#q#y%&@~#=>t@&#9%A@9%h@^#%#0'F#&@c$e@.#l#)@:$h#/,9$,#I$-mZ+K,2~5%I@8#<#'#Z@b#l{Y+b@q,X;6(q#;@&@&#e@ &h@_#D@6(K@%#i#e@3#9#f#i#<@7' ,i@B@-@D@c$_#W>8#8#Z+@#V#e%K#J@{$(%=#)#q#x#>#>#!>_@>$w@8#+;E=(%k@&@}#=>&@U#&@ ${]t@@#3#8#J@Y@^#p@6@w@4@W!b#h@/@.@*#b@o'$@S,_,F_!,s:7>b$P@y%z%L$;=t@6@I@$$)*5%r$^*g~g$:%!@g$i#e*C;",
"/^/%.%v%/%I@D$a#P#w$K;K%n,^#*@v];:w$&@v$h$0#}#0~|d'>e,~,P~Y+g@k@c-J#b@D@N''>;$[#J#b' #n#l(-@[#e@;#e@Z@x@U#Y@]@f@c$%>q#&>+$~#t@D@p@`#z@I$F#o#m#|@g#K@m#p@i@B#i@K@=#&#+$O;v/s#;@y#f#D@T)A@Y@L'I@f@_#@#m#_#e@7'w#+,H;U$a@!b-$A@2/g@^,)ru#3#|#)9k's#[&6@{$C%U@N~V@f@U#S@U#9{c$Z@X@u#_#f#,#>$0#m#f#J@ %;>c@|#|#e@/%e@5%B#-@y#;$X@5%Z@p@_#e@2#Y$I;B#s@n#'dh#c@x@(,H@=&I$X@2#!@{#K@{&'#y%B# ,0#f#_#I@1@i@B#I@'#'#g#]#h@!@i@N~K@f#|#m#U#m#B@+$I@`#!%+{I{Y+>/q)e-'#}#}#!@f#K@,*!@/#K@T$g#f#V@3#B@U#_#$$G#|@_#_@I@i#i#%$0#-@@#Y@w#3#I$w#L$j@.{C%B#f-w#U#_#h^H;V#{%*$D@@#>#I; &`#X'&b#@3${]w,HaL'%>n#8#x$;@U$t@._]#_#H@h%[#e@}#{%/@s#a#Z@B#m#s# $|#y#!#2#+$&#U#`#o#h%n#V#L'c@_#T$e@<&>#I@q#&@Z@3#&#d%L'_#L@V#u#L=j%t@K@h@'#[&J'e@'#3#i(;>K@h@!#{%!#Y$p#{%:_$$$$T$5%;$Y$s#}#)#g~J@!@bfi[t@y%&@H@Q(*@A@ ]i=>;_#f#,,d-P]`~f#_#h@i@ ,!#e@Q;l(F@n=w*U#E$_$m#e@[&$$-@+$|#b@.#B#J@p@$@n@-#-@e@A@g#P'i#W>X#Y$^#c@Y@K@;@5@t@'#]#>$O;@#=#[#N@&@V@J@~#;@B#O;c@%#c@q#&>^#A(i#B@5%8%3&^#e@*$.(w@$$z]t@J@k@;@g@x@($L#($1@h@u>9{z]!,,'b@h=u_i#f#O%!#&#W$/,'>Q{o##%E$y%E$d$Y$]#~%V#]#V#W$j,",
"q>Y$<%}#`;s# &S%y%+;j-/%:#J@0'D/k$V#*%N%C<Y;f$<)x@q@/,4-${s@w@h#Y+A@)@_$!>6#c'3&$@w#e0i%f#&@e@U#{]Z@>#$#q#Z@@#%#7'&>c@5%d@}#_#k#@#e@w@Y@X# #{$F#J@w@|#^#s#L$f#>#D@S@y#w#@$V@$%k>'#H#:%I@q#B#^#|@V#f#^#H@m#e@,*p@I@U#D%C@`0o'%,^#m@^,Z@J@c'l@A@@#)@:&w@N;&#O'Z@+@8%V#+#e@K@q#A@.#h@L=i@&#^#h%Z(Z@b#w#@#m#O;}#0'0#F#J@%$ ,@#&#@#T$8#k>.@L$&#w$F#w$$$Z%_)9{J@(#$]C_L@7'K;Z@v~|#5%q#%&.;N~1*+$k';$%#;@c'&#!#>#h$D#U#e@j$|#j#C%m#>#c$|@m#I@4%&#[&9-n@Z+X';bM#S@m#|#c@&#I@i#H#~#n# &8#&>&@!#@#L$Q'b@}#$%&#e$Z@-@-@1* ,U$'#q#;$j$k#=#&#d$*$.;,#2#$@}#@#I$,*=#>$c$i#{%4#P$&#d*}#M=I]v@W!>]k@T$i#U#^#/#>#%$7@m#$#,#;$-@b#!#=>h@w#^#J@U;~#4@k#,#@#m#m#4@V@w#0'~*_#_@i#(#*$_#c%.#i#e@i%!#i@p#-@B# &;$F#U;g#*$t@Z@l#I@;@k'y%|@7'|#u#u#x#C_`+B#@#i#&#f#`@0#}#@_$$;@_#'#U;V@q#h$-@i#L=*$c$Y@J@%#0# ,$@m@`+l{Y=w$<%k,b{V,Q>=>>$V@@{,#1@w$n,M#W!A,e~s@q(q#Y+C#^#@#$($#f#t@Z@-@k@k@=>$$b#&#B#^#&#j$>#%>_#e@!#^#D$_#p#'#~#Z@i#-@3#y#&#e@&>;@J@t@$#(%C#c'v/U$Y+e@<#J@3#C%&@q#e@_#$@t@f@U#A@4#e@(#`@_#g/d@#_J#k@$#s@2$'>*#x@6'4-~#;=b~u$M$H%:*l%>&D,w@<@e$&@j%**2#c%g#%%]#9%f@T$M$a-",
"5p4*l#E=_#M$x$g$p#l$f$L$w,L^{$o{B%e$*;T$T$j%5%u{O'{:n,~,A{*#2/7/N@n@f@^#6@8#$@d#L$L@U$5>U#_@!]_&q#f@p@;@L;>$&>6#q#Y+N;K@1@8%e@e@e@Z@-@L$h$_#)$2#u#|@[&Y$f#%><&~#3#@#i@M#4@U#g@@#F#*$m#3&%#G##$c@$#I;*$|@i@w#q#_#q#s#!@V#4%K> ]Y+k@J#E,h@q#-@i@o#!#{$_@I@C%'@m#J;E$_#N;g#[&f#($y%}#)$Z@V#$$ ,_@L$ %+$@#U;I^f@7'&>m#f#e@b@i#q#%> $U@]#U;g#-@$$p#!@p#c#+r%@n(a@F]c@M#_#7'p#g#D%|#w#=#2#v/i@V#m#|#U#^%I@m#N;>$4#w@J@~#/%4@6#1*~#8#/% &m#e@&#O%l,4)m@8#L=_@i#-@@(x$ %2#i%K;B#@$!#m#e@l# %s#h@e@i#=#|#4%$$+$J@m#K@6@s#S@&#l@p#q#y#7@$g.;4#$$s#P#|#^#b$v/W!u>,*~#}#e@3#K@H@K@~#!rZq*#o'}~;^|#0>.;,%}#i#c$c@'#q#&@;>8#}#^*l#@#q(|%k~U#e@A@B#~#P#[&+;4@b#j#x$&#w@I@/%K@*;i@Y@}#I@Z@!@I@%#V@q#'$Y@&#}#;$$#I@v/=#c'O;o#0#J@Y$c@+$-@'#i#%$2_K@2#C%}{~#t@U#-#k''#V@l#%#>$J@p@]@p#_#U;&#x#8#v@O;@#_#-$6@*#/=Da4#E%/,{]B)K),*F(K@B#*$u><&n,6@*#}=3*|#W!H@i#c@U#e@^#b@F#m$_#F#c{V%*$x@&#'#R#%$Y@X#@#4@O;e@|#H#>#b@x@3&*$ #!@O'T$5%$@J@-@-@*$o#y%%#&@j$5%e@_@c'o#%#|@X@V@{$!>O#_#c%_#O'V%>$;@c']@6#V%k@$@8'($s@&@[#=>)@u~p,3,y#_)G=]#-%o$ %]#7*3=-@!>K(+>L$h$B#L%p#3#&#3>+;t%s$`,",
"S)l$i@w$T$`#l$j%g$e$i@H%m~1@6@I)v$L=W$^% &a#1%wod/O;q,,,a@Z+_@Z+Q{5#_@k~$#*{$#A@xq3#@#A@00Z@g@($ &A@.#I$e6C%V#O;$$U;/@W!e@4#%#>$B#;@>#h@x@s#!@A@m#K@A@Y@!@e@J@5%*$M@t@I@c'w#;$_@%#/#3&3&X@t@;$&#4@ ,k@(%=#I@}#J@U;@#0'O#*&@#'d8@z@;@d@~,2#w#$$$#3&j@4@}#w94@-@,#k~K@B@p#i@C_3#l#+$=#1@_#1{$@$$d@w#P#k>i$!@@#A@g-1@F#y#m#>#x#'$&@U;i#f#e@x#'#e@V#f#|#*&f^=@z@k@a)8#b#-@i%4@s#c@1*L$I$*$.;<#u#V#*$/#%#>#o#K@t@'#&@}#y#f@g#`$f#&#o#$%b$+$m@{%',>/c{%c0<Z@:%i%&#m#c't@ #P#/#f#m#f@x# ,V@d*@#&#g%i@{%p@+$i#w#V#I@V#Z@_#F#Y@|@'#_#d@V#3#_#e@V@3&F#!@~#A@e%w@C9b@7@J@J@V%>#U#X#j#m#q{m@2$e=.)t@o#G#+#O;c$g#[& ,J>Z+m#c@/#d$*%_#{%!@<#Y@!#s#+$_#}#'#!@Z@&#>#4@i@s#M#j#-@'#e@;$U;^#h%f@V@2#/%}$8#m#!@L$ ,B#3#y#_#'#>#e@q#-$&#2#B'M@i@J@q#=#<@z@3#3#|#i#f@ &i@h@&@b#K~%>I@2#J@{;h@4#b#K@o#u#/#A@u~u~)@!,-%{%d$^,u~/)p$B#S;3#F#,#e@U$D,[#+|q,faW@_#e@6#f@m#+$J@@#Z@=#$$k@$#w#K@g#%#&>K@&@y#^#I@S@c%f@b@V#h@;@M#c'_@J'>$-@6(I@F_k@p@e@Y@J@T@h%_@c@$$T$$#O;o#V@>$%# #V@h@^#t@$$J#i%T)4@u>m#W!f#4@=>0@_@3&w@{;1@W!B]+h!^f,%$u=~r=#2#p#M@u$>%8=#_1@b#m#[&e#K%:*!#-#[%L%]#F$A~Ud",
"h*'#C$!**&/%k$]#y$e*L$[%z=k(c@L,R=)$=#~&&#p#C~5${]U;9)2,)@,]u>2$://@}$s@Z@>#o]9{L#e@$#h@&>Y+o]w#w@$@{%Y+w@t@ &|@=>t@J'>#-@'#2#@#n@_@_#h@m#c@+>D@;$f#w@q#P$I;q#7'&@i@V@y#weJ@M#P#*$I@D@J@j$S@R#f@,*+$4@K@-@%$(#I@4@C%=#<&f#}#h@2>0@f^(>(#('Z@D#h@&#B#B#w#_@m#t@-@I;&#-#!@w@-@-@k@Z@2#{$m^2#7'!@j#i@^#Z(B#7'H%B#_#`#I(>#i@h$N;I@=#d*J'5%e@l#_#!@R(@#u#j#{r_){>:$E{ ]i_*$V# ,E=2#n#]#%>`#4%B#I$r%6@y#w#W>i#&#h->$%>!#F#&#[&%>m#/%7'f#p#V@d%+'0~-$q{veQ)Q_Z+|# &o#|#K@8#h%U#9{U;9'=#]@Y+E$_#@#g%+;!@8#[&'#g#>$b@#$u$I@ ,S@&@s#B#x#f@L=d/K@E$7#2%)>M#;$;@s#q#=@K@S@i#L=F#B#v$U#p/D: -a@J@m~|#@#7@Z@U#k$7@y%t@%$|#@#/%{%t@,*t@*$t@K@B#F#Y@K@.;I@[&t@m@=>;@V@e@e@V#w@o#W!!#Z@w#w#K@p#u#I@h@q#m#!#3&'#-#U;I@|#_#e@%#2#c${;_#j#b@w@y#_#k>U;L=!@:%3&m#6@B@q@[&h@&@0#6#h%h@&@=>K@l#c@&#|${_c@|#-@(;&@N#y=x%a#+;S,@>m{6&V@~#K@$$m#&#:%m,h@o{:,W$ &W>0#N;b#_#!@A@J@&@_#m@_#J#~#&@S@&@B#>#e@5#0#e@]r6#J@4@~@+#V#1@s#c@U;_@V@7@p@-@w@$$ &3&{$+$J;;@t@J@f@x#w@f@M#m#B#S@6/V@8#J@@#m#`+q#m#J@>#Y@(#*@3#0'a@q@J#I/d@o'f^K#s=Y,@#v=f%h$K@0#l#=%f'x)O'J@&#+>W>&#T$m#b$/%{&e$'#b*s#8$",
"F:)$f-g#^*f-h$!*(%i#e*]#C=A@x@^r]%8*b#E$7'>&&% ]M#1@L,n=5@+(_@-$P{A@q#<@V@-$7/c@%>e@j@u>W!J#_@_#h@)#^#_#J@5%z@f#Y@|# ,9'7@8#6$%>I@$#q#-@*$$$5%>$o#x#|#k@ $Y+J#_#%&q(s#~#'#!@i@-@0#2#G# &c$$$2#I/;@L=!@}# &^#U#Y@;@-@D@o#@#y'y#%#/rg@`+/@J@],&#+# &_@0#b#6#q#X@|#C%_$e@u#h#t@w@Z@_#Z@g%'#:%F_B#i%`#'#*$=#}#w#_# &f@-@D%&#3#b#;$U;x#'#I$A@%#B#h$h@~%3#l#[@[{a@ -E#%'8#&%j' $p#a#-@i#E=s#!#J@&#h@5%B#Z/&%;$U;L@5%&@$#:&K;w('#k@V#l#;$U#E$b@D,*#a@^''c[&c'9%l#@#~#D%4#U# %&@f-U@h%4%f@T$|#U;D@_@E$>#Y/!#4#&#U#}#f#>#K@9's#9%8#V# $&@&#p#_@|#^# $5%;$I@V#!]->m#U#_# &&#{_g#U#&#g%M>x$d-*@$)I)V#,*e@2#U#e@i@b$+$b#&@i#u#f@2#k@x$x@y%!@!@2#F's%3#V#h'U;c' ,F#i@!@!@#$m#U#K@[&4@e@~#$#^#6@$$q]c'@#-@S;,#&@$$&#&#V@q#u#@#s#J@b#>$|#F#V@5%f@*>p#k#~#f#V#D%!@ ,U#k#x@$#7'S%e@S@3&!@&@J@q#h%-#->V@*#h#x@fqZ%&#A>r,#>r@2~i#L$|#J@w#C%E'-:Y+*#L,R%%>J#%#@#(#!@%#%>e@Z@+@V#&@4@^#_#%#b#Z+q#C#-@J@k@x(!@I;$#*$|#$$d@$#_#&#J@b@0'-$F#m#3&m#h@g#Y+h@ #8#U#f@%$@#e@z(p#Z+W!$$A@d@t@8@_@J@}#00u~8#k'@#e@[#*#6#z(W!L@d-J@n/n@!,w,|@*)o>f$A%=#d%S%=* )O;[#<#I@ %r%y%S%3&v%g#,*9%Z@M$<'",
"k*I@G$a#>&y$%%!#h$S%7@!#=/a_J#W~{~I@_#e$I$l#/@Q^e@K~m,,'9{_$$#F@_@~@Y+w#;@A@c'_$u>h@p/W!&@h@n@k#A@/#&@^#X#t@.@*$^#i@^#A@e$Z@x@_#s#&@v@w#~#h@(%$#J@c@n@@#f#S@U$'#n:}#)>e@&@[&Y$V@s#{$=#q#I@B#&@3&I$i@B#k#c'^#f@O#!>&#i#V@U;V$J@i#i>=%/#u~'/g@Z,D%C%*$ %T$$%c%J@H@|#C%O;-@-@K@@#+#V@_#-@3#v@{%_#b_B#$%-@`$c@f@s#5%n#S@3#~#U;@#e@|#w#2#F' %k'J@Z@ %I$9#~#s#`]s~_@_$=@^,I)C)4]U)D]F@P~5$n) )U)I{n)H]R;X'}~6~W~C=6~T#C=W~>]o):]r=_-I)6~G{x^m,]@*#Z^f_$#(#9'>$_#m#8%&>_#_#!@h@T$@#+;e@i@X@U$%#y%`@0#i@w#p/q<c$-@ ,$$v#}#6#}#-@-@9%_#}#&#V@->&#K@k@ %_#e@X@w#K@i@ $3#d@:&2#|#/#v/>$7'J:2{u~{]K,1{i#e@ &7@;@w#V@i%A@|#w#:&!@b#B@!@_#7'E$i%|#:&%$l#U$%>J@A@I@$#K@T)W!$%@#8#e@!@T)s#T${_ #h'2#f#L';$|#^#X@<#*$J@t@H#^#$$b@F#Q%&#f#J@>$=#&#&#v@3#C%f@;$_@~#q#$#J@B#p@%$%$5%T)2#q]}#!#/#&#c@~#0'U#:$L@F@R,I=y#}#^,g@9)J_A^2#;$>#w#I@,#8-$@x@}=Q/i@w#6#;$e@->J@C'o#X@i@h@=#->i@}${#h@&#f@!@7/$%b_~#5(h@6@w#1*{#8#!>%#x$_@K@z@8%e@K@6#-@+$w@3&c@h@U#$$q#3&)@|@t@_#1@2#V@>#G#6#;$q#u>&@^#g#o#J;e@*$_@x@5#]@5#m@@>c#2$m@S,,,e@v=O=,#v%V#_*|#`#S,M#^#x$|#d*(%u$y%e$G$3#%%M@+;j$;-",
"<^k$m_V$b$V#f$D%%&%$e$*&+]m@H@D~X(K@f$}#M@e$v%C)9{Z@P,^,~@*#q@x@$@^#b{'>B]&@L'U#O;X@=>_#B#1*/#b@p#]@+$#@+$6@|@|@->A@t@@#!@@#'@$$+;e@&#f^4%$#J@&#e@$#m#8%A@e@q#;$'# ,'#>$t@D#8#|@T)~#T);@B#f#W!_@5%U#Z(6#A@U#9{8#d#+$V#&#I@U#V#i@B#y$3*r9[#z@5#9,s#e#@#&@f@[&u$ &_#4@G#+$T)c@U#f@&>B#c@6@{$Z@*$-@J@,#_#{;j#U#!#J@O;8%g#q#'#e@m#Z@y#-@_#4#$%_#G#!#=#>&I@L$g@K$h#l()@Y+c-}~0~F@Q)o{u~>]u~^>Q)C)^>h~$)v{S{h~o{C=0~$)c-#]F@$)Q)l).)*{{@`+,$a@T@a@n)N=I$_#`@_@J@g~u#p#b#*& _m#>$I@K@%>g#b#%$l#*$O#t@T)%#h%%$h@,#p@@_@#/#Z@,#L=f@L@F#X@}#5%-@c'2#B#q#->A@`#8#_#t@i#V$i%Z@&@b#>$9%P#_#E$u^[#c{#>O%5%w@e#i@`#G@}#G#q#U#=#b#}#j$=#;@W>1@H@9%B#U@*;B#i#&>&@b#_@p#%#8#m#1*+$|@}#X@_@+;O#K@U#x#B(U#;@'#[#L$4#]@3#w#m#%#,#>$U$K@y#-# &4%d@.@I@5%g@!@5%.;8#f@I@h@ , %n@o#s#2$=#I@*$C'#$^:~#`#K@e@L$~#u~}$o'i)z'w%z%)-u~I{|<T$e@B#g#*$i@.;A'b@1@n,5b1*3&i@B#]@V@6#]@O;T)e@_#f@i@%#K@A@L@%#D@z]i#@#'# (I$6#t@f#w#>#q#$#9{-@k@L;q#!@y#J#3#%#U;q#*$O#e@7#^#'#,#6#L$x$Z+,_ &5%@#$%C%>#n#_#-@;@Z@4@i@f#J#+#-$y#O#*#A@x@*#_$1@,'6,A@9=(r!**&e@4#b$k$r=O;w#)@%#b'`#a#K$l#]#r%e#(3B@,%|~",
"L~9%~%!* ,k%w$/%l-e$ %5%^)c@<#3=5*s%e*p#/%T=D$m{L@6#e=,,z@'>F@f^-@&@d#%#h@$$v@1@X@Y@]@%#t@$#o#e@J@h@X@A@h@|@Y+V$M#b@=>p@b@~#0$U$*$F#@#f#O'_#I@n#;@I@>#8#u>%>i#J@4@{%g#{#)$}#f@b@5%m#b#m#6@e@:&g%_#!@m@I;4@v/U;[#e@s#%$]#;@:%1@B#}#N;[*I@_$G@/@_$9-K@9'+$S@ ,0#i#L=[&_#_#H%J@$%!>&>V@b#e$&@U#$@>$$$&@H%_#W>*$Z@I@&@B#]#+$q#T)|#q#v@e%*$%>}#7#8#~#k@+$&#R(U#D:A'c@M#_$o'v@q{=@r'.@($o{*#2$h>g@ ]n(x@#@$@2$f^)@Y+a@u~@(*#3$(#%@Q)@>x@9@%@a@z@{)pp|@0$7'm#*$B#_#/@h@$#3#g#I@I@2#,#.#*$K@t@^*L=y]k#_#c%j#~#_rI@c@~#e@/@Z@|#I@_#U$e@6#m#d%g#P#=#_#@#K@Z@B# ,V#m#_#N'm#e@;>I@|#8%*$'>p#_,_@*@}=L%c$M_K@w#6#_#2#_#!@E=!#C$K@v%7@%%0#.( ,8%Z@'#0#D@Q'!@B#U#u#p#s#V@y#B#_#L;{;~#f#{%j#q#e@ &.#j#}#-#b#k#K@q#|$'#~#X@>#%>.#h%-@0#&#5%_#w$~#i#>#+#x$.(}#>$8%x$^#*$_#`# &'#w#w#>$_@Y@a#t@m$I@O;U;q<w{<@k~a,#;e@P#7,5>_3e~X@c';> ,m#s#l#u=k@d/$]'*8%B#U#3#&@$$V@$#F#-@3&Z@]@~*I;+>U#e@A(&>s#~#*&k#t@T$c@Y@Z@$#J@u>@#*$.#&#f#c@Y$c@!@[&v@w#q#e@K@+$'@f@;@$$J@A@&>Z@&@h@k@t@(#K@_#*$D@00_#5#W!_$_$h#_#'>[#x@((J@2$N#N#-@',3,.$^' ><%f@&#0#[&N%;,V@k#U@&#~&-%g-p#}#a#i#6a1&D$#='-",
"J_M@P#/%}%Q'i#[&&#K@v%D$a]&>B':rH%p#u$l'p#b%]#2]1@m^F,d,3$5#G@o'Y+&@n@v@`^-@z]p@%#q@$$c@;@f^d@^#c'Y/J@(#;@!@3&J#v@9'f^D@6%!#U#K@A(^#i#%#O;U#t@e@t@m#$$^#K@A@->G#9'L;g@J@{$b#w#{%A(,#Z@N~_#k#m#Z@L=6@i#s#3#N/&@5%f#i#Z@A@_@0#w#I@5%&#F#<rs#x@_$h@%,NiI@F#,*'#K@c'e@^#C%V#|@A@!@;$c@I$P#V@1@f#@#U#f#'$0#k#h@F#y#_@K@-@e@]#0#p@U#w$4#-@_#V@i#d@s#|#'#i#2#-@!#k@[d4=r=Q)_$W!Y@k#B#$#q]u>k@3#h#L'l(c@.)n@<@5>$#k@/@1@q{k@h#g@u>J@x@q{|@L@g(7/h=H&n/'@M#e@y#=>!#Q'e@4#<#$%I@h@_#w#4#t@-@5%D%x$`#U;v%(%$#p#)@a'*&e@1@l#0#(%o#&#'#|#u#Z@U#+#4@_#w$e@7'L=F#w#!@A@j#}#_@$$S@i#X@{%f@L=_#l,A'*#h#v/L'j$6#+#}#|#L=H@&#|#*$^#,#*$9'X@h%l@{$-#-@ ,e@2#0# ,=>+$|#t@h@;$;$l#f^ $V$h@&#m#s#7@_@-@_#&>j#A@>$t@w@f#4@i%t#J@&#!]i@U#O;2#L$l#^#$$3#5%O;u#-#1@U#i@K@E$}#f#s#f@#@I@6#G$3#f#_@]#3#w#e@u#d@B#C%`^]@r'<=*/h$&#4-_@9)q_5%T)B#e@q#+#f#z;!>G@e=-qb#W!+#>#e@U#>$$@u#2#k@^#.$c@f#=>e@H@$$L=t$~#$$k@g(L#!@A@Z@Z@>$e@e@=#-@|@6#3&w#(/;$=>V@U#-@1@L@.$U#Y@>$6#+$L$B(&@!@t@b@[#<&$$x#q#^#p@M;e@t@h@&@b#b@]@]@=@$##{L@h#Z+6@w,l{v~2,&(M$h-j$7@Q$!%z=w@'>}#U#C$I@x$v%3>]#/%.{`#m#}%f0",
"S)w$&#y%I$v$h$M=P#Y$s#L$c=_@[#I{+&g#b/w$7%e$E'#>-@C'I,4-'/q{#@d@Z/}$=><@J@d@5%;@Y+k@<@-$c'6#M#h@f#O'5%&@%#(#!]%>d#q#;@'# &@#.;X@>#~#_@U;*$J@h@-@ ,@#!>&#m#J@-@J@J@g%b#c$f@b#U#K@V#B#&>_#H@_@t@}#V@>$]@_@=>o#J#5%e@w#x(u> ,L=m#$#1@*$@$2#z'M)W!x@W!#{m~ ,~*~#c%i@&#_#f@X@@#V#q#k@t@U#+>t#@$6#-@c$P#V@'#v%L=V@>#I@,#w@^g:*&@2#V@L#B0m#|#$# &(#X@e@&#h@5%+$e@V@.@vbKm>ej$t[*&K$B%}#5*o$t%B%(*U/%%_%}##;7$%%w$D$v$F;s%]#f$V#k$>&K=n>U(]<]<f/_d*#_#f#,#i# &K@I$|#w#$$.;k$1*_#$#_#M%p#7%S@<&I@7$U#U#o#V#d@ $h%_@^#x$L=_#(#}#e@*$-@i@g~{$p# ,=>$$3#$#_#2#H%B#+#D@%>s#X#6%m#l#u>!@->%#[,_$h@y).=_$&#'>!#'#>#g#}#!>h@7@f@-@|#K@|@m#c%K@8#f#}# ,'$I@I@_#3#4%E$|@~#p#q# #m#e$K~B#r%$$k#L@f#G#I;C%D@o#^#4@&#~#'>%$1@_#x#J@U$u>f@i@0#k@!@9'-@w#c$q#V@%#n#W!{;o#i@|@F#t@t@ %*$m#f@g#I@L;q#E$c@s@1@+#o{_@*@8=e$a#g%~,Z^=)[r>#B@l#1@-#i%a#I,]@9{!^]_i#N@_#@#J@y#|#!#c@B#6#J'h@h@k@*$m#L=Z@i#1@_#O#@#'>V@i@N~_#u#6@i@>#8#f@c@Z@V#>$m#Z@O;-@x$L'U;*$+#N;_#I@ _U#c@|@D@%$@#&@f@^#%#`@_#w@f@6#w@@#+#;$=>O;w@w@=>k@Y+9{)#}~8#^,k,'#n,X(h$e$u$p#l#]#s,%$Z/.#(#j%!#&#%%!#!#.;d$L$M@>%.'",
"K>P%w# &!#,#p#[*P#s#7'0#}rA@*#^>3*s#y$E$J=h$I@&]1@Y+<)d,_$g@%@5>V@u#&@k@{:j@Z/k@4#$#^#L@~#!@+#_$[#~#!@$$;@k#e@d/~#K@i@_@u#~#J#&@_#L@k'b{,#&#&@>$-@4@$#|#x@-#h%5%$$x$*>M#@#e@R(e@f@J%y#M#x@p#$#T)-@&#e@c$X@t@g#u>L$3&;@`#a#I$A@_#}#*$^# %>#1~V%M#g@h@z@[,g$c@s@J@e@C%&#%#i@f#!@G#*$Z@*$$$.;m#H@;@b@%&U;E'{$K;(%i#s#O;v$u#@#m#m#5%>#3#|#p#`@/%->$$8#/#U#{$g#H#&#U#n)r=*#_))#z;p{8)3@d)o'g)]$r=v]6-r# ]s)d-A{})B)E{))^)h#5)w)^#[){@<)t);=o)h@c%*$ %%>L#s#}#3#d@->6#{%c$-@!@i%e@w#:&&#h$D@B#D@U#I$F#P$]@e@(#e$g#>#k@>$K@Z@h^q#@_Y$T)$$;@1{-@!@b#U#&#2#e@}#}$^#i#e@$$K@@#i@{$2#D$L,}~b{h#p#g@S$%#*$;@J@I@e@3#Y@)>W>;>{;U$O#F#%$+$6@w$T)+$5%;$:_w@D%^#$#g#{%`@=>I@!@c@_@h@2#J;F#p@D#&#i@~#0#K@s#^#j@v@j#f#3&J@!> ,t@2#<&}#&#e@g#i#9%P#@#h$Y+l#g#;&n#3&/#Z@i#L$m#q#-@'#5%t@_#$$i@p#)@i@*$U;$$J0w@^@]=,&Z@h$l{}~u~/{-@W@^*_#I@_#^*R,+#Q)q,q_m#g#^#d@L'v/$@p@6@~#w#I@!@s@%#!@J;M;<#!@*$Y@C%e@;$!@g@Z@t( $b#a@1@(%!@f@_#~#A#d@T$_#c'B#t@e@h@&#^#_@K@5%6#K@f@$$^#i@_$K@%>>#o#q#+#Z@$$q# &}$A@$#O'1@A@*#_@k@7/Z+)#6@m~4-q#m~l^4%B@=#e$~%(#]]>#^#k@/%^%w#]#!%h$Y!v$Y$g$s#u$)(",
"u_T)L=P#g%c%h$V%=#_*!#%&T#u><#C)W$/%!~~%w$s$V#u{k~.$}^I,)@h#8@k~D@J;V#&@$@A@6@-$C@c'!>>$4@+#q@)@$#w@I;h@J#Z@*$|@Y$^#X@;@L=h@$$+$E$|#c@&#^#-@T)a#>$k@6#L$g#*${$m#$@_@4@X#|@Y@!@_@i#+$I@>#Y+U#O;V#l#A@ &_@@$B#L$U#e$9*&#E'~#5%g#7'A@K@m$$$I@ $v&.(Y+_$:/r'6,7>V@|#Y@Y+m#t@$$_#V$g@l#+$4%B#*$b#f#X@e@4@!@ $c@!@8#5%=#D#U;N;g% ,O#I@}#h%-@t@B#_#d$g$2#-@b$F#'#K@v%&@%>e@*=[&>$@#I@2#Z@f#|rQ'D$o#/%T)n#L$a# $7'}#{%@#]#-@&#<&H@j$*=|#f@4@Z@I@_#f#_#i#h@~#$$l#I@-@f#B#Q'I@8#_#7'V$:%f@l#C_&#.#s#*>R(]#e@I$(%;@&@W>c@u#O;<#J@{%F$[#C@U;k@/%>&f#&>*$L$_#K@[&|#o#_#t@_#{#Z@h@;$a#U$_$S,)@o{}@S&k'`#j$y#I@i@l#%$E'm#'#5%Y+I@|#B#2#@#|#8#Y@>$;@|#-@3&h@I@K@&# ,c'^%V@c%L=3#_#'#2#y%1* &J@i#f#J@l#K@$#m#M%t@2_C_ %>#y#|#O#9%k#/@i#I$B#F#I@f@k@m#V@L=j@4@L= &I@f@@#Z@f#F#|#C%g#l#-@ $U#Z@^#G#w#L'J@1r<@[#R,=_j#*%r,${$)k{_#K@I((%<#s#i${^X@'/x,WpI@ $w@I@1@%# &@#e@V@&@i@>#2_&@p@p@m#i#o#i@A@e@&#J@ ,V@4_h@~#6$}#o#U#U#e@=#N@!@m#V#A@A@m@Y$O;[#q#Z+i#_#3&'#;$w#{]4@Z@^#8%G#&#l#:(Z@i@$$s#B#-@e@B#m#6#(#1@.@p@g@/@((2$7,)-y@9:p$~&l#/%9*u$K%F,x$$@t<T$h$L$}%S$c%r%v$!%M$Y%1%v,",
"2r &!#+&j$L=b$+&x%E$p#E$o{c#1@Q)[%g%f#9%<%2#)*d]5%{$+'E]r=c@:/2$g@%$W!6@6@6@;@J@%#Z/1@ &C'f@c^s#[#%#h^l#|#Z+_@T$[#L=f#m#Y+!>n@W!@#w@U#-@A@5%$#N'$${;Q(b@-@q#i@@#&>e@!@u#I@I@}$L;Z@_#i#+$!@!@h@Z+_#m#$#^#e@f#>$b@*$B#W>_#L=5%U#q#t@q#&#o#8#)@O;!{m# ]^#1@@>-^;&_#f#K@q#v@c'J#I$L'.@j@B#y'i#Z@#_-@'#I^H#i@5%e@C%X@&>*$V#V$=>X@|#X#^#E=6#q#*#q#g#5%|@U$B#m#4@6*I@Z@~#2#=#K@V@<&3#B@]#`#y#x$f@8%p#C@7'U$6#2# ,8#w#V$m#!@J'f@U$L$5%F#Y$Z@J@,#W>|#K@h#;$_#t@'#h@Y@l#L$&#*$o#8#:%+$!>[#U#c%{#}#D#U;@{g~L$e@(#U#&@_#o#.$w#w#_#-@t@^##$_#|#}#w@|#H;i#x@V@f#>#t<->9%-@f@3&&#d@E$8#p# ')@%,b@B~6/f#l#{$l#q#^#8#I@Z@I@T)n#Q'i@K@-@_#.#n#I@]@^#t@6@h$%>+>@$4@3&*$e@c$k#K@~%^#j$^#i@@#_#w#y#2#^#K@&#8#!@+$q#%$2#t@V#-@k@8#9'e@w@|#{%@#a_J@8%W!$$q#)>e@D@8#X@7' ,B#W@%#@#i@#_6%_#I$p@U#e@#$7%f@&#!~@#z@_@9@<-.,&#F$,,n@]-e-e@/%}#p#Q'x$&#}=w@p@[,k%d@0'*$w#F#5#U#5%J@!@!@'#J@^#f#w@=> &1@^#=>5%>#&@f@k@!>t@B#$$_@u#<@o#E'!#$$&@}#*$p@^#4#;@_#k#X@i@S@x@&@>#l@L=Z+^#T)%#^#6#Z+w#f@ &!>w#_#h@K@@#3#*$p@_$1@`+F/i(<@a@m)6#!^='F_j)P>+;y%|$9*i#S%m,A@y#H@!#a#/%,*A@!#5%d$|%B@!#]gu,",
"3r!#C%M%;$D$%&p#J$L$4%g$5$T)O;b)%%2#t@N%V% &;$u{d#c@ )L,-$F@_$=>m@`@g@A@W!(#)#~#!#Y@e@^#%#8#Y+n~}#!@3&)@L$t@i#]@J@J;t@9@O;c@ $=>f@|:q{&#q#h@=>u#6$f#t@ &d#A@g# &*&m#$#%$c@J@$@+;F#T)I@_@/%L=m#2#@#V@4@$$>#&@!@%>-@i#e@&@y%@#w@c$b$ &w#;@x#0#d@*$A~~#6/A@V@`=),S@_&&@;@k@c''@^$U#K@S@d@-@y#@#Z@@#b#c'q#3#e@x#C%{%L=|$[#*$&#U#c@V%s#6@ ,@#1@L$8@S@!#i%K@&#,#m#B#x@c@w#B#|#i#h@S;2#I;'#k@{%t@i@p#y#Z@m#e@&@7#$%>#I@k#w#V@g#i#w#K@8#i%c'e@&#,#|#I@!@7/I@|#Z@U# $h@U#+;s#>$I@-@}#>$;$7#b#>&C%=#+#@#f#U#&@x$h@[#k@-@A@{%'>}#_#E$!@F#1@c%A@}#V# &'#-@^*(%A@w# %L=l#I@&@&#_#_@C%3=B{7/k@]/&0i@'#e@@$(# &I@t@w#f#I@Z@&#f@g#q#~#O;b#$$J@@#<&m#a#@#-@,#U#J@1* %B#f#E' ,t@m@!@f-6#!@{;c@B#,#[*q#Z@+$-@e@1{K@'#*$.$H;T)$#=#+bi#K@&@3#>$K@&>I@>$+#{;f#y#^#/#{$Y+u#c$e@c@:%5%L;*$w@b#J@*$_#=#>#I@m#|@q{(@{]-->*i#h$R,~>L,n>g~-@5%i#E'(%2#K,g@G@]^D<}#!]'#!@1@U$.#,#'>L/+$S@J#J@h@V@$%-@$$m^S%b@3#i#.#i#_#h'6@b#+#3#c@(#f^J'J@4@=>$#-@c@m@J@p#5%+$I@}$/(g#Z@4@m$!@x@o#V@ &!]8%y%-#.{*$U#l@|@$#x#t@Z+e@1*x@<@=@l@]@>@$@B]-'b:0#--+:9%o$)**$)$<&6~M#3#<#p#;$0#V#}#A@V#/%e$!*Y$l$|~",
"5p-@h$/%6*a#]#u$3*C%T$_#N{@#0'I{K$#%%%a#F$y%3#.)Z/X@A,q,^#$#[#_@_$/@f^2$$#c'c@|@&#Z@_@*$/@>#V@(#e@h#^#!>h@-@ ,h@m$t(e@e@>$i#>#0'_#k@>:(#$#f^>$e@V@$$i#B'7'J@@#e@6@J@%#e#L'U#%$O;w# $]@G(f@/#-@o#J@8#}#f@@#&>8%d@|@_$->L$e$f#^#&#@$,#>$6@-@-@_#Y$;$e~9%$@9{A@T@Y(E$j@s#p#(>A@m#3#A@-@F#c'_#d@N;J@f{,#K@3#q#1*.;|@T$!@T)w#>#U$*$1@G#_#'#Y@&@b#B#D@/#l#J@y%~#_#a#$$a#X#L$&>K@B#4@_@,#e@^%[&p@h@J@~#=#|#w#I@v$b@L$>$V@k@ %4#e@j#O#@#$$]#7/^#|#c@=# &+$K;^#=#U$1*J@U#w@!@L=3#&#*$5%|#b#i%-@c@8#C%d@2#C'7@b#-#~#Z@L'q@s#Q%V@V#|#$$o#v%h@|#,#(%<#K@,#F#L$|#&#,#k@|#^#I@.$I@^:*$w,$@[#[#Rch#8%*$+;x$K@g#u>=#&#C%:*g#!@&@_#o#Y+e$t@J@^#i@8#w#f@-@f@3#W!U#g#%>1@+$I;c$b#B#B#h@E'>$J@y#l#@#_#s(&#$@p/{%i#_#f@K@e@*$f@i#J@F#M#&>4@e@t@h@m#&@f#-@^#!# &!@;@_#y#&#_#%$d*N;o#I@i@J@k#f@$$-@&@V@c'm#b#d-5#b@{,;%5%<%;,(#v)L_-@I@'#Z@ &h$+,I,x@q{l{I>K@+#m#C%O;u#V@w#'#8#6#i@U;/@4#Z+%>Y@x#*$-@(#8#*@4@f#v@t@M^6#e@c@4#'#/#*$'#<#a'c@U#I@i@^#Z@d#O#f@%#x@i#R(8#^%i@~#U#@#c$'#-#u>O_(#O#^#>#1@!@6#_@h@;@n@-@{]k@h#-$L@h#`+9-R,-@I{=%!*P#}#v%Q_m<0,A@-@$$6#E$I@x$U#T$v%{;+%X#l$v$_'",
"I:1%^*s#s#!#D$1%e@S%h%l#)]q{Y+^@x%3&W>L=7'*$f#C=d/n#k]^,_$]$q@b@-@@#_#>@<#K@[#L#Y@Y+%>_@_@i@;@Y+C'W>)@*$%#5#u>5%'>p@)@!@)@t@i#k@&#f#$#h#4@-@&@1@N@_#h$I$6@j@1@;@5%&@V#V@M#f@I;f#D@@#t@!#I@R#I(V@m#h@w#u>.#c@@#(%h@m#|@l#1@{%L#_#^#j(f@Z+5%!@V#i#e@I@;()#6@c@k@^@@^c%Z@c@D@Z@=>J@K@'#y%e@u>1*J@-@%#e@'#W%[&q#.{c@E' #y#'#3&+$&#v/G$F#~#f#j$U# ,U#w$I@!@5%w#8#%>l#_#j#+#1@ %'#q@9%&#%#`#m]o#w#6@7'B#i#Q'c$ $B#e@^#*$U#*&;@3&+$U$5%|# ,c'f#-@6#U#f@6$$$'#8#i#4#^#K@0#)#m#-@U;!@F#$%f@6#+#p@&@j-[&k@=#c$t@o#S@U$0's%V#6@7(F#g#;$^#&#c@i#'#<@&#H@i#n#c@2#^#E$X+*$T$g#'#!]+;/,7]W!)@c'L=D$Z@^#@#_#t<>#l#(%^#t@w@i#[&&@U;!@<&[&|#m#I@_# %o#%#@#'>N@-$y#G#.#Z(%#8#>$H;V@T)*>%$X@'#U#w# ,|@o#$#q#m#>$~#*$d#J@V@D@,#+$%>+>&#Y@-@%#k@X@t@$$w#-@U;'#!$e@;>g$*$1@@#V@>#_@V#J@!@w#c@S@*$>#Y@t@K@u#f#Z/z@F@Y'T'V#D%,,5(0)%(*$}#e@-@3&-@x@;=8@`^{^[%F_%#f@$#&#h@+@I@%#!#&@_@9%h@Z@g@[&+$Z@$#4#7@e@y'/@O;m#f#C%k@-@F__@.(6#&@J@Z@@#t#>#6#^#2#+#J@e@Z@/#!>~>V#9{@#h@U;$$A@B#@#_#h@I@R(x@-@c'B#J@!>t@$@W!5#B#O'6(g@d-u()@L@R,(,Z@6)D;6#)$:%]#g%h$V{&>X@|#@#9%'#q#2#e@j$l# %=%m#-%}-",
"j*!#d*a#V#2#!#2#i#P#,#v%L,)@&@d===u';>|#e$j$w#B)!@4@;=R,z]v/Y+g@6#A@h#_@q@J@3#t@$#i@>$x@A@&>m#|@'@B#!]*$u>i@3&`+v#5>o#|#q#6#p#7@;$O;U#c$%#u#>#]{e6~#w#v#+#I@L=-@O;f@b@t@&#3#3#3&U#2#V@8@h@_#Y$I@s#Z@&#B#_@i@.#K@!#_@M@3#{$>#o#j-d#'#5#m#h@m#=#*$i@ #+#<~=@1@/(x@h#E(h$-@i#x(&@b#[&^#!#v%V#g#*$J@ &_#e@_#g~c'8%m#I@&#I@3&>#s#0#=>t@-@l#s#V@!~|#/%*$f@8%%>k@I@%$K@*$,#8#$#E$s#C%&@V@d@F#n#K@&#-@*$f@p@q#@#&#&@U$p@-@e@U$D@f@I@I@c@V@b# &y%;$K@g#!@{;Y+L$U#$$o#j#I@u>%$I@M_7#Y+1@@#g#7@_#l#k@U#q#l#,#&#I@U;~#V#j#1*A@-@_#h#%$>#'#p#s#|#e$w#D%=#$@g@0'h@V#!#X#v@d>F#3#c%>@0,[#h#s)J~>#q#@#t@@#Q_w#00e@2# ,V@B#h@h$`#n@B#@#w@J@|@e@&#k@A@J@e@2#e@:%'#k@m#K@L'm$*$3&9'1@Z@ &{$@#w~-@ %|@i@J@}#*$U$2#h@B#g#^$s#x@I$_@u#;@s#c@5%V@B#s#y#h'k@L=w#}#f-d$'@K@m#->~#i@!#*$-@ ,U#-@]#@#;$E=S;4@m#U$J{C@m)y)K$@#e$[,*{0)Dau#U#{;T$G#-@T$8-*#-$]=h$w#}#6$&@_#J@;@_#&@=>_#$$U$U;i@-#M#C_O;f@m#m#Z@q#t@@#1@_#U#%#_@t@w#]@A@9#i@'>!@/#>#e@U#F(%>A@I@^#e@Y+t@A@C%U;:_q#9'|@w#-@f@J@%#c@ ,f^.@z@!@e@|#b@k@h@=@2/Z+8@Y+4@2@&@d,<,m#X'4r7@*$D%b#i@t$n{M#+#`^7/c%k#C%_#s@G#=#-@e@^{l$r:",
"5rf@e$2#e@';!{[bZ04'V~I='l/%|@_@|<3>l$s%u>{*L=v{x@u>6'K,b{N#.)[#n@:/)@d@T)u>b@N(A@[$5%-@W!*#_@n#v@L/h$w#0'-@5%I$A@[#j##(>$Z+q#;$N'f@f@V@W!B#>#+$!@7'Z@e@-#(#B#U#_@q@i@A@J@e@c@V@-@&@V@2#C_e@3&~#b@x$_@w@]#&#9%K@%#v/e@+$(%I@K@B#{%o#+$8#4#}#&#Z@u#f#4@&@2<X'<#2$[#F@ ':%q#/#o#-@_#m#q#,#'&y#6#!#!@+$p#k'^#J@_@K@f@(#%#_@L'@$k#}#t$Z@*$~%-#;$i#l#}#&@J#V#_@L$^#L$i@j$v@U#J#i@q# %3#`#&@{#&#h@L=5%%#9%*$t@-@X@l#>#$#&@c%C%~#B#2#I@2#@#*$K@}#I@~#U$i@]#&#&@1@D@!#g#f@U#s#v@V@^#;@,%M#>$l@S@I@'#4@h$^%J#c@'#3#c@i@V#I@|#O;|#2#_#'>2#h$e@i#}#L'}#F#w#o#H#K@D%|#w$v#&#^%d$Z,i/u~Y+]#.)i#J@^#U#C'm#h@&# &0'&#7@;@,*s#J@|#F#|@5%7@@$f#e@+$i#C%i#3#Z@>$S@_@&>p@Y$c$0' &Y$-@i(]@$$u#-@$$-@(%M#k#Z@'#4@c@!#'#f#Y$@#}#-@!#V%c' &Y$6#f@Z@L$.$t@h@e@f@ %U$=#U$;$I@9'7'%#I@p#6@$# ,;@5%6%/#T$w#_#y%+#o'$@`+d,A;:%%$;'U]4>J_ ,p#i@g_N;V@Q'r,>#[#n=L(i'J@(%q#J@*$v/w#f#!@c{-@!@5%f@|#+#J@5#k']:c@_@A@&>Z@!@6#J@x@$#N;~#1@N;]@e*+$@#*$(%~#K@O_n#T)9'M#x@J@_@A@c'%#Y$-@@#e@g#i#L'-@t@F'u>L;t@f#;@A@i@_@!]+#y@/(a@`+Z+K#%]C)L,;'|$/=(~U#w@6r]_597r8r$@&@!*e$D0'dU(//==L$+$:&0$x$H%.'",
"F[4%k>X#e$n)X_(-l{B=0=3=Y'^)S>9)@)l{/)g(E{F[.#T#b{+$$]m,.@g@$#x@h@J#-@s@5%f@m#1@|@@#Y+{$k'&@'>1@L@U#@#D%w@V#q#Z@=>n@j#|@|@8@5%+#-@6#%#+#d*q#>$+$-@K;B#p@_# ,Y@ &C_b@D%d@f#<&e@+$U#Z@N@K@O;&#F(&#i@!@=#k@{#i#y#[#e@!#i@/@!@c@!#Z@>&>#h@}#>#_#-@V@W%G#,%Z@@#l&~{7/*@a@0~Sd&%t@@#>$|#;@=#5%&#;@i#-@m#D@c'L$2#6#6@E$B#|#q#q#%#i#q#f#=#f#F#!@8#G#U;e@q#l#_#7'o{C%-@f@P#w#N(U#c$4@}#_#P@6#/%+#0#f#$$i@^#9r-@|#@#!%w#!#=#>#g#m#3#;@}#-$.;2#Z@g#t@I@^#_#V@K@_#b#f#-@.;B#&#U#>#8%&@}#g#_@s# ,'#|#3%|#~#2#U#J@=#p#V@!#e@&#6#o#q#>#!@'#m#D@d@H%q#B#w#}#i@(%E$T$q#e@i%f#e$`@d$L{`=h~^#n,]<y%e$z[]#$(*%9%_#h@J@K;e@c@_#e@U#J'|#f#5%{$6@U#/%U$V%I(I;+;I$4@#$(%w#U;p#~#>$}#f{h@q#6#w#I@d$w#-@6@3#~#>$f@f@X@&@(%b#4@!#N;J@-@c@=>=#i@-#N;e@h@o#Y@h@f@h^B#4@->>$w#>#*;m#L$>& ,~# &I@@#F#B#C'&#&#p@%$X@%#o{5#%]i)%/2#j$t,l/`=&b}#>_]#f@*&j$U#n,Y+)@S,E;$(3#U#k@e@_@f@~#/#(#h#]:_@'_R#;@Y@y#$@6#*;5%(#p@Y++$i%|#e@|@*# $-$j@e@4@b#k#d#J@h@-@B#$# &$(-#x@8%*;00Y++#w#w@A@i#^#d'Y+$#q#C_k#f@b@h@{$e@)@0@G#q#%]-@n@_@-@J#`+h#Y+~,,,b#v^X=H%7'])60t)VdI{:$:-3=I]<)_-^>]^^)h>^#b'c%!%/$O)",
"c~W>y%X;g)%#x/ .0r*.ar9+br+.crdr/+erfrg@j^Q)/^Y^M#$@a)q,)#P{(#b@Y/c@/@:/6@%#)@k@ #]@U;<@y]5%J@J;c@&@l@ &5%&#.@v@b#$#q@-@^#L'>#V@d@8#1@7'*$&#6@=>!#d$L=Z(_@;$'#[#Z@U#Y+t@@#L'^[>#$#+$O;d#g@>$@#c@I@y#$$-@b@!~V@I@c'0'e@}#}#M#-@V#>#L$p#w$&#;@'#{%k@j#@#2#k#w@grhrY+D^/@9{>,U%q{B#*$^#w#%>K@y#O;{]%$&#^#t@f#J@H@$$3&Z@4@f#n#Z(J@w#%#i@U; &N;h-m# &K@b@f@ $L$C%j$`#!@h@A@f@Z+Y@@#!@9'^##@%>*$u#B#=#3&Z@O#}#Z@|#m#U;M@g@|#-@f@O;f{L=@#]#|#c@3&E'U$y%6#7@3#^#Z@i#d@]#^#8%u#x@c@L$K@8%V#!@*$2#o#!#L$'#g@U#w#@#-@&#X@G#L'|#_#_#e$J@s#+#G#U#&#+#|#c% #@#t@q#$#I@&@#$4@T$y%('$@5(u~vaF/q#+$w#c$w#!@|#Y+Y$$$->e@ ,6@U$X@*$k#i#_@'#E$U#-@z(7'Y+>$!@s#e@$$4@K@V@1@V%(%b@w$!#>$!#K@&#C_O;d@3#I@&@-@F'j-[#_@3&@#I@|#!>i@F#s#3#'>4#$$s%k>h@A@O;U#6%7'f@e@^#$#0'Y@a#U;M@5%o# &U$u>s#7@-#t@U#B#h@q#C%_{`'b@*@l{P@d#%$Q;'/z=V/_%-@P'E';@M$j$;,m@s]x>S=p#%$3&X@i@e@k@_@(%3#;$f@w#0't@&#i'6@-@$#8#Z@J@1@U#6#&>U#m#!@=>$#k@J@_@;@9'g@b#%$d@b@f#c@Z@(#6#e@W!k~^#[#w#@#+#f@c@Z@y#A@$#&@*{'#c-+# &e@c@1@Y+;@v@x@z/x@h#'>:/Y@J)e@(,@^W>#>&gW]'/j@irr+n -.c.jrkr2.};lrmrnr`%!@R;,%P#F#/%a-",
"!{1%7@M#[#f$@!)@>#V#e@E$;$F$U#$#,#&#g$&{#/c'])NoB)t@n)9,>$<@g@$@_$!@-@u>+$|@%#L@]@|@-@*>m#&@|#,#Z@'>_@(%O;-@W!q#%#!]*$T$7#=>*$^#+$h@b#*$w#'>I@|#Z@W!L;=@%#;$L;Y+Ua.;d'B#*#)@%$3#4@ ,m#!@>$-@V@X@$$4@9'f@q#s#|#V%l#U#!@&#Y+q#D@R#w#t@@#f@<#i@Z/!@q#,#>#J@j-q#p@e/`|Y+/@W!%,]]h$q#A# $U#~#c$ $7@d%($*$4@{#c'c'C%%$u>k@,#2#'#V#!@ $T)|#-#@#v/_#m#X#(#Z@V#e@Z@!@>$w#-@e@}#4@!@9#|%-@b@W><&|@&%J#i#4@ ,i#>_K@C%$$=#$$ %K@!~|@h@C%m#{%V#V$B#6@U#!@+$a#e@Z@|#g#U#5%*$!@b#$$_@/#i@j$j@ ,~#!@o#K@W%t@j#!#=#q]i# ,k# &2#l@5%!@@#O;&#m$U;N@S%e*s#f#*$4#&#I@b@=#*$k@0'F#e@U$X~Q)o{B'f^%>i#o#m#e@x$-@Z@K@K@s#F#g-%$=>+>q#J@@_(#b#U#*$c@K@&#1*%#>$i#A@W>+#H#.;Z@9'w@S;Z+V%w@J@.#-@-@x$q#B#/#~#n#8#n#_#m#U;>$V@6#H#Z@w#A@t@J@+$+$O;P'Y$N@%> #p#;$E$_$5% &i#o#/%w#~*U#e@m#c';@Z@m_w#A@@#m#e@#@f@N@q(0#s,}$n)t)0%J@!#8=${x,@%D@U;$$|%-@m#x$''&>*@$]x%K@6@&@&@9'n@$$]@Z@+#1@u#n@*$^#%#@#4@$#B(s@J#X@W!T)Y/}$>$>#$@9{w#h@[#@#V@I@d@q#N@U#u#@#I;=><#k@+#x@w#i@f#>#Y+i@p#;@-@{%`+p@V@h@6#c@+#&@Y+f@&#&@k~D@f#u>+$#@$@f^q@*]0@x,2)E'($.@l(f@orl#d@K#/#w@V@F#F',$Z+@$G;pri&_$'>!#%>7%Q,",
"v&$$k#-&%@d-A@M@j%r%w$l$>*/%x$y%I$M$ %-#qrm_q#f)i&F@ -w{K{N/-#W!d/z@!>^#u>;$J@c@c@W!J#U#m#W!>#6@$$&>k@(#]@$$-@7/i@>#)@b@W!*$=>@#$$e@_#$#e@'>s@&>V@;@V@$$e@ ,q#Y@$#O;Z@c{&#(%b@%#I$x@]@$@w#Z@(#t@|#f#3&&@B#Z@w@3&'#+>V#n~J@@#{$E'b#X@%$t@V#_#$#K@a#&#7@L$2#w@|*2$,c1)8@2$)@C)9-%%d#x#>$ &e@Y@f@4@_#i%f@%#g#7/I@J@_#E$u#A@5#&@2#@$K@V%I@v@U$Y+ &%#*$>$d*+$6#5%I@>$s@y%Z@U;^#U;m$_#>#t@'# &8>w#;@*%_#t@>$_#b#e@q(V#h_V#}#{$M#q@k$U;_#;&L='$}#t@!@>#+$4@v@-@I@5%$%@$2#B#$$f#^#c@U#i#a#!@7'X@=#M@p#i#f@x$g#H@I@-@i#c$*;y%6#g#i@{;g#v@Z@>(w$|@!@_@g%&@2#&#V@2#^%-@&#(#[,g@{@r=2<J@~#_#*$m#6@F_J@t@_@w#T)5#k#X#}$!:i@w#h% %b$E=Y+@#_@q#%>^%D@2#f@n#'#c@i@L$d@Z@j@I@0#1* $~#5%!@_#e@B#&#-@A@D%=>+#w#l#M#@#'#,#G#J@_@J@1{6#i@f#t$'#h@ ,|@-@-@B#@#2#J@&#]#o#i#<%J@-@}([& #B#k@8#@#l@5%f@3&k@Z@+%)'[#_$b,E>*;b#6'j#`'#~3#>$i#V@V#2#I@8-x@,]Q;9aD@*$+$+$^#+$K~-@J@x#V@/@k#b#@$U$+$!]_#'@ ,J@x((#6#q#6@t@W>-@)#@#;@|@J@J@_#U#q#y#_#8#;$c@1_9{>#=>%#<#U@>#p@!@8#k@Y+>$i@S@-@(%A@ &&@5#1@!>Y+ _]@!@1@[#T@f^'@<@#{h@&@d,s~'/u$z]8'P$_d]$!*/%7>!*s%E$g%p#p#S;3*_*x$4)@>o{7@5%E$O)",
"w'V$f@2#@>/#y%i@Q%s0K@j%%%L$%%%%I@>&V$k'c$t&Z@`+~@}0]-q{l,N#c{B](#-@J#h#c@c@6#6#(#&#:/6@h@i@(#d@Y+q#m#W!]@>#t@&#g@}$j^s@J@A@&#J@b@ &{$>#[#1*N@A@x#!@t@C'}# ,;@t@4#-@*$4@I@T$~#5%L@$@>$K@U#8#&#s#h@|#t@6#K@h@d@k@f#@_)#|#g#9%w#&@Z@h@U#6#~#'#t@f#q#u$c@-@p#!#+$)$v@T&8@5#*#(#1/7,4#(#4@<&>@w#7'A@v@n#'#|#x@'#L$j@f#s#|#$$_#w#+${$N@C'j@B#f@i@V>k@p#e@$%e@}#B#D%J@/#I@n#_#U#/#K@@#}#S@2#!@m#U;6*M#+$'#%>$$]@w#k@N@5%-#|@^#D%o#}#&#_#I@@#=#3&U#g#_#H@A@U#!@+;'#U;I@b#;@Z@$#p#U@_#d#i%e@`#>$C%b#J@e@f#,*Y$,#=#:&f@u>&>3#}#L;_#q#U#-@U;_#m#L$&#h^&@g%V@ , &^:w#L']#Jcl):$_@c$O@&#u>c'b#0#@#@$ &J@ &_#}$U#=# &A@X#i@6#5> $i@-@5#h@i#-@Z@U$>$K@>_^#x@^#V@>@^#|@U;9'h@%#.@U#j$t@+$6#;$*$$%k@@#J#]@i@Y@q#Z@i%-@_@@$u#c';@y#Z@k@U#!@&#Z@Y@%$y#H#w@~#e@c@*$e@7'w@u>w$V@C#~#c@,#'@W@M#f@K@b#w@1@7@+'7/_@4-9%*$v%/,*@v^|<t@n%_@t@w#L=>$I,]@o'A,X<B@>#1*g@@#5%U#c@z@-@k@B#i@q#{%k@i@}$B#-#t@%$_@J@_#(%%#k@4@@#O;N'c'7/_$!@*;j@8#j#c'k@`^J@-@u>@#%$X@t@d#v/|#Z+m#3#u>$$v@&#6@_@9%e@J@}#&@9#J@f#f@c@_@[#b#(#d#o{q{n:^,6~|@~@A@]$*$#ae@X+=&`!I@o#>*5%!*C$e*8*b$%&;>I])@u{X#}#|#8$",
"V(z]l#u'o{<#y%0#k%0$y$`#C$l$|#K=~&g$)&y%#%l$m&J%)@4).&`=M#`,&@+$|@`+'>f@K@<@Q@A@G@|@a{!>_@$# #e@N'I@n@J@q#-@L;+#U#^#z@6#w#&#%#J#w#Y$t@%#B#Z+>#-@c'd@t@&@c'0'+;$#B#@#n#3&;@^#_#C#u#e@7#%#U#k>_$Y@&#t@}$$$!@i@c@+#H;|#U;s@f#-@J@v%z@6#l#U;&#L$B# &&#i#q#@#c$q#_#%#f@L'rrm:1@/@>#U{{}r%w@L;s@+#s#&@_#5%V#c@k@}#,*i@^#N~W>$#|#}#f@{#X@>#b#c%Y@f@0#2#d@&@o#>#Z+_#&#e@#_G#@#i#(#*$u#'#m#i%-@-@w#y%c@ &f#6#g#=#p@F#t@U#p@o#.(>$f#%$`+5%O;/%s#x@!@m#g@T)a# ,u$L@f#G#6%T)d@d$J@,#e@~#f#w$W% ,%#K@K@+$_#_#H@J@Z@3$3&8#f#_#h@Y+J@U#~#Y+m#d@*&@# $~#q#f#o#I@@#4@Y$S@p[T$#][]x@(#*-H&!#P$0#_#I@U;^#G#U#j@^#i#w#*$ ,&#>#Z@c@I$%>C%f#3&s#&#|#J@^#m#L=}#,*q#I;X@o#s#w#V@W>&#U;+$x#s#-@|#|#U#Z@&#t@2#e@J@-@A@$# &'>~#&#c@=>f@K@m#8%U;o#;@^#i#J@;@%$%#8#q#V@y%v@/%^#<#$#>#w#>#>$d@2#q#B#e@L$q#4@.#{%L@C)n)z@{]]@0#W>~%;=a@K,>;$#i@a#00i#_#h$r,)>(;;,=_V@e$z@A@%>d@n#z]5%i@-#Z@2#&@Z+*$*$h@_#J@<# &8#0'4@9{<@F'=#p@A@7'T)k@z]$$C%=#q#Y+&#V#l@-@O;;$'#J#d@|@%#3&b@s@+#1@q@$#M#@#J@k@q#!@;#p#@#$#d#$#$#;$g@+$$@x@-@6@q@G]I)*##>q#f^x$sr-@V#>&p#P#[%h$P#f*w$z% &{#)$8*]#`+${0~$$f#<*o,",
"@/}#f@Y$u~k@^#=%T$}#g%9%}#6#e*-@9%7@I@e$E$t>a#10&#6#b-0% ]x@e3j@q{$@o'c@h#%]-#%##@_@$$J#_##@$@O;u>[#'#A(!>$#|@t@!@_# ,%>6%Y+%#U#}#=>5%_@3#S@c@h@O;&#%#f#`#p#C%p@A(A@-@i#d$h@V@&@ %G#&@c@'@x#@#y#-@f@@#g#W!w@w@N@f@+#w@J@!@!@d@V@B#-@g#>$(%$#;@F#U#I@B#E$$#`#l$4@B#i#3@-0_)=@]@)#tr&]EaJ@Z@'#Z@k#._m#*$i@_#K@c%f@$#j#g#C%x$4@+$_#B#]#-@U#I@C%-@B#q#|#_#i#'#>$!@d$}#Z+>$y#c@0#n#f^q#&#{$,#U$K@{%|#i@J@k@{%e@w#6#X#u#`@ &L;+#-@(%T$;@e@o#@#s#7'7'V#1* $-@-@e@T$}#g%w~$#_#f#i#y[s#.@A@ &K@U;B#!@%#;@!@s#*$^*{%l#>#}#@#q#0#&@_#p#n#6@&#e@B#z@[&$$I$y#~#%#y#7@}#t@[,L^#{s]Y*A{J#B#!~!:->Z@O#&#n@>$L=J@f@J@s#>#@#^#3&5%X#&>f@'#%>$$h${_3#!#u#;@&@&@g#%>p#F# $f#e@7'l#o#~#$#h@-@m#+#u#m#U$*$h@>$_#e@k#$$g@b@i#+$=#L'+$I@W!!@%$E$b@c'C%Y+W!e@c'U#8#,#t@8#]#(#i@n#,#,*!@J@L'>$_@_#@#>$-@Y+K@ &f,=@ ]{]p$c@c^P=+'Y+x,^<[&>:n#j%U#l#p@S,9{o'A,!*-@6$n@-@Z@h@>$h@m@g-W>N'B#U#X#h@f#L'1@J9G#O#-@*$e@V@U$!@h@m#f@J@J'1@!@i#;@(#5%m#8#/@0':/4@f@f#k#S@u>A@4@k@$$!@m#}#m#+$_@w#-@-$7#4@>$q#~#h@~>q@w@u>d@Z@g>c@L/G,9)[#3)&#L@x@=#q$p#H=T$0#p#7$/%M$]#<%_*p#E$b$4@c>J{D= ]>$'#w$Q,",
"fc>$5_:%-$l(~%!#a$M@b$b$T$/%{%f$h$#,u$#,4%0$O%B#n0_&$$b=T<${$#':^#&@6#L'~>^#G#+$Y+{$B'-#h@O'$@*$J@9'V@_@q#Z@e@W!_#w#m#]@c@d#)>b@v~O;c%x#V@)#f@-@B#{$-@Z@|@m#d@!@~#'#&#$@~#g@f{g#>#[&&>s# ,B#{$f@s@>$-@6@N@*$$$b@m#C%f#8#{$_#_#L$0#&#!@V@.;i#_#>$_#F(w#_#,#|#4@d$$$g@I$~@t&y)s@5>d/Q)m{p#e@u#J@U;e@;@b#f#e@_#L=2#v/,#&#i#,#A@ %x@q#V@w@e@a_>#i#7@q#M#c%s#&#!#O;7@-@i@B#!@+$8#&#;@h$$#W>t@/#/#!>.;[(1@>${% _:%*$9#$$%$w#(#1@i@'#-@9%q#V#J@ %&>=#h@|@m#2#-@*$u#3#_$f#5%i@3&i@8%>#7/|#'#-@w#&%-#;$ $T)*> ,8#t@>$T)e@|#8#4@K@m#;$5%i#>#Z@*$%#;$e@P'c'D$r% #e@w#=]C=)@Z/<)<]w$H@U;>$3$I@F#{$8#'&w#Z@s#K@_#~#N((%I$&@c$@#_#$#L$<#t@V@U;'$L;Z@L=_$1@d@k@&>e@J@i#S;H;@#A@>$i@t@+$x#J@$$-@*$}#j#e@d@%$^:3#w#-@I;>$Z@|@!@k@$$^#w#i@=>L$g- $4@S@|@e@(%$$Z/6$>(t@X@c@_#&#g#C_;$m#U#+$8#>#f#&@-#K,K]c@j/<=b%;&B#@_F]G@<)0%m$Z+^%$@f@q#|#+'1@%],'d~ &I@8#w#&#J@^*~#t@>#u>*$M#g@t@@#U#q#b$@#5%`@d%L#d#Y+t@A@;@m@c'k#b#_$+;o#>$/#&@7'Y+c@N;*$4@4@_$H#;@_#6#&@~#h@K#$@f@6@&@e@-@8#L$|@9%5#Y+$@@#@#-@Z@t@z@>#$#O;r,T{A(--P%d/R@<@N{j*E$l$D#r%h$T$g%L=e$p#f%T$[&a#M@'&[#L{T#w$f##$:~",
"v*s% ,e${@m@,;=&g-L$s#6*H$=#g$$%-&I@L$*&)&/%e$/%,$40l@m9Y_v%[#j/('&#M#+$ &h@@#_@B#-@H@$@o#;@J@%#8#N;n#m#&#t@|@;@A@@#%#e@L;c_K@U#t@B#6#W!8#f#;@3#U#v/L'_#+;V#f#%$V@B#;@$#&#%#-@}{-@Z@^#x@>#~#q#t@$$u#V@m@A@>$_#>$y%5%*$m#F'!#[#L'f@U$S$Z/J@_#@#L=f# ,u#e@U@m#,#&@_#7'L=V#'>;q2)j@[#}$=]q,$%|#-@s@f@j#_$B#C%Y+e@5%F#K@|#<#w#[#q#x$+$a#e@ &`;b#-@!@V#e@|#9%E$1*t@w#'#+$K@6#u>C$$$I@V@_#_#s@+$W>,#$#U#`#,*'#S@w@3&|@U#E$g#_#B#c$A@O#;@j-_#V@^#;$(#}${$c%k@Z@;$$$U;b$c'/# &}$q#K;2#1{k>t@I@y#2#m#+$U# ,q( ,Y@!#^#%#2#^#w$+$%>!@f#&#|@I$->3&;$!@Z@/@Y$'#j#%>k$+#I,z(u~o'w<6# & $2#<#x$@#o#b#p#*&U#q#L@U#e@{%|#U#4#Z@o#f#+#t@N;^#m#;@h@z({%o# &!@J#u#f@V#b@B#,#U#-@m#V#m#>#*;*$w#h#U$t@h@i(w#<#|#Z+B#-@V@J@-@6#(#5%W!b#m#Y+~#h@4@,#4@3#'#i#B#&#!@_#)@Z/2_j#_#L=4@+$I(i#@#2#w@u>e@t@i#.@ #m,Z/a@_$K$:/H%6@+##)${e,ur'#;$i@B#!#;@2#7,*#2$c=O$p#&#p#e@c'x@*$*$t@e@w~K@Z@_#w@w$-@^#*$q#&#M#T$.@c@c'e@-@Z@x('_]@4@s@Z@^#J@;$>$p@6@|@c@_#2#$$K@@#c@h@B]Y@e@[#}{p@e@8#&@_#4@7'9{q#1@->=#|@;@Z@&#!@(/;$Y_7@L,e=w@8-V_Z+>@o/m@x=90s#K@9%j$b$%&S$d%f$p#9'l$w$~%]~s#_3z]U)|@2#(%p~",
"p*f#k# %c-h@K@c$s%Y$1{K%L=`#.;p#C%L=j$g#p#%*w$<%/;1@@~d/m#1)f#Q)u~3,b#*]E$Z/8#t@q@(#t@e@f#A@w#1@_#+$h@!@)#e@[#7/J#l(7#6#m#Y+u>e@7/>#>#@#Z@m#.#3#!@Z@>$K~m#w#8#_#A@y#6@-@&@*$(#i@s($#;@V#|#w#*$+;_#4@[&c@k@K@i#5%Y@>$B#-@K@q#)@I@$#W>Y+u>^# &q#N@h@O;e@w#m#L'Z@m#f@k@|@e@e@@>vr`=#@L@h@0,C=P#$#&#h@q@5%2#|@U#i#+$ &w@p@U#+#Y+V@~#d*Z@q#+;H@.#B#2#>$D@J@'#w@Z@|@K@g#U#K@E$1@T$[&i@!@p#A@f@_#A^>$+#c@i#c%8#p@w#^#Z@Y+y#V@$#;@>#p#}$S@h_J@m#@#I$4%_&g#y%K@n#U#Y$k@2#Z@!@U#I@w$$$h%$#!#|#P$$$)#;>e@ ,j#3#[&>$%>_#[&U#5%R(8#/@6%Y@U$g#J# %.{;@-#t@ ,i#,*Z^<#m#~'A{u~$@Q(f^Z@$$i@f@g#{%0'3#I@4@n#L=5%&#H%c@+$-@>$*$B#e@;@B#-#c'z@I@,*Z@0#f@E$u#f@2# &M@^#Z@Y+q#e@-@~#d@;@d#K@^#O;A@&#!@X@U# #$$U#f#e@L#|#=#z(F#8#|@8#U#i#j#x#<#j@J'h@h$e@m#s#U@>@_#Y@i#/#k@e@!>L'(#}#s#I@>#8%x{i@u#!@>$ 'c-@@6@i=Q/x$T)N;y#G{ ]3~0%A_m#/#I@=#$$%#4-*@-$L,V~~&c@*$;@0'-@c@*$k#]#U#i#u>8%m@J#w##$!@f#!>8#u#j#1@e[1@&>x@f@>#h@00]@E'U#]@c@*$U;b@w@k@u>Y+&#Z@Z+3$!>*$B#M#>#i% &x@_@L'*$&@{;w@&>(/[#g/O;L;&@Y+B#*$1@<#o^F,O@{)3>M#$@*%E{U#])t_)&>#4%N$H$!#2#M=h$l$!#`#D$d*U#t$_$J#w{wr ,T$f0",
"Q/&#i#j%9{q#V%l$V@j@P#S$v$j$s#L$}#}#}#&#h$g%4%!%H%b*{$xrv@K~u~w$F/6@E(u>G@s@[#+#_@Q@Z@c@$#w#-@&@y#k@$#u#B#,%e@e@'# &3#h@5>~;f@+;1@ $2#>#|#|@T)q#m$/@e@0'&#{;V@5#w@I; &e@-@6#6#h@&>m$q#>$;$c@V@|#y%-#y#>$J@~#4@{$m# &6#$$}#5%-#h@>$d@@#Y+q#*$I@-@_#{#j$_#b@-#K@C%>#<&1@_#Z@h@3=yr')m@8@*{]^L,E'6#I@007'_#i#_@T)&#w#n@{%&@B#6@J'0#N@|#u#M#N;h@2#>$q#J@B#$#&#x#>#_#o#s#*$5%'#!~L#4@l#B#b#_#%$l#A@k'|#+#s#x#I@0#K@-#s#4%^#U;w@I@ ,q#o# &S@2#S@d$I; &+$I@i#g@ &|@_@T$V#L'K@=#i%y#@#g-I@G#f^f#!#g@2#,*+$3#F#j$b#f@U#>#w@9*2#8#z@%#f#k@_@+#w#F#Q%f#y#w#!#B#m#'/n=($C@c)Tqw#3$R=e@f#@#I@&#>#&#w#T$h@V@w#$$$$F#@{&#J@f@[&+#4@B#Z@C%g#B#A@_#f#B#_#I@m#I@;@}#K@m#6$&#7'h@q#c@U#V@!@U#_#U#C%R#e@f#c$8#%>>#u#^#B#%#i@8#|@2#o#%$I@i(|#s@e@v%g#$#h#e@[&!#I@}$b@/#D@L=&>n$D%c%Z@f#J@'#S#E$M#m#0,I]%@b@~)yi6#5%-@L#{#+{B'u{&bt@s#Z+&#w#7@r%(,)@(> )F=v#@$*$k>}(J@$$e@4#]rJ@2#h@K@S@a#I(U#L=b#B#p@X@+#@#2#O;w#>#[#;@.@k@J#_@k@%>e@p@%>}$m#+$3#_#_@J#q(7#@#V@;@K@(%>$*&/@'@)@k@k#!>f@b@J@h@t@h@O;W!&>.#&@$#_-A,p] )*}h@J{0ce$o'1@o)J<p#H%7@D%!#s%1%=%U$T$a#M@[&}%s%L$c@9{R;W>x$i%p~",
"f~!#i#^#$@W!Y;&#M$[*E$h$p#I@~%|#C$e$p#L$}#L=T$o#7%9*b*_@zr@#e62@0$B'}$k:bqC%A@@>b{N/w#:/(%<#2#[#1@&#E$!>1@@#A@!@G#k@>#3#%#A@J@1@{$k@&@$$m$j#~#J@8#;$6#c$&#^#b@B#m#_#e@V@!@4@3#*$=#v@e@6#|#n#}$i%z@%>b@c@^#U#L=,# ,t@b@+${]9#B#i_$$b@U@>$k>d@u>i#_#~#'#9%&#P$1@A@3#L=t@m#}#{%c@ArT/}=_@~@_$U{-,|#~*6@]@|#B#%#0'e@k@m#h%J@-@k@'>'>x@>( &W>U;B'&#+;V@!@B#3&!#_# %@#>#B# &x$Y$V#J@{$|@D% &(%^#U#f@W>g#2#-#-@b#n~U#T$i%&@F#f#g#D#;@<#(%m#C%;$p#Pi3#6#_#2#A@N;g@H;a'l(D#b@L#^#Y@i#U#7@b#U$A@U#+$`;K@v0~#w#i@V#c'.$,#f@>$_%I@S%L;}#w#!@h@w@W@2#`@Z@^#,#q#i#P@),P{o'1@E93@.{;aJ#2#[@<#*&d@$$>#K@V@@#|#;@8#&#Y+#$!@5%-@-@{$h@+#]#I$Y@h@-@0#O#w#I@V@%#&> &k@,#6@B#'>f#L'q#$$Q'_@+b{$Z@~#+#@#O;j@t@%#K@J@U;q#M#1@ &>c&#~#i#J@8#@#7@~#|#w#b#w@_#>$T$+$e@_#U$U#[#P$-@>#=@I$Z@i@B#m#c@x@b$H<U)'>a@^@Br~=;@;@Z(*#e@K]F@A{i&V#J@2#q#&>V@@,7,c{q{L,jc~#@#Z@.@'>h@6#1@>$y'#@@#h$e@1@c@^#~#>$J@k@-@N@H#X#>$K@*&3&!>Y+*$_#@# #-@T)J@._s@>$$#^#q#-@6#k@@#*{B]S%!@t@_$+#<#>#$#-@Z@l@w~q]Z@x@i#>$>$1@c@p@Y+V%I)C=k@i))$*$CrDr6@}#a@_@o{=%Y%b$D$ %j$T$V#I%e#B#!*k$+&|#I@&#%])@@>$$;>B@'-",
"J_h$^#~%c-c'&#b$T$k$f$E$N%R/]#w$c$7$i#>&G$|#s#!#d%D%j%J>s@L*6#L@Z^I$a@9{F]&#<#H@->5#-@w@;@j#%#b@q#J@V@I@W!c@h'8#5#4@$$f@3&h0.@w#K@Z@@>c@U;c@C'L'&@%#h@.@k#b# $6@;@6${$k#&#i@m#x#G#|#V@_#!@d@N;J#V@ &U;&@t@3#k@!@w@K@f#A@e@n@V@*$;$3#v~~#6@B#L=%#%#c@U;~#/(7'v@Z@ $ &-@_@=#l#g#s>_-:my)L@:/d@g>~,Ero#%>_$U$&#h@i#`$v@3#+$B#_@2#7# %p@!@l#j#@#A@;@.;]#m$I@%$>#>$+$[&h@^#&#B#4@B#<#c$g#e@&#g%y#|#2#Z/%#{$6@ &p@A@s#g%3&V#Y@~#<&+;4@I'i@g#I$->k#_#.;|#K@'#G#C%T$%#f#&#B#_#-@;$%>!@s@k@g#{$b#+;U#6#q#$%W>*$@$]#w@K@3#q#m@^%+$_#4% #e@}#Z@T$-@{%+$i@Y+X#9% '~{n(g/^,Fr>$I;e@F#-@!@J@I@l#_@h@E$x#H#f#S@-@f#I@&@-@]@5%>$i@ $y#G#B'B#f#V@S#!@E$D@h@h%l#L==#b#O#@#!>i#B#m#!@7#w#3#&#N@*$u>b@b#]@q@-@d@U#c$q#;@'#z@$##@m#^#=#y#A@s#U#B#>#3#i@&@>#}#&@&#g#N@_#~#t@L=m#{;i#c@P#&@@#k'z% 'z{(>'/o's&n)&#;@+#&#A@9{;#T@q=Q$/%B#c%/#C$w#s%n,-$2$Q;)[i#6@>$4#k#@#%#3#;$_@e@O#'@{$6#|@U#f#%#U#t@6#Z@k#~#_@i@f#i@g@B#T)Z@*${%e@'>1@X@*$^#$@w@b#,#~#m#!@$$L@z@3#C@N@f@;@~#J@1@-@6#q#6@&@Z@&#s@c@V#k@Y+U#7,I{#@;=-%9';)v!Z+s>p#d-&@o{1~d$f%!#!#y%j%T$w#c%7$K@T$s#<%F$Grk/*#C)b6i#Y$p>",
"W<v%Y$6#h#n@g$G$g%2#_%K@}#L=h$%%V#*;H%%%!*=%r$T$T$a#a#}#~&^#Hr3#_@[#p#k~u~y,b#,]4bJ@p@K@'>4@7'$#k~c@&@q#^#c@-@'>+#+#x@'>f@$$j#k@_#+$Z@t@w#Z@f@q#V@/#~#1@*$3&*#_@k#;$(#2#!]%>e@c@^#_@;@^#*>8#8#y@.@*$c#1{!@2#7@7@_#{%$%c@*$$#!@O;=#f#$$y#$#}#X#q#&>S%^*B#Z@f@$#I$b@&#=>-@*$I@y#&@x@k@t&v^b__@A(3$Jc;,K@[&w$W!%#g@0'4@F#p#p@_#`#e@V@p@F'y#w@;$m#>#L'D%W>>$4@{#d%^#6#I$!#(#=#^#=#B#E$K@/@N;_#'>I$e@3#u#X@I@x$-@l#b#2# &%#V#u#,*i%~#e@[&U#e@5>h@+#f#c@L$u#&#a#J@m#e@c'g#w#|#8%f@'#$%6#{% $V#-@5%f#p#x#!%{_I@X#i#I@q#;@&#}#4@!#e@6% %m#h@+;;& $c'5#h-f#&@h8>@g@]/_]%]4@_#i#k#p#B#}#w@&#d@$$&@9{t<o#_#U;&#Z@X@ %P#h$@#;$L'e@U#$@p%@#S@!@d@'>`@h@g~u>[#n@!@c@/%X@J@J@m#A@K@i%<@L#&#9'k@&#|#B#$#g#T)Z@-@ &@#i@ $N'e@D@U$K@w#m#|#J@8#e$-@V@-@l#B#_#u#;@Y+$$V@j#Z@ &B#~#c@;$4@$${*e,r,m@_$_(,<^)!#i#c%$$U$e*5,;@k~2=!*&#m#t@&#O#w$S@u{1r(#/=P=w#!_$%h@e@8%t@@#N;;$-@%]m#k@u#B#l#A@H@'#V#$#%>'#-@J@[#*$Z@K@U#+#z(h@&@q#D@x@R#J@k@&@$$m#=@)>B]3#1@x@*;3$Y@D%O'x@7'V@k@e@w#J@i#/@*{-#!@&@h@h^!~n,d])@x,%d _:#Irg@,# ,r%x{1@I{W<%%|#H%|#T='#_*h$P#>&C$0#L$p#%%}%#]x@F@I@}#2#8$",
"aj>$5_V#x@|@9*7%H%|#v%/$/%e@!*g$y% %T$>&>&+>%~l#H%}#i#E$e$E$>$10$#~@)#s#*#z(g,_#&@;@$@f^^#x#>$ ,w@*$q#_@9'V@k@M;~#/(U#+$b@X@k@-@J@q#&#&@2#-@B'J#W>p#V@ ,~#H@%#*$t@t@;$_@c$s@(#_#e@q#f@f@/@A@-@[& %7'<#-@V#q#h%p@F'4#q#B#,#}#o#B#w@;@$@#$*$k@B#i@J'k#~#m#i%+#U#<#t@6#D%-#e@!@e@'>~#w#0@JrKrz@_@J9c@W~('y>_@~;!#w#4#,#U#J'L=c$U#c@6%u#!@J@U#I'X@w@b@&@B#'$~#e@=@8#B#B#t@~#V%V@*$V@'>,#9*'#7@_#'#`#e@%>9{4@R#&@U#D@U#J@(#[&F#E=}#@#w#2#A@f@V# ,[#@#!@!@r%3$e@H@~#Z@@#O;&@i@J@w# &+$F#1@!@,*!@B#d$;@f#d#e@N;n@+$2#g%O;F#L;S%Z@@#,#7@4#B#9';@U#$#G#~# $',%,f^k~uqu$'#6%_@G#O@i@w#B#u#@_A@f#!@w#%#%#(%@#v/k@~#f@*$V#c'w#'#>$ $G#-@_#X@V@g# ,e@_#U;6#J@6#I@_#j#3&V@&#J@K@L@L#w$t@$#X@y%/#w@Y+_#.#Z@$#~*V# ,>#I@!@I;i#d#c%K@!@e@h@w#9#@#L'i%h@m#3&3&u#&#$$A@!@-@t@F#+$_#7'1@L$K{5^J'h#_)r&g@p_&@J@J@f#A^ )e,#]9{Y$i@Z@M_2#g#f@5%Q)3=.@9{'>n#i#|@W>x@&#-@e@I(0'i%k@e*1@m#:&|@V@t@J@V%k#:&U;'#.{+$%$)@_@w#1@$$w#V@%>x@+;3# &q#*$=>_@u~f@c@t@J@h@c@C#&@x#:/q#T$I@^# ,b@p@J;U;z@+#_#&@~#7'U#LrQ;K#K,1~Q@Mr[d*@c$'#[&d>U{U;V{I:[&V@4*%%U#o%0#Y$}#S$*&u$K$t@9%a%q{k~M^-#f@a#C;",
"NrV%h@!#-$s@s#P##,!#g$0#-%y%e$]#y$r%a#]#F$C$B@]#(%=%E$x$Y$d%*%(#q*H@_##>5%6@/@='f@:@J@H#>#@#z@-$J@-@&@!>e@-#m@T)1@h#!@t@*;^:8'*$8#v@W!.@w@-@1@^#I@k@5%~#O;d/O;I@>$$$;@N~U#U#U#k@d@~#c@e@L=W!i#O;u>f#e@|@X@~#f@3#h@_#U#O'{#c@k@0'p#V@c@g#,#f@[&8% &9'B#!@i@_#N;3#$$i%a@f-K@&@c@e@.;G#.$`=[!0-]@Q{J#Y+;@'/%br,&]j@_@t@6>7@u$j${%L=V@I9~*P#E$,>;&D%E$`#g$U>r%|#l$0#!#H$'#|#y#|#/%q#!*Q'i@ %/%(&M@I@r%!#y#7>/%g#w%8a`#&#S%}#jey%l#l#0#h@Q_w~I$d$1{U$vc~*|#!#Q_7>v$U$1{:%S%F#V#I$&#:%V$A>K@e$.;e-p_e*s%G$W'd$i#r%a#I@g%EaM_!~(&s#d>2%U#:%c%f{y#V;{%I;k,S{h#$@Aa6cx#7@Z@;@e@@#k'Y+j# %->-@B#f#w#v/B#j@}$y#-@f@m$'>H@(#E$Z@%$O#F(B#=>i@p#&#L$@#3&^#4@o#c@i#+#f#$@>#2#-@3#V#m#J'.;Y@m#%#}$!@ %L',>*$q#%#A@=>p#_#e@6#D%U#'#&@n#4@-@L=L@e@g$(%d*$$^#b@U#q#U;L=/@@#*$X@-@Z@e@[&$)S,L@u>2)/]y)e%.;&#c$w@c%Z{7,${/@^'b&L'_@f@H@&>*$@_n,9{)@%#Ac3$b#&@+$e@w@k@&@;@|@P#Z+Y+Y@$#S$ %8#&@}#-@)>w#&@8#D@h'm@%#7'A@5%t@m#*$i%!@u#e@[&T)B#w@Y@+$w#$#O;uc;@B#q{w#@#'# ,[#&@w#s@f^7'>#/@Z@~#x(-@A@N8w,}=h@9:V]M#`=r}L#v/+;0#@#b$^>Y+3='*Or*&]#;$L$!#k$&@x$.#~%p#S%a#r%!@J9x@^>*$U$w~j,",
"R)^%O'[&J{*$r$e$D$I@/%*$=%[%0$L$9%e$h-L$_#[*2#o#M@J$c%;>J>&#:%]#Y=s&7/+$m)6#*@1@PrJ@$#Y+A@T#$#q#h#Y+J#w@e@c@+#h@6@h@k@V#K@A@D@q#S$o#S@i#m@!>$#;@B#}#4@N;T)s#h@V@U;n#k@!@J@A@>#3#h@!@F#c@e@6#O;_#g@i@U#J@!@h@B#f@'#h@k@8'-@-@'#[(/#t@h%]@e@w$>$e@J@9%]#L=N@c'6@Z@>$&#C'7@~#m# &q#A@ &-@m#R@L!U#'/*@g@#{@>Z@g@z@I)E,1,E(9-9,B/t9<';m_,U,N,='C,<'g,g,R_P/B/g,N,U,z,('Y,i,2,O,Y(k[3,Y,y,C,i,v_*'i,v_('O,[,N,f,N,='s^Y,f,9-FcFc[,e3),[-3,g,no^, '`,7,':f0W,('Ec},':U,Y,k[E(t9Qri,v_U,5,8$='_'},_'_'|,|,C,i,*'),E,y,),}:_'},f,*'9-':},E(*'},T,v_ '^,^,K{Z++|i('#_#;$n#'#n#^#=&V@V@b#k#]@9#X@V#I@}#w#$#>$5%j@4@6#X@h#e@d@1$0#q]f#U;m$|%Y@-@T)+#U#K@$${#|#k@D@o#W@!@%>&#.;E=4#Y@L$V#6%q#l(%#N@=>|#3#`#w@Z+`$!@{#B#E$_#_@I@*$_#_@g#.$^#2#B#7@|#L@{#w#=@e@U#Y+5%V%c$t@h@m#f{`=m,L@(#n,</r'3#_#->#$.;F#3=0,Rr=@F{xpd--@'&%>i@T$%$0#&)'>Y+0~j{W!h@L'Z@J@*$[#.@+#u#j^_#^gx#.#Y+_#<#>(;@b@~#3#4@e@_#N@K@}#6@8#1@!@k#c@*@h@%@&@7/1*j@y#>$w@_#y#e@7/_@_@!@ $W!_@*$q#^#h@+$t#'#C@_@q@u~L;u>@#-^:]c@3,e~A@o'Sr<@c$b$w$(%m#q%%@d#-] >y%s%'bU#>*E$%%T$s#e$E$}#d$h$^%$%o){]:$e@f@/%f0",
"Qq5%l#V#~@Q(K@6>9%o#s#'#]#&*<%C$~%w$S$V@#%h$Y$l#D%Q'x$V#*&t>f$b$S%>*9bE$;@0@M@${$@l{ &^#B#x@!@V$L'h@c'($_$h^1@e@D@$[z@(%vd$#K@_#+#~#1@~#&@O;3#_$N;-@&#e@K#->i#c'&#~#+$1@&@*$&>y%L'm#9'i@&#t@s#!@f@K@b$&@'#;@V@_#5%U#Z@#$>#e@h@S@>$O'f^Z(S%b$u~Z@ ,_@E$8%m$1{w@1@-#$@Z@*$$@>#e@q@^#-@*$_@f#L;k%[dC=r#$#x@$#o' ]($<@0@-$B'Y++#%,W!_$-@g@-$B#}$/@u>6#]@h#&>Z+k<^#'@_$k~O;x@a@Y+g@x@;@x@8#C'7/(#_$s@h#@@q#'_Y+-@Z#b#a@2$8@*#p@C#K#{]P~[#*#T@h#($*@-$k#2$W#$#Z+:(`_k~{]P~T@)@=@}$v@[#@>X@g@Y+W!^#Y+J#=>x@c@;@<@]@J#q{v@9#v@b@Z/d@a^b@$#$#_$/@9{n@5#g@-$0~%]Y'.17'/# #9%%>$$-@J@e@K@^#s#t@E$&@<#%>B#+$_#@#J@&#m#;@N~~#0'J@&#>$&@e@^*|#k#s@3#-@,* &F#._&@V#w$ ,J@>#q](%t@i#)@X@&#Z@q#>#J@_#Y+$#'#m#V#w#4#^#E$c@p@x#$$i%k@!@E=Y@3&,*p@J@*$g#&#7'e@p#o#B@h@k@3#_#_&~#!@g#])e,p@<@A,y/$@V#m_i#7'/@k$I{,a>cz@)//dG;;@w#4@e$Y$4_$@e*L,*#`+8-v*f@#$v/B@g@y@;@3#J@7@n@Z@&@$$ &;@4%|@_@t@;@5%d%+$@#1*9't#A@&@e6w@J@|@e@6#h@V@{#-#6@!@=>U;L;<#i%A@n#1@c@h@%#Z@-@V@Y@|@%#$@q#k#W!f#>#p@d/i_G,0,=@b,F:.@=@Qm2@^%U$<&f@6(8*n@&@v@z==,t>D%5%M@-%&#T$,*e@l$S$]#N$*& &,&S>L@F@<#*$5%r:",
"|_@#|#*$i/(#P$+&l#[*;%s#=*_#!*~%M$F$]#F;I@p#L$E$;$E=!#w$&#$$0#5%b$3*e$V0g%P~J);$m@P{3,e@Y+-@@#J@$#1@u~J@_#w@^#$@h@c'^#J#@#b@i@`@x@#@t@4@2#I@m@_#D@b']@*$e@K@t@M#;@;@Y+e@U;c@)#|#b@+#'#%>&#V@X@Z@%#J@f#E$[#l#3#5>t@w#V#|#D@;@Z@&@,#_#m#&#*$N/6_%#>$ $3#Z@h@>$^#n#8@E=J#i#Y$Z@&#&#_#o#L=>#'#I@!#E~+*U+K#0))@b@_@a@_@F/Y+x@)@/@h#f^1@($g@_$G@k@9@^@W!Y@F@Y+;#*#Q{s@*#>@g/g@6#($$@h>_$K#u~=@($k@a@ ]-$H#)@W!9@%#o'*#9@1@d-&@ ]o{L@Y+_$l@=@_$($%]A{(#$#$@g/n@2$P{o]#]F@h#:/h#Q)T#=@o{)@T@F@@>R;3$=@~@3$a@d-)@h#z@x@4)d-9{b@ ]_$$#G@9{T@%]o'2$T#h#*#w@C@J@K#+lM^U#<#L=)>m#[#@# #m#;@3&-@e@c$E$)$m#+#f@X@1*>#V#I;!~{%^#s@$$*$m#y#!@&@i@]@n# $-@&#%>X@J'I$$#&@g//;D@V#J@~#s#)#L=p@f#K@>$v@i#-@A@m#(#k@i%_#K@=#-@^%O;y#X@8#>$O;y#;$g-V@m_J#m#H@^#!@s@n#`@+$&#K@!#i#6%O;p{w,c@5#Tr`:d]e@x#%>q#f#x#n{]^u>9{]@w'g@Z@-@2#H%o#'>D@g%q,P~-$1@:/n@n#J@%#$$i@Q(!@q#2#/@n#)@#@a$Z@i#Z+J@}#U#6#A@p@t@c@t@J@8#$$8%Y@c@-#&#f@f#C'$#!#h@^#B#@#`$~#q#g@p@j#7'L'0#&#g//#6#o'k@V@^#&#i@|@;@C@c@K@D]Q;Z/:-UrY+Cr_q*#9*2#}#L'c'B@N;*#6%#$8)K$ $}#F$0$2#C%h$B@~**%V%K@D%`#w$C$^>.)-/-@y#~%Ud",
"Q>;$k#i%c-O'e$)$e$I@5%S%>$8*g$i@7**%e$s#g$H%w$w$E$H%y%V%~#s%f$h$9%[*:%-@(<+$@#]/_#C@c-;''#Z/^#Q@_$k~%#_@<#~#_#_@&#h@7@=>c@Z@n#k#Z@3#-@W!b#l@_#@#&@*$L@>#G#$#Z@6#~#Z@_#9@$#d$Y+2$'#4#X@k@}#~>*$>$f@J#i@,*^#q#N;I$-#=>~#T)@#%#q#s#$$q#((6#W!S@/@i@]@&#6@*$=#.(q#8#&#q<*$*$*$3&l#I@5%i@_#q#>$H@+$[#W>r'K$j<L!d@2)<-<-k)6=r@=@($c-*#d-n(^#q{&@)@d-e@~@h@L@l(*#$@3$6#b@)@x@U]:$W!~@k@)@R@k@E#1@x@u~/@1@=>)@Q)8@)@v{;@_$_$)@a@_@7#z@,@>/]@[#}$F@b@*#L@)@a@x@g@2$^#O'*#*#($g@r#z@^#~@n@8@~@9{$@T#c@*@[#B]8@J#${T@_$~>2$%#k@u~h>c@[@ ]v@2$h#J#c@*@x@_$f^l,(,q}*$W!3#9'3#@#k@B#9'w@4@U;f#e@_@:%%#A@e@@#A@*$ &|#f#}# ,'#@#p@8#9'J@t@q#;@j#v@j@I;5%@{#@c@_#w@Z@4@8%S@J@;@-@q#@#w#J@W>~#%>-@O#m#k@f#8#<@|#I$f-;@^#]#L#=@K@J'm#y#B#|#b@$$5#/#K@}#D@*$h%m@L']@f#;@8#W@p#7@y{{'h#)@k)0(K]U;-@ ,V#3#*$s~5'Z/z@r'aj($K@ &Z@0#_@3&k'y%f# '1@$@T#J:]@'>6@_#V@-@>#e@6@i@q@!@8#X@n~J@l#k#F#3#8'g#!@e@-@-@8#f#f#{$B#`+*$]@%#m#n@-@T)*$4#4@6@k@~#1@I@~#H@d@`+@#w#W! &J@'#$#I$c@c@$@Z@k@%><#>#H~~^w@!)Vr_@,@Wr:$/%$$!~V#p#{$>$@#$#XrJ@$$=%I$e$v$>&a#o#l#!#E$%%T$R$I@j%j$!#Q)N#9{q#3&;$}-",
"J<=@q#-#{@h@]#M%|#a#>*P#j$S%P#a#4%%>]#{%D$-%/%v%/%F#h$M@s#U;P#}#|#u$l#T>O/::%#M#i(@#5><@Sf]#N@^#6@'#o]!@b@_#>#1@Y+6@O;k@b@f#X@A@G#s@4@w#->8%J@_@&@e@f@h@J#>#^#i@[#Y+2#,*f#i#c%I;6#E=w#=#3#l#-#z@*$~*+$'#0>_#J@&@8#c%$$w@Z@_@5#i@2#&#5%U#m#W!$$;>7'b@&#$#*;U#6%>${$]#e@!@_#J@J@k@U;&#s#|%'#h$Z@7@*$C$f#l/($8@i&YrnpZrIb4<b!`rT~d|xm s.sv;j8+spa)q@sP:y/Md#d/]#s^bYh$sVmn9Q!OiWrB&Q!Xc=0oqSm%s[0]( s/bM<&{'07q3 `:-0@|r}O*Gm&spmekb!*sH[R*)dopx&=s-s;s^bM<h5@|ym~!T/6<Md](Spea{[>s[dJm,s10/q)dK0pm{0'sw&#a)dP!ib!c,d|!#a)sp3eaK0waqa!s~s3 {s]s)06<^sp'C)-@V#$&&#!@k'v@=#+$ ,V@I;e@L${%O;|:V@U#%#U#p@|#*$,#[#b#D%6@i@n#B#m#b'h@&# ,I@9'*$$$e#Z@w@@#J@t@5%@#-@/%U@w@t@z(J'&@B#`#m#v~:&U#t@x#%#;@d@J@_#+$e@L''#L=bqq#1*W!I@6(U#e@A@:*>#f#I;>#q#-@>#V@h%k@{;4@|$^>D,4@m@/s(s){6_.@|@W%3#7' )e,D@F@#{[**$ $^#i#v$;@@$*#-@e%$@u{2/G@_-D;&@!@D@`+[&@#V%@#C%+$h@|@q#g@7@9')@_#O;$#7#D@B#A@j#Z@.;@#5>3&u>I@w#^#!@z@g@U#=>f@6#Y+J@T)l@h@e@e@A@g#E$D@V@h@]@e@f@->k@#@6#&@h#V# ,H#U{6~d@:=J<x@_skb`=9%y%s#t$%#k@L$d#K]:sL'|$|@W$h$r%w$e$F#2%1*L=Q'T$**y$I@f%I$&#`+9@d-&#k@)$Q,",
"S)W!I@N;P~1@n%a#w$V#!#&#T$e@{*u$}#B@V%|#h$|#7%D$I@T)5%V#~%h$s#m$%&w$w$b*1's%R:{$_@^@|#6#~@|,C_t@_$j#b{>#W!E'_#B#@#H@Y+=@e@$$3#6#*${$@#)#^#u#o#$#J@e@~*h@@#.(f^t(=>u>A@;@{;$%A@i@O'N;-#9%p@T$ ,8#*$8#-@Z@h$m@o#-@4@J@$#*$A@m#I@2#'#x@ ,!@-@^#y%@$f@'#f@;$J@!@K@U#7'U;O#e@h@U#i@$@>$f#%#5%%#&#S;f@w#w@u#F#+$ &2#L@.@]$%@f^_)_3A=Kpn<3)Y']$}):#)/B=0)~@o{z;[):#}=#{Q)8)G;x=x=>)~{Y'x=n/}@_)~@>=_$v^9={]g)g)9@A)*#_3q)gb1)x@2$g)])k<${]-w@^)Q)g)<s($~@_)Y's)`=w)v]R,4)C=E~])v]4)8)G;<)c)/)r=8)#{`'i)~)`=T@<=B{^)x=lgp=A=a@~=R;K,g@z;/)A=^@;),@^)])(gP~s#|#I@f#^#_@t@1@B#d#B#i#V@ %!@&#L=@#y@V#|#j@F#q#w#L;7'7'x@w#b#w#'#K@-@o#e@y#->,*f@Y+!@U;7'=#J@_#&@e$ ,U#-@V@w#-@y#q#J@|#_#&#b#c@u>*$'#B#F#3#m#Z@c$~#U#w#$%E=e@9'k@f@=#2#!>m#^#U#j#f#B#<>@#>$#@T)J@L'&#.),,w{t@<=pau~c$i#Y$$#H@T;L,a)x@/@]$qp/#H@5%Z@J'f#I$+$e@&#W@,,]@a@b@X;4)^#A^4@-@+#(%$@u#p@!@w#Y@'#G@9#%>p#*$@_k@Z@>$~#k@7'&@P$X#.#Z@_#$#c@&#1@U#&@u#U;J@&#%#L@x@h@}#_@!@t@b@A@@#w@1@-#C#Z@m#d@*$b@f@:(^#O#5$>]Y+0)|<k@})uep@B@>$I@f#j^)$2_6#<@[sq@C$M=V#_*9*+>0$x$r$g#E$9*d*%&j$~%Y$-@!#-&R;'> -|@#_e$j,",
"I:g_j@w#5@4#V%H%p#}#<%s#e#j$E$H%w~!*o#l$ &=#,#e%v$&#j%g$d%C%;>{%e$[&~%Y$<%-~%%w']@6#t@]@W! ](,5%A#N@[(($A@ ]>#t@0#r'm#c@f@.@Z@Z@`@C%q@a$%#@#3#Z@#_H@+$V@m#G#M#J@Z@!]=#i#_@_@%>#_f#1$-@$#8%&#|#%>]@S@|@}#U;t@$$,*x@4#I@i#;$>@0#^#=#$#w#m#~#Y@T$c@6#%#D@f@Z@c@w#J@&@t@q#M#9'A@V@Z@^#m$4@w#I@k@i@s#B#7'm#w#u#2#p@L$N@k@G[V@w#i@-@&@t@7@U#8#I@<$'#'#Z@v@D@z@t@G#$#K@f@m#i@K@9%_@$%4@|#F_P#[#o#w#^#@#5%t@Z@L=P#Z@c$w#f#6#V@_#}#I@ $5%u>=#%#`#%>>$d@i#C%V@I$+#7@Z@A@J@y#&#e@~#p@2_%>I@C%e@U#x#^#J@8#K@i@t@b@S@{%{$[&L#m#e@S@f@5%i@=#}$x$p@&#y%>#u#S@K@i%q(4_v@2#g-Z+X#t@;$~#Y$_# ,|@-@t@c@N@2#4#&#g#h@i#k@g$k@u#=%E$i#4@o#A@%#}#5%V@<&V@$@_#V@7'7'c$%#%#Z@d%[&_#w#*$^#i%;@3#%$Z+*$U#&#A@5#3#}$-#_@m#w@+$d%*$;@&#c@u>b@c%'#!]B#V@3#>#Z@k@>$!@2#|#+#J@I@h@ &e@$@;'L@5#c)9b2@m# &B#W!A@ ,F]D,7/@>w)yb5%I($$&#>$}#b@e@f@J@e*Y+8,c-G@2)e(0#'>y#V@p@2#7'^#J@w#-@>#(#K#}$+;&@>#(#{#&>6(C_1@@#Z@'#U#=>Z@/@$$C%t@h@_#J#e@q@A@%>6#e@=>@#h@Z@*$M#t@_#6#>#K@0#|#7'Y+$$h#$#%>$@J@k@>]m~M#}sg<!]lgNa[#c$e$_#V#W!b$O;+#k@*!6#e$E%]#_#v$v$F$E$}#w$ ,=&;@=%x$E'h$p#a#f$~%u~(>o{o#(%s@`,",
"|sA@U;5%#]$@o#I$~%c%j%F;;$L$!#w#o#E$y%D$0$a#}#'#&#%&&#5%L$t>)$e$ %)$2#<%^*F#n%*%+rL/d/k#>#$@c-!,I@_@g#&@q{J#e@;@2#@#y#J#q#S;l@X#/@8#*$3#k@0#t@@#i@g(h@c%e@L=&#_$q#n@@#w#{$O'_#Y@k'2#!>J@4#@#^#1__@*$g/'#1_&@m#x@e@@#y'w#J@ &f@!@B#A@q(8#1@C%h@K@u>t@~#h@|#s#5%B#3#c'x(!@X#Z@h@d@$%Z@x$s#m#_#*$K@*;)@|#0'>$w#V@K@ &*$k#_#H%1@^#I@+@-#h@t@{#l#e@X@M@c'B#&#&@3#4@Z@{;y%}#>#B#V@K@F#2#!@n~U#e@w$I(_# %t@e@B#!@U#8%g%>#,#y#g#c^h@ &h@'#8#I@i@ ,+$l#f@L$w#@#^#@#^#S;6@k#-#+$_#_#00c$@#->7@$#_#v@&@m$!@W#s@h#0'!#y#R#Q(~#;$&#D@+$^#*$/@1@F$&#m#f@>#w@h@B#h@,#U#/@c%B#i#k~U;V@$#g#B#|@k@e@u#Z@f@&#$$X@C%8# ,m#;$.# $u#!@%#w@B#;@&@(#q#H#K;J@Y+6@m@m# #O;-@_#d@s#J;[&U#w#i#$$)@3#!&c@8#J@M#=>i@+$q#*$t@v%O;[&g#0'-@I@+;Y@8#3&!# &h@t@w#m#&#V#-@N;x@I@U#J#_#=>+| )]@Q)z=^b]$w# &_#%#Z@$$x,6~M#1@0@K>t@s#&@U#I@}#0@^#&#B#U;%#),x@c{F@ >o)I;%#@#-@;@t@|@$$.#-@=>k@@#b@#$6#q#[(>#L=k@_#_#+#i#_@$$$$=#-$[#B#_@b@I@%#Z+N'&#=>c@ &i@x@5%t@ #$#d/4_I@v@l@j@w#e@'#b@J@<#A@L#6@N@p^{^A@''s&7#4)>!R@I@i#%%q(f#=;m@p@-$]( ,t%^***e$>%f$=#x$7$3%!*e$:%/%$$e$P@m%}*^#s%*&a@L{2$m^>$S%r:",
"Q/|#@#c'k~u>%&;$c$'#B#M%}#c%K@r$]#P#j$w$*%e$}#g$L$h%T$s%L$&@E$y%_*]#a#B@j%V$#%}#!&spk@{]h'4#_$m)Rd}#_$_#f^`+=@q#^#|@&@L@6@x#S#-$]@S@b@_#b#=>$_N~T)m#J@k#2#4@i@+$n#t@u>o];@^#q{}#J@7@1@f#|@e@t#*#u>m#>#1@@#g@&@'#Y@n#:/q#&#W!c'$$|@V#A#_@]@q#;@h@x(h@w@H@g@q#m#%#v@J@e@-@!>*$e@'#$@q#&@s@ &w@Y$*${$k>B#J@6%%#t@v/_#b@%#h@b*Z@-@3#&#.[E=i@ &5%$${#9'I;c@8#p@_#A@A@]@Y@J@.@-@/@H%Y++$d%|#_@e@=>Z@q#@#t@v$c@q#B#%#!@c@O#@#_#4@j$t@%%f@c@x@&#*$U;'>X@!@ ,+$-@J@Z@8#h@=#V#e@5%]#v@%#m#B#C_%#o#m#|%q#A@T$G#s#T$L'_@Z@-@d@4@*=4#&#e@.;e@K@y#|#+$Z@_#A@$$i@G'e@;$-@F#&#6@f#4@Y$>#}#_@K@2#@#e@~>+$U#`@4@5%e@t@L$t@w$m#$#'#;@8%&@J@{$4@&#e@{;x@V@k@h@Z@C#O' &=>y%&@=#6@>$_#-@!@[&T)2#.#+>|#6#u#{#t@,#w@i@h@_#h@~#B#b@;@7>n#i@7@Z/L$e@_@k#-@i@K@-$!>K@w@Z@t@3#h~k:J#'/3=Tq[#L$7'T)@$p#O%K{V,1@2@F@1s)#m#((j#m#8%}$7'/%i#a$F(u{Q)Q{*@Y'[/_#j^i@8#*$d@-@k@-#o#6#U#[@H#`@@#O;s@f#~#q#f@-$+$J@J@J@w#T)i#!@t@h@F@C_$@6@m]%#4#h@T)m@]@>$$#,#4#D@+$$#b@s#w#Q{-@K@4@{$k@$@-$<#l#P,Q;_@8,c0T#})!d]$|#s#]#e@9%T$f^;@a@N:b@d%C$p#[&&#7%%%}#v$9%T$T$p#!# %^*&#S%!&g#g#;$M=r' ]r'5%5%<&o,",
"g<A@`#t>D{4@i#P=i#s%m$|#P@S%0#^%_#o#w#D%2#]#w$~#V$&#x$&#p#0#,*&# &=#@#U#y%*&>&h$l#F%k*j#}$!@->T#G@C,a_q#_#Y@K@J@1@9{^#6@L'+$c{Z(-@{$d@f@{$!@i#]@3&&@w@q#j$_@C%-@q#Z@u>]@q#y%A@4@q#&>Y+ &m#3#5%}#@#)@U#{;d@T)U#B#I@Z@m$>$.#&@'>!@k@V@w#k@*$L@^#Y+C'J@I@>$^#Y+f@u>h@H;a{5%%>w@B#_#L'k$E'H%J@e@-@c@K@U#@#{][&U; $-@)$A@u>)>-@6#U;t@&@U#h@_#X@C_&@i#@#/%&#J@$#^#3#c%U;x#H#|@)>Z@X@3#}#h@2#V#!]&#.;X@l#2#t@|@Z@B#n#i#X@>$5%i@h@0#=#[#q#j#x$4@e*g#F$]@>#c@'#Wn.#|: &5%+$k@e@>#c$P$[# ,!#L=&@@_f#!#m#i#e@O;/%k@V@.#f@6%3&Z@m#m#^#9'^#b@k@I@o#c$@#|@G#=>d%5%e@-@-@t@d@U#m@A@3&_#z@n#J@I@&@~#H@5%Z@_@f#{% ,J#_#w#e@w#B0_&-#$%r97@~#y#c$+$3&-@=>_#=>B#&@q#!@i#f@e@b#&>@#f@}$Y+-@V#Z@7'3&L'&@;@m#-@b@_#!#X@O#B#K@f@`+w#h@V@u#Y+I@k@t@@#$#V@k'K~U#J'*;j$m#a#$)Q;~@<@'=T/]-%>k@I@g~q{c%k]@^x@*@Q@}nd-e@/(t@5#2_$#V#_#I@w#5%-@^,c@*{_$2s-/g/g#z@l#z@V#$@l#&@d*!@i@m@O;p@~# & &_#$#J@%>i@%#G#^#0'k#P''#~#J@-@4@5%@#[#*$;@(%i%]@c@w#-#$#m#k#c@A@O;s#>$c@=>6#e@Y+!@t@(#)#7#m{H~g@y)u*Q)n/r}d@s#}#;$}#g#6%B#A@6@Md;#w$4%#=}#+&K@f#w$0#g#h-L$e$V#,*D%<&=&!%E$$%%$c$m#T#;@Q)'>k#V%  ",
"Fr5%E'3#@>w@T%'#F#I@d%G^y#j%s#E$}#g#M$E$]#&#2#g#2#:% &J%D$v$f#i#e$(%i#y%N~x$L$!#[%m#,(-*4#M#*$2$(>F@T,3#e@%#J@k@m#3#.@$$+#y#1@*$J#6@&@N@V@_#}# %&@<#o#e@4@~#B'[#m#&@ #G#;@5#&@n#!@-@j#m#V@K@;@t@-@_#_#E'3#.;!@*#^#{${;Z@m#J@4#2#7'O@-@o#$#n#4@w#m#6@@$2#*$=#J@+$h@B#c@!@x@&>|#k@4@~#_#*;f@Y$w@&#}#V#'$>$O#_#@#U#*#'#I@-@$$4@~#!@@#w#J@@#J;T) &$#-@V#(%i#Y+L=1_m#q@M@B#U$&@>@@#A@;@l@m$3#q#i@Z@4@Z/K@!>K@f@f#q#_#7'h@f@s@!#w#j#i#n#k@;@ _d/V@1@B#;$!@m#v/m@I;w#f#w@K@ ,=#^#V#K@&@^#t@{${%h@w# &q#3&&#`@e@+$c@B#L/;@m#U#5>-@V@e@&#-@f@w#U;c$h@Z@3#Z@1@1@H#g_F#L=q#!>J@}#-#i#2#q#u>,*@#Z@|#0'A@J@(#A@e@o#-#P#l#e@t@t@+$b@%#.;Z(|:8#A@%>L#p#c@X@V@V@%>'#w#'#T$B#t@ #q#>$K@3#X#%>!@'#Z@|#q#P#k@f@e@p#2#M#k#L$Y@_#+#I@k@3#&@&#,*$#9%Z@x@;@L'k@B#:/v%C)m,1@)@}@Tq3@U$B#Y+J'6#,*0,M{-@~@r@&=`^m#;&@#6@8%T$ #+>N@)@V@O;,,[#:/(#]$;(L'~#5%x$Z+Z+y@1@.#!>{$_@f@_@J@c@*$=>w@>#j@e@q]Y$~#c@>#q#+#m#6#+$k@t@S#p@ %U#b@g#K@q#>#c@ ]!@b@+$j@Y@|@Z@I;A@+$8#8#$$L'!@L#8#|#3s7-*#xcw]I]2@*!g@x$*&*${;f#n%A@~#b@R~;$_*%%V#i%/%>&>*(%h$*&u$)*Y$+&]#w$3%V#|#J#N$E$l#*;K%B'`+R;;$_#v$j,",
"c~*$f#}#R;L@s#h$V@L$V#g$+&^%l$4%g$7%`#S@6*w#~&#%'#l#D$]#R$R=H%M)j%!#p#w$}#4@I@v%!#}%l'V($9{]-#_#!>~@,$s=j@i#T)*#@#6#*$&@N@Y+i@A@0'v@2#'@$@i#;$Y+b@c@J@t@!>f#L$*$-$J@U#w@6#J@6#3#@#X@g#7#3#w#8#f@-$J#{#&#J@6#H;B#f#A@%>$#(/5%{$Z+U#7'_#A@`+h#B@/@Z@_$D%-@5>$$*$A@d%@#X#^#h@J'm#_#f@m#U#8#_#D=w#e@c@F#Y$V#t@V#i@Z@->$#8#5%~#T$U;%#J#F#W>^#I$q@B#}#z@&#p@|#2#~#e@I;{;c@m#&#C%<@6%^#)$}#[#Y@4#-@Z@M@|#X@*;U#F#4#e@&#e@U#T$]#>#L=s#m$t@B# &'#f@y#q(E'_#V#Y+w#}$%$L=L=<#p#V@,#!@;@2# &;@c$@$$#_#i#^#{%V@6@!@E=f#-@+$-@2#1@/%>$&#-@B#`#H;I@N(U#I@%>X@K@j^I@m#U;k#q#%#4@o##_c@.@m#Z@Z@_#&@6_f@4s*$K@Y@k'd/|#J@w#0#7'&@J@>$o#]@.@`@{%}$>$ &K@&>V@!@U#-@*&+;$%8#+$&#e@*$x#;@>$z@!@(%E=Z@6#@#q#t@x#6%c@4@ &g%J@F#,#p@ ,+#i#m#h#}#3&s#}#y# &&@8#1*&@e@U;v{':2$g@;)@!6-^#I@S@D@S@8%6,s,w@h@5/.,^#;>I@$$(#e@y#A@@#-@y#}#g-E]^@J0k@s~pp<#s#$@3#L=w#e@_@Z/K~Y+N/6#_#a@f@(#c'T)S#5%e#w@w#$#_#M#Z@ &J@$$V@m#D@_@-@4@q#>#Z+'>4@ &-@h@z]t@:&6@w@Z+t@e@q#g#V#&@q#|@z@;$x{t@y{m,8#v^5sT{Z^10(#{;}#2#}#<#,%0'e@[#z*H@0#p#]#/%t%T$o#}#s#M=y$=%C$9%[%_*Y$E$h$_# %w$&@a#q#E%`=q@u~_#L=~%p>",
" >U@b$I@@>l@U#%%E$H%5%b$L%%%Y$7%P#!#p9v%|#h%3#d$ %_#'#g$s#h$%%Y$9%*%I@'#e$h$T=Q$S%e$o#*&6se-`+z]{;)@$@T@^,$$h#0#A@6@&@-@u#;@w#~#;$ #[(_@y@m#q]c@N(B#|#$#g@f@%#&@B#L;&@J@^#J@B#!@6#e@/@G#=#f#w#+$~#A@e@t@@#C%e@e@z@v#4#&@~#)#o#o'6#m$'>V@-@;@~#6%b@I@J'>$m$+$]@*@U#q]_#,#_#&>e@u>]#D$x#-$E$,#'#h@L$~#e@$$;>w@+$&>e@/*I@Z@-@4@'#k@P#>#i#$%Z@q#$$!:'#e@L=p#.#J'_#A@_#4@w#|#J@$$K@(#k@3&$$f#I@q(s#V#p#c@f#F#J#]#4@k@J@h%Z@_#k@ $D%>#s#Z+h@p%2#|#$%N@v@9'6@-@3#@#f#m#'#K@H@e@j@<#h'*$|# %e@>$!~]#L=@#n#I@^#-@2#J'6#L$v@g#Y+w#y%H;-#J@U#q#m#b@_#&@U#J@>$-@W> &d#8#S@,#}$m#`@c'/#|#|#&#3#*$o#L@-@k#,#V#f#1@;$e@u>D#1*6#K@6@w#5#*$Z@J@U#t@g#f#-@-@e@^#Z@`@E'|#Z@e@K@@#e@h@B#i@_#$#&#&@^#3#w#+$X@V#[#c'@#&#e@n#c@q#>#'#Z@+%w#i@c@I$J@-@B]f@>#F#@#s#C)M{p@<@}s|!3$f@U#g#&#@#K@Q;K,z(N#h#7s-@&# $/@6#C_A@<#f#c@~#U#8sr^8)j(_@C)9so{9%6$-#c@1@+$>#W!Y@f#}#e@S@k#C% &x@i#h@ &~#!#Z({$v@-@Z@i@]@B#t@i@8#6@J@J@c@L#_@s@n#Z@n@q]_# # $$$J@_@1@8#c@1@I@9@u>q#4@&@W!Z@o)d,c@C=Q:2$)@0s9@M$4#B#g$6@-@3#{;_@as5%7%sl ,m#)&,#P@Q% %.; &e$n${%'#>&8*`#g#}#!*5%L=f#7%+;T$T#d@@>x@v$<%'-",
"Q/K(_#8%F/z]p#a#M@{%K@4*;$)$y%h%y%5%D%1bb$E$_%I@e$D$9%m$'&L$j-/;}#^%h$v%h$p#)$E$T$s#h%h$3&fb^dC'q##% -L@h#Y,9%_@q#Z@q#$#2$-@%>'>|@C@K@>$J@^#g@@#!@*$t@U#&@f#Z+>#k~^#K@u>7''@q#i@^#c@t@n@f@B#>$'#9'_#B#c@}#6@Q'J@4@;@f@Z@|@X#0#~#+#|#>#M#*$n#B#-@&#O;_@Z@+#{%1*Z@;@>cL'J@w9w@w#6#h@k@ ,5%q#0#6@_#p#&@V$n@V@v<Z+Y@K@i%X@+$f@m#u#>#8#c$B#-@_#$# ,@#+#L'{#c@3&q#-@&#$#Z+Z@@#f@ &n~e@o#J@,%f@&@:&b@ &1@i@Y+@#|#T$^#^#I@+#L'5%i%d@5%-@]@t@>#!@m#B#>$C'U#@#=#_@^#&@Z@h^I@Q#V$O#k#-@c'i@e@i#@$%#U;1*;&+_$$t@U;F_w@%$`@U#e@t@;@[&_@-#O# ,5>Y+;@w@'>c@%$J@k#+$L@*$$#X@_@@$f#,#A@&@U#{$&#-@9''#U;k#&#k#N;%#$#'>d%&#3&%]x#L=s#-##{8#;@!@M#V#+$,_>$i@6#f#6#V@Z@$@Z@f@X@{$F'.@;@f#;>t@@#+#!]t@,#$#w@U$5>w#_@m#B#~#8#f#N'o#&#3#J@+#c@$#m#!@M#t@.#f#k@C%0~m~Z+[#G;oq`+-#s#^#q#3#k$q,6~x@M^_$bsA@5%h%c@0>o#>$_@Z@2#{$$#|#H,1^v@z@E~B*L,;$c'c@d%=@j^$$s#_#8#&#s@I@J#&@A@b@#@w#]@e@w@-@J@Z@=>C%o#'#J@y#{%'@|#6#q#^#k#&#w@=>Y@V@q][#h@t@c' &T)($;@t@8#U#(#1@@#X@a@H#Y+Y_r,I/r=j*v]3@}!w@r%8#F$b# %M%i@)@8@.s*&!%r%g#g$~%P$m$L$[%F#g%S% ,t>&#E$v$v$g#i@j%d%P#P$Z@H%@%#$#>)@>/@#e@&@o,",
"zj_#*$|#T#Z@c%w$a$y#|#>*`$l#[&:%j%%%[%=#}#u$I@x$Y$E$0#7%V@>&a'9%*&m#v$q# %7'9%~#'#2#/%D%e@o#@~o$4@h^}%2@.@(>T,I@K~h@1@L@*>%#x@N<e@J@_@.#V#+$b#&>;@+#B#q#h@'>c'~# &G#O;m#~#s#J#$$f@J@1@t@1@c'i#v@ #^#A@}$+$s#A@f^X#d@ &U;O;J@*$>#{;l@,*#@$@&@J@^#J@`@0#&@k@9#_#L;D@V@1@f#J'U$x@u#;$B#%$>$-@L$q#$#&@t@k@f#y#&#I@-@U#_#'#4@ #$$k#w@u#x@;@H#[#I@A@x$$$a'+$x$k@&@,#!@/@>#g#9#{%m#Z@w@{;^#%$+$e@m#*$.;S@_#{%-@Q_.#p@i@C%o#I@^#Q'$% $&#_#V@t@e@v/~#># &6#I@!@U$V$j@h@V#5%N<8#g#c@!@f@g#K@w@v@c@8# &9'B#N;6#c$V@K@[(*#{;C_K@4%V@I@Y+w#|@-@q#*$w#@# &j@5%-#j$7'3&e@;@@#y#w@}$Z@o#Z@U#|@;$Y@^#$%-#e@J'F#3#0'J'h@@#o#Z@f^}#%#-@ ,J#e@T$v%,#t@'#@#8#5%>#>#f@>#y#;$/#8#'>c@H;i@|#'>U#~#1@3#>#m# #$$i@_#h@k@V#w#f@!@-#V@Z@J@*$>#e@n#;@3#k#C%B#G#>#v%3/;=_$c@VdEb2-W!2#*$f@,#~%@^`'m@6/3$d0f@2#t@&$l#Y+6@;@w#-@l@c@t<I,4-I/b@#@><^@c'w#_@4@l#*$6(2#|#Z@8#q#8#5%l@%#I;t@%$d@f# &A@k#7'3#$$J@h@~#$$O'U#&#'@w#N~J@$@.@~#}$c@&#L#b@*$p@W!(#s(O;m@k@'>v@h@!>J@g@&@ #T#x,${~=icm:g))q*@j-9%n##%+;l#&@c@.@@|6#w#p#4%e$[*s#*%M@P# %e$h$C%a#g#'*K@L$*$G$]#}#i@7@!*0>w#'#E%8)($F@M#@#^%`,",
"Gag#'#*;c-;#D$i#c*i@>$5%d%B#g$g#e$5%F#L=E$C$~%w$]#p#y%|#k$u<m#I@%&F$I@j%5%c@]#]#k$v$K@~%c$9%e@#*E$5#q]]#<#q@0@},cs5>l#^#+@(#i@}#5%e@-@@#A#$$+$M#j@&@u~w#5%>#u#8#i@'@A@(#_@k#4@o#*$g@6#L/h@@#q#h@1@t@ &J@-@Z@T)6@b@U#e@*$*$&#3&/@|#e@w#z@5>c'k@H@8#>#h@;@h@;@|@Z@-#h@U#>$ &b#$${;%>V#3&q#&@m@|@i@3#3#b@V@!>U#[#'#~#B#t@ $*$@#@#^#w@@#J#g~k>c@@#2#|#-@=#~#}#F#.;'# &_#Z@'#;@%#w#J'#$>$6#t@l@;@W!B#{%m#E'e@e@>$3#*$}#e@q##$J@ $-#W!~#p#V@B@b#U#p@{#E$w#f-m#f@Z@A@K@@#%>5%b#%#@#f#m$W!W%l#N@A@&>f@A@V@&@4#$#&@f#8#|#9'!@8#d$v/A@@#U#$#-@K@Z@o#,#;@_@e@%#_#J@^#!~&@;$|#e@Y$>#A@p#k@O;f@&>!@f@W>Z@_#.#q#q#c@@#i@&@m@}#9{8%f@U#9'+#I@J@N;n#*$c@%>$$B#-@V%W!!@q#U#L#F#!@L=(#d$|:c@'>g#k@$#Z@e@d@%>|@w#3&f#@#$$J#_# %}#<&'#s@G#@#6#&@B'Z@A@!#l);'_$3$/=ds4)j$!@*$w#{$!#n,;=$#<@b@m*%$_@:&D%i#(#P#c@/%~#}#-$w$S>q,q{t@+desm@}#*$u>T) ,E$J'{;T$h@;@j^!@_#_@Y+-@(%E$9{n@C%e@|@m#b@-@*&A@w@y#+b1*5#3#u>^#}#6#S#Z+W![#5#Z@1@$#.@$$/# #q#[#c'c@-#t@$$@#0~J@u>5$7,_$,qQ>1#*#Q~i(!#7'0#p#K@M%U@L/J#Y)J@p(*;w$ %w$2#K$7%!#*$L%!#E'/%$$+;s#j%a#=%h$}#L=P#O%V>!#v%d$9%x{p@L^'>h%V#<'",
",(e*#(]#h(M#u#T$d*V#P@k$k$;$}#p#B@B@b$M@h$b$ %/%7$L$Y%h$M@V# &v$h$s#r$e$:%L$x$&# %m#K@>&4%h$l#L'vr;%3/H@/;*#_$${<,L;-$~#%@^#w#_#h#T)H#V@~#h@_#_#$#!@e@V@h#e@<&_@m@Z/B#h@d@>#!@V@d#3$k@x@u>I@^#}#W!Z@$#i@4#_$I(%]I'J@e@=#*$ %k>{#h@;@f@S@_@,#c@0'w#J@4%P$u#~#=#u>^:C$L'&#;@Z@-$w#y#d#{$%#%#W@8#.$+$d$*$>$w#6/j$p#N@;&A@_@*$&@$$*&&>%#h@c@&@]@_@h@C#!@&#*$}#d$e@I@->-@&$/#l(S#!>i@A@i#q#&#e@>#=>e@e@@#5%7/Z/+$A@I@+$~#M@)#F#e@j@6#_#e@7#w#^#-$ &J@J@-;i@H@_#^#5#{%P$9'k@;$|@D@*$v@w#e@*$b@D@3#W>c@&@U#z]Y@$$c@w@H@q#$#5%m#b$O;8#|@A@!@!@1@=# &A@t~~#e@-@k>i@4#!@Y@G#c@;@;$q#3&'#%>C%V@L'I@u#}#e@U#I@_@%#U#|:c@ #Z@B#!@w#_#V#^##$Y$M#l@^#>$e@i'O;J@2#V@_#0#~#H;5#U;@#&#u>w#%#'#+$J@h@v@>$U#q#i@:/L;*;+$e@!>]@Y+^#A@L=t@;$_@J@w@f#_$'#T{m,*@1@<)zgQ){%;&L'-@D%+/0,j)c{z@;/i&W>X@6$6#5%A@c@&@+$@#I@'# %<)8=<@J@a@>ec'2_~#2}+$B#*$*$|@e@/#5#Y@K@s#w@_#t@[&U#!>m#'#_#h@i@^*O;|@6#_@0#w@ &3&J@s@e@^#h#o#O;(#n@)#g@4@5%s@[#c@q#*$t@;@T)c'@#g@]@%#>#}$Z+'^/@/=fcr=o/Oco'=#[&m$L$e@f#Y@|@V@q}Bax%'#<%h$V#H%G$I@g$ &9*]#,%g'g$E$b$&#8%4%e*#%i#!@y%v$/%&%d$g-f$ ]~/fs3#p@]#r:",
"Z0=#(%m$$@h(i@]#M@D%M@&*f%b$l$ %4*K@/%l#E$U$L=d%:**&q#D$o#9*V#s#v$w$<&'#a#x$y%h$[%7$2#w$U$v$L=q#-@as]%c@(#H__3Q@x@_'_#J'~#K@_$f@h@b@>$_#e@Z@J@L;^#m#g/Y+i@h#f#~#~#}$h@s#c@%#Z@4#<@_#_#e@O'%#]@e@5%J@@#7/f#V@n#n$e@&#A@m#y''>w@W!%#Q_V#2(^#9']@5%[#_@B#e@A@U# &gsH@Z@5%q#L'J#e@+$$#s#u#,#;@!@%>&#1@+$2#-@7' ,}$m@4@5%-@c_J;_#&@4#9'5%>#+$;@h%|#b#q@ ,0#t@{%[#$@'>@#@#6@;&y# &;@w#'#_#$$x@,*2#_#V@J@Y@w$e@_#X@$#w#W@c%;$k@=#7'^#g#&#U#n#B#T)s(i#'@2#*$I@Y@g~H#{]L$l#K@h@$%>#i#@#$#B'@#>#2#F_t@-@W>T$K@j@_@m#i%G$|#_#.;T)B#t@d#q#%#_#h@>#!>q#h@>#m#f@+$V@o#4@s(x#K;c'9'J@c@-@o#h@K@Y$g#X#5%e@V@8#_#*$'#8#Z@K~6#J@B#J'V%|@.(3#Y+w@'#$#&#{%y]t@_#|#^#,%w@m#&#&#q#l#~#&@A@p@w#b@l@4#>#'@;@&#$$u#4@ %f#i#]#b#V@>$w#O;_#;@j@w@t@D@d@ $x@l)@^u~L@6-Am3@U$c$n@^*=#<%I,A'W!k@,@=bC@f#V$;@!#W>V#!]&@V#S@&@y%D,k]s@(#X'fb_$3&K@^#I@3# &c@i#C%h@U#7'V@Z@1@$$@#'>t@t@J@V@;@f@w#n#((x(!@_@K@+@J@w@k@U;k@A@q#S;{>W>Z@2@X@i#j#^#t@ %q#-#&#_#$$^#{$$#1@U;]@k#~>6'1@~=@0o'9)hs>@Q'p#!%L'+$y$|@A@3$t&;%=#=&u<_#k$k%l#3&>_~&S$R=>&=%]#'#e$!#>$I@e@3#p#Y$E$P#s#a$*=T$K%B@2$9{#>E'6%i#f0",
"B~;$x$!#|{d@D$[&>&P@U$&#!#/% &B@D%*&D%/%M$`#h%l$=#&#/%{%#%O%B@l$/%q#n%:%}#V#3*_#P$M@I@p#o#b$&#D$!%}$;bc%i@L/q$,@;#c#8$c'>#$@g#8#4@c@^#*$,#t@-#L@B#O;1@f#c@t@t@1@k@3#i%J@(#3#3#w@w#V@W!J@8#O;s]e@<&^#-@3#5%K@$$f#A@V%x@+>h@#_f#]@9%[#D@7@/#z]H@b#3#i#J@<#*$*$>#h@h@X@f^-@T)w#2$}#A@m#^#e@_@k#$$q#(#D@|#&#t@%$J@2#Z@f@)#|@+$K@,#g@m#y#M#u#1*e@-@|#I@T)}#Z@%$Y/u#w#q#t@+$i#-@c@9'W>U#3&Z@g#_#^#M#'@w#+$Y+I;h@U#q#t@~#Y@&@@#J@(#~#Z@Y+U@9#=#h@=>t@A@'#x@v@g-b#u#I@w@V#@##@2#m#q#{%2#l#;@,#V@J@_@_#I@U#'#,#-@A@i#/#_#%>7#b#>@ &q(.;q#4#w$I@p#$@h@v/w@s(i#k#m# $!@>#W!t@!@@#B#w#e@^#e@$$t@$@|@i@l@3&I@c@*$=>w#J@&@@$;$z]y%=@+#@#5%'#!@.$$$>#e@|@T)}#_@i@*$$#6#q@U;;@J@|@U# %U#W>Z@5(p@k@s#+#V@w#+#c'4@1@0#t@c%c'V#m#o#q#_@w#U#&#;@A@T#',]@s@:=is:(2#%>5%i@^#x$,,I,A@v@|)9_g/$@X@I@k@&#%$7'^*c@k#Y+l$r=n,$@n@3@H^c's@J@t@i@S@C%;@;@/#'@_#w@A@.#6#I@B#n@K;x@1@5%J@l#6@h@t@!@H#_#x#|@!@q#O;m#e@+$$$*$=#7/-@&@!@h@(#%#1@U#p#1@i@h#^#k@@#S#*$Z@m#%>(>c=a@6=W&f^$#js2dT$p#q#&>i#v%q#q#8@p3e$`$g$s#&[g#{%d%K$w$b#e#y%j%s#t>e$ &L$X=B@_#V>b$)$D%a#U$V#!*v%Y$1{d>w{9{d-;$g# %f0",
"J:n#W!k#9{b@}#p#}#e#b$i#K% %h$g#T$b$y#M=h$W$[%b*g%o#2# %g#&#y$T$.;u$=#p#p#J$,#}#g#d%%%&@a#*&'#>$[&m$=>ksk%w@_@'d%-a@*#!'8')@#]>#-$-@`+K@f@Y+!@B#z@C_x$(%3#d#&@|# ,%#e@.@|#Y+;$e@m@$#e@h#A@J@;@c@c@|@O;8# &q#I@4@g#t(c'!@p@q]O#O#]@w#Y@k@h@g#I'(#%#f@s#d@c@%#J@B#-#8#J@J@.$e@i#k#Z@+$c@I@J'V@m#n#x@c@K@@#a'&#~#f#Z@1@L'B#k@h@Z@Z@y#B#+$;@%>w#`#q#h@K@+$$#t@h_!@(#|# &B#{;`+q#K@Z@L@K@W>D@^*Y@j#!>+$ &7'Z@^#*$V@5%L=k#_@U#j@h0*$3#e@f@ %L@.;t@c@f#4@-@a'{$2#c@s#J@_@I^%#!#B#u#}#s#e@ %D#A^t@-@Z@I@.@N;=>B#&@c%&>~#!@3#*$V#q#e@5%Z@7#*;h%q#M@|@F'I@h@a$w@p#}#q#m#i%Z@U#3$-@|@b#$$i#@#&#q#$#^#V#I;V@&@B#J@%>g#~# %c#3#c@S@_@&#f#k@+$|#-@_#&#x@8#u>x@-@A@t@f#0'1@{;L=%#:*J@3#'#;@,#y%|@@#B#6(U;[#2#^#Z@T)&#{#T)y#_@O';$>#$@>#!>&# -w,W!,$(gV!Q)$$I@>#$%X@v%,,5$(;N/g)I*'[5%L'_#>#9%Z@Z@$$i%>#O;V_5$;,Y]8@R@i&H@;@i@|#5%S;6#v@~#h%$$7'V@7'!@c@{$L@u>'>L@Z@f#4#o#3&_#b@!>x#_#^#X@T)|#Z('><# &k@{$t@t@3#%@-@Z@h#m$t@s@J@h@H@X@>$c@ &1@:/B@Y+>#${x>k~v)J([#2@Xco'L$v$*$=#E$g$-@^#C'pp)@s#L$T$*$E$T$L$S$y$Y$}#e$+;h$a#L=>&B@r%h$e#a#-%p#;$g#U#=%>$g$/$j%y%-%2$o]P~&@0'e*f0",
"V'%#*$f#=@/(K@%%]#v%h$*&G$)*v$0$I$b$9%!#E$W$y%`#6#d$C$e$!#0#u#&@E$K@y$!&L$V@ %g$T=]#i#g#k$'#/%A@/%2#]#v@@:R=A(>@Q>u=<@*{),j-S;+#-$_@>#k@x#J@=#$$$$L'4@h@2#&#K@c$_@C%5%c@h%b@i@V%^:J@_#f#e@i@-@}$i@1@U;N;M;+#p@}#V@w#@#~#T)@$1@&#U#6%g@k@=>&@*$1@I@_#L'u>H@@#b#L@6#T$ #>$3#X@b@z]}#c@@#>$&@V@$$e@_#N@*@i@8#q#v~o#c@%>Y@c'!]6#!@b#D@|#+;%#N;_#|@q#B#.@:*c@e@U#i#V@>#&@6#^#O;C%'#1@5%~#;@Z@^#*$k#V%q# &f@%]I$X@K@w#_#:&:*O@K@>#7@*$J@|#Z@6#'#I$9%X#>_n#J@O;K@U#j#J@I(Z@e@M#&#4@-@-#Y+>#U#>#6#X@6@F'2#N(e@B#X@m#e@t@O;&#h@A@.#w#'#q];@.$P@~#v#+$$$'#&#i%e#c'0#*$2_$#I@->P#}$*$e@$$b@e@6#Z@c@&#!>~#i#w#i@V%-@w@C%J@T$w#c@X@B0 &_@f#w@B'c@N<|@t@>#x@0#u#K@*$2#0#c%T)!>[&}#>$}#~#>#i#J'x#g#w@+$$$}#;@I$u> ,v%&@n@Z@,#*$ &A@!@0'y#^@V,>//@8)I&v@G#[&V@c'c$H$q,L]Y+)@L,7alst@8't@}#E$q#g@p#_#L={$s# ]e,T@*#]$ 19{N~[&3#-#{%e@@#-@L$*$k#^#i'-@A@e@6#^#!@@#(%-@i%9#c'4@N;k@|@=>3#|@_#Z@8#-@!>2#@#I@k@}#&@->%#i#6@&#_@k@Y@;$M#+$f@c@6@x@!@h^-@3#)]n,9@/=u/2@3$msJ{*&b*}#>$B@e@@#6(=>B<p#!#p#7%V%2#~%F(|%w$*%a#p#L$`#%*M$H%4#I@~%}'T$a#s#p#R/7%f-}#M@=%m#u'F$ %=@5#%,5%o#P$;-",
"ilk#=#y';#c@'#Z@[&y$!@/%}#+;b${%m$'&l#v$H%n%g$ &j%;$N;p#e$0$o#w$d*0$}#L%s#p#y$P#9%4*E$/%>&s#Q$f$4*/%E$9%B#>aNoD%i/'dgia@m)('7@_$:/V@n@9%L'~#=>;@$%<#e@q@J#Z@w@$#5%U;$(-@h^S@n#>#+#m#q#i@+$L@F#Z@I@3&!@#_K@e@6#|@~#s#M#X#-@J']@ &J#{#b@f@m#t@!@q#0'.@Y$8%c$n#_@Y+=>|@>$*$s# &-$J@y'i@Y@q#3&K@;$g@K@4@$$P$=#U#U;_#:*>$3#x$%$L#}$&@m#w@$#_@;@e@;$i@~#_#@#-@i#5%X@'#3#*$I^y#.(h@g#2#F_+#2#I$c'w#;#t@U;f^o#h@J@A@o#6@#$W!6#I@_#!@y#F#k#g%4@m#e@c@m#m#F#-@d@y#k@>#V$%#^#1@x@_#8%-@3&T$}#6${#*$k@m#k@3#|@|#j#m#J@3&&@_@:/L=i%!@f@m#y#1@L'f#+#$@ ,Y@X@w$&@D%2#_#8#c@2#X#k@*$r[5%9%7'|@m#$$6#^#i@h'h@_@j#w@Z@&@f#f#~#^#l#I@I@Y@7@N(t@$$0#,*&@c'L^K@=>_&A@p_6#5%i@O;_#@#c$;$u#%>6@&>K@_#c%y#H;$$+#Z@&@W!_@=#_@@#9'~#w#J@Z@x@A@t@($ -e= ]|@I)T/`_&[-#'>i@&#D%F]a)!]d@`+nso)=#&@_#=#5%V@V#&@x$-@W!K@z{L,*@)@]$os>@!#Y+h@s#@#J@+$Z@b@K~W!:*Y+L'm#5%v/w@w#u>n#!_h%'#p#V@e@&@0#g#/#4@x#3#J@I^-@e@$$&#o]&>u#~#_#5#w@5%3#(#c@y]k@1@^#c@J@3#$#u~6@B#/)/,T@_)_c($4);q*# %|#A@j#}%8#I@V%+#Q&|#[*>&'#}#v%T$*&W$=#[%_#L$1>`#2#W$E$`#s#8%J@/%!*K@!%y%7'D$]#h$D$)$l#d%#;Z=3$(>v{7'$$V#_'",
"'c6%&@0$k~w@@#k%2#]#E$8%;$p#%&/%t%}#F$+>0$I$ ,P@s#_;]#!##%i#!#!#v%7%D$V@M@0#L$s#C$V#e$4%V#_#I@/%Q'*$P@E$a#Y$h*5*b@J@1~8) ]T#t0H@*@J@A@A@@#Y+t@L=i#4@|@+#_#m#3#h@w@m#$$p#l@%#*$O;c'$@O;k@2#8#s#>$z@3aw#m@_#c@i'u>X@%#+,/@_@Z@.;~#b#m#J@_#&@>$i@L$-#g#6#h#E'7@@#m#c@{$X@j@i@i%(#&>h@>#~#&#_$V#e@+$$#|#(#p#E=f@i#^#Y@l#;@!@;@&@&>c@f#3#e@^#V#*$$#w#c'-@o#S%}$%> ,S;q#h#6#6#m@.$o#I$8#q#t@H#$%J;k#&#c@'#R#e@&@#_J@(#f#I@3#f#5%*&B#e@&#s@>$+bh%X@_@I@-@e@V#3&A@_@$#p#$$B#;@q#o#U; $}#^#A@V@O;i%Z@_#$#m^Z@_#p#V#!#@#O;4@K@1@n@C%!# #A^8#*$L@@# &Y+4@@#$#8%1@P$U@$$&@m#|#2# $i#+_L'=@c'%#e@q<+#q#m#b#&#D@!@*$Z@-@1@|%@#{;U#_#^#i@c@$#V@V@e@6#J@!#@#I@A@E$8#I@e@5%.#s#@#f^o#8#w#_#h@9'x@;@b@_@A@C%I@n@>#5%[#X@c$i#w@&#,*^#c'1{D~/,-$_@}@20F/J@B@6#}#*$s@/,j);@_@v]@<1@8%-@n#m#^#Y@L=.#Z@*$&#M_H~e,5>*@o'ps`=g%!@N%$$6#4@@#&@[(L'4@_@d@3&&#A@H@q]$$~#W>q@;@^#c@;@vdS@=>_#y#G'%>U#U$c@_#Y+t@g#d@6%@#t@C%U;J#*$5#2#_#d#|@X@f#@#F#c@u>+$6@c@]$r,Y+l,J_M^p{qs:#>&w$E$t$>(*$*&1@Y@~ m$%%T$!#e$g$U#e$l$0$>#+&e$/%m$S%j%p@F#w#w$;$v$v$^*`#f#l#E$a#l#E$}#!*P#y%0#=% ]@>T#1@c'=#`,",
"Ga{;I@b>_$W!Ia;;i%V#p#}#<]g$e#3%p#/%~#_*f#|#U$!#{;/%o#d%2#D>~&h$0$6%/%]#_#]#I$ %v%S%+&|#0$s%F#B@f#Z@+;U#f*^*+#@aA~J@i/f~w^9{%@z^&#J@q@_#+$&#-@((q@i@[#K@J#'#*$$#u>)#(#!>G';$w#6#->A@%#h@q#1@!@U#&#$#O#f#(%o#>#3@~#D=H#Z+c$&#m$=@U#+$A@6#u>4@3&`@-@M#V@q(L@4#&>~#->h@U#i@1@J@%>J@w#[# &%$y#l#I$'>V@O;h@!@-@L=-@p@A@s@p#=#k#Z@k#7@I@k@ &u>J@!@5%-@Wo_$k#J@_#;@@#U#E'K@p#h#!>B@;@h@ &d@f#w#V@S;'>|#_@}# $t@&@-@n#D%9%7'W@&#U;n#f##_+#M#W>V#5>Z@-#4@%#U;#@U@U#0'k@x#d@u$>#k@Y+5%c@@#b#k@0'J@T)F#3&f#K(B#e@{#U#'#+$J@_#Y@^#4#y#Z@K@^#c$A@S@c@6(x@'# $U]B#N'*$p#f#;@(#u>P$%>B'^:%#|#$#&#k@i#rsI@$$O;3&o#b_a#U#L=_#U#X@h@F#)>d@>$$#-@{:*$^#$#t@*#>#e#:/{;m@&@Y+6@f@q#g@g$&@=#V@.(c'V@~#.;w#m#i@j@;@7@#@5%d*6@>$Z+Q_c@m@c@U;z{s^d@_$z=I:2@b#,*I;_#O;F#e,I{_$a@;=_~u~w#{$'#D@o#_$(%t@3&T)V$g%k,e,*#)@Q)6rk>9%H@w@L=$$L=}$e@/@>$t@i@$#e@x@>$=#c@V@^#L=-@L'{$%>&@-@ &m@,*C';$_@V@L=N'$#0'}#=>|#T)@#e@x@d@+$y#1@t@^#L'X@O;5#w#@#2$&#_#G@m#($,'B'`'Q:1#r=sr`+L$x$!#t< &|@i#-@g@+c~#e$9%a#j$'#7$w$H%w$0#>&H%u$h$h%E$b$[%h$=%4%*&7>1&#%%%}#=&^%u$E$L$w%0$l$%*x$#%:#k~~@&#Y$^%O)",
"4'i[k'j%o{$@e*$$[&%%g$C$}#g$|#9%#%E$!*}#v%s#P$9%j%G#V$0$#%T$+#g$Y$U#k%}'&#_#&#I$5%j$=%`#I$Q$V@!@a#x$A@*&K@&#8*_#;(R'P'ssx'b:*@`+tsD#6@h@T)i@$#A@d@L'_@Y+h@f@f@1@s#f#-@q#J#F'X@=@>$_@[#X@->w#J@Q{-#!@6#9{i@p#$@v@&@@#J@d*-@k@,#8#A@q#Y@T)@#4@A@L'D%1@@#N;I@n#J@h@u>~#I@m@B#_@Z@g#i@-@|@j@M@=>d#g@V@y#L=o'U#o'|#6#A@@#c@&@!@&@K@;@^:L$c@4@-@4@f@F'L;_#<%1@b@;@%#*$w#^#K@h@x@y#J@I@6#|@&# %U#f@3&~#G#{#^#A@_@X@<#Y+'@*$J@A@u>!@p#L@H@2#+$k'W%s@&>7#}$B93&t@-#.#L'C%]@B#e@c'_#y#;@%#1@S@I@^# %&#c@5%!>o#C%Y@J@&#B#'@-@g#L'$%'>I; ,f-q#5#m@.;$#u#e@U#&@V@ %^#e@$@q#w@]@f#i#~#%#w#C#w@B#q#=#!@p%*$;$!#!@n#k@U@p@e@_#;@&#Z@-@I$!@i@8#e@>$t@Y@Z@Z@~#W!f@ &-@;@;$h#,#_#J@%#5%h@w#*$!@e@t@U#p#q]f#4#b#%#^#~#0'J;$$|@4#B#-@:%l) 'q@_@{)rro'f#0#!@l#c@M%s~a)5>%@8)us]@s#->!]c@Z@B#-@=#k@=#F@a#n)k,c{/(h#N=@#K;%#;@k@h@X@8#2#_#m#U#e@K@+#Y+i@@#J;L'|@d/A@'>i@j@h@B#B#O'J@J@e@>#$@3#J@_#=>B#@#$#Z@G0A@t@@#@#L/>@>#-@-@;@!@6#e@x@V@*$V@g/^#%,h8J@`|K)_$]$vs_$K@i%E$3#0#~#s#6@O;Im>>!#g$]#!~Y$=%&>W>~%B@a#b$:&^*j@9% &6*D%B#R=L=%%$%%*y%^*-;W%'*I@K@7@c$%%y#m#r$e$z{{/{@F#_@L$8$",
"_]w$3&D$p{6# %v$V#m#%%j-)>x$T$K@f#0#7$#$]#Y%f#F#J>+&D>&@~&d$O%}#V$'*7'B@0$.;I@]#I$/%S;C$>*!@h$>&a#-&p#/%O;p#f#=%&$_>g<W!q#G:6:9{a@!'&@d#3$V@@#A@i9A@;@K#L@w@&#7#c$K@h@d@k#&@-@e@;@z@K@&>+#p_%>'@w#|#$$8d*$w#W!h@q#[#U;:&F#{;D#8#L;c@x@J@p@J;S#q]L'&#f#h@_#=@~#q#l#@#&>*$Y+-@e@k@!@V@f^$@1_s@%>V@#$b#e@w@K@t@Z@4@%>+$q(@#o#Y@f#!@#@u'e@_#-@0#T)m#1@5%l(J@B#2_&@@#4@B#c@w@y%A@w#$$}#f$&#V$(#*$C%Y+!>}#c@t@4_o#>$V@,*W>;$ &!@d$i%q#J@q#[(x@L=Z@X@k@K@y#1@-@U#Z(J@Q_'#V%+$@#4@V#~#m#@#c@L;7@(#6#!@e@@#V@7/_#'#Z@4@L'i#e@_#i@+#+#~#h@W>%>A@[&^#m#U#h@#{V$5%F#k@l#p@c@-@^#3#U#e@8#>$~#*$_#I;'#>$X@o#%#}#c@&#$#t@J@U#_#<#|#7'J@_#5/c@ ,e@d@B#I@t@i@A@8#k'l@@#E$V#4#[#V@;$~#}#i@_#^#`#$#X@7#_@x$J@g#%,c%h@_@-@Z@9'Z@O;_#I{S,o]_$*-Pp/)B#V@y%O;x$g$Q;I,6@Z+^@O*,@@#eb>$c@H@X@9%w#N;!>-#g%&]x,k~)@<@)*t@{;(#I@z@Z@;@i#q#5#A@_#c'>$%>_@W!B#@#^#{%6%A@!@e@5%.(3#i@k@!*'#^#{;c@.#-@U#h%|#S;_@t@I@g@2#>#i@Z+C%h@5>c@v@[#k#e@0@q#6#@#Y+$@J{d,W!I{X]`=r'zg@@;$s#p#J@V#1@U#~#p@P*$#1{y%}#B@M$j$P@0#T$$$e$a#g$g$K%0$V#K@%%K@N%9%7%w$S@2#I@y%u$f#h$k$}#K%_%g#B@8%.;r$9{W!f)<#Z=)$f0",
"+:^#c%>$$)1_]#a#;$B#&#b$/%-@&#3#|#^%/%k$9's%s%>&#$e$1('&!%%%k$5%B@ &9%L=q%!#R/e$o#/%7$[&}#!#x#M@E$;@+;E$ %g%e$%&L$N;rc-*q@x{$*{,1@h#v_p#e@*$_@'@($o'%#c@m#W>Z+w@A@!@((U;f#n@_@{$$@=>>$*$$$J#,#|#m@~#M#-@v@%#_@;>t@N'b@a@~#c@c@o#*$~#U#I^&#1@-@>$%#k@f#n#o#Y@&@W>O;c@*&8#I({$Z/Y@3#n#t@e@+#w@-@3#+$f#->l#K@8#f@e@7#>$U#T)-#q@&#*$u#@#~#-@%#p@e@c@&>D#m# %L=*$w@i@B#m#y%q#c'm#J@$#+$I@'#8#D#-@ $U#@_{;<#-#q#}#Y@#_@#%$V#$$'>->L'k#a'J@5#&#h$'#4@V@J@8#'#$$~#<@@#*@4#-@PiX@h%'>C%q#d$L=h@t@6@-@q#T)_@-@|#;&-@*$e@V@d#J@O;f#'#J;e@e@S@i@&@'>n@m@&@>$ &*$_#B#^#,*W!_#>$q#H#!@=>f#6$~#^*=%p@c@S@o#u#^#-@J@|@K@;@G#L#u#g#A@s#;@>#e@*$;@h%$#!@3&k#U#%#^#d@_#6#j@W@(#i#q#c@'@k@U#*$w@w#I@~#<#J#f#$@=#$$m#G'J@m#e@{$A@2#Q)V,((h#e)T~o/5%C%;@u>O;j$,,s~w@%@')q}P~7';@i#I@@#|#a#B#I@x$*$I;W~D,%@q@$)1:;$=#B#-@8#H@;@i@b@v/_@i#^#)#G#B#$$x#h@!>l@a#&$q#M#+#&#l#;@q#h^I' ,b@-@X#_#p@o#+$;@e@!#U@3&,#8#e@m#>#$$+#2#1@5%w@:/_@$#5%#@%,@#G@n=W!@@=c]-2@ws9{p#5%D%|#-@@#f#_##@xsq#=#9*K@K$'# %I$&#c$9%h$T$l$t>g~s%|#+&x$I$g$s$!# &g~~%%%'&/$P$%%L$|#%%7'3%-%l$9%+&p#}~2$p{z]k~}#f0",
",(e$ , &_$ ]%%v$D$=#j%u$/%8%{%h-w$V$C%y%0#S;s#7@*&V#I@h%F$5%$%!#M$&#!%e$e%!#u#*&$%f@H%+$F#+;H@U#v#v$g#v%F$&#2%D$g$g$<&@0,m{>k@taA'l@9{=^w@q#h@J@W!#@|@$@|@p@>$k@!@*$m#g#|#5%q#L=J'B#Z@>#Y@6#t@@#^#B# ,h>~#$#-#)@X@U#Y@]@m@)#j@8#^#+$6#J%'#!@I@!>1@t@F_c@M#B#!@J@U;L;J@{$1@d#4@}#[#_#!@%#L;L'&@_#6%$#Z@6#-@`$c'l#_#i@V$@#!>{;<#h@/@Z@_#f#u>4@v@I@H#*$*$-@h@L$m#!@k'{%@$$@i%>#%>&@P#k'_#Z+8#t@m#J@^#L@2#U;K;O;^#q@_#P#y#h@u#_#_@E'&@;@+$>#6@'#5%O;h@'#6#)@'#B#h@v@j-@$t@A@o#N'h%w#%#&@b@+${%5%0#;$#$m#J@;@8p ,i'$$&@V@.#c'C9u>$#Z@-#e@-@}#H#6#&#!#(#{_Y+b#$$'>5%4#@#&@B#-@c'V@D@l#m#+$ _.#S@*$e@|@>#c@A@2#5%e@p@3#=>m#7'm#-@X@m#u#7#=#p@^#A@/@c'C%L'm#O#(%c@^#D';@[#l#d@;@:&c'e@^%A@f^L'+#wbw#k@t@j#Z@>#6#9%Y+{@6,b@4@<=ys6-*$+$+@$$|@`;w,I,%#y]E{fbx@V%B#d$W!&#_#X@;$`#f#G@<&e={'c{2@^)Wcw#e@>$&#-@_@m#e@1@5%Z/T)_@'$L'l#*$d@J@E$A@E=U#I;1@+$ $6#5%U#~>-@Z+|#c$*$8#2$k@[#1@>$D%c@q#k~!@A@^#V@$$'@A@h'>#1_J@_@J@L$l@h@J@R;o35>]/R:$)`_xs'@&#x$|$)$>$$$w#L'|@V!.@*%|#'*!%#$e$V#e@!;y%}#G>j%J=v$J>H%L$G$j%U$/%]#$%%%p#L$K%L$1&*%m$:%[*[*&#=%@#:_)$'*&#;#g@q{k@f#d$r:",
"F[f# %u>o'$$!@S%B@I$k'@%*%9%b$x#s#y%U#>&I$y#4*|#h$$%^%c$e#D%%%*;k$v$>$~#d%t>g$c%]#I$&#I$T$k$4*:%D$B@/%(%O%k$/#}#8%]#$$ ,zse~-$k~As_-C'}~Rd #X@-@5>J@-@'>%#4@2@'>v/;$3& &<#x@{#v/i#U;n@$$(%Z@_@w# ,[#@#S@h@-@&#-@8#Z@'#*$.{T)[&I@k#}#J{}{&@q@5%J@c@!@;$+$W>3&&#~#J@~#n#>#k@u>t@Y@%#y#F(P$i@&@0'h@!@x@Z@m#m@-#A@f@v~l#{]~#2#v%B#$#B#,%l#|@&#m#3#~#;$o#o#&@!>v@Z@|@1@t@J@e@^#F#&@h#J'^#X#f#-#A@3#D@w@f@A@-#f@S@i@a#:&4@V#w@$$=$i#c@f@Y$b@b@3#5#'#B#J'Z+.#X#J@-@^#@#{;Z@L@|#b#H#6%i#}(D@;$v@b@*$&>_@h@w@J@h@U;!@S@-@_#;@g@Z@j#4@>$m#1@x#A@1@i@i@,#-@H$w@w@^#!@Z+*$|#i@m#c@C'i@c@w#f@f@%$t@;${#(#u#}#m@{;L=_@&@5%F#>$l(># $9{>#b@i#^#q#*$|@$$v/@#J#k@<#;@_#-$-><#t@]@*&k@k@B#s@i#v@5>=#b#9{h@e@V%-#U#!@J#U#^#*;*#5^#@(#I,BdAai#@{_#*$4#j#h8M{!@5@Y'q*m@+>~#F_'#j$w@/@3#@#[& &Q%f)g5N/8@=@%d~{j$1@1*Z@_@t@H@M#~#p@&@c@J@V@U$&@A@'>:/<#-@A@t@.(n@5%J'a$'>U$-#$#T$6@5%B#>$w@_@$#0#_@J#-@@#N'8'm#<@q@^#U##@i#W>d@*@*$$@q#D@y#i/w,2$^@J_0~.@](3@n$4@y#'#:&l#Z@x@9{w&l#f$,#/%0*w$ ,]#l#!#y%2#=%c$>&&#[&Q$|#V#-%K@]#}#2#`;L$L%e@x$g#{%*&!#h$x$&#k'*;O%<&l#=%j%3@U])]q#L']#p~",
"K)$$ $(%$)$$=%L$*%b$Q'f$c'*&]#U#d%.;h$+%L=S%D$i#b$g$s%g#o##,I@y%H%a#&#E$s#K=v%=#l#p# ,=%%%N%[%p#;$l#=&j$$$L$:%f#)&~%@#s%w$h&]%=@2@s&=^=@a@v__#d@f^J#k@7/A@x@.;!@k@l#!@'#m#w@Z+I$K#1@e@O;s@|@_#k(->!#W!V@}$d@k#-$$$-@k#i@|#@#6@u##$c'p@-@f@%>&>Y+&@i#Z@'#+$/@V@J@K@J@f@$%>$-@|@+$@#*&.$w$=>1@_#Z@ %9'Z@3&U;z@)#0#8#|#q#w#m#!@B#J@&@ $A@Z@R(^#I;A@!#M#2#d@J@m#U#J'f#c'x#6#5%+$J@e@-@%#<#J@|#4@n#U#-#-@a@J@A@&#U#>$!@&@d@u>G#(%;@!@5%D@c@^#e@_@]@C%&@F(B#k#:/L=^#J#x$F#w#_@e@ ,;@V#c@u#w#c@-@-@h@I(U;~#L';@@#e@_#O;u#e@J@m#=#c@v'J@B#@#m#~#;@}$!@/#-@'#u>>$B#_$X@V@O;f#A@q#k@h@m#|#]@V@<&5%h@-@&#B#I@/#i#X@g%u#;@%#K@]@u$!#*$;@K@&@p@w@,_1{$#A@f@Z@4@!@&#&#-#=@B#%>&@ #N'3#W>e@/@e@8#_#&@b@K@e@>$%>q#&>V@U#a@f,N/=@v]u/h0&#_#,_c'c$r%L]=/D@x@F@<r)# &.#c%c@*$i#J@k@*$>#S;d%g0-^5#h#T@X>{%S@&#@#V%&#>#q#_# ,f@t@e@7@i%$$m#b#O'k@$@~#;$[#6@_@B#+$s@|#_@*@U$3#o#x@-$I@e@_@q#K#w#@(&#=>X@h@Y@_@e@0#p@^#=>n#_@h@ &s@m@$#[#1@!,]@0@qpr=l@T/x@0$f-0#=#x(J$n:$@f-[dN;E$ %b$g#y$'#x$x$T$a#]#!#K%>&D% %E$B#{&k$T$k$U;$%[>s#W>!#v$w$0#U$b#s#7@b#L$h$p#p#}#T$:%F$#]x{<@V%5%e$p~",
"X]X@*$x$($$#P#!*j%+&L$<%3%W$M$s#/%}# %f#3%L=$%p#[&V#v%b#o#G$0#M@Y$ &]#n%V#b#!#M@!@E$&%=&L=D$C$v$7>,*/%b$/;9%-@=%g%^#e$g%2#[#EbP%'>`+=<--$#0@B/d>p#n@(($@^#<$&@J@_#3&k#c'v@+;i@5%i#&@i@j#c$5%t@x@w$Z@^gX#$$b@Z@ ,!@;@X@4@c'f#/#(%|@x@b#v@U#6@$#-@ &w@-@m#w@(%1@e@%>L=%#'#W!>#p@Z@^#Y$9'h@&@b@A@=>-@m#O#l@i@e@K~I@(%S@4@-@C%w#i@-@{%J#f#n#>$A@{#I@+$&@~#|#{$U;U#t@v@(d|#&#|#J@5%J@_@0'&#p#A@C%J@h@f@$@y'n@I;^#Z@+;$$%#G#>#%$;@*$(#J@;$J@;@C%!@B#i%@(U#N@U#C#i@J#]@4#/#v@J@C_{%z[k@B]$#'>+$f#X@^#d@/#c'L;W!7')#1@B#>#6%@#f#D%f@V@w@A@_#-@Y+&# $v@_@J#.@u#'>&@m#>#N'c$I;9{p@>$_@-@v@A@e@C%U#-@>#S@i%6@-@^#U#x#n#c@3#^#|@^#K@/&'#.{$# ,J@K@w@x#$$_@ &I;A@>_L=J@ ,'#f#|@%>~#t@w#@#o#&@Z@Z@b@J@ ,_#!@$#-#|@4@${2,o'=>~)ib[)0'!>h#H;u~BsP];,|@)@1#K*h@L@&#V#m#;$g#&@&#e$#$-@V#z{0,<@~@x@';|#&#]@%#+#0'*$V@q#&@O;b@A((%$#i@J@C%t@!@6#;@-@[#e@x$>#b*~#-@'>F#6#o'L'1@@#k'4@*$t@_#~#)n&#h^6@6(f#A@}$6#J@Z(4@;@W!+$c@;@q{'>$@[#P,{@r@@=o/x@zg>@g$B#!@I@0#T$%,q#%$K0$@g#x$1>7@v$T$w$]#I@h$T$H%l#~%v%w#C$y%y$/;M@Q_K%a#x$&#Q'=%p#O%*$d%k>b$j$M@_*%>Z@g$!%]#%%S$@#%,*@Y_>$j@B@z,",
"_>I^$$,*Q)'>E'M@h$q#/%~#=%!@C~M@B@~%w$*=h$+&q#I@L=}#}#d*2#L$E$!#Y$]#S; %/%#%l#,*K%^%I@V#.;g#8%5%f$L$L=L$G#v$}#s#9%g$C%>&L$a#k@Z*I@)#h#::-)1@%]<,%$7@3&@#U#6@c@L@8#T)C_e@@#t@%#[#$@}(-@-@q#S;f@!@q{T)-#b@i@$#w#s@f@f#(#I$/# $-#c'2#J;t@^#j#U#=>b@>#X#m#J@;@!>3&L/_@u#w#k~H@o#A@i@q@f#;@~#'>-@I;|@f#0#V@+$6#i@-@%#h$3&u$_@&@+$A($#q#X@V@@$@#}#%>[&+hi% #^#Z@(#5%_#@#}$-@*${$!>7';@B#5%u#S@.(J#J@$#o#z]n#&@1@5%X@x@W@=#t@^#^#_#i@k@%>t@4_q#f@;>c@!@t@q#&#V@U#J@w#^#L$$#p@l#4#m#>$b_F#S@I;I;Y$Z@6@e@Z@@#q@q#+$>#I@_@O'f^X@1@%#%#4@b#O;i@A@}((%@#f#'>1*%>N'&@6#M@f@U#f#V@I@_@9{k#$#_@+;-#[#q#V#m#V@'#2#Z@e@e@p#9'8%m@6#~#c@-@V@6#f#x@U#&>v@O;<@V@U#m#_$b@e@w#f#%#U#$$K@+$-@3&c'i@@#i#$%B#-@$$-@|@}$h@x@p@b@R_Y+p@x=ya[#f#i@%#8%U#'#A'7,v/n@I{t&b)f#.;I@x$X@3#w@@# ,-@L#!@n)[,M#b@ ]Efy$V%c'[#6#H@%>f#%#|@$$T$d/&@V@w#f#Z@J@>$6#i#c'$#]@ &i@Y@B#E$l#G@6$V@o#h#q#|@W!j^x@^#O;w#H;c'&>)@h_%#5%6#d@6#b#Z@J@q#_#J#^#%#B#+d^,P~Q)ofy)($B**#g$e*w#2#>$]%T#h@*$&{#{e$g$E$w#=,o$0'U#T$-%D$B@#%v%&#[{ &w$'#I@}#f-i@}#g$/#t<@#_#|'M@J>-%`#f$E$|#4%D$g$V#G>a#h$'#/%o{x@S{(%V#a$Q,",
"<~&#c@C$u~_$|#g'<] %[*y%I$e@.;>&h$U#O%l$L=#%,#K@_#K@T$>$'#%%l#_#5%%%`#p%@##%e@y$ %~# %i@g#`!{%^#]#K%-%g'g$2#s#9%B@y#v%-%h@g$i@!>Cs({z][#B&--_$5@2,t@Z@-@c@>#|@3# &@$e@e@4@b@$$[# &h@U;-@e@+$~#t@V@-@2_V@[#@#|@f^>#^#3#8#i%T)A@%#_#]#f#$$}$_@_#j@8#*$-$i#-@B#x@(%V@U;+#B#3#f#V@w@%#m#J@&@G#N(M#K@H@/@B]m#.;U#w@'#f@c@-$2(U@Z+3#B]-@A#X@~#X@0#-@Z@@$4@o#c@~#}#9'1@c@Z@w#p@J'd@O;f#C%4@h^u>B#u#d# ,-@wbq#N;S@-@w#j^B#*$^#->Z@|#m#'#i#i@w#-@3&->>#/@$$`#J@@#i%h@*$'@v@'#9%$@ ,^#{;2#+$-@>#p#&@'#w@^#-@h@4#^#_@-#~#_@J'J@Y+c$B#]@=>'#,#2@h@f@2#d/c'A@9{m#y#_#c'|@Z@Z@4@g#c@e@;@n#3&^#K@'#u#}#8#e@G# $4@;&Y+$#~#R(b@o#c'w@_#8# %t@3&e@-@4@Z@w#g~g/3#j@>$K@m#e@}$e@m#J@k#&#k@'#e@c@_#|@$$>#J@_$f@t@`+7'+$9{-'u>k~H/m&5]p#2_6#Z+}#E'(#F]q(a@+^<a2/F#->5%_#L$f#c@V#Q(X#O;/%^@-,%,_$~@o$*%w#A@$#i@!>;@f#$$+$t@B'&>V@u#I@J@u>3#q#i#e@$$_#x@%$t@`+.;9%6#0'o#x(!@>#V@O;{$$@'#c$d@_#$#&@3#k#X@$#V@q#-@I@A@$$u>h@t@9{H@J@^#C)-'l(z@W;z@6@t&J@i#=#|#H@5%]%lgA@2#j87/!#p#p#;@!%>$V@ $g$L$y%!#<%H@L%/%b$b$>&K@]#g$l#{#v%}#_*+;*;7%{;i#f#I$w#;>b$$@!@e%V#K%9%f$g$E%e#(>i/*#{;@#Y$/>",
"!{ %J@>$i/c#!%7%o#;*,#M=v$&#N;m#_*5%i#:%j#*&,*>$~#k$*%[&K$0#}'F#*&B#H%G#{%x$^*I${;~%H%|%*&E$k$v$#$j$b$s#%$h$*;>&N;E$+$p#y%p#a#f#e@Q!d@K@(#q&;)G;D=;,s#@#[#p@6%t@h@X@u>>#^#g@4#@#@$w@w#e@(#@#V@c@*$N~c^l@E$W!I@h'J@b@-$L@-#h@|@/#)@J9A@$$W>f#b#u#@#-@A@I@L't(j@Z@&@q#/#$#t@I;d@_#D@>$p#=>B# &g@c@t@&@}#B#1*%#Z@<#@#-@3#.@i#$$L'J@g#b@N~c@%#u#I@X@*$L$_@Z@f#g@p@4@U#@#s@>&@#4@$$_@-#J#H@m#K@L'X@&@f#%>w#C%!@8#i#o#f#|#s#m#>$y#t@_#!]Z(J@A@<#J@V@L=Z@_@q#x@I@C%B#9'N;|#0#e@5#q#c$4@3#L'{#*{w#<#k#)#}$i@T$y#q#V@Y$&@|@K#!@U;i#q#Y+ &i@y#e@8#t@n#$#[#D@m#!>U$b@@#V@s@6@5%f#~#%$8#q#;@f@q#m#v@t@q#$%+${% ,O'i#I;Z@m#`;J@t@J'R# &C@E$w#V% $b@>$^#!@9'm#Z@5%&#i@A@V@_#3$5%:>8#1@e@s#i@-@-#u#8@$#%]@#&@(;o]g[h(:/1#8{z@K@7'-@I@*=g#P~7,b@<@ -}</)~>V$k@i@I@:%J@&#%>&#d@o#m)(,J@8@q{x$A%(#V@[#k@k#O;^#u#&#3#s@q#f@'>^#v@-@+#q(m#B#k@A@g@k@%#m#o#>$|@M##_-$o#W!w@o'$$$#q#&>*=d@2#L@>$t#%#5%%#{$&@1@f@-@^#&#+#n#t@m@1@E{n{z(4);%_)h@x*h@*%I@0#E$&>>& ]b@%>|a0@+&3&i#u$r%4%`;l#/%o(p#V#$$=%V#F$[&b${%m#f$s#P@E$r$B@d*<%|#T$L$=#d>E$h-B@y#T$)*P#!@ ; %g$u$2#V#M_f)($P~V@w#<%O)",
"p'D$p#i@%,I@X@S=*;g$K@/$g#L=h$w#m#>*F#i@D%^%v%-#|#F#]#/&p#n%~# %%$&%K@u$e@i#!#9%#%5%M$'# %^%|#!#H%I@x$3#E$u#D%e##$~%g#p#g$ %)$w$%&[#c M)x@{@Q:''6/@>0=w#~#Z@h#1@q@'>~#_#'#3&b@.#-@F'_#z@e@h@+$&@x@c@0'^%%#L'h@'@h@~#>@|#L@6#t#|@@#&>y'|@6#O;K@]@~#k@e@e@~#+#Z@q#+#6@&@-@q#c@k@c'f@&@d@k@@#m#V@5%H@U#b@B#x#,*_@i@ &8#@#&@|#h@7''#;@c@Y+V@!@h@@$k@Z+3$'#H#Y+J'%$f-J@y#m@w@_#}$h@:&8#f@9{t@X#f@X@{:>#;$ ,8#(%<#J#h$6@[#%>;$Z@+$!@U;t@d@[#]@X#>#^#e@q#v@f@A@w@x#z@J@m#A@ ,@#f#V@O;t@i@)@j@%#_@&@f#4@W>N@+#o#>#Y@t@'@K#*$ $p@4@J@c@J#S%i@d@[#J@6#&@g#U;@#$#i%Z+d@c'V#[#W!Z@&@_@h@$#w@O;A@ $w#K@@#m#|@p@6#_#p@>#_#K@L=,*/#m$w#i%K~q#O;>$I@6@J@/@J'4@U;+# ,6#h@J'e@*@k@ &O;_#5%t@o#Y+_#&@C%Y@^#_#-@o]U;}:`=b@g)DsA)g~y#i#@#2$>$}~~,a@'>b)n& -!@U#N;$#3&p@&#&#L'&#5%>$l);'8@:$4{>$X;d*@_&#-@^#_#_@$$&@B#J@w#}$T$q@t@w@B'$#&@J@^#>$q#1@h@{$c%{;[#e@m#x#_#v@I@I@8#_@8#c@k@V@}{b#G#q#^#'>U; #_@-$|@c''>A@k@E~T#c@}$g@n,#@$)f/+)]@Es5%L$}#)&p#H@>*b@}$p@Cpl(|#K@[%L$~%w#'#g$_*^*b$-@<%!##%|#L=M@>&U#9%L$!#y%j$%%g#=*:/[*=#2#7@P#K@x#K@l#k@b$*$`;V#7@S%g#!#^*G$o'a@]$H@N;I@C;",
"Fsn@3#D%#]*{B#L$/%0#e$]#U@s#S$M@]#L=T$C$%%i#p#3*B@>&b$s#!@~%@,;$I$r$ & %o#!#!%g$;$=%I@e$O$V$}#p#>$g#w#h$k$]#y%E$g#P#r$&#j%e$d%*%/%!#6#np-@1@g@K&n=c{`+',V@W>[#-$8#~#&>b{ #+$9{h@W!e@c@7'@#&@!@G#i@_@h#x@;$9'6@h#+#*{y#]@&#s@&>$#t@K@h@#@$$@#[#V%!>}##_K@i@f@w@h@$$|@i#~#M#t@k@Y++$A@2_q#&@6#t@t@1*@$*;^#^#U#Y@C_c'_@-@@#>$D@3#+$K@1@+#U$_#|@|@`+;@+;U#V%e@-@J',#_#h#e$q#g#c@*$*@-@@$=>h@c@K@$_t@c$L'_#A(^#J@&>_@b@$$c@>$-@q#C_=>B#}$2(L';$/#J@'#T)I@*$e@~#x@&#3&i@$$l@d@>#J;/#1*i#'#t#u>f#6@u#e@>#e@>$&#>#<@t@>#(%G#(#k@-#z]Z+=#.@e@&#*;-@-@7'&#U#f#a@%>Z@B#c%g@u#_#I;$%f@*$I@q]Y+6@k#|@p#5(i@]@V@!@@#_@~#}#4@9'Z@!@x#4#7@l@q#Z+B#5%#{p#c@&@d@F#O'w#8%e@7'!@8#x(C%q#.@Z/h^k#1@+$3#J'&>!>+#A@!@~'P{I/j)ea1#0#$$T)|#~#}#D{,^]@b@@]5&e)#$Z@y%k@C%h@$$L=<@>$G#L$${e,v]9#A@}%i&q#I@3#q#w$p#U#f@k@$##_;@]@_#t@(#U;w#$$4#*$n~4#9%J#N@N_{](#l@6%Z@-@%>b@$$c%F(*$|@)@|@f#>(f#K#(#Y$t@%$Y+1@7'L#!@$#5%1@K@A@|@B'2$~,k@$@GaQ;L#(_i#x$8#w#g#w$W$J{g@&>GsZ'*%M@'#}#r$E$L$l$D%x$x$/%9%g$F#w$3%/$M$*%]#T$a#E$p#D%H@/%I@9%Y$)$,#P%t$1{3%a#T$b$Q$~#F#/%k$9%P%!*f@B%0~a@$)&@H@p#1,",
"<~k@ %]#'/{]%%g$]#v%h$b$T$~*>$6*+&p$:%y%S%d$L=f#9%L%2#:&^*y%[&b$&#p#t$p#f#-@g% %`#I$Q'}#{%1%G$S$y%0$E$*;+;a#Q_Y$M'+>F$h$a#/%_#N$_#v%E$t@Hs_@B'k~hcy)>/3$6'W%O;L^Y+9'/@N@k~{;!@[#f@d@t@k#w#w@c@j@D@p@N@A@e@d@`@@$m@4#$@T)f@v@_#i@Z@=>J@^#A@-@Y+!>T)6#J@_#_#C%4_n@m#J@(#f#'>&#_#>$h@-@6@w@}$Y@_#&@<#&#B#k@s@-@3&-$'#K@<#+;&>&#{$t@/#&#/#Z@Y+U;I^>$->f#s@5%_#7/f@_@'#2$m#*$w#;&->&#2#n@e@5%-#-@B#{;{#P$i#c@!@i@b#5%I@4@-@$$B'.;_#@#;@L=8%K@&@U;C%!>!>;@'#I@,*m$t@k@e@m#V@8#!@g/q#c'a@u#4@!@+$L#e@_#C#q#+$y%f#V@F#9'A@$%&@V@f@'#k@&@7@B#x@&#J#U#~#(#f#5%-@]@T$@#_@Y@Z@X#t@6@f@U#$#1@%>2#h@A@v/$#[&b#!>@#M#_#c'_#9%_# %Y+*$%#(%8%6@%#w@-@V#d%&#N;e@g@_#6@!@&@i#o#I@u#[&c@e@6@-@8#j#f#p@Y+x#%#'#u>i, #b@o)6<3$$$c'h#2#5%h%g/;,Q{r9I),{@$Y$e@_#X@_#j$-#Z@2#-#e@%$`/C(=@'/*@)$C<O;3&(%f#0'<@e@A(q#+#5%h^'> %c@9%;$n#+@V@B#L@E$e@h@_#6% #c@-@&#I@1@5>K;.;q#J@X@%#_@}$.@{$$#~#p#y%@#+$u>^#8#e@@#$@&@A@Y+q#$@t@`{!^T@Q@~rx=h@Isb#v$->w$,*h$j%:$Y@#{3 k@;><%Z@S$C~g$V#+&&#w$a'!#&%l%#%a#s%e$U;d>!%v$}*K@(&g%Z@L$r%:*Q%-&}#Y${%3%!#>&j-Y$H$3#`!{%I({&g#c8D$s#f@n)3$U){$ %h$r:",
",m@#K@L=,]L'w#@$=%p#x$0$%&;$.;c%!#L=V#H%b$t@V#e$_#G$%%{%b$d%/%>$}#9%i#y%M@3%<%);e$V#L$%%+>i%b%T$!#]#p#/% %S@U$O%H%0$]#B@V%;$G$%%K$u'2#L$[@M<*;*@l@Wch=J/J{},Y$_@*$$@+#A@^#c'T)u>A@5#8@&#'>(%[#m#A@&#_@&@|@-@Z@_$m$t@$#8#_#@#Z+X#e@A@I/J@-@Y+B#'#Z@_#c@j#@#8#L's@!@q#A@-@/%c@ #|@=#I;p@|@f@I@ ,m#d@$#V@B#|@u#g@x${$c@-@o#q#g@K;=@4#B#W!$#p@$#$%(#4@K@X@>#C%=>Z@3#*$F#[#+$&>4@p#6@.#^#$@p#t@6#/%t@&@=>A@:/'#@#h@&@v/i@J@&@K@$#T)=#q#e@i@!@h@J@C#>#3#y#*$H@c@J@!#^#k@!@e@u#{%6@Y@&@-@^#e@/@J@=>p@%#u<{#Z@(#4__@I;|#9{J@h@>$l#h@Z@*$A@Q{_#3#o'/#3&Z@+#h@Z@c@+$i%/@e@@#m#6%-@I@W>>$Z+s#c{%#t@e@h@@#V#8#3&A@!>$#>$J@k#~*y#Z@V#3#h@m# $R(k@e@Y@_@@#@#+#A@|#*@B#&#^#'#;$e@_@[#-@V#Y+%#$@8%x@^#->t@/,%@L@6=y/l,$$%>$#I$-@&#L^),1@6@')Zqo'O; ,h${$3#Z+2#J;_#w@]@c$4)b,[#9@T@$#JsL'V#I@e@A@J@*$J@^#!@f#6%q@f@q#$#i#{$b@c'J@&>D@~&K@!#w@i#q#k#A@(%O;i#I@:_c@h%-@8#N@s#/#k@m#v@P'i@ #!@8#;@m@_@x@Z/^#>#(#J@q@w@&@n,*#*#_^Aa]@x/I@w#e@x$~#m#R=lgg@m#)d.#)$}*D$**]#_*y%|#L%E$T$ %g%j$p#i%%%r$w#L$E%l#N%B@B@k$=%L$|#F$L$L=thp#'#B@D%!#{%c%r%f$e$w#g#D$k$ %R=o%g$/%h#{/Y]&>V#$$8$",
"mb<#V$m$d-A(]r}#Q'u$_#+;3%S%w$J=G$h-g#x$g%!#4%E'<%~#P#w#w(p#D%>&4*g#!#S%e@y%%$M$v$B#l#/%e$!#|#|#b$Q%!#}#y%h$1{T$D$E$T$f@U#}#s#_#L=x$g$p#j%KsIrp#t@Y+k&}-a@:$b,7'6_q#Z@s@&@ #^#*$+#~# ]V@;@-$)#{#6#v~J'4#q#W!e@!@&>>#&#]@&@_@_#Z+%#d@_@$@1@J@1@_#+#F(0'n#U#b@6@N@(#$#[#=#f^I@@#t@f@w#W!@_A@c@J@6#i@$$%>B#X@[&b#&@I@-@I;J@h@d@;@Z@4@>#t@1*+#2$f#_#h#p@L'a_>$_@k@f#U;;@H@h@t@7'C%f#k#e@B#+$X#_#N@@#_#h@e@V@J@#@w@V%c@h#m#k@6@~*4@M#1*h@6$@#-@^#Z@J'6@k>;@'>6@I;C'W>i@~#T)n@'@V$7'|@i#l(;@e@o#A@b@i%&#!@@#c@^# &&#J@6@=@-@h'^#/(n#-$'#8@F'B#i#g$%#1@I@*$5%O'I;K@K;U$b@~#i#_#w$f#L'@#e@@#c@$$e#;@6#8#J@+$;@y#1@=#b@ $C%I@>$e@h@3#J@ #%#J@Lsu#'#x@c@^#)#=>x$ ,2$>$_@A@*$b@4@Z@6@b@e@O;$@:/{%(#~,}~*@8)YbF)Z@c@+$f@(#>#e@-^;#x@%)[3Ms$#w#+#%>-@x@e@%> %V#U$|#z@f,5>_$b@~#P%H@_#L=u>o# &z(k@_#I$}#N;`+Z@9'I;k#8%A@J#$#-@O;V#B#!@3&i@%>t@}$#_-@J@&>x@e@O;1_6(I@+$f^%>h#2#W!%>-@$#B#i@Z@%#x@U#%#/#`+;$Z+(#_$0,v{s]==})f^q>h%&#i#T$3#_#f%*#M^j@S~4@h$M@o#l#=%k$g$8*g$U#H%+&K$+$Ns]#v%}#v$u< %b$y%U#w$M@~#:*{$r%g$l$9%,#]#&%#$k$E=v$9%~#H%o#-@7@[*8%D$k#)$:%M@D~o'h~>$@#E$  ",
"F%V#J@f#f)5>]#+>T%l#{&C%;$%%D%S%m#h$[%<%Y$0$9%*$K@b*F#T$d$<%s#k$P#D%d*g$4%a# %e#l#%%h$V%e$i#e$E$x$M@s#c%j%,}V#K@)$<%j%[%N%o#}#<%e@S%Z>=&h$)&:/kbs##{)@K&}=P~+{n,U;-@T)h@^#$#L@h@t@-@f#J@z]J@Z@1@x@S@d@A@&#1@t@F_/#w#c@8#A@4@&@J@L$;@9{%#Y+/@O;X#-@)9^#m#W!t#6#&@-@+$5#5%(%<@^#1*5#@#&#n@-@S;1@A@I/T$9'T)J@'@3#O;L=-@:/2#6#!@=>3#&@-@t@t@&@k#;@._%#c@`#*@L@e@B#$$$@%>B# &%# ,c@$@!@,#&@e@A@7@)@w#C'i@q#n#3#&@M#Y$K;_#w@_#$@*$i#@#b#>#e@K#6#(#&>{#|@y#e@e@/@c@ &%#3#c@>#i#*$Z+#$-@8#$#J@L@J@D@Y@J@!>p@Z@>$c@b@_@;@N_b#|@h@_#J#J;6%6#d@J@_#(#Y+>$j#%#&@@#;@o#c'X@V@i%;@-@Y@A@%$+@$#$$g@$$u>_#$#=>I@+$!>6%$#i#^#4#;$e@p@m#X@-@[#~#Z@w@L/n@Y+%#c'h^,%-@$#1@Y+e@6#d@g@B#6#w#u~!@s#w#e@i#C%*#),u~Y+n=OsY'I@&@>#K#O;h$d@5,%>q{C=J( ]$#t@t@ %H@p#k@;@_#k@X#%>#]L]x@)#6#w9G:j@s@]{~#-$Z@7'&@&#{;D@C%V%A@E'-$ &n~-@T)x@9{2#L'w@^#w@L=($-@K@!@w#h@$$L=_@b@A@&>@_I@-@_@q#Z@;@|@k@u#U#S@[#'@k>U#%>!@`+O'5#F/+@,,a@q@D:}=m>::,#D%h@i# &k>[*[@Z+V@Ps}$#%;$e$*%j-V#C$S$H%>&G$=#:&p#q<D%4%~#~%{%L$]#M@h$T$V#%%N$f#w#j#'*S$*;N%7@s#1%H@7%A%|#v%)$g#!#>$K==%T$]#w$|#>*b]*#+{_$c@/%  ",
"#<f@>#c'%,`+j%=&j%S%p#;$/%s%.;L$^*D%s#~#]#N%L=o#v$*$a#|%)$w(E$r%'#I@!#7%e@L%V#B@*&d$/%Y$l#T$v$w$I@8*Z/0#v$a#b$T$H%|#';d*l#G#P#w%a$[&*&5%Q'u$u$M^kbJ=J/[#D*+^r''/;'d>h@*@h^*#@#{$V@6@J@6@$#A@%#n@+$~#e@+#^#`@$#,#'#e@+#;$V@=#K@!@J@]#e@_#&@&>#_J@_@'#I$A@F@U#+@&@(%b@$#2#&@>$d@~#->f@1@~#o#-@q#(#!@q#:$&@P$>#%#$#g@!@I@z]&#&@(%-@3#E'x@h@Y@/#k'+$K@w#~#h'->>#p#->s#%#J@e@G#N@W>X#k~n@q@$$e@q#5%_@B#Y+Z@@#U#2#i#J@h@V%A@q#J@6@a@Z@*$K@Z(e@8#V@6#'> &q#-$@(-@B#A@~#c@I@X@k@Z@]@#{]{U;*$c@*$y#m#h@O'2#F#m#-$~#e@i#q#+#-@[#<#w@_#d@5>l(X@W!;@U#7@{$c@*$~#1@5%-@I@g#_#;@_@j@k@i@m@C'-@&@w#^#.#e@_#B#q@_@@$S@X@6#s#{$6#a'-@Y+{#D@g%W!;@J@u>Z@8#x@'#^#$$$%_#>$I@t@i#$$->[#V#(#@#B'U;@#A@g@!>$^($B]g>J(9'I@5%-$-#}#A@q@Z,`+=@r#<an<f#n~#_1*T$d@v@|@+$h@Z+p#x@5^o'`+o'n<U=w@Z(n@2_>#!@3#^#4@t@U;@#U#5%$$8#*$Y@_#-@!@Y$%,ob:*$$A@k#i@&@V@L't@1@u>|@t@s#c$_#j@6@[#u>n@_@R{_#Y+%#!@m#h@*$&>A@A@h@@#8#($h#]@[],$Y+L)<)$#>ar%p#V#!@v$T$B>^@6/Y+Qs #m$g#v$!#x$L$Y$I@I@f$9%v$p#g$V%s#>&d*]*%&g#V#O%g$]#T<I@]#v%d*j%K$H%8*K@P@!@O%{%T$h%&#:%/%w$V#v$E%/%o#{%V@L$=%y%5$%,Rs*$&@;>r:",
"%/<#8%'#i/q#Y$G#M=;@x$E$E$D$9%7%-@w$1%K@5%I@=%k$r%`#I$L$.;m$,#u$j%J>G$$$h$4%}#7%f@l#E$c%E$7@2#S;j$K@V#V$u$D%V@w$*$|#!#^*h$&#|#3*y%d%%%w$B#3#_#=#$#[sY$z@_3Bl@)p{A{5'd$5>>@c@&@J@'@x@$@A@>#Y+}$!>U#!@Y@8#Z/+$~#f^_#(#]@%#K@>#s@4#-@_#A@M#4#c@A@@#&@v@*;[#c'}$v@{$z]6@+@$@i#O;d@!@^#p@1@ $^#q#(#f@a@v@b@m@y#b{{#i[0'$$~#J@-@l@.#h@>#m#~#|#&@Z+Q(J@q#K@$#I$V@6#k#>$l#J@i#[#w#B#!@d@->f@_$g#i#!@H@B#>@%>l@U#O'K@@#y#}(X@B#U;k@8#&@e@J@w#4#T))>V@K#w#J#T)(#@#m#e@^#b{=>$$A@x@(#s#8% &@#$$u#I;E'k@O;Z@)#]@j#_$t@C_k@k@=@ #;@~#U#m@e@->$$-@$$l@>#e@/@S@+$i@8'h@1@&@-@Y+-#J@>$}$9'l@f#v/c@$$e@_@q#@#[@-#f#&#-@h#q{@#O;$$c@.;$#X@y#&@_@'@A@B#J@e@h#{$e*!>e@w@&#e@=>g@!@ %q#e@I(F@i@*$Y+,%L^9-a@-$h=z*9)Z@>#5%z]|#f@u>~'*{vd-)j&_)w#c@A@w#a#$#&#_#$$!@|#U#R;w,v@[#%]6#^d<#m#^#J@3#@$*$k#J#(#h@~#&@G@i@@#A@ #q@!>5%6@6@~#]@H@k#w@'>g/L'.@b@~#A@i@+@f#~>%#3#^#8#:/t@+#;@6@#_e@&#_#>#=@^#-@%#w@q#v@+#N'*@'^$@4@s$K]5#@~J@M@X@)$&#+$%*3@A@-$6{v@%%E$e*-%F#7%E$*&l#a#w$v%D$q#J$%%s#P#h$w$E$3&^%T$N% %&#V$l#!*.{!#c%#$X>0#s%!#K@o#h$3%e$=#M%T$+&v$`#`$Y$K$+>$%O%X+a@(>l~m)K@o#bi",
",mh%*$K@h#i/l$!#4%s#h$~%g#]#e$3#X+1%%%'#g#P#,#U#l#&#V#o#]g!#L$f$&#&%1*-#F$P@^%d>!*|#-#x$U#k$]#I@{%>9p# %I@e$!#I@i$P#>&=%w$7@l#!~j%2#-@D%L$h$B@h$L$o'y;%%_@#]pbd,;#I]F]D%_@u#e@c@5(&>f@v@.#1@M#{:Y+&>@#_@k@Y+i@$#3#w@Z@q#y%%#v@B#.#s@->w@&@@#W!V%'>!@Z@C%&@$${$&@j(h@-@|@f@e@e@&@t@.#6@t@6@B#9{$$i#'#k# %$@_@!@L@>#q#q@Z+5#@#_@Y+k@h@ %|@J'@#$#m#c$H#e@1@z]c@w@;&%>Y+@#b@M#d@-@y#g@T)A@u>{;l(4@!@_@H@-@J@^#!@+$i@w$/#i'%]6#V@;@c'U#9#J#b@g@{$J@$$Y+5%c@-@A@>@}$H;J#(#7@_#-@=>m#B#7#9#1@>#T)p@1@V@/#U;s(8#i%J@f#B#2#v@V@w@h@k@$$!@!>Z@q#>#X@6%W!8#&#@#I;B#=>|@K%$#]@Q@&@p#.@k#W%B#c@5c7#5#_#B'q#1_$#L#o#[#Y+c@J@>#C#;@^#>#%# $>#f@1@Y@o#d@0#8@L;^#t@Y+A@O;J@8%t@f@l#b@e@4@;@g@_$z9k,P~z@E)6&})K@>#q#(#-@)@I@3,h#d@_-Sso'e@t@>$ ,c%I@o#*$0#6@;@I$C)',_$=@q@6/D;%#_@I;=>@#e@ %/@+#V#L@6%c'>#t@k@!@Y+t@I@W!c';@I;&$;@&>+$f#&@$$c{L=S@J@3&&@s@=@m#c@g#d@1@^#`+A@6@y#w@%#_@[#c@/#j@c@h@h#M#h%&#S^]^(>$@4*`=m#J(w$g$&#J@>#x$w%6/q{'@qmO_T$g$|'!#2#]#m#/%e$]#B#=#E$<>M@p#c%e$b$P#~%_%l#N%7@p#v%9%p#U#u$T$D$ &b%}#P%]##%k$P#*;T$[&h-0#Q%Y$B@h$w$7'p#!*w$y%g$ -5/.)3#-#e*='",
"_]c']#5%[#Y+L=L$]#I$Y$g#+&E$~#T$o#w$M@|%V#7$%%<&p#f-<%|#L$9% &1{d%{;_#`#!#^#!#e%w##$&#V%L$i#!#M@]#s#!#)&>&L=-@l#S%M@&#0$i@F$=%_#c$/;!#!#:*w$y%S%9%D$0@[s}(x@~@TsA'f^B=N{C#M#&@5>c@9{5#L@|@g#$#_#p/*$$@V@M#$@6@J@f@}#k@c@W!(%k~m@8#8'>$x@f^d#Y+9{ ,O')>*$X#O;h@U#<#5>V@9{D@;@x@-@b{u#h'6#>#^#i@c'^#-@'#J@z@&>!@6#+$]@6#&@&@$#j@k#f@m#k@'@!>J@+$$#f@@#t@p@|@<@*@@#T)^#u#|#2$n@G#3&{$Y$k@u#g-h#&#m#$@8#;@e@_$J'c@+#.@x@|@Y$%#I@&@>#;$p@d@5#e@F@g/k@{$J'^#f@]@J@L@&@9{Z@$#&@w#&@A@x@d@J'f@c@f@8#Y@Y@8#$#+#&@&@h@v@6#M#m@-$h#J@o#5%3$S;u#*$Z+k>$#^#^#/#h@X@f#;@h@q#}$}##@8#&@H%}$h@C%U;3#A@J@I@c%X@6#e@i@w#_@(#+$p@Z@e@h@u#@#^#*$ ,Y+O;!@(#;@L@.#v/c@7#V@k@2#)$5%&@A@4@A@(#h#k@<@q{<,u~4@')m&F/#$U#O'w@t@k@F#*'_$T@))#aM^k@J;s@h$}#5#I@&#F#p#{$f@UsVs1@f^^@2@p*O;A@$$q#[&k#$@,#$#!]<&X@A@l#&@O;y%$$8%m#i@%#A@|#&#[#$#@#q@!]q#k@m@L#@#%#h@k#m#f#;@-@f@6@k@&@m#F([#}$_@W!c@&@6@W!1@h'c@h#7#J@(>S,N#9{N%T@B]K=w$[*w$m#w#t>`!v]Y#}$WsK#e#Y$M%]#=%e%%%!@)$E$-%&#e$M@*& % %>&[&G$L= &,#i#e#e@p#R=x$,%w#/%>&0#.;|#~#w$b$T$Q%y$!%%%I@L$~%G${%&#}#D%g#E$E$!%g#v$`=+|$)3#$$!#='",
"{a2#6#wr[#$@~#c%!*:%h%p#P#%&:%p#~# %I@p#g#y%.;9%~*x$s#B@&#H%b*9%^%s#S%[&3%|#T;S$g#h$}#C$g#v%S%]#9%e@$$^*U$3&W@>&h$*%V#`$d$H%,#w#F$g$!# &m$;$I@i@s#$%y#}$Mb'#K#4{Xs]=%,}=0,U#&>V%L@}$5%$#*#B]u#&@J@6@h@/@7/k'V@<@-#&@Y@A@>$_@$@$#+$q#>#k@h@e@f#3#1@&@e@B#I$`@*{}$>#%#_$h@h#K@k@8#6@A@V@O;$$h@6#2$'#%#t@U@P~A@X@%>c@9@|:b@~>&#Y@e@b@[&L@i%j#6@ ,k@s@K@8#^#e@_#w#k#6@B#j#h@i#q#-@}(p#q#<#m@%#V#w#A@@$1@^#y@*@6#6/-@6@i@e@O;u>_#q#B#k@A@A@;$6#&@L='@u#J'_@Z@f@9{)#9@h@-@&#L=%#%#U#p@{$|#_#q#V@c@_@x@)@^#f@&@p%[#O;>$i#>#I;e@b@j#H#_@6@/#m#*$.@(%h@(#^#$$!>&@d@m#J@i#'__@,#6@`@5%-#A@t@J#-@G#&@-@5%[#+$f@[#m@b@@#h#s@@#|@T)-@#_h@h@_@$#N~f@I@Z@_@=>-@!@j#h@F(*@ ,g#$#;@b@A@/#u>^#,,z(p@))x/;#X@Y@i#V#*;p@I;9,b@]@ -x/v]H@]{,#i#L$v#{$Y$B#L;x#|#`=>d*#b{K#[#W;[#u#q#3#=@;$6@;$T)>#c@y#$$O;t@%>V@&>m#`@m#`+^#u>&@1@x@i%T@(#g@B]>$~#~#(%Y@@#>$e@^#g/c'1@f#.#J@1@_$$@J@U]@#k@->i@T)h@$#f@L@z(5@+a>@]@T;Z'w#K>f@3#%#'#v$&#G$<@_@U;Ys})%%Y;)&~*)&`$`>1%w$3*E$J==,~#P#~%!#w#&#k$D$ &!#]#c7o#M'e@/%/%M@H$b#^%;$Zsj%^*E$o$E$9%T$/%I@>#6*a#R=6*,;v%)$T;{%r%p#s#4@r@{@x{f@ &x$0:",
"G:6%;$~#($6#a#a'+;v$E$L=&#L%l$w$;$g$h%I@,#D%g%h-L=,*u>g%w#g$y%i#h$K$}#y%V$i#`#v$i#E$q<:%%$[*M$<>e$v%[*m#>*v%;$g$s#w#L$3#J=P#r%V#w$ &9%_#/%d$1*}#l#l$i#p#2$ 1*$A@])3p--%,{@U)W@L@+$J#u>p@*$L;d@9#<@9{4#e@c@h#c@+#J@$#^#m#Y@5#T)M#.@@#_#]@@#<@%#e@+$3#L'%#d@wrV@_@&@e@1@L@+$^%Y+f@.#_@A@(#p@<#q#Y+>$X@!>c'k~$$k@m#H@b_Y+$#^#2#;@_@c't@f#t@&#-@>$/@M@n@u#J@9'b@t@-@3&)#1@x@^#J;w@k@J#_@_@$#%>u>F'u>_@E'L=p@c@$#-@)@q#_#!>^#J@A@&>)@;@-$p@m#K#8%_#A@d@{:j@%#n%(#u>2#c@~#>$h#_#$#o#h@%>f@p@F'&#k@1@L@f#t@$$V%c'6@X@e@c@'>c@]@m#'@U#_#1@-@;$q#$#f^V@($O;k#J#O;9'[#=>(%J't@n@;@p@8#&@W!i#k@A@Y$J#{%3a%>&#}$_@[#@#&@c^J'[#:/k@-@C%A@&@V@U@p@h#O;w@_#_#$#c@-@2#f^=#x@;@!>3&d@A@f@_@<,g@h# ]>{l@/%i#q{4@'#%$>$Gcz@a@8)`s}@!>J@N;8#b@&@L'-#O;q]k@(#9)7-a@l@-/$# t-@}#V#g#m#-@$#-#W!'@p@&@@#I(h@A@g@_@i%e@A@9{i@1@A@&#A@&>%# $+#X@!@c@&>-$^#e@4@k@ #m#n@^#/#A@-@q@g@p@g@c-L'-@(#_@m#9#[#$#9{;@6@g5`+Y+]#a@&#K$*;v%x$_#h%,%c%P~J@&@_ S#L$D%h$P#V#a#M@k$%&p#g$U#8*U$C$j@s#b#/%E$}#w$&%%%0#v$g%a#P#l$[&l#c%l#3#&#k$e$T$K$e@f$U#e$p#p#.{j%p#*%I$=#`#g$K@z'q<j%j$<*:/o'^@-#w$I$}-",
"zju>O;x$4{J#S;I@|#}*c$[%o#f#T$x$m#,*g$D$y#>#F$=*[%O%/%_#d%0*># %,#n#s%B#G$e$l#T$!#[&r%h$E$[&8*3#e@/%y%=%E$v$T$=%&#V#v%S$hbr%^%T$@#!#)$!%v/c'D$4%{#!#=%E$a#])]sb#6/-).t}@*{#>&]m#&@A@3#[#{>J@#]g@@#[('/Y+L@b@&>b@<@%#u#8#4#*$j@w@[#-@Z@O;-@C%[#3#Y@1{e@|#>$e@U#I;k#d@U;&@+$c#f#x@5>$#Y+6#w#B#9{&#f@2#1@q#m#6@@#I^w@=#6#&>*>w@m#c@>$k#J#w#U#!@-@&#~@>$4@3#B#e@;@Z+u>$$|@$#$#2$c@>#{%L'e@u~-@6@K@+#q{i@Y@<# &J@4@x$(#+#h@Z@u>;@Z@C%!@<#l#Y@J;%#c@L@(#U#O'>$G#q(A@$#]@c'J@h@A@z]!@@#4@@#->I'd@->'>w@N<>#_#&#+$s#z@Y+L#k@~#u>/@Q(M#1$5>c'Y@S@:/6#>$e@W!>#|@I;W! #1@K@'#c't@%>E'c@8%>$>#+#q#/#g@'#h#A(+$;$w#^#-$6#X@m#e@c@J@q#Z@m@i@>$v@;@+#8%2#!@_#g/R(*@L@B#8#_@c'b@J@>@S@)@d_9{o'%@W:x=b#-@%>i@e@#@*$ ^P~G@}=+t|b3&t@q(j@4#m#_#^#^#5%f#e@G@Jc/@Z+Y+r'W=X@8#O;_#$$K@Z/|@i@!>e@2$E'$@$#H#X@t@&@u>J#Z@c@-$W!1@V@b@m#:&&>I^5#c@*$!@k@A@@#C'p@&#-$Z@3#U$c@}#B#_#$#&@&@m@x@q#_@/@T)(%U;6(}$/,q{p@*&6/.{G^P#j$5%B@*$&#>*z@-@X+p+d@=&;%c'%%%%I@s#T$j$1*A%3#i#f#/%e$I@h$}#g$j$e$&#T$V#K@w$D%b$Y$!@T$N%*&T=g$g$4%v%s#Y$b$O%U/'* ,]#g->&y%g#0$s%T$K@s#E$:%L=+>*%T#%]a@@#0'|#],",
",{V%-@N'`^Z^-#U$!#p#k$:%B@]#Y$0$f@m$O9Z@s%w#_,E[v_[--':/r%L$y%T)d$r%'#9%v$9%`#]#e$*$I@2_U#s#_%T$w$2#H$+;H%v%l#U#E$`$T$g#4%0$+&i#d%i%t$%$Q$=#g%a#j%P$=# %I@V#4$jpU#d-]$+*A'`+P~s~{;&@c@b@a@q#!@q#%#Y+c@b@o]5({]8#f@X@$@<#M#k#'>h@-$~#a{Q{F/)@+$d/{$2#C%-@3#3&%#k#]@(#^#}$w#%#U#4@q#|@{]t#%]|#4_&@i%4@^#J@s@t@L=&#~#+[5(z@_@Y+s@N;d@)@_#T){$_@|@h#e@1@c@-@!@@#h#*$-@J@]@ &J@ &I;'>>@d/$#i#a@g#A@J#C%J#d@.@L@c@U#/@q#'@c@6#u>k@q#c@J@Z@b@A@:$4@n@&@t#Y@$@k#{>&@z@ ,c@d#Y+5%v/<@/@m@W!z@9{x@c@h@L;&@k@c@h@${&@l@B#J@_@+#Z@b@2$c$U#$@'#1@h@~#)@%#V# &[#%$n~f^~>c'Z@m@3&s@3$O;_$b@A@U#u>_@&@%#1@A@g@}#&>-@[#+##@A@^#*$5#+$@#a__@_@q#'>+#>#^#-@A@X@8@3#->v@L;f@^#k@_#C'x@e@${),U]3$z{x*@tU#8#J@f#<@q@Kd6'f^6/9)#t1=F#~&9'h@g@M@Y$(%6#v/^#y%d-0d)#Z/.@8@K>{>3&7'_#k@V#2#@#J@!>4@{:w#q]&@$#w@_$]@&@+$%# ,&@*$e@t@-$+$&>d@%#b@k@q#L@c'b@n#{:h@J@;@J@$#W!(#9{c'-$(#*$f@@>@#Y+I/J@6#O;g@f@1@{,2$k@$$}$i@w$s%3#h$s@:%-@%%M#5#y@N>e@g#M@+$T$N;z>H%9*i>1*C$l$2#y$w${%=#3*0#_;k$m$v$a#)$9%k${;a#Z@%%a#b6)&a#e@e$}#I@v%)_P~8$B/_'N,Z{^##=t$|#T$M$g#_# &M$0#v$E$'#y%,]F@P~=#|@s%:~",
"i&=#~#h^#>O;-#D$p#h$r%h$s%7%2#r$G$^%J=D%;'9-d-Q{/(Y+:$H~E[W!<%d%0$&#u$Y$!#:%y%2#fdx$I@p#%&3%/%>&&#g#g#I@I$!*^*w$'#c%d$V$D$x$~#)%o#y#L=_#B#3%l#*&{#g#!%}#i%+&X>z@;sq(L@A=$t^)*#s~r,Z(q#6(5%&@'>f^;@&@H#6$-@[#v@q#8#&@_$A@c$-@n<8'L@n@J#N_`+w@-@$@f@]@m#O;{$p@6@m@i%>#>#W!|@c@B''>^#A@D@h@A@*#f@p@g#&#i@L@f#]@J@c'{$d#)#$@=#3#3#'>M^3#Y+w@(#2#Y+c$$#-@-@5>u> &5%J@b@^#$$]@J@$$V@Y+l(&@>#c@h#-@'>O;J@%#v@1@+$[#w#6#f@3#c$*$Y@Z+5%q]m@@#*$g@b@J@<#_@A@5>A@c'=@=>5#J@f@;$%#1@A@v~$#;@o'h'&@_@0'-@!@i%J@4@^#5#S#p@D@%#J@b@-@T#q#'/g#k@-@L#3#c{q#V@Z@M#q@6#w#>$:&(%;@J@&@_$Y+A@8#B#Z+1@h@;@_@A@%>V@L=>#j@h@|@-@W!_${>%#B#B#s@_#/@A@U#_#6#h@J@2#$#J@@#(%+$h#[#q].@(>X#Y+`#c@@'/@u~2@%tN~0$i@]#G# &J@N%),2//#<)ya:#0#-@]@i@%#O;1@&@J@b@i#+#d-;'~>V@z@($g<>#4#m#(>i@n#f#U#8#h@u#m@L'm#_#_#+$@>-$q{q#^#1@d@q#j@k@V@Z@h@v@c@:&h@h@e@-@($h@m@d@[#@#_#]@h@(#Y@@#_@*@(#q{$#$@m@0'%#k@e@)@h@|@Z,(>J@c'(#_#!{B@n%/%T)9%L=w$C'(#O#*bx@~%0$D$E$e@ %#%n#y%q#L$D$g#{%]#I@^%%&V#&%+$,#d$2'*&*%L$}#]#M@i%e$j%K@g#/%l$m%7(B;h8Y,f)1@S@D@k@ ]9,v_`$N%/%C$|#Y$!@<>^*I@b$f$h$R{a@)]&@g#T$f0",
"V(c@/%B#<@C@V@y%Y$g$&#}#2#|#y%i%f>I=z^-,P~&@;@h#8)j~Q{U;q#,a '+&J$Y$f$L$[%P#!#%$s#S%*%L$g#g$i%s#)$D%a'<%`#o$o#g#b%b$&#p#a#f%'#&@/%H%;$d*<%=#I$i#H%y% &0#(*!#S$g$=>^.J@5#`=L~e=b{3~0~%#-$ ]s@.(<@}$|@f#v@h#&@-@/@6$6@T)5#q#(>&>&#e@$#a@i@x@!>Y/d@x@$#v@B'6#,>$$/($@*$m@V@c@_@_@$@1@_$w#Y@;@^#h#J@$@:/_#A@]@5%'/+$^#(#+#h@;@J@Y@Z+c@A@h@1@a^O;)>!@|@@#[(b@&>`+*#|@+#`+w@6%z@q@&@k@6#]@;@g@*#i(f#^#h@#_7/g@h#J@<@$$|@'>g/s@$@f#L#(#W! #c@6#/@L'w@5%p{J@9{}$-@@#Y+5#_@&>2(@#$#Y@_$+${][#Z/!@+#9'n#e@c@m@Y+f#(#@#$@(#G@^#f^u>k~X@J@+#]@V#_@q#$#e@_@^#I@<#1@3#L'n@6#3#w@$#m#=#1@(%^#n@1@e@X#I/^#>#-#*$A@$#{]M#%]B#_@O;@#g#<@^#T)k@e@]@*$h@)@1@d@(#_@4@f^w@k@w@Q).#k@%#|@ '`+T@4{p&]$ %^#b# %c%=>H%),0~$@_)&t/s&#3&4@M@n@-@&>f@h@6(_#A@J@0,%,_@f^h#v&j#k@$#>$@#m#&@T)=@*$$#d@_@4#:/n@_#i#$#$@q@]@`+f^h@3&_@z@q#Z+c@*#@#6#_#h@G#_$T)q{<#&#x@u>)@-#]@J#$#1@@#-#k#O'J@$@d@5@k@g@ ,A(5%;'g@Y@A@(#F'l$}%2#]@7@c@-@g$x@W!Z@L*!@Q$h$2#B#a#=%_#p# %/%E$s#x$V#l#]#}#f#-%i#k$7%L$!%Q'E$a#p#P#H%Y$p#Q'i#&%D$!@p#h-n@}, 0`@[$$#T{#]u>`@a^C)E,*;!%)%y%u%K@|#Y$;$e*d$%%n@5@^>&>W@p#8$",
"$/^#h'8%I{h@w@[&f$:%f%i#V$:&/%q#0$Z{/,Z@m@Z,9>/bvs6c}#7-i'M#d-*tB%`;.@=%!#^*}#o#r%!#l#I$|#L$:% %I@`;T$0$0#b$2%>*S$I${%L$}#|#s#3%P$!#L=p#H%0$C%=%p#t>1{B#h$d%p%'#e@nq6<u#M#J{&<_-Y+B{g>S;c{_@b@q@($W!&@%]i#u>k@s@>#k@0'<@Y+h@w@p@$@_$g#k@f@1@!@k@4@*#^#;@h@_@]@;@c@]@1@A@c'A@'>-@5>l@k~$$&#-@U#u#-$_@&@o#@#w@w#N'h@_@h@Y+-@-$%#7/J#*$u>k#6#J@A@@#&#k@U;m@_@[#&@_@-@J@Z@^#_$1@a@&@2$k@)@J@7/p@b@&>a@@#]@@#1@z@Y+&>K~@#_$k@Z@2$f@y]6@5>f@L@9{s@2$L'B#f^[#@#A@+#L;@#|@|@n@q@&@$$u>]@(#J0Z@J#w@J#x@5%$#x@6$->L'#_5#^#;@$#A@n@6@]@f@T#$$w@w@&@k@_@h@f@W!w@V@<#A@%#;@3#Z@c@n#Z@b@8#c'Y+!@_#J@A@&>Z@w#1@O;U#-@g@k@1@O;$@l@$@&>X@K@h@9#8#Y+{$]@_#g#T)c@Z@b@&@U;J@b@Y+f@9@;'W!o)]$mc3$$$4@-@&@n#s#w%J,r#W!z;=tr@@#N;!@b#X@=#e@$$@#e@I@B#P{(,k@z@8#R@R).#>#A@B# $$$7#f#&@c@_#H@1@$#O;A@w@4@$#)@f@L@e@&#Y+4@&@-$J@q{O't@7#*$-@1@Pih@h@&>_@T)1@m@L/@#|@Y+N@V@w@*#F#(#.@A@c@*$*{k~f@T@z]8-`{(>:/l@Z+G>n>t@}#~%g#}#s#:$k@b#-tT)o$3#g#L$L$g#Q_m#e$e#G$&#x$K$L$L$I@.;U$v$9%j$h@&#|#>&L$0#b$w$)%o%u$0#)%w$'*b$:%U@]'A@!>5$Z@@sUmCpilC='>;@'>3,K@Y$i#L$r%_#%#b$T$d~q(z{{@u9$(f#'#o,",
"D;->4_f@4>k~}'g%N%f$s#<%3*Y$$$U#2%':_@$@9@;t8-q,R,,,j)-a#$k#h@s~Y+!*H%g$Q'~%-&$$u$c%M=5%/%U#B@j%t$c%T%,#p#3#}#I@v$j$h$M%r$M@p#K$!#@#:*V@*$s#T${%f$s#y%<&6*c%B#s%R=j##]S~O;@#^)`:,q*#Q)0~u>$# #m@L@k@h@h@6#V@w@o'e@'>+$>$d@J@>@@#Y+p@J@h@q{Y+'#%#W!(#&@O;D=;@w@(#z@=@(/Y+/@Z@A@;@6#*@*$w@+$h@i'A@Y@g#J@&@4#w@=>U#m@^#/@A@.@%#=>@#&@x@|@C%-#c@J@&@B's@A(Z@<#B#t@)@L@-@-@o]%>=>J@c@4@*$K@m@&@J#-@h@!@_$O;e@h@+$I;d#9#[#*$'@&>A@A@L@C'T)q#t@X@;@;@8#h@k#q@C%B'!>*@&@*#M#w@&@T)L@h#U#8#[#D@6#_@c@L@+#&@_#@#{;_@l@f@d@g@s@u>5#8#J#($=#-$-#~@x@J@Z@L@A@*$v@6%L;|#^#<@)@j#w@^#&#b@6@c@@#t@L;h@k@&#s@3#-@[#>#t@w@_$(#+$-@_@i@-@G#o@-@^#n~L@q#~#Z@1@e@T)S@-$6#Z+4@=#c@*#,,#@s]]$Ef&>&@W!q#V#u>E$v%k[I)s@,@.tr@{#K@h%_#^#}#^#A@U@I;_@f#u()'h'_$*@'/I*1@@$k@d#3#+#6#c@6#e@@#W!*$J@9'b@;@5%Z@s@B'u>9'c@x@V@J#h@-@5#_@;@$#8#e@9@(#q{n@$#g@b@6%u>A@i'W!_#U;7#x@b@-$A@A@m@&#+#_@u>'>Z+V%+'`+%]c^%,3&r$J$V%q#^^p#V#I@l(7/&@>t[@Z@|#I@|#y$b#I$v$|%s%i#v%d$v$d*T$v%;%N%y#/%0$i@~%S$_#k>O%V#p#,#.%i@|%P# ,`;U#e#k%;mx@(#,tIm8@n{E~3=S,W$['Y{-$[# )P#_%]#3&b$i#J= %E$&#T#[#`=s#8%g#o,",
"k*c'A@;$R;M^U#Y$L$u%v$}#f@a#h$!*o:h>_$G,_cL,,]@>2/o{7~#>X+c{L'Q{6'y%b$C$d%L$]#,%_#%%a#=#j$S%!#p#[%_#L$q#e$T$g$g$k'K@]#L$^%^%S@_#>$V@i#*%a#[&g#5%&#&%d% &>&k$3#K@*&_#R=,@d!K@~#o)#o}=o{%)F]>$J@M#J@-@W!Y@v@/@>#q#'>]:A@B]*@L#_#Q{%#&>O;(#$#w@2$m@6@L;h#i@w@J@-@c'_@Z/W!'>3#m@|@]@J#e@u>1@8#h@+$J#Y+@$T)C'3#x#c{]@@#^#%#6/+$h@L@f@u~((m@L@-$9{_@&@J@_@_@x@}$!@p@J@d#6@6#>#>@g@C%6@W!g@p@_@L'-@[#i(u~h@*@9{7#V@d@k@U]D@J@<#6@L'Y+/@}$B#J@x@|@D@h#^#X#5>j@5#b@k~Q{${6@W!J@U]g@q@i@`+8#/#_#m@O'w@%]Y@0#[#t@}$<@h@[#d#q#D@=>m]8#v@B'+$4#=@T)b@/@m@@#&@I@L@g@a@c@+#A@T)h@)@J#*@%#Q@g@~#A@z@U;Z/_@-@<@A@Z@`++$$$6#;@b@q@M/p@7/W!_$-@*@*#%#J#q#|@._=>X@J@(#t#t@f@$#;@*'@>G@T@g#_@&@^#e@[#p#&#r%{^Rs$#P~k*o)0#m$9{+$-@f@O;[#Z@2#/@]#Y+'^1@G@K#,@<*a_m#V@i@c'm#(#@#Z@`@{%s@f#1@%>^#@$7/I@:/8@&>9{x@v@w@1@I/G;q@c#[(Z@)@c'*@0~:/9'm@[#W!$#A@1@6@#@f@_$_@(#Z+@#Z+6#!>x@'@f#L@|@0~T)x,D{(>^#o'!#T$H;5%a'Z@l$ &`#c@Y@:$Cc1)K%7%G#}%0#0#k$ ,e$y$a#s#K@h$I@i#v%|%^#l#:%v$L;'#M@F#'#W$o#p#N%{%}#d$j$j%w$=#^%e$`=q{.@j0;s'''>:/)@5>h#]{n{(~${6#:]B#r%U$F$i#&#^*ad %!%'/P~c{;$^#+>Ud",
"u0-@_#0#o{ -;%*&S@{*n%a#0#p#L=&*d__@(#ac/=T#U]^@-/4)_$O^Y{/^v{_@o]7'g%!*f#h$!#M@I$N%7(c%^%b$l#[&/%b$.;H%F#D%L$3#b${*P#g$E''#E$a# &>&d%s#&#Q$%%L= ,_#0#>#U#I${%s%s#i#9%y%@(Mdf#6#A{h*=)P~b]g>c{c'h@x@9#^#^#h#k~L#($($G#Z/$@;@x@|@1@$#6#x@ $)@-@h#A@*#i@_@B'/@W!-$_$&>-$^#*$($*$J@'>_@$#k@u#5#[#q{A@;@_@h#q@*#$@a@ ]6@1@.#3$%>)@w@J;`_A@h#q@k~r[k@h@x@c@Z+'> ]c@L@6#-@x@f^|@_$i%J{J@6#'$<@J@5#h@u>x@B'u>*@8#a{1@+#_@p@O'x@]{>#B'J@-#$@_$<@O'$#w@J@b@h@h#k@c-;@x@;#_$&@^#4@J#$#Y@9{-@@>c@&>@#W!1@q{1@[#5>b@->;@q#-@J#k@>#|@-@c'_@b@a@1@%#f^W!h@@>A@x@J#'>I;x@[#$$|@2$@#U#c@h@D@$$A@{$Y+&@$#@#p@c@e@*$=>9#c{k#J@&@J9_$k@{]W!p@1@^#A@W#k@k~m#w@z]p#$@W!d/&@e@!@o,-/o{w@`aNoq#'# (0#(#W!|#],n){]d@u$%@I^1@%]>#1@/@e@w@U;k#)@** #r,($#@~@~)j*9{$#B#^#;@_&s@^#b@4@$$Z@_@w@%>m@B'#@Z@{]c@_#n@n@n@n@Y+k@k#[#*#%#k#1@*#h@@>;@=>U@Y+D@g@=>[#^#[#1@c@w@r#f#A@t@)@c@k@B'<@J#W{^>y#g5o'_$K@*-|#7'@#e@B@o#a#t@t<*@V@[#'t2@y$e$4*j%Z@J$>&*&W>v$S$c%L${*]#P#e$7%P$w#w#q#7's#a# %&#%%+/h$|#~%s%7@K@L=!#D$U$*=0*r,|@I;e@>#$@p@_@a@Y+n@_$%#+&[]f#a^F/T$g~!#-%=&+;l#!#=& -8@c-&@;$a#r:",
"e^q#f#c'j]a@P#j%g#&#(#H%<&L$T$y$K{M#y)<>.)U)2$*@;/k@($L@Y+-#;=B]w@@]p#f-3%s#s%|#I@[&s#9%0$g%j%w$I@p#f@D%i%0#V#m$ &6*U#>&l#l#P#;$M@>$y%T$=#M@-@c$f-D$_#D$/%m#!*E$e%s$|#p#h$0@w&0#M#Kp|<C=2$o{~'$@,_j-e@i@'$B#%$U#d/B# &I$'#'#U#i@f#,#5%K@7@*$v#&#i@x_ &^#K@i#-@L#u#K~y#p%I$-@&# ,-@U#~#1*e@E=U#}#U$f#'#j--@ $B#L$5%=#_#E=b#!@ ,H;K@f#.{I@X@w#3#$$&#Z(m#N<9'w@=>;$I@b# ,l#K@!~[&5%}#>#J@Z@k@L#e@B#-#>$~#e@e[W>e@[&h%-@4#D%%$7@2#`}'#l#n#E={%m#.{j'|#B#V#%$D%g~B#$$6(B#&#b@B#%>F#+;+#_#e%'$,>1**$S@ ,k'^*e@{$L=T$B@P#X@)tt@>#Q_|@D%-@0#U#q#s#g%W>l#g#C%{$f#%$c%E$U$-@3#Z@!@i@h$k'|#$$y#S@7'B#U#2#w~i@$#q<J@K@!@$$|#Q'n#u#i#V$]#7(S@2#;$.#w#{$K@i#S@V@p@n@1@',J{@>C'$)u[|bZ/f]d-P~:$}~k,0~z@2${]m/8#k@-@8'_#$#D@$#Z+)@k@,$4>6,T#*]G@f)f~:,A@M#>#_#j#j-$$j-_#x#9%&%g%T$T$i%E=K@|#c'7@V%}#c%i#V@f#'#B#u#!#=#>$U;q#b#I@U#F#>$w#U;B#_#>#T)#[g#a#%$|#7@!@ &q# ,i#$$1*M#$@d@9,`/x@f@2)G*#=|@Q$l$%;%%8%K>~@@#4@@!C_h$|#x%g$Y$:%{%r%T$-@]#^*F$c%Y$/%7%N%+;f#s#g#j$D${%a$/%N%%%f$o#j$m#4%e#j%^:r%9%!#e$T$9,K#1@!t#]c@(#&>f@J@W!a@.#C=V#-$B',,N%!%&#Y$h$j$E$R$P%A'2@0~c{f#>$p~",
"J_&@$$h@z{~#D%M$`;s#d$g$k'}#Y$S%h#_$g)C$a^o{;ak~W!W!5@(#'/(#M#8#*{`hG=l$Q$/&/%k$`$M%Y$|#o#l#^*&#|%[*i#M$f$/%0#2#4%!%0$i#a#g@2#1%!#c%]#B@s#s#9%P@%%[&&#D%E$S%I@o#W$9%T$x$3#w$ ]](T$Y+i)L~A{4>c@I)_-^@I)a)#>6=/)])s{3=I]e=K{3=/)M{n=$]D]L,q,F{]]L,n)n)])''q^K{9):eV,K,6~/);,L,D,I)l,#>j)$]z^^)K,,,<) )F,d,/) )P]5$x=6~u{j)H{#>y)''A'/) )q,_3F, )e,x,#>7,s~I)n{K{L]}=A'L]e=I)E{a)D]s~}^H)6~`'+'E{H)v{=]''A'_)F,6~F]q,<)m,I,m{D]K,e,P]$]#)/,X'B{3=B)T{&]6~D,6'I]8)2{A,S>L,m{_-l_/)''s~%_F]K,9)d,Q;}=K,A,l,0,M{P]V,''l,}=--:,F,`'])A,P]i)F{G]$]6~&]R]s~;,u)j)D]<)4>n,')0);,A'9)[)A';=]^6'L,s~q,6=e,x,Q;!);c=)M{n,''s^]^r=N{K,<)T{l,K,#)''_-Q;L,/,x,x,6~;=R,F{3$ ]a@4)l),@]/B{#>n)}=p)Q) -h#r'${R;^@4>W~$]C)-]#>,/^>-]w{n)$)*#|@~{8@F@c-^@C=<)#>n{j)A'I,I{0)F{e=e,z^M{e=L,s~K,m~D,]-q, )6~:,F,X'r{I,e,$]I,$]8=$]l,:,6's{q,q,e=C]]-e=P]P]s)I{K,5^L,Q;i)D]A'~(;=0,<)e,C=$))@($Z/h=k&g>1@$#Y+ #*]]@]@a@4#-$]>b@Y$]#/%f#x$_%'#]#:&T$y$!&i#c%9%|#I@2#K@B@y$ &W$w$x$H%_%j%h$v$4%r%*;<%Q%$$*&Q$1{l#P#1{K$&]c{5/f%J@j^Ls&@-@j^]@%#{$n@K$f)p@x,B~%>_*p#w$r%y%1%s%3=;/a@+#'#]#_'",
"B^`@q#f@>]8=4'^%w$T$I@p#M$L%l#/%-$1@A'a^(;-@7/9{f@-$(/@#*#i/T){;1@;=-%D$*&!#]#`$W%e#t$v$I$$$*&f-d$g~f@K@&%!#t%2%I@[%|#D%:% ,E$0$,#d$=# &0#=#$%}#e@U# ,}#]#E$!*I@D%,#b$p/S$2#9*A@A*P$c@4>~tT#53c3^-_f--|~v,u,R,v,k=!,>'8-abv=[-s=i==^9-^'{t/'R,{=s=u=R,),z=VdR,]tl{u,{=3:7)v=S,u,h=^t8-1,/-$-u,)-[-v,,tS,]=q/$-l{u=ciR,5:v=|~Vdfm)-u=h=p=$-;=t,#'v,v=0=a,/-%-4=3,r:3:8->'{,{,u,>'&-|~F,!,k=v=3,=^}-)-]=^,l{:=e3l{z=w=]=s=l{w==^3,l=l=)-v,u=$-8:1,l=k=|=2,$-{,5:2,{=+-},l{gi{,+-;=9-;,{,c=7)v^9-+-L<b:2=>'>'u,s=D[G)1-_=5-&-a=T,2,''{,l{b:.-l=/'c=_)v=]=)-3-c)]=--6:v=e3=^t,u==^2,|=]=Yd/=/'--+-,'},w=)-M,2,I,2,8-p=8=t,l{;-d,4-/,3-/'5:=^u,l==^=^R,b,/t=^2,;=<)t,3:*){,#-I,*)b,y,a=}-Vde33->=4-b,Vdl{ka<'3,9-g,|,}-(c8-;=_-&)5-+-u=9i6)^,2,v,3-%cb=@)0)0)*-%-u=7)(cu=--,'A,+-u=|-b,u,;=u=(ts='-l{Vd|=R,{,k=~=g,=^{,=^=^T,b:/'3,--#-#-b:3:3-a=/']=a=/=/=5-(=8:b:.->-U)l$r=K&r=k@A$Y'z@3@))%-s)!>(;^!_@r%I@o%`!M=P#s>T$G$a#I@h$t@(%h$B#L$'*e@[*l#C$g$h$*$m$T$!%g#e##%k$D$^*}']#T$l#y%I@:%g%4*]#C)-$${}%>$a$e@I@>$d/i#8#_@$$k%^>1@}]w>|'0$l$s#h$b$H;]_m,+'L{8#'#L=j,",
"Ga&@B@-#]]b]^,t_c%@#F$s#'#b$_#f$%,;@l,_t'/h#h'c@{;h@L@u>$@A@J,U#|@0~f-3#l$y$f$B@]#.;&#p9b$>$s@v%!#]#,*-@>$v%]#B#}#!~J@I%i#7@M@|#H%V#+$^%*&l#&# ,=%/%!%U;)$g$D$I@C$S%L=s%=%I@a#v%;@:t&@-@O{g$%#m-$$J$%#M@f@5%;$l@5%V#c'@#E=I;,_}#}#w#I@+%-@-@i#}#@#b#5%s#d*8#7@!> $C%_#P$ $W%2#Y$~#^%#$ &o#!#(%o#(%U@q#I@n% ,i#q(m#{$w#<#5%+$!#f#X@*$|@;$F#g#8#%#~#{%c@8%!#e@3#0'U#!@'#g#7'_#f# $6%~#z]>$f#H;&@X#u$!>3&p#q#p#%#Q%f#B@k#J@m#-@5%E'I@w$V#(%O;8% ,_#^#V@;$$$f#~#U#c'y#K@-@L@ &J@c'q@!#B#|#L;~#U@,#:>q#b$|#i@~#4@'#(#m#6@3#-@i@[&K@}##_C_ $>$N;]#k>w9p%.; &3#p#h$2#=#L'i@m@t@(#{$(#>$V@{$_#;@j@e@I@{#7@l#!:q#U$-@m#t@&@k'f@_#}#3&i#p#<#1__$f# &&#T$*;m#+$h@7>a'R#+$_#P'J#i#i@B#C%J@0'+#i@K;=%_#S%f-Y$t@&#~#w#&#3# %&#h$)$_#h$d@>$+$}#l#>@V$*$+b,%!@d#6%D#3&4@p#6#1*8#2#V@Z@q#C_m$s0*$O;i%{;j@B#/@|@I^-@2#e@@$h'Z@j#w#f@>$i% %b*s#%$<#&#_#&#l#:%e[La@$D%d@%$f#i#w~Z@6%|@bfq{/$8@a@H(<tu&u0X]%([tta>ei{4#j%e$p#T$w$d>d$U$V=<%H%0#!#w$v$9% %8%y%'#!#-@;$x$I@7%p#s#[&K$}#1%7>z%7>u$u$f#i#[%j#3#U$X@>~k]'>W!_#m#i@~#4@n%V@o#e@&#,%)$o]z]Y'2~g$e@v$#$[%N=E;N,n)K,A@}#V#Q'O)",
"V/v~p_q#%>Q;{@9,P%g%0#t>b$h$*&r%h,_#5$-&e@+;W!&#]#-#s@X#J;!%r{$@{$G%}>]#]#m#*%8% &>&<% &!#x$`#5%H%g$=&5%!*%$Z@V#L$d% %l#f>%$]#/;i#w$r$d$/%p#k$p#V%h$c$g$7(~%U#y$s%&@v$I@P#R=;>B#;>r'}t@#B'w{^#o#O;q@a@v{G)]/s) @ ]_$p{]$^)s)_)=)r@u@0@q)4>A)=^n)K]~=F@_)4)@][@K93@A=})Ycq=k):#+de)(:+);)o{}@[)~@r@B=K]d:I,b=1#4)I#/s7-Q)r'_-}=<=Q;_)E~/=--o)3=6-:#3$Q@1#h~1)s~=)Y'uq]) @x,Q)sqc)I{}@T#l3B=0)9=<)')nq{)x=Z^|t}=M{!)_)k)gb9)2@~{ @:#G@c|x=H{A=;)C=C)r'K])/C@P^(-9@`={)e)2)#>H{~{:#9)&:>=C=s)''K]607-{)1=:#}=A{4>^@6)p=:#~)2=>=/=y)A=W~n,H{r=X's~B=J{6-@tA)N#,@3)2@})Y'm:,@n({) @`=lg]$9)m:x=4)Y'q)&e1t<)1):#k)#>G;m:*#*-r=h=9)^)9=_$0@_3H{X'n/])X'4>`'`+I)MrP^{@-)/)}@2)h=p{^)])1)u~/)@@ ]9@`+9)]$r=_)A)A'}=r@3=~)g)^)8)k)B{'[g):#>)_(b)N/r=>=a@v]')Y'<)=]7:,@K90@]-v]])X'^@#{G;~=@@<)v^_) -s)2=C)6-n/^@2)o)a@n/Z^2t @#)w)$)1)''6)]):#4)')9)~@ ]r=U]8@^@]$ ]I@F@V@4@)@X%u~>#x*-%x#'*1%W'$%K%]#!*=%{%]#4@b#T$|#T$}#!#r%D$&%H%K$f%I@)b%$I$]#I$ %0#D%M%/%b$M@w($%P#/%&#w$v$)$i#b#u$I@0#]# % &>&Q$p).)w@A't_=#j$)$h$l#;$_#H%]#<,v~%##]d*y%g$9%1%j%}#n);]',$@5#(#q#!#8$",
"w'i#f@C$O;&@G~I)]'#;7%~%^*{;e$4*@]*$*${,r%Y$L=e@o#w$d*_@Z$d,{/{>;=taU#g%^*E=e$s#_#|%n$/%I@]#p#w%#$!#T$%#3#>* &&#3%2#y%D$a#e%p#I@.;K@>#{%0#o#D$b$L$-%)& &B@C$m$4%]#!#>$*&I@[*#%k$r$Q$,@p3C_i/`+*#K_@%PmA!gp,+#d^ T T 6{@+3tS~[!' _qB<4t5t[d3 _d6t7tg+9dm+d!y!^.$!% v!w!1a3 !!r}pmQ f!j+8tD!9t0t'saty.pmbt[s<q1actB<0 v;dtpm8tzcet6ta+v;;!wa6ty/o!H!Bmftepgtj8x+~!R ht%.y;itEbn!jt`)W.ktR!Obitw.ltmtM lpYs50Sb/+,!5 v;3 b._qnt'sjsxmj!y!1 w!otCm.!r.t!L!t:S~ptB qtM @s-.X z+rt;!cp}!sty.d![sp!5 Z*[!Fmh 1+>.tt@+p.u.d!2+-+utbpv;!d}t3 Z-vt^!n!c lp1dWr<.Q!Ccwt-.Q~G!)d~ 3t 1y+itQ!w!Eb0(5!xtL!ytztAtBtFmjso!*!i <.M<ito!Ctg+:06t~!>t_0DtJ!R~B i;50K+_dxts+jsz.GmEtG _0LpKmFtGt^!Rcum9.HtY Q.D!itOmW)Zbp.BpL!^.0 . ItY.:.}t[s`b- Jtum3t4 Ktt C!50.+!!umLtCt; m+X9t+X9R+p.Hm>!MtNtOtEbv;[!l+kbj!m ek( f.[s3 b00 @+j+PtA.n!1 o!5!507.irf!Im +v;yiLp>.=!S~Nb'! +G&npQt9{{%2$u>@=P%!#P#I@ %M@ %f$)&]#i#Z@P@ %K@)%u%a#e$u$o#9%|#{%-#U#Q%%>E$i@3#k$k$v$E$I$&#*$c@9%t>h$m#7$l#*&B0z%x$m$1%H%$#0#q#a'w$($$dk~Se7#[*d%V$*&m#Y$ %*$D@v(&@b@R&H@a#<%e$&@=&|@3=V,5]b@{:i#h@L=)(",
"/^f@V@;$I^J@k@$]Q^^,}_$%2#j#w#^%y:=)n@9{v)o$'#o#/%U$%$7%''C{q#-@~%d%C${%h$y%/%R=y%l$%&p#d>I$f#/%J@v$4%3%%&%>k$`#!%0$y%w#V#}#1*/%+&s#T$_%r%]#i#7%d%3#j$P# %=%w$/%j$K%:&9%e$h$:%y%0$`#K$e@j&&@:$9{!$c'=#_@K@4@4#9*%#9%I@$$Y@6/J@!@!# $~#3#h%e*_#3#|#k@v/J=i#^#m$(/w#e@c'{$}#o#*$_#&#]#w#$$e@a$~#~# %i@L=|@I@6({$>&/%5%k>O;s#c'+><&c$&>!>h@)&LsK@9%g@!@u>e@,%T)_@g@+$q#4#O;x#*$rn$$e@Z/1*e@I@[&A@s@=#k$U0'#B@N@$$T)+$5%}#$$'#J@%#q#w#v/;$V@c'>$&#q#<&{$rnp@e#s#_#f#I@-#v/v/Y$!#+;|#K@k@x#:&Z@z@3##__#{%O;u>I$!@M@G#N;,#K@ %F$K@S@F'&#j%8#U$M@+#@#V%>&m#$%&@=#e@A@_#+$C$5%%#M%e$U#L'~#c$S;_#U#f@U#U#,#E$*$c^3#!#_#I@c' &|#7'v~I@'#6%2#^*]#&@'&4@q#+&]@|@L$4%/%J@*$ %U#@#-@y@U#w$6@&#$$V@*$l#c@U#8%(%p#B@-@{;&#F#Z@+>h@I@8%U#j#,#q#G#*$h$K@e@&#c@,%y%i@h^E'e#!@D$[(u~~%f#6#D#[&&#q#g$i#l#_#M#c@*#}#A@J'F#0$+$T)t({;^*{$U#k@^%L$&#;$I@@#.#f#J@a$~#L=*$Z@;$W!T)q#~@l@F#L$z{+#RtL~7@M@v$p#g%l$i@y$P#h$b$^%b$h$Y$%#E$h$p#V#=*]#V#m$J=^#k$m$v$9%@#F$f#'#9% &K@T$/%9%E$h$!*.;8%y%j$K@H$5%H%I$P#+&*&H$T)&=#>@#l@M{A@StM$0*_#%%2's@*';@%#''B*>&}#1%,#z%z]Tt:,r@q#s#<#i#i@ %8$",
"j*M@=#&@M#3&_$_@H~R;n,Ut0#V#a#l#[*0$m^&>B'y,U{D%b%~%c{f,6'_@}()- *g-V#e#7%Z@a#j%|#+;o#]%g#/%M@I$%&c%O$M@b$r%}#|#E$3*[*V#&# %3%]#{;%$S%:**%w$V#I@x$ %2#|#$$E$)$ &d$c%>*^*G$v$2#g%v$}#]#]#d%J:,%W!I/8%-@'*S%S%I$#%E$q# &}#0#&#d%s#}#S$T$3#L={;L=$$l#I@2#}#i#K@4#'#y%+$:%|#K@_#c@%>8%g#L=s#N%U$L$h$'#L=T$|#,#s#7'/&I@C'!#j%-@f{'#p# ,|#T$:%m$i@U#L$g$I@Y$S%c%!#3#^*=#0#a*B#3#C#*& & &!#%#%#7@}#!@K%F#S;g-0#U$$%~#e$m#[&w$7'y#F#!#s#V$f@q#2#9%,#}#b$v$g$h$U#/$s%n#S%0#H%2#r%I@T$}#Z@=#5%3#%>B@T$$$U#k$*%K@K@2#_;}'{%1*m#,#%&/%]#]# &K@ %E$=#H#*&f@ &m#2#/%Z@]#!#x#c%y%s%d$D%E$D%I@f#;$!@L==#H#g$U${#_#l#/%9%~#c%*&}#o# &%%L%w$h$B#p#o#|#1%I@f#<%`#{%i#j%&#&#-@T$_#N;d*l#b$W>K@{%w#;$s#Y$~#h$}#I$B#>$G$V@H@%&I@s% %!#|#L=U#T$5%K@,#}#I@&#h$d*D$2#P@k$L=&#+&^#l#/%w$g$w#~%E'e%Y$o#}#E$}#T$i#~%,*g#5*s#c%i#K@_#v$2#w$}#K$U#x#~#!#s%&#e%h$'#h-9%M@v$=#$%r%9%d%|#%>_#._{$5#_#=%X*[*a#R$b$i@e$%%D$U$X>}#v%&#L=m$=%-@=#%%D%g$ ,4%]#,#W's@%%!#=%l##%[&/%!*3#E$3*l#N;J=k$p#7>M@M=2#-%=%/%h$ ,i#7%]*/%N%}#T),(_$d/k~~,_'p#U=(&O'':d,F#O;w=rt7#v%m#T$[*1@N{@^v)O'5%${s#&@6%1{  ",
"h*K@$$B@R=>$$#O;9{l,D{r,<~T%B#)*&#Pp{]L@`+1@v'B{{=F,o{p@$#$#:#Cm'#g#=&&#<%=%y%o#E$U7p#I$ &l$>&t<y%7%3#h${%}#=#!%V#!#=# %0#{%~&y%t[K@1{!#1@V#P#L$M%Y%*&>$E$g%e$U#d%<&T$h$0#b${%T$C$a#_#e$>&h*k%s@[,U@{%$%g#!# ,g#3&v%9% ,e@l#`@|#G#<#^%|#w$}#z%i#!#&#!#`#`;a#h$;&s%&%V#]#U#0#;@D% %3#{%N%U#}#j$k$f$2#L$v$!#a#j#V#I@p#2#|#I$~#9%i#w$^# %`#=#%%/%{%L$u%R(I@I@h$e$i#f#^*`#o#V@v%r%v%K%H%e@>*f$o$j%g#I@s##%c$g#>*L$M$i@g#j$=>f$2#U#:%m#_#h$D%3#e@>*+$*$_#p#w$b#$#[*>#c$K@{#s#]#l#L$ %D$-@t<i%4%v%e@}#L$<%s#!#T$g% &~%1%|#&#Z@'#F#S%>$b$*$/%K@u$I$:%>#h$]#^%h$K@;@h$'#i%K@K@a#b$T$v%K@V@p#a#w$L$H%K@j%Z@]#k@ &|#a'!#j$L$s#L$}#** ,8%4%2#L$4#p#m$@#g%<%I@|#}#E$H%e#R=I$<%C%&#e@i#c@s#]#,#_#!#>$y%_#L$x$|#e$L$s#L%I$V#y$>$ &'#s#y%P@!#D%Y$c@g#m#V$v%&#9%s#/%>$E$ %p#^#4%a$v$_#c% %}#o#i@]#o#D%0#g#_;|#i@j#^%>$>#i#s#d*-@{#,%f%c$|'D%D%g$]@e$%#J@K@9%p#g$9%w$'#w#e$D%p#6'<#;(,{+$j%^#f$ &D$T$p#/$v$s#p#s%b$'#d$i#%&!#d*b$T$h-E$T$M@i#w#p#S%I^:%y#U#]#,*u$,&V#h$/%k$`#E$j$|#U$*%g-p#,#j%b~^%V@)$e@&#C$V#/;3*Vtx@]{i/)]9,r{9{W!k@O;_)xrX@d$=,!%F$q{n{{^U{${E'T)P#&#&#8%}#C;",
"i{!#L=u>3#(%%>}#_@f^P]n);^**w$d>0$k#7&>~j)k@J@{]m@@>%,M# )p]Wt<#f@k${%l#S$~&!#0#'#L$B@a*f$L=_#i%`;'#8*M@q#%%T$_#Y%w$2#b#T$J=V#'#b$[&E$_#h$#%g$g$I@7%i%D$j%L$j%!#L$E$.{=#}#.%7%f#v%B#l#%%e$~%i/${},m/T)g$]#c%y%j%J@4%E$'#H%e$~&V#h$Y$=&b@f#s#U$L=s#i#4%}#k>E$ $m%b$$$I$`#v%M=K%-@G$7@I(H@9%w@u$j$I@}%s@I@}#V%i@p#t$2#|#<%s%a'H%l#&#5%9%=#!#w#@#L'Z@}#;$C$E$U;g#~#e@ %!#b#;$e$>#;$3%`#e$'#}#p#O;u$;@+&&##$V@c%V%c$|#I$e%8'E$C$D$T$v$m$ %|#G#e$E$-@B#,*M$D%|#d$K@v$U@,#P@_#$$3&e$V@*$e@b$'#_#{%E$o#>&e@E$h$a#g$D$ $D$'&#%f#g#K@w$|#g$I$g#}#=#h$X#*%I@%%I$g$_#]#l#7% %~%m$ &{;P#v$g#L$w$;$F$$$#%!#L=O%C%&#K@4%O%!#$#p#)&}#B#=#M@-@L$'&I$2#K@g#t1*$]#{;!#>&b#H@g%+;~%b$8#i#Q%;$+;d%w$M@Y$ %D%9%L=[*f@/%I;F$'#(%L$2#|#o#!#K@g$P#E$D%F#2#5%U$w%_#g#g#M@'#x$;>m#3#=#L$g#v/-@k'K@x$_#H%k's%6#I@!*w$g#;$=#j%7%T$+;!#:*B@3%9%}#6$l#f#1*g#l#p#}#H% & &i#_*-@&#'&*;4@{%c%W$A'f^C&~*g#7%P#u<p#M=!#X+l#!#e#]#D%V#B@j%L$w$!#l$J@p#K%j$k>]#p#}#9%T$k$w$h-j%E$l$;$b$s#;>q#!#b$I@w$+&!#2#9%/%h-u$a'M@U#_#l%v$I@_;a#XtYtC;Q(c'_@*@$@)@!>^#4=Otl/d$]#=*D$6(7^{'6~|@q#I@8%$$f@f#w#|#8$",
"|_M@7'>&}%f#$%Z@c@ #m^e,S>5'f%h$v$$$H%P$`)^*{=l{''i)F)*;Zt1#b$0#T$<> %p#'#';G$_#9%!#e$K$L%w$'#i#V#}{h$d$&#E$.;&#T$j%'#P#h$;$h$h$}#|#P#Y$=#g#H@:&s#D$v$L'9%1%c$%&|#b$e%<%m$f@!&&#L%i#,#$&|#U;9{`+Q;2#h%5%}#5%5%0#&#j@C%,#e# ,d$_#&#!>k@l#T$|#_#`$K@2#V@b$]#<%j#t$>_F#v%#$Y$p_2#T$ &k#H%L$I@w$f#U#H%L$>#L$~#%#P#y%E$F#+;>&V$'#}{e$@{I@I@F#g#+#}#l#=#@#]#>#G${%^%E$w$ %}#L$e@I@}#=#M@w#g# &+;%$w$y%=#J@]#e#T$L%|#P@M$!#p#$%:&k$ %!#002#U#e$b6j$m$V#I@V@V#{$m$|#y%_#{#B#B#y%g$ %i@_#2#`#$$%#3#L$L=P#$%%#A@ &k$g$*$F(}#w#F$d%4%!@>&D%/%8#l$g$^*g#t$T$<%=#^%g#]#/%B@c$e#m$'#=%=#b#p#e#M$~#T$p#>&s%V@*%s#|#t$;$T$7@/#P#{%D%i@g$f@b$D%}#w#<&'#p%K@8%K@&#0#l#B@e$e#>$A@b#E$Y+a#K@Z@2#2#}#m$|#P$|#'#U$w#B#P#z%I$T$a#7'K@W>Z@i#I@ &<%f#i@=#c'i#T$_#I@U#i@U#!#K@ %D$g$g#e$r%*&2#v%>$=#I$w$@#g#|#*&$%_#g$&#v$e$e%K@;$l$1{|#E$&#{%]#i#^%p#]#!#d%7@4#%$X#]#2#M$h@4@I@2#g##$}#U{$#Qa_#/%B(,;J=g#w$a*v$9%7%k$g$d%F#k$}# %k$p#P#L%p#K@/%'&|%z%i%+>!#7@]#A%+,s#=%3#v$P=h$E$G$v%]#%&[*!#k$|@ ,M@=#D$$$_%h$Y$F#)$)$G']#b@`tx%o,=^A,;,p>^)Ocu0o#!#k$0$h$2#6~e=I{<@|@2/&#M_3#6#M@K@x$p>",
"icx$w#|#E$T$y#Y$^#-#k#2$D]E{r^S%c%Y$J=*&>#!#UmO.0+!.9!v@5%g-J@7%g#s#p#w#s#D$g$K;Q'I$/%_%l#h$a#o#[&>&]#|%K@g$j$!#D$I@L==%d%g$$%I@[%x$M@]#`#h$D$3&]#w@F#>&s%g$~%F$f#y%o#c$D%^%L$a#L$H%3&K%0'e@o'`+8,e@m#f#9%Z@T$K$S%t@]#,#%$8%b#Z@L=!#s#h$]#I@m#D%w#K=D%J#x$<>Y$v% %p#|@y%2#9%9*&#Q_s#~#}#&#X@9%&#**^%`;g$a#w$s#$%,~N%&#2(|$B@w$j$u$c%G#H$8%$[I@V#E$d%!#/%l# &d*^%g#i#%%:%3&y%|#{%T$d$F#i@g#&#M_t<i#c%.$p#{;#_h@K%l#f$Z@l#I@K@ &k$;$!@p#M;)$D$p#j#V#p#r%z%y%F#l#1%w#g#m#g$w#h$w#f#=%+>5%_*<&2#y#]#!@p#g%h$w$~&p#|#K$u$e@#$$$-%5%[&s#w#i#D%y$h$c%S$u%>$&#P#F#y%;$5%w$&#|%T9H%G$!#e%P#E$e@=#]#w#o#%$B@g%l$L=5%&#M@V#a#u$[&p#/%L$}#D%}#}#:*v$b#J$o#)&c%a#h$(%P%[&H%y%[(Y$+#T$K@t%j$5%x$!#]#[*%%Q_`#g#U#U$j#*&e$U#!#b$p#E$[&k%!@7>N%,% ,b$K%M@E$i#I@s#n#M@ &g#w$!#i@B@k$j$+$g%E'|#y%s#6* $I$^*[&*$o#4%F#&[!#[&5%S;&#*&7@U#[&m$p#L$I@D%s#;&3#M@U$U$j$~#]#H%F#H%c'*$#$v{f^x%J'0$]#$%d*L=E$o#$$Z$>&F#B#V$M@e$L=s#1%/%L=4%/%S%s#e$d*|# ,I@l$Y$h$:%{;|#J'e$<*&#~&x$!#p#/%P%l#e$x$e$=#w$a#>&p#l#5%&#e$D%4%D%M@D$C$1@u/M!i >.~+icr)l$V#[%1&w#=>F]M{G,$@I;;@A@q#n#>$%>m@*;E$p~",
"P)l#i#y%e@=#~#8%;@n@h#(#n)s~W~%,3*9%b$g%a'g$[{5#t@|#S%B@ %C$8%v%L$i#l$f#E$7$=#H%&#D%o#I$V%}#U#M$G$i#Y%w$V#C_F#a#h$y%r$3#g%E$f$9*=%/%l$M@e$ %4%L$0$K@u#0*r%L$v%<%r$9%]#=#>$p#d*u%3%8%v$-@I@-%;#($0,x_U@K@+@P#g#s#K@`#:%j$f@ uh$d%B@h%I^Y$}#e$G%V#i#)$}#V#8%d%:&g#'&*&T$o#T$6%c%B@'#&#V%S%!#e@*$q<tpE$>&%;a#I@!#<%}#q:l#L%<>:%J=w9+$*&y#|#6#L$~%=#p#M@T$:%n%r$-@w$q%L$e$>$!#y%T$j$*&3&E$J=V# %]#g-a#e$r%!*Q'j$C$c%e*9%!#T$u$-@T$U#!#a#e#|#_#s$*$o#$$_;h%|#w$&#t%S;j$}#s#>&/%a#'&!#]#j@-#d$5%i#F$'#c@V#<%$$c%&@0%>$B#y%9%!%g$_%7@0>n~E'K@q# ,/%L=B'Y$h'{&D%#$*&I@0$s#h$i#V#W!P@$$h-a#E$T$g#;$F# &S%m#g*5%V#%%y%E$L$:%/%I@w#;$I@E$E'L$c%w$s%g%|#}#^*I@x$v$s#+&H$S;!:{;!#y%'#+>i@J@r%'&N%K@7%M'h%p#L=D$x$0$}#U%-#t$o#0#H%P@6%}(P${:]#i#B@I$`;y%m$h$k>b$8%8%l#k'L$F#L=4%-@M@!~I$f-n%u$l#$$>$B@o#h%E$L$!&r$i#!#Y$({$$g#:%%%u#H@p#/; %Y$U@T$x$B@P#T$!#M@Q'^*v%{;'#V#g#4]x@<^4@`$H%l#S$c%c>/%b$%%o#l#H%/%%%hbZ@!#]#h$L$a#e#y$x$!*F#G$I@&#w#5%!#=#k$&#o#S;C$]# &e%v$a#g-M@a#/%R=!#]#S%M@T$p#3#4%o#]#g%U$!#|'S%9%l#g~0#d-1@X@}'k$!#P$=%e*(%D]F,Q;M#Z/6@-$|#>$=>&@H%i#7@k$k-",
"p'e$_#$$e@_#~#l#e@>$@#6#c@2$''g>S><%#$w$d*n%T%[%m#S%4*c'#$q#*$w$E$M@9%S%l$ $)*E'&#<&U#H%L$;$>$c%I@P@3*g#Y@K@i#w$v%m$w$V$j@_@0$s#2#T$g%}#p#=%i#[&w$5%%&g#h$m#H%!%4%L=4%5%K$l%P#Z!e$g-C$9%Ia+$h'$@~-T,},5,up2, '~'_')-r:O)9-_'*'G,8-Y,|,ab '[,<'-,w,9-W/i,8$N,}-Y,|,^,5,5,*'d,|,8$Q8<,1,{,Xa5,}:h,|,6,<'*'k[<,Y(E,*',,-,N,3,8$<'E([,|~ ':'Y,!,N,  v,E[z,^,N,R_m,<,],,^y,|~i,,,},|,g,,,9,B/*',,,,|,E(-,f,U,<, '|,-'6,T,t,}:),3,(,=',,q/o,g,o,E,5,E(~,|,u,T,W,t,E(C,g,2,O,*'C,[,7,='='',N,Y,*'}:<' 'g,*'z,|,y,E,k[  ('J,:'*'W/},':r,-,9,T,V,!'k[3,],8$f,^, 'T,9--'|,~^f,),,,3:}:Y(Y,v_U,Y,f,9-*^),E([,iqc=v_ 'E,Sf*'!,]^6, ' '^,a,i,E(8-5,Y,<,R,:'i,5,E,J,Y,N,R_s=7,<'_'9,:'*'f,P/':7, '!'Y,':f,5,],d,},g5:'g,-^Y(E(),R_t,9,,,<,f,^,|,f,':},i,3,Ni2,i,:'),8,),y,[,':-')^i,8-t9`,':!,^,),.u9,Y,-,f,3,U, '),T,<,Y,5,6'Y,-,9,^,Y,-,/,p,7,],^,],I,/,('),^,--;^;,7,]'h,N{o{F[M@:*K$N$k$M@p#h$p#F$>%U#`#Z@l#o#9%L$I@=%o#V#/$p#l#=#|'*;:%%>}#;$g#H$b$!#/#7%v$L$/%>&:&I@/%r$=%,#&#*&M@k$;$y%e$R/0#M$+>T$7>M@j%K@ %b$y$:>%%P#!*Q'#%s#I%u$}#4^5$P]b@$#Q{J@s#T)U#j@V#<#2#c'4%C;",
"ic9'D%%*w@H%:%s#@# %B#v/6#4#4{:]m{{,f(P$S$-@S%9%p#B#q#[>_#{%e%m$c%+;I@g$]#=#y%J%V#g#g%=#v$a#j$L=`#y%}#K;j%;$l$$(>&g#$$s#s#F#.%h%6*!#s#7@K%u$f$E$}#)&3%~#e$j%w$I@.;v$]#_#g~=#g#'#4%w#*&*;J>I=r'2/L,+$N_$$_#Z@K~N~$$b#@$y#_#^#m#i'$$U#4#v/6#A_B#U#i@ $Z@s#q#)>u#_#V#G#Z@3#C%p@J@K@x#h@V@@#@#*$-@@#G#d@@#>$ _(#u>T)&@B#J@U#T)b#y#U#K@'#t@B#'#i#S@q#|#!@X#|@e@B#`@!>~#m#!@>#%#O;_@00 &X#t@A@B#S@d@B#b#.@M#B#C%_#U09'J'^#&@;@$$S@U;~#A@_@U$D#LaJ@t@&#-@6#A@|#_#|#+$L@S;h'-@V@{$B#U#9't@t@|#+#{#n't#X#%#@$t@N<%$D@B#R([(h@G#Z@D#c@_$$$0'_#+$%#j-8#:&'#-#-@q#&@1*%$m#b#3#Z@y# ,U#e@_#q#'#b#Z@S@V@g~m]V@n#V@/#|@B#>#U#$#+$!@@#%#N~S@J;U;J@x@%#D@u>%#<#m]->x#1@f@S@+$M#c@e@J@N/U#%$q#f@q#G#V@-@8#q#A@9{t@K@-@&>t@Z@w~*$>#@$=>F(%>3#C%5%m#&@8#w@B#/*Z@~#y@q#Z@_#_@ _y#b#U#*;I(w#B#J@x#b@B#i@w#/#Y+~#!@*$_@%#.#$$<#U#w#-@@#t@+#+$%#B#->u>U@A@U#K@>#U#>#&>T)C%*@~#9'*$C%>$C=h(Sqk@g#>*h$Y0Q_~*d>L$)$e#b$%%7@%&F$&#%%v%(%!*w$^#L$7%G$v%m$M@:&p#l$Y$p%^%P$=#M@Y$a#$%2>M$ %!#O%h-:%`#2#2#}#/%e$]#y%M@*;[%v%i@]%I@g#!#y%S%@{!#{;9%w$r[T$L=@,I,e=9)6#W!T)~#J@ & %c$o#K@l#o#j$}#C;",
"P>p#m_!#;$K@T$m$s#J@+@;$m]c'X@R;4]-]/,>~0#>&|'g%y%D$D%[*w%S%E$0$9%/%P#G$p#b*@_u$g%V#g%d$,#&#b#]#I$t>0$g$!*y%W>y$/;}#S%=#e$!#/%%*e$]%}#z%+,p#E$k${%S;l$f#;$ &s#T$3#P'|@9%H@-#=#d%V#L$<%<%P#*&^@)@-,M#d@B#W!;@d@_@k@e@x@J@_@-$h@u>&>1@/(j/l(@#A@-$;@5#4@Z+L@6(M#&@6@>#^#6#X@N~h@&>A@s@J@Y+b@O;J@^:l@v@+$k@6@s@k@Y+w@4@+$}$$$y#1@d@e@w@-#I@-@|@k@%#(%m@{$L@9{M#A@h@J@u>^#2/h@>@z]L;-@(#1@k~h'_@+#d@3# &=>A#_$D@{$6(s@X@(#c@C'O;q#*$:*k#1@W!-@f@-$x@h@f^_@(#^#=>#_3$*{+$5>{]/@k@4@T)+#_@J@^#{${$y]%#)@1@T)m@$#I@^#w@8#x@I$6@w@O;O;5#3#1@M#j(h@<#x{~>6#!>{$>#q#J@w@n<|@t@[#V@d#6/z]g@.@+$6@c@l@+$ &6#g#M#f@V@4@6#D@c@|@]@_@|@c@Y+h@]@8#-$A@x@^#s@_@6@q]0'm@c{*$;@H#.#K@w@f#:/$$w#*$T)^#6(Y+j@b@(#h'F'k@Y+^#6(]@@#-@L@$$A@M#h@B'>$6@L@f@N@c@h@k@-@=#A@]@M#]@2/'>C#h#u>%#z@~>^#&@q]*$x@k@!>O;L@_@~#&@=@&@g@A@~#q#q#-#f#I;%>t@h@_@c@O;<#$#h^2$(#_@z]q#A@d@i@_@@$<e-$b@s,c{&bx(g#7$*$O%y$!#}#%#E$L$d*j%p#e$y%f$h$X%U=o#H%s#v%F$2#B#/%s9}#g#;@m#>$=%L$ ,1%,; &>&F#/%w#|#v%P#*%f$l$e%Q'}#p#N$_#a#M=H%f#v$/%~%/%@$s%/%L=S@x%j%g$%%y%/%5^[]I{/@(#_$h@n#->H@_#*$6#]#l#Z@0#s#O)",
"j*_#|#j#F#d*U#f#s#c@>#l#-@h^^#A@-]L,x,r@%;J$y%j-0#q<I$8%^%g$_;g%z%g#g#e#h$Y$T$ %s#/;P#9%]#E$!#}#j$y%m$e%!#^*g%u#S$e$c%a#V@L=M@}#}#h$*%s#i#G$H$!@x$p#O%[*_#=*1*f$g#N%h%!#V#/%U#+>F$4*g$!#/%(%5#P~^'r=^@6-8@H{4)Vd^)F@n{Y'}=/)Krr@_)!)A)7)c=0)q)v^o)4)gb^)q)>)h)])}=s)q)--y)8)b-X'^@'[u)|)<=i)H{j0Y'A,<)^@w)})x=^)x,}='):#_-])_)o/s){)9)n)3@_3H/4)l,y)B=<)_)%-g)v^})6-[)g>@)}==)')v]R@^@8)r=(-G;''m:z;r@7-t)0=s=_)y)2);=k)`=4)0)b-8)4)-)K,7)r@7:m{C@/s6-Q)3=7-^)k)3=''x=0)l)'[3^c)o)p{e)i):#;#r=c)9)]-0)^)s=%-o)x=6)c-6=')r=;)/)K]])Y'6-#>X'A'3=Y'3=5=X'B{i)4)])#)x=X':#~(Y'B=e)));=}=~==)@)~@')^)c=_-_)T{K,I{8):#4>_)s)n,;=l3A=}=^'Y'^@]-_)/)n)I]C= @Aa_)_-:#]$K]})'=}@}@y)@)s)_- -u)A)C=:#8=J]s]9)Aa9=x=/) @o{z;0),@^)I{L,h=''K,v^^@[)p=}=~)@t1=-)'';='[])x=''^)_)''Q;b){)')}@H{''])8)9)!)h=^@K];=g=')1=8))=5$}=;)2)r##{A's)6-I]B=K]E):#m{v]C)v)F,/)C)R;n)v]_)U{z@@0d*!#+;j$u$^*j%h$t$Y$W$l#J$e$S$g#j%K={&v%x$3&*;!*c%m$7%0$~%s#,*V#M$>$=%P$l$_%H$l$g#0$v$/&v$:%b#}#P%s%*&3%e$v%9%V#b$&#B%h$s#D$}'==k$d%[%>&W$s#l$2#o#D%;^H~a)_$@#%#h^=>@#j@c@T$y%U#<#I@s#T)m#}-",
"p'o#I@p#*$w$'#l#2#}#y#e@T)h@h#Y+I;o{V9U)l/r%g-[%H%+>s%X@~%!#&#7$v$<%R$U$g$W% %i@'#B#y%<%H%;$m$^%P#/%V@M=_#_*&%g%g$!*]#u$T$V$L$L$=%x$}#K%~#a#'#6*.{5%b$h$s#T$y%S%y%s#_#=&J@V#l#c%r%Y$!#I$T$'#%@s@L,+u](o!}tr}v!Gm@u@+#uCtum@+Fta.;! cK.$uYbV7t:[!%{tt^.6 ;!xtZ-t ' %uSc0+o!&uNbIq)dk ^!0t*u).=u(+;!u 8 Hb7t50%.8+-u;u] {.>u0 N Lcz+~ [ 3.a+`<)!:.Y ep,u[!2+J ,u1!;!t!PmNb}.R+n+ftxmd!o.ZbA+^.'um+8+z!c A!)uq..+Nb!uZ)8 T!~u{uB ]uN9um=!f!PmV..!^uB >ulppmm y+z.0 L HclpSb,!l.at>+w!/u! k P+j!v R!(ui i  clpn!>u< @+m 1!a!*d@+} utM!=+S!*!' n!(.0 |.( i !sS V7L bpN9+sv 7tkt' @!</Cm_ua!%{i 3tft:uB<n!^.y+y+d!A.a!j![!% '!lpOt:.L+f } p.g!/u<ui a.%.Y % [u}uir|uCt^ =!g+>.3t{u1u/+Pmh.XrC+y+n!2u^.F @!S!G B<1 pt +c 3uf!q 4u< ^.d!r]&!l 7tB 5ulp4 S~v!F+g+5050w.R!r+A!0!6u3t<u$cs WsF 0 Y < 8+@+Md^.l.Ltp!_ ^!7um $!1+m+g+/u/!A!{.8u-+|um+FtPsx!W.; 9uorpt*!B&0us,M#=,l$[&3%4%i#'#d*-%!#[*/%w$u$3#z%;$e@P%L=r%l#_#2#4#b$L=}#f#!#=&B#,*P#|#|#D$%%}#3#B@/%d>|#1%3*c%$%-%G$l#f$s#>&V$p#S@b$S$=#!#'#5%e$M@a#f$a#]#r$y%N$=%*$('T{D,b@[#$@q#e@^#@#V#'#g#t>h$g%%#T$l#%&j,",
"k05%<#}#l#0$B#}#p#[&+@j^1@B#'#k>J@B]n)B{Z{#]M@;$D$*;:%9%r%I@E$I$y%0'J><%2#}#I$4*:%;*`#T$d*L=y%}#K%;$g#Q$:%>#w$l#y%a#p#N%w$c%~%c%1%Z@x$#%W$+;/%*&e#s#L=T=l$$$U=*$s%h$2#e$q#%%-@e#/%#$M@3%~#Y;P~*#0=f#x$o#9%s#E$({I@|#t$B#}#_#*$C%9*}>C%0$3& $f#9%T$Z@;&#$=#&#e$_#d%]#>#s#_#1('#E$C$o#=&~#d$;$t%Y$F#0'A@s#l#g#&#-@R=S;=#.;O%c$ %;@V@1&j^%%f#T$V#V%U# $m#3*j$}>9'^*0#*$e$~&M_$$>$f#9* $r%O;1{b$d@E$d$2#U$0#=#r$]#X+y%h$~%f#`$:%K@9*s#w$L'U#D%}# %g%D$K@g#,;V$>#*&K@y#_#]~D$'#$$2#)$m$v%p#9%y#6*V@V#!#n#z(!#s#*;B#*&-%,*2#e$g$P#h$3#'#-@!#V#m#e$2#I@d$5%R#T=$$I@'#>$o#j#/%l#!#W>a#R=+&s#_#-@,*|#@#*%q$/#L$1{+;E$>&C$A@9*U#e@/%c%l#w$~%u%+;D@g$J$$#M%d@E$W%%%T$C$l$T$ &8#F$(#V%'$u$,*=#D$s%2#{;$gm$k#I@I$F#-@q#I;x$n#w$_#[*l#I@|#b#}#L$f#L$h$D$I@v$|%v$H%e@g#P#U#F$s#7%=#!%B@!#/%f#y%Y$*$p#X0Q'}#~#e$}#-%au7%9*>$j$h$G#D% _K@*;e$M@L=*&U$K$ &C$y#i#c%w# ,i#!#7@k@[&;,u~9/V@l%y%>&Q%`;6> %v/o$3%H%p#W$E$p#K$g%S${%9%=*%%,*h$>&2#0#k$P$*&v%w$o#G$b$|'L$%%>*L$H%e@*&S%U$]%D$|#e$o#w$H%}#k$j%%%y#z%D%[%>&y%_*K@v$a#p#+;P%9%u>C(N{k,u>@#<@F'j@m# &!@!@5%$$F#w#}#&#_#W>H_p>",
"f_%#b*w$5%L=B#W>=&&#b$s#l#*$+$!#-@(#p@q0$]U)H]bux$[*H$j$k$/%g#V#H%b*:%%>i@9%[%s#@#]#y$j$m#3%b$I$D$_;<&]#X+g#e#=&e$ %P@B@]#[&f$|#m#}#!#U$l$P%E$s#a#L$y$/%Y$/%|#o#L$/% ,I~2#a#/%G$i#e$e#<>G$K%h#9@e,%#X#e@F$&#!#I$Z@}#,*b$g$v$x#~%E$e@B@]#9%v%L$V#d$/%g-H%-@<&4@3%H@d>|#'#b#!#S@U#!#;$3#T$x$d%F#'#}#I@~&9%:%~#%&Z@|#s#]#y#l#!#q<I$l#D$5%,#}#3#L$5%e@}#e$Q%I$.;P#e$H%s#V#'#U#3#e@ &|#5%I@9%p#)&V$L%!#i@L$~*y%J@q%&#t@!~U#p#'#h$L=<%}#H%3%/%p#v%>#s#g#[& %m#a#e@0$%>F#|%R=L=}#{%v$g$|#}#;@,#m#W$5%p#g#/%P@j#t$g$s#}#x$B@}#j%'#,#U#U#d%T$=#e$E$w#L$5%b$]#h$o#-@y%!#=#S%Z@t@}#3&L=B#F#}#f@>$}#!#S%;$K@e$W>w~X+E$2#q9Z@g$/%/%t<f@c%w$Y$&#>&,#E$}#}#g#i#B@e@9%}#j%D$p#f#t>V#v%r%K@T$j%y%0#|%:*Y$w$o#!#s#V$L$g$h$S%U@w$F# &v%L$P#I$v%}#&#}#&#|#H%D#_# &<>Q_i#<%>$V#/%p#p#T$x$l#w#p#f#^*g#E$!@|#v%&@-@u$x$p#m$p#p#o#]#>$T$c%U$B0K@J@i@k$^%7@g#,#i#D$C$T$p#}# ,D%_#=#$$*;A'E/E%i$;$=%Q$5%[&o[^*g#k$%% %H%<bB@/%b$9%e$!#]#L$E$u$y#@%L=S%j$r%a#Z+=*I$|#E$F$/%b$L$#%P%H%]#!#2#s%e@D$P#B@%%@;o#W$b$o#g#u$B@O%x$H%]#%>a#p#<%->%%{#k,T{I{P{4_~#e@(#%>K@*$]#@#}#}#V#h$y%|#=#Z@!*C;",
"__}'g$f-U#i@/%x$j%i#3#6$U;~#B#k@p#6@&@6#y>s~#>;'f(.>9a>~r/:aI=kqE9StI>cuU/l-e~GhfaR%_:#;U/du5by<5{*~l^X%]b`])[/{5{K$e~E9<bC>O$e~%(@%X(5b/{x%#;&a;%Z]B~L_R%L_A>eu/{]bE;{afuE9y<O$|<5{/{p$I9!%n)]$n)U;I@K@p#a#/* ,e$Hhg$4%|'g%L$]#e#/%I$7%~%V@C'E$7@c%D%;$L%k$F#`#y%h$q$K@T$X+J'.;q#|#!#T$o#g#/%h$~#Q$g$B@*$]#0$%% &0$h$e#p#h$!@l#f@d*F#w$p#,#q#Q$}#;$V@9% &w#A>Z@|#!#-@g# ,:%*&}#[&h$>&u$3%I@r%V#k$g#2#S%w(a#e$[*k$g#U#=%p#}#V=}#U#!#7>l#i#r%_#{$V#e$s#i@g#H%*;g$`#D%g$i@=%i@0>S@H%b$D$d$W%o#7@h%&#}#N%7>+$_%2#s#P@F#w#w$!#^*E$<%!#q#I$p#8%g%~%/%U;I$D%i@'#!%>#c$9*s#h$T)L=E=t>/%E$T=]#|#E$i#I@&#2#)$/%r%a#y%I@b$F$g#]#m$.;y%'#s%y%D%r%h$s#[&y${%O%[&y$C$U$>#'# $+#J@5%j%g#e#P@e$-@o#*&h%h$g%k$7@l#v%q<1*f#j^_%|#=%I@b#l#w$5%(%E$'#w#Y$]#d#&#V@ &S$K%>$D%x$U#k$l#k$7'm$.{p#)*T$|#f#!#f$u#&#g%m#h%E$]#V#p#t@U$E$U#V#d%G#+>I$g#*%+#/%p#*&e$p#}#s#[&+;w#V#H@E$_#)$K{`+G_4%ur4~C>h{#;$,E9>%>~guAj9/-q0%cb0^>%@%#;$,0%U%E9du0b5{W'2~R%#;<%A;@%9a0*#~#~e-UtKdhuI>#;iue^ju;;y<b~2:!*>*faE9C>5{L9I>fas%kuk{O$G=4~lu5{V~W~;'s~K,z@-$d-~#L@&@J@:*V#'#S;V@U$H@i#U0g$a#g#V#C;",
"w*c'V$>$!#v$/%I@{$e$L=q#`#f#q#l#{$&#A@&@i'#><),@9,(,N,f, ^g5E(;mg,C,N,R_E(i,N,':W/k[E[y,muE[|,*'*'Y,*'<'E(&'U,},='='*'N,='  N,y,1,g,f,E(E(.|E(},*'E[E(1,f,N,U,9-E(5,dkB/s_B/E(':Y,k[B/B/B/g[(id,E{+#2#p#p#g#5%.;^%}#L=*$V#+&x$]#S%f@v/[&#%0#h$S$U$G$*&^*;$)$|#d%E$}#Y$+;i#5%!@&#P@|#b@`#k$/%a#0#^%2#I@*$3%b${;<&I$+$%% ,L$}#0#i#7'Y% %|#:&v%~%@$1*&#;$*%=#I@$$Q$(%Z@T$,*$%D%7@w$_#w#D#]#p#v$K@,#B#b*e*/%>$w$&#-@%#E$w#/%e$s#|%4%P#}# &_@9%K@_*g-V#b#)$y#%$U#}#%%_#d*f>*&I@&#U#S$S;V#w#P$A@2#V#v%T$[&c$&%8*K@m#%%t@/%%%*$D%s#n%U#`$b$|#p#l#c@v%9%E$i#y#D%i@s#I$c%A@S;&#H%l$g$V#b#=#c$&#+;%#M@!%e$s%e$]#=%,#K@g$~%$%`;<&k$T$^*!#p#=%b$K@T${;4*D%g$3#B9K@!@d$c%d**&}#E$l$Q$=#V#M@p#S$>$>&2#2#U$i@+&L$|#I@_#^*e$&#g$v$a#S@p#2#=#9%:%p#*%<& &*$|#g#l#(%I$4%#%p#i#&#f-*&6*+#r%e$L=Q'M@I@K@N$v$m$p#-@;$x$2#*$=&|%I@y$M@p#V#g%L$2#g~~%<%&@k$.%L=4% %|#1{>& &+;&#&#o#c$g>$)j0),),5,|,}-},*'N,y,*'*'],':1,E[*'U,E,E(E[y,|,|,='U,|, ^E,U,y,E(|,_'|,`,':E[Q8),*'E(E[=' 'N,U,nu*m;mE[B/U,W/B/='*'Y,Fc='*'k[Y,g,}:g[N,N,':E(s~P]D,-$$@{$Z@f@a{|%B@+$_#r%!#3#V#v$I@L=s%~%S%a$C;",
"j*;$;$h%0#j$U#i@y$T=L=g$$%i#7'q#&#'#_#B'k@($''h8_,K,K,./L,L,I,;,P]m,H]l,F{m,%b6'M{M{+';,6~K,r^D];,P]6'D,G,L,z^k]L]+'D,M{P]F{L,R]R]k,e,L,e,/,$]S0k]x,;,/,]^D,0,6'r^0,F,m,0,6':,]'0)Q;e,=]e=N]k,T{2#|#p@c%&#I@e$s#c$I$7%Z@Y@L$p/[&w$/%2#0$s#E$B#p#=#Z@o#g#e#s%&#!#d%Y$g#/% %v$P#`#g# %g#L=w#L=_#U#2#]#'#e@D$D%I(8%+;=#x$3#{#P#{;]#D%:%I@!# &g#l#|#_#|#!#/%i#{%j$7>M%'&}#I@g%]#I@>&f$m#a#+$l#a#T$D%e@s#h$E$w#w#v%b$y%f#w$}#M@D%y%!@[*y%p%}#>$D$F#-#m$b#d$d$T$v%c$N@$$l#I@0${#+%%%Z@;$.;}#^#F#I@|#a#M%|#i@I@I@I$T$W> %8#9%[&j%G$5%>&5%'#7@;$D$u%U#>#B#r%S@v$w#K@]*s#3%~#r%t$O#w#!#-@|#2#7@T$>$;$!&!*v$/%}$&#:%U##%I@&#:%h$.;!#~%l#b$!@%>!%0#g%!%y%T$i@=#*$I@9%}$%%h$i@h-T$r%L$e*v$U@s#^*V%o#';w#:%w$*$/%e$|#g%e@e$+;c%J@Y$J=7@j%|#3#F#&%y%L$_#]#/%.;L$K@S$^*g#A@0*I$}#'#a#I@e#y%>$/%K@E$%#g#|#h$l#_#a#2#M_ ,2#1*>&L$v$:%U#<%f@[&_#{&<#F#g#3#}#u#1*$$-@c%b#;@e@f@{;9%!'A,F]V,;,oupuQ;Q;;=r^Q;F]K,D,$]L,:,D,e,6'e,]'M{m~L, )V,/,;=;,e,L,K,e,G,M{K,M{M{e=]-R]D,K,D,+'G{/cQ;K,D,A'H~>dL]D,L,D]M{{^m,A,m,$]A'e,e=D,k]M{6'6={]Z+6%f@ &L$W!q#E$L=`$|#&#h$K@f#t@y%0#-$/%h$j,",
"E9i#e*!#|#5%U#g%x$9%{%#$q#/%8%^#I@5%%>t@L'F/k@z]4/w{:$ ]o{-/P{C)0~U)v{q{5$o{D{($o{I)'/g]R;-/R;`=>]D~y{J{}~`=-]@>h~S]2$c-l)o'W~q{v{R;F@@> ]E{2$d-#]$)Q)p{{@*#o{l)*#P~U)z{T^n)S^#>5$h~I)u^6=F]#]3#f@c@g_T)L$D%Q'V#N;Z@I@!#T$!@e#9'V%s#y#V#s#}#i#&@@#&#'#f@e@|#P#*$]#h$s#K@S%|#I@&#t@C$&#w# , , %g#I@ ,b$&#:*c%V#h$m@t>^*U$K@&#*%!#!#i#K@+;;$'#}#^:T$,#h$H%^*d$m$'#E=s#V@G$b$>$7'~#|#B#y#{;~#&#V#}#u$K@5%+>E$D$_#.;s##$h@o#i@y%`#%%y% &g$K@H%'#+;y%]#}#f#y%I@T$s#h$5%E$$$]#a#)$&#!#>&p#~#^*7@m$<%v%s#p#8%g#L= %g#!@K@g$F$T$2#2#A@b$B#Y%i#w#&#L$i#U#m#t@-@2#c%S%c%_#>*&@g%E$j$i%I$L$|#i#)$Z@U$[&!#s#e$[&u#K@q<>$p#b#e$O%p#K$b$P@B@7'e#T$}#P#>#o#g#_%g%^%`#G$|#F#y%K@L={%H%c%i%H%a'~%i#h$D%k$G$8%b$L$T$!#g#2#}#l#N%L$v$E$T$p#s#p#`#V%K@J@=#a#3#a#&#|#b$|#K@n$M@{%P@I@l#y%U$}#v%L$w$]#)$p#{%B@i@)&i#}#F#L$&#7%I@&#'#<%)$]#F$-@B#/%V#D%f#]# |4* ,'&;$T$e*E$*&e$]#G#-@:/V@Z/+|($n) ]r@J{r=g>%,`=n)o{`/v{n)n)$)]$*]0~w{5$`'>]U{s~J{^>4>${I]Q)4)^@T^4{u~m)Y_g>#>c-o{f)h#6~P~={ ]W~D{T@C=#>T{v{Y_^>E{G@R;W~T#U{8)f)`=m{w{P~p@1@'>p#p]>#i@`$$$l#9'L$!@E$U@V#g__#T$S%s#%%d>j,",
"Y=5%o#x$M@T$I@,#n#t@!%x#{%2#p#D#f@h%}$$$/@q#W!9{@#c-{$*{%]0fu~1@%]o{Q)w{Z^P{2$D^-]Q^O{%@G@F@P~T^;#k~D^_@0~h#w{v'$@`+%@C)-/F@%,r@o{@>^>h#R;P~I)$@P~{](>Q)G@u~m)x@u~i/[#%@o{_$)@W!w{$@Q)%, ]%#6#U;_#8% ,I@&@D%q#u>0#&#t%o#*&f#U7Y$*$a#=%%&N%!*%>|#c%d$*&h%c@u%h%~%e@~*]#b#}#:%K@>&c%^*$$j$g#!%C%!@k$&#s#T$V#E$=#L$ &E$l#U$e%j$k$~#l#L$~#.{b$W>x$2#`#f#@#>$B#a#J@p#>&d$D%i#/%i@E$v%Y${%]#&#y%}#K@g~,*s#U#}#/#_#9%u$f#3&4@i#T$u$e$i# ,y#s#s( %7@l#V@T$i#g%i@d>1{k$.;J'e$V%S@x$+;i# %V#d$s#S$ %m#P#U@0#V#$&a#/%>#x$u$w@V#X#y%>&Q_I$3#p#@#!%T$K@!#O#y#I@v%y#I@7@'#!>w$v$,#h$3%w#U#C%h$~*5%l$H$U#J=I$j-^*@#N$L$e@E%}#e@5%p#7(s#a#W> &2#_%g$3*i#y%}#s#p#p(s#2#|#U$h-5%`#e@H%!#g-U#U;h$L$/%K@|#!#&#V#J@L$P@*&g%K@p#%&e@}#Z@P#F#P#&#&#U# %F#x%Z@D%M=*$H%'#o#g#s#v$>$i%F#e$Y$_#g#w$v$:% %B#&#M$w$D%i@V#f@z@P#.;h$]#b$I@/%]#}#H%|#b$!#8% &V#c'T$l#=#e#I$T$}#S%i#{%w#*$#$V@Y$*$^#2/:/o{_$P{$@l)5>P{($${D^*@^@T#k~<@o{F@@><@T^`=o{o'P~2@v'($3/;#a@${`+F@($,]a@P~`+c{%)`+!>#@+#0~${&]x@N0(>Q{)@5# ]]$h#u~C)J{#]D/h#_$*{(>T#=@a@|@c@T)q#=>f#~#e@[&;$U#Z@U#I@D%}#v%'#_#K%i@#%4%C;",
"'/>*>*;>q$3%1%H$/%u%Q_T;~%e*t%l#x$c%I@j$W>i@e@@#C@K@V@c'Q{6(c@_@${*{1@w{9{#_^gx@s@Y+x@[#b{g@u~k#(#p{,]a^u>c@o]x@`+c{_#f^L@s@_@h#u>%]h#k@L@6#${2$/@h#%,o'}$`'m@_$q#x@_@d@a^1@$@@>_@'>Y+_$f#3&/@(#;$*&Q%~%7%0#_*P@8*t<@#w%|#w%5*r%f%b$[%H$D$B>!&D%U$:%x%r%v%X%e#W%%%z%G$[%[*B;!;P#2#*%W'E;&#E;[&H$T$c8/%y$s%}#`#%%l$P@!#h-a#X%N%b$<%p%^%_;v$a'%;@,F#X%3*3*[%O$d(n$d>r%w%f%**v%[%]#b$N%(&g%M$U%<%k_N%P=v%r%[%L$M$S%g$!%=*w('*qub$|#j$M_k$&%<%r%G>#=K%h-<%*~e*-&d>u%O%g#-%K$#%=*X%M$,;**P#e$+&d>K%O$v$l$7%K$%&{*e$u$Eaj%N%e$7$]#'&j_6*H%)*0*/%/%W$M$#~M$3*v%M$!%<bJ=k$E%Y%=*3*';';r%P@v$H$k$P@>*l$x%!%*%s%>&s%}#%%&%<%N%p#x%H$f$iaX%M$=*0$%%D$>%e#D%T;t<6>]#<%E%3*#=G$]#X;X%t>r%=*!;w$M$3*P@'*~%b%W'b$k$%%N%h-X%!%%%D$W'k$y$o%h-]%<%';f>C$P=Y%e$M$[%e#f%L%X%H%tp>%D>-%';M$a#<%s$Z%K$D%/%/%w$k$P%/%_*p#w%s%#%%%%$+>Q'h$w%@,b$ %/%!;M@H$v%/&v$K@H%_%/$G=<>S%E$+&{%a# &B#J@Z@5>k~T)B'a@L/G'(#u>m]]@^$x{u>x@_@C'5#_$:/[#C'*@z@'>[(2$k~L@5>k@'>3/|@[#A@-$k@h#6#d/2$Y+<@s@k@L@t@((8'1@K#1@+$A@p]|@6(+#u>z]A@d/L@h(W!h#%>m#1@k>#$L$K@g#!%D%!#U$P@+jW'j$I$_;49<><%>&s%*%Y$p~",
"i:;{U'p~;{;{}&;{}&%=s'%=j,53j,C;C;b3@-;{!9P089p~}-1,O)y,.'P0.'.'  '-v,|~),&,O)$-)(e8}-='f0Ud|,'-r:{=v,C;r:o,p~;-a-_fc3o,UdC;  <'r:f0bbf00:  _j8$.'Q,1,Q,O)O)o,r:8$O)r:O)r:;-`,f0)(o,j,Ud/>;{/>89k-p>/>/>s'53/>;{/>;{s'/>;{ru/>t]%=}&33j,s's'p>C;%=/>j,/>%=;{/>k-;{+~s'p>U'}&p>k-U'}&;{/>o,}&k-s'33}&k-;{U'j,O)p>j,s';{;{+~p>53j,%=p~%=j,%=j,s's'/>;{k-/>;{}&;{%=k-;{}&j,;{;{}&su+~%=;{s'j,%=53}&%=;{;{s'}&53}&;{%=s'j,/>}&O)}&O)%=;{%=p~/>%=U'f0}&s'%=}&%=}&;{/>j,}&%=O)/>;{%=;{j,}&%=/>M9;{%=}&p~%=;{}&/>}&p~}&}&}&p~;{}&su}&U'%=U'%=p>;{}&}&%=}&s';{s'%=;{}&%=p~%=p>U'j,;{;{%=%=}&s'+~+~s'}&p>/>s'}&;{}&%=s's'j,}&}&}&}&o,;{;{;{s'%=s'%=}&;{j,;{}&s'53}&;{p>;{}&/>%=%=}&;{;{/>/>}&U'}&/>%=s'}&%=}&;{p>j,;{j,s'%=}&;{C;%=%=}&}&s'}&;{p>}&}&p~}&%=%=}&;{k-}&}&%=j,s'U'%=p~}&C;}&/>j,p>p>}&s's';{U'}&j,j,}&p>su/>}&s'p>}&;{}&%=j,s'U'/>j,k-%=p~;{U'}&j,j,/>;{/>p>C;-_O)&,8$r:.'8$  |,}-1,1,}-(c;-v,y,-_9-(c  ],v,}-  8$Q,u,a-r:q/bb}-'-l={=8$y,a-M9@-^t)(j:  .-Q,abUd  &,  O))(!,f0Q,f0}-UdUd-_Udf0r:Ud-_O);-}-r:o,emf0p~k-p>;{+~k-o,%=;{%=;{/>%=%=%=}&%=/>}&53ab"};
