/* XPM */
static char * rookiewall02_xpm[] = {
"512 512 9832 3",
"   	c #181712",
".  	c #151212",
"+  	c #4C4D4B",
"@  	c #60615F",
"#  	c #656668",
"$  	c #797B7B",
"%  	c #626262",
"&  	c #5E5E5F",
"*  	c #524F4F",
"=  	c #5A5A59",
"-  	c #5D5D5C",
";  	c #5D5E5F",
">  	c #636464",
",  	c #5B5E5C",
"'  	c #4B4C4C",
")  	c #525052",
"!  	c #525353",
"~  	c #545355",
"{  	c #575757",
"]  	c #5C5B5B",
"^  	c #565758",
"/  	c #5F5F5F",
"(  	c #504F4F",
"_  	c #4E4D4D",
":  	c #5A5959",
"<  	c #5D5A5B",
"[  	c #5C5C5B",
"}  	c #5C5C5D",
"|  	c #595859",
"1  	c #515150",
"2  	c #595657",
"3  	c #595857",
"4  	c #5A5D5A",
"5  	c #494A4A",
"6  	c #595958",
"7  	c #555756",
"8  	c #4F4E4E",
"9  	c #4A4948",
"0  	c #605F5E",
"a  	c #5F6061",
"b  	c #646667",
"c  	c #5E5D60",
"d  	c #5A5B5B",
"e  	c #5C5E5F",
"f  	c #5E6162",
"g  	c #575958",
"h  	c #5E5E5D",
"i  	c #67686A",
"j  	c #67696A",
"k  	c #666867",
"l  	c #666465",
"m  	c #585556",
"n  	c #5A5B5A",
"o  	c #666564",
"p  	c #605F61",
"q  	c #626160",
"r  	c #5A595A",
"s  	c #626261",
"t  	c #595956",
"u  	c #646463",
"v  	c #656766",
"w  	c #5F6062",
"x  	c #595758",
"y  	c #656463",
"z  	c #7A7979",
"A  	c #6A6A6B",
"B  	c #5A5B59",
"C  	c #69696A",
"D  	c #656565",
"E  	c #696B6B",
"F  	c #6E6E6E",
"G  	c #646462",
"H  	c #4C4948",
"I  	c #4C4C4D",
"J  	c #61605D",
"K  	c #555554",
"L  	c #4C4A48",
"M  	c #4B4B4A",
"N  	c #545354",
"O  	c #595755",
"P  	c #616361",
"Q  	c #656563",
"R  	c #626464",
"S  	c #5B5C5E",
"T  	c #4D4F4E",
"U  	c #525150",
"V  	c #4D4F4F",
"W  	c #514E4E",
"X  	c #5D5B5B",
"Y  	c #545455",
"Z  	c #515353",
"`  	c #585656",
" . 	c #555352",
".. 	c #515251",
"+. 	c #454545",
"@. 	c #3F4041",
"#. 	c #3E403D",
"$. 	c #404041",
"%. 	c #41403E",
"&. 	c #6A6B6A",
"*. 	c #6D6D6F",
"=. 	c #696A6A",
"-. 	c #606060",
";. 	c #59595A",
">. 	c #4E4E4E",
",. 	c #5B5958",
"'. 	c #666566",
"). 	c #686969",
"!. 	c #6B6B69",
"~. 	c #626361",
"{. 	c #616261",
"]. 	c #616060",
"^. 	c #565755",
"/. 	c #565555",
"(. 	c #525050",
"_. 	c #595A59",
":. 	c #555655",
"<. 	c #5D615E",
"[. 	c #565854",
"}. 	c #626360",
"|. 	c #6B6B6B",
"1. 	c #737475",
"2. 	c #707371",
"3. 	c #6B6D6C",
"4. 	c #6C6E6F",
"5. 	c #666565",
"6. 	c #686868",
"7. 	c #5D5D5E",
"8. 	c #6C6C6C",
"9. 	c #565858",
"0. 	c #605E62",
"a. 	c #585757",
"b. 	c #666666",
"c. 	c #6B6E6D",
"d. 	c #767676",
"e. 	c #717171",
"f. 	c #6D6D70",
"g. 	c #696B69",
"h. 	c #5C5D5C",
"i. 	c #5C5B5A",
"j. 	c #555452",
"k. 	c #474745",
"l. 	c #504D4D",
"m. 	c #433F3E",
"n. 	c #515051",
"o. 	c #646360",
"p. 	c #5F6160",
"q. 	c #6E716D",
"r. 	c #76797A",
"s. 	c #737677",
"t. 	c #6D6F6F",
"u. 	c #595A5A",
"v. 	c #504F4D",
"w. 	c #4C4A4B",
"x. 	c #494B4A",
"y. 	c #4C4A49",
"z. 	c #484648",
"A. 	c #555454",
"B. 	c #636263",
"C. 	c #646464",
"D. 	c #6A696B",
"E. 	c #656566",
"F. 	c #626162",
"G. 	c #5F5F5E",
"H. 	c #504E4D",
"I. 	c #4B4C4B",
"J. 	c #535353",
"K. 	c #4E4C4B",
"L. 	c #585351",
"M. 	c #605E5C",
"N. 	c #6C6B6B",
"O. 	c #676A67",
"P. 	c #6A6E6F",
"Q. 	c #707071",
"R. 	c #696869",
"S. 	c #696868",
"T. 	c #606260",
"U. 	c #575756",
"V. 	c #514E4F",
"W. 	c #555353",
"X. 	c #5E5A58",
"Y. 	c #5E5E5B",
"Z. 	c #6A6B6B",
"`. 	c #707070",
" + 	c #797978",
".+ 	c #727270",
"++ 	c #6B696C",
"@+ 	c #616260",
"#+ 	c #4E4D4C",
"$+ 	c #494946",
"%+ 	c #494844",
"&+ 	c #444642",
"*+ 	c #545352",
"=+ 	c #595B58",
"-+ 	c #616161",
";+ 	c #727171",
">+ 	c #70706F",
",+ 	c #6D6F6E",
"'+ 	c #6D6E6F",
")+ 	c #585857",
"!+ 	c #464847",
"~+ 	c #4A4A4A",
"{+ 	c #545654",
"]+ 	c #525151",
"^+ 	c #535252",
"/+ 	c #676565",
"(+ 	c #706F70",
"_+ 	c #717071",
":+ 	c #666766",
"<+ 	c #555458",
"[+ 	c #535151",
"}+ 	c #464743",
"|+ 	c #3F3F3B",
"1+ 	c #474544",
"2+ 	c #404240",
"3+ 	c #575555",
"4+ 	c #656462",
"5+ 	c #696967",
"6+ 	c #747072",
"7+ 	c #6C6B68",
"8+ 	c #6C6B69",
"9+ 	c #747271",
"0+ 	c #6A6C6E",
"a+ 	c #6A6C6B",
"b+ 	c #646764",
"c+ 	c #676363",
"d+ 	c #595858",
"e+ 	c #595756",
"f+ 	c #626563",
"g+ 	c #646564",
"h+ 	c #666868",
"i+ 	c #6A6A69",
"j+ 	c #6F6F73",
"k+ 	c #6C6F6E",
"l+ 	c #676667",
"m+ 	c #555754",
"n+ 	c #4D4A48",
"o+ 	c #4B4948",
"p+ 	c #494845",
"q+ 	c #494949",
"r+ 	c #555654",
"s+ 	c #686867",
"t+ 	c #575657",
"u+ 	c #535052",
"v+ 	c #565354",
"w+ 	c #565552",
"x+ 	c #686564",
"y+ 	c #707170",
"z+ 	c #717172",
"A+ 	c #717373",
"B+ 	c #737474",
"C+ 	c #6E7070",
"D+ 	c #6D6B6D",
"E+ 	c #676869",
"F+ 	c #595959",
"G+ 	c #6A6C6A",
"H+ 	c #646465",
"I+ 	c #504D4F",
"J+ 	c #4E4F4D",
"K+ 	c #4A4B49",
"L+ 	c #535350",
"M+ 	c #635E61",
"N+ 	c #646765",
"O+ 	c #6E6D6C",
"P+ 	c #5F605F",
"Q+ 	c #5A5957",
"R+ 	c #50504D",
"S+ 	c #5B5B59",
"T+ 	c #676666",
"U+ 	c #6A696C",
"V+ 	c #737372",
"W+ 	c #6E6D6D",
"X+ 	c #616262",
"Y+ 	c #545353",
"Z+ 	c #59585A",
"`+ 	c #636463",
" @ 	c #6A696A",
".@ 	c #656765",
"+@ 	c #77797A",
"@@ 	c #747572",
"#@ 	c #717273",
"$@ 	c #6F7272",
"%@ 	c #5B5B5C",
"&@ 	c #66666A",
"*@ 	c #616162",
"=@ 	c #565657",
"-@ 	c #7B7A7D",
";@ 	c #646666",
">@ 	c #6D6E6D",
",@ 	c #6E6F70",
"'@ 	c #737374",
")@ 	c #6D6D6E",
"!@ 	c #5E605F",
"~@ 	c #525250",
"{@ 	c #565756",
"]@ 	c #626161",
"^@ 	c #6B6968",
"/@ 	c #7C7B7F",
"(@ 	c #777779",
"_@ 	c #787779",
":@ 	c #737476",
"<@ 	c #5C5E5D",
"[@ 	c #626163",
"}@ 	c #7B7B7F",
"|@ 	c #727373",
"1@ 	c #727172",
"2@ 	c #747676",
"3@ 	c #747274",
"4@ 	c #767879",
"5@ 	c #626463",
"6@ 	c #515050",
"7@ 	c #636364",
"8@ 	c #686A69",
"9@ 	c #7A7B7D",
"0@ 	c #797A7A",
"a@ 	c #7F8285",
"b@ 	c #787B7C",
"c@ 	c #7A7A7B",
"d@ 	c #787A7A",
"e@ 	c #616264",
"f@ 	c #5B5C59",
"g@ 	c #5D5B5D",
"h@ 	c #626061",
"i@ 	c #605F60",
"j@ 	c #717073",
"k@ 	c #6C6A6C",
"l@ 	c #6B6C6B",
"m@ 	c #6A6A6D",
"n@ 	c #7A7E7D",
"o@ 	c #767A7A",
"p@ 	c #7B797A",
"q@ 	c #767978",
"r@ 	c #6C6D6D",
"s@ 	c #676867",
"t@ 	c #6E6D6E",
"u@ 	c #6C6C6A",
"v@ 	c #4E5150",
"w@ 	c #575656",
"x@ 	c #595856",
"y@ 	c #6A6A6A",
"z@ 	c #767776",
"A@ 	c #6E6F71",
"B@ 	c #727473",
"C@ 	c #787978",
"D@ 	c #717174",
"E@ 	c #787778",
"F@ 	c #6F6F6F",
"G@ 	c #615F5F",
"H@ 	c #666667",
"I@ 	c #5E6161",
"J@ 	c #575A5B",
"K@ 	c #696968",
"L@ 	c #767678",
"M@ 	c #727273",
"N@ 	c #696C6A",
"O@ 	c #6C706D",
"P@ 	c #606161",
"Q@ 	c #6D6E6E",
"R@ 	c #727173",
"S@ 	c #656767",
"T@ 	c #6E6C6B",
"U@ 	c #666567",
"V@ 	c #696B6C",
"W@ 	c #555555",
"X@ 	c #696B6A",
"Y@ 	c #696A6C",
"Z@ 	c #6F6F70",
"`@ 	c #636365",
" # 	c #6F7070",
".# 	c #737375",
"+# 	c #6C6E6D",
"@# 	c #737576",
"## 	c #717372",
"$# 	c #6D7070",
"%# 	c #6F706F",
"&# 	c #747677",
"*# 	c #66686A",
"=# 	c #6A6B6D",
"-# 	c #6B6C6C",
";# 	c #6B6D6F",
"># 	c #666769",
",# 	c #7E807F",
"'# 	c #747575",
")# 	c #767979",
"!# 	c #686A68",
"~# 	c #6E6E6F",
"{# 	c #636668",
"]# 	c #606061",
"^# 	c #5F5E5E",
"/# 	c #535452",
"(# 	c #717473",
"_# 	c #6E706E",
":# 	c #727372",
"<# 	c #737575",
"[# 	c #646467",
"}# 	c #66686B",
"|# 	c #5F5E60",
"1# 	c #535456",
"2# 	c #605F62",
"3# 	c #696C6B",
"4# 	c #57595C",
"5# 	c #535351",
"6# 	c #6D6D6B",
"7# 	c #6E6D6F",
"8# 	c #62605F",
"9# 	c #6B6A69",
"0# 	c #706E72",
"a# 	c #727375",
"b# 	c #676967",
"c# 	c #6A6969",
"d# 	c #676969",
"e# 	c #5B5C5A",
"f# 	c #58585B",
"g# 	c #5B5A59",
"h# 	c #4F4F4F",
"i# 	c #636261",
"j# 	c #757777",
"k# 	c #747478",
"l# 	c #696A68",
"m# 	c #5D5F5D",
"n# 	c #5E5C60",
"o# 	c #5C5E5C",
"p# 	c #767578",
"q# 	c #7B7C7C",
"r# 	c #6E6E71",
"s# 	c #6E7071",
"t# 	c #646566",
"u# 	c #5F6060",
"v# 	c #545454",
"w# 	c #635F5F",
"x# 	c #686768",
"y# 	c #747576",
"z# 	c #777879",
"A# 	c #272826",
"B# 	c #141412",
"C# 	c #1B1C19",
"D# 	c #191913",
"E# 	c #737070",
"F# 	c #0C0B0C",
"G# 	c #0D0D0E",
"H# 	c #090A09",
"I# 	c #050406",
"J# 	c #0E0F0F",
"K# 	c #121411",
"L# 	c #0D0D0D",
"M# 	c #0E0C0D",
"N# 	c #0F0D0C",
"O# 	c #0B0B0C",
"P# 	c #111211",
"Q# 	c #111210",
"R# 	c #0F1111",
"S# 	c #131314",
"T# 	c #101012",
"U# 	c #0D0E0F",
"V# 	c #0B0A0B",
"W# 	c #0F0E11",
"X# 	c #101011",
"Y# 	c #100F0F",
"Z# 	c #0F1112",
"`# 	c #0D0C0C",
" $ 	c #0D0C0B",
".$ 	c #0E0F0D",
"+$ 	c #0A0B0A",
"@$ 	c #0E0F0E",
"#$ 	c #0F1011",
"$$ 	c #111111",
"%$ 	c #0B0E0F",
"&$ 	c #0E0D0E",
"*$ 	c #0C0E0E",
"=$ 	c #070708",
"-$ 	c #10100E",
";$ 	c #0D0F0F",
">$ 	c #111110",
",$ 	c #0C0B0D",
"'$ 	c #090E0B",
")$ 	c #111114",
"!$ 	c #0D0C0F",
"~$ 	c #0B0C0C",
"{$ 	c #0A0C0C",
"]$ 	c #0C0C0C",
"^$ 	c #111112",
"/$ 	c #0F1013",
"($ 	c #101111",
"_$ 	c #0C0D0D",
":$ 	c #0F100F",
"<$ 	c #111213",
"[$ 	c #121310",
"}$ 	c #0F0E0F",
"|$ 	c #0B0C0B",
"1$ 	c #0E1010",
"2$ 	c #0E0F11",
"3$ 	c #0E100E",
"4$ 	c #0E0D0C",
"5$ 	c #141415",
"6$ 	c #101014",
"7$ 	c #111011",
"8$ 	c #0C0C0E",
"9$ 	c #0B0B0F",
"0$ 	c #0B0C0A",
"a$ 	c #111310",
"b$ 	c #131513",
"c$ 	c #141315",
"d$ 	c #0B0F0D",
"e$ 	c #131214",
"f$ 	c #101211",
"g$ 	c #0D100D",
"h$ 	c #111012",
"i$ 	c #131413",
"j$ 	c #191818",
"k$ 	c #111113",
"l$ 	c #121215",
"m$ 	c #070C0B",
"n$ 	c #0F110F",
"o$ 	c #171615",
"p$ 	c #141615",
"q$ 	c #101214",
"r$ 	c #151615",
"s$ 	c #19191B",
"t$ 	c #191917",
"u$ 	c #1C1D1B",
"v$ 	c #151314",
"w$ 	c #0C0D0F",
"x$ 	c #0C1010",
"y$ 	c #0D0E0E",
"z$ 	c #0F1313",
"A$ 	c #1A1A1D",
"B$ 	c #0C0A0D",
"C$ 	c #0B0A0C",
"D$ 	c #0C0E0C",
"E$ 	c #121311",
"F$ 	c #0C0F0F",
"G$ 	c #111314",
"H$ 	c #151516",
"I$ 	c #141211",
"J$ 	c #161413",
"K$ 	c #131312",
"L$ 	c #131213",
"M$ 	c #101212",
"N$ 	c #121516",
"O$ 	c #121014",
"P$ 	c #120F13",
"Q$ 	c #0F0C0F",
"R$ 	c #0E0D0D",
"S$ 	c #08090C",
"T$ 	c #0D0E10",
"U$ 	c #0D0F0E",
"V$ 	c #101210",
"W$ 	c #121211",
"X$ 	c #0F1010",
"Y$ 	c #0A0A0A",
"Z$ 	c #121412",
"`$ 	c #161514",
" % 	c #0F0D0E",
".% 	c #151518",
"+% 	c #151616",
"@% 	c #1A1B1B",
"#% 	c #1A1C1F",
"$% 	c #18181B",
"%% 	c #131515",
"&% 	c #0D0F10",
"*% 	c #131315",
"=% 	c #151818",
"-% 	c #1C1D1D",
";% 	c #181A1B",
">% 	c #1B1A1A",
",% 	c #191C1B",
"'% 	c #151717",
")% 	c #11100F",
"!% 	c #131212",
"~% 	c #101112",
"{% 	c #121112",
"]% 	c #0D0F0D",
"^% 	c #171715",
"/% 	c #161615",
"(% 	c #191817",
"_% 	c #171919",
":% 	c #1A1A1A",
"<% 	c #161616",
"[% 	c #0A0A0B",
"}% 	c #0E1211",
"|% 	c #0F1110",
"1% 	c #0C100E",
"2% 	c #101010",
"3% 	c #131313",
"4% 	c #121313",
"5% 	c #111312",
"6% 	c #131514",
"7% 	c #131614",
"8% 	c #121316",
"9% 	c #111313",
"0% 	c #121212",
"a% 	c #0D0D0F",
"b% 	c #121213",
"c% 	c #151416",
"d% 	c #121312",
"e% 	c #151618",
"f% 	c #121315",
"g% 	c #171B18",
"h% 	c #1E2020",
"i% 	c #1B1D1D",
"j% 	c #10100F",
"k% 	c #0D0C0E",
"l% 	c #151617",
"m% 	c #161618",
"n% 	c #161517",
"o% 	c #161719",
"p% 	c #191816",
"q% 	c #111212",
"r% 	c #090B09",
"s% 	c #100F11",
"t% 	c #161516",
"u% 	c #171618",
"v% 	c #1E1D1D",
"w% 	c #1D1E1E",
"x% 	c #191A1A",
"y% 	c #1A1C1C",
"z% 	c #0F0F11",
"A% 	c #0B0F0F",
"B% 	c #0B0D0B",
"C% 	c #131518",
"D% 	c #161617",
"E% 	c #171616",
"F% 	c #151417",
"G% 	c #0E0E0F",
"H% 	c #0E0C13",
"I% 	c #080C0C",
"J% 	c #0B0B0D",
"K% 	c #111413",
"L% 	c #181919",
"M% 	c #17191B",
"N% 	c #131717",
"O% 	c #161717",
"P% 	c #121413",
"Q% 	c #131414",
"R% 	c #19171B",
"S% 	c #171717",
"T% 	c #151415",
"U% 	c #141716",
"V% 	c #101113",
"W% 	c #0D0D0C",
"X% 	c #0B0C0E",
"Y% 	c #090808",
"Z% 	c #0A0D0D",
"`% 	c #171718",
" & 	c #0B0D0E",
".& 	c #101110",
"+& 	c #161215",
"@& 	c #141513",
"#& 	c #161515",
"$& 	c #151414",
"%& 	c #0C0A0C",
"&& 	c #0E0C10",
"*& 	c #141512",
"=& 	c #161818",
"-& 	c #121314",
";& 	c #0A090A",
">& 	c #0C0C0F",
",& 	c #0B0C0D",
"'& 	c #0D1010",
")& 	c #121416",
"!& 	c #0F100E",
"~& 	c #0D0C11",
"{& 	c #080707",
"]& 	c #0E0E0E",
"^& 	c #0C090B",
"/& 	c #0D0D0B",
"(& 	c #171617",
"_& 	c #0E0D0F",
":& 	c #07090A",
"<& 	c #0A0B0B",
"[& 	c #0A0E0C",
"}& 	c #070C0A",
"|& 	c #0B0D0F",
"1& 	c #141417",
"2& 	c #131516",
"3& 	c #191619",
"4& 	c #0D0B0D",
"5& 	c #0C0B0B",
"6& 	c #0A0C0E",
"7& 	c #0E0E0D",
"8& 	c #090A0B",
"9& 	c #0A0A0D",
"0& 	c #080A0A",
"a& 	c #0A0C0D",
"b& 	c #0F0F13",
"c& 	c #101313",
"d& 	c #121515",
"e& 	c #151815",
"f& 	c #1A1A17",
"g& 	c #0F0F0E",
"h& 	c #0A0909",
"i& 	c #0D0D11",
"j& 	c #0E0F10",
"k& 	c #0F0E0D",
"l& 	c #111412",
"m& 	c #171317",
"n& 	c #141614",
"o& 	c #0E1112",
"p& 	c #0D100F",
"q& 	c #0A0A0C",
"r& 	c #0E080C",
"s& 	c #0A080A",
"t& 	c #090B0A",
"u& 	c #0F0D0F",
"v& 	c #100E0E",
"w& 	c #0A0908",
"x& 	c #080809",
"y& 	c #141317",
"z& 	c #111015",
"A& 	c #111010",
"B& 	c #0C0D0B",
"C& 	c #09090A",
"D& 	c #0E1110",
"E& 	c #0F0F12",
"F& 	c #100F10",
"G& 	c #0D0E0D",
"H& 	c #0C0E0B",
"I& 	c #060A0A",
"J& 	c #050609",
"K& 	c #0A0E0E",
"L& 	c #111311",
"M& 	c #080909",
"N& 	c #0C0C0B",
"O& 	c #090C0D",
"P& 	c #0A0B0C",
"Q& 	c #0D0E0C",
"R& 	c #0E0C0F",
"S& 	c #11110F",
"T& 	c #0A0B09",
"U& 	c #0B090D",
"V& 	c #0B0B0B",
"W& 	c #141316",
"X& 	c #161217",
"Y& 	c #141213",
"Z& 	c #121414",
"`& 	c #0C0C0D",
" * 	c #0F0C10",
".* 	c #100E0F",
"+* 	c #0D1110",
"@* 	c #0E110E",
"#* 	c #121010",
"$* 	c #141414",
"%* 	c #0C0D0E",
"&* 	c #0F0F0F",
"** 	c #060608",
"=* 	c #060702",
"-* 	c #131415",
";* 	c #131112",
">* 	c #242423",
",* 	c #1E1F1D",
"'* 	c #1A1712",
")* 	c #181612",
"!* 	c #242624",
"~* 	c #20201F",
"{* 	c #1E1F20",
"]* 	c #202122",
"^* 	c #1F1E1E",
"/* 	c #1C1F1E",
"(* 	c #1E2021",
"_* 	c #212122",
":* 	c #212223",
"<* 	c #1F2121",
"[* 	c #1C1E21",
"}* 	c #211F20",
"|* 	c #1C1E1E",
"1* 	c #1F2020",
"2* 	c #202023",
"3* 	c #202224",
"4* 	c #1E201E",
"5* 	c #222323",
"6* 	c #1D1D1D",
"7* 	c #1C1E1D",
"8* 	c #1D201E",
"9* 	c #1E1E20",
"0* 	c #1D1F20",
"a* 	c #222423",
"b* 	c #232525",
"c* 	c #222321",
"d* 	c #202120",
"e* 	c #222022",
"f* 	c #1F201E",
"g* 	c #1E201D",
"h* 	c #1F201F",
"i* 	c #201F21",
"j* 	c #1F2220",
"k* 	c #1F2221",
"l* 	c #202021",
"m* 	c #20201E",
"n* 	c #232423",
"o* 	c #232524",
"p* 	c #252825",
"q* 	c #252424",
"r* 	c #212120",
"s* 	c #222222",
"t* 	c #202020",
"u* 	c #1D1E1F",
"v* 	c #1E1F21",
"w* 	c #1D1E20",
"x* 	c #212222",
"y* 	c #1E2321",
"z* 	c #1E2022",
"A* 	c #232325",
"B* 	c #222324",
"C* 	c #1C1F1F",
"D* 	c #202223",
"E* 	c #202121",
"F* 	c #212424",
"G* 	c #212326",
"H* 	c #1C1F1D",
"I* 	c #212323",
"J* 	c #1D2021",
"K* 	c #1F2021",
"L* 	c #1E2120",
"M* 	c #212322",
"N* 	c #202022",
"O* 	c #1D2020",
"P* 	c #1F2122",
"Q* 	c #202222",
"R* 	c #1E2122",
"S* 	c #1F1E1F",
"T* 	c #212427",
"U* 	c #1F1F1F",
"V* 	c #1F1F20",
"W* 	c #222220",
"X* 	c #1D211F",
"Y* 	c #1E201F",
"Z* 	c #1F221F",
"`* 	c #1E1E21",
" = 	c #1D2121",
".= 	c #222322",
"+= 	c #1C1C1E",
"@= 	c #202221",
"#= 	c #242629",
"$= 	c #212523",
"%= 	c #202322",
"&= 	c #212325",
"*= 	c #202124",
"== 	c #242525",
"-= 	c #252426",
";= 	c #272728",
">= 	c #242628",
",= 	c #1C1C1C",
"'= 	c #1E1F1E",
")= 	c #232223",
"!= 	c #202220",
"~= 	c #202522",
"{= 	c #1F2424",
"]= 	c #222225",
"^= 	c #222325",
"/= 	c #222424",
"(= 	c #202323",
"_= 	c #1F2023",
":= 	c #222122",
"<= 	c #242626",
"[= 	c #232425",
"}= 	c #1F2123",
"|= 	c #1E211E",
"1= 	c #262528",
"2= 	c #202325",
"3= 	c #232326",
"4= 	c #212125",
"5= 	c #1F2223",
"6= 	c #1F2423",
"7= 	c #232424",
"8= 	c #242526",
"9= 	c #212024",
"0= 	c #242428",
"a= 	c #272526",
"b= 	c #242426",
"c= 	c #222427",
"d= 	c #202123",
"e= 	c #222425",
"f= 	c #212224",
"g= 	c #1F1E21",
"h= 	c #262728",
"i= 	c #202324",
"j= 	c #242425",
"k= 	c #222327",
"l= 	c #232627",
"m= 	c #1F2120",
"n= 	c #262628",
"o= 	c #242625",
"p= 	c #212422",
"q= 	c #212225",
"r= 	c #262829",
"s= 	c #282A2A",
"t= 	c #222525",
"u= 	c #222223",
"v= 	c #1F2425",
"w= 	c #212124",
"x= 	c #262529",
"y= 	c #222125",
"z= 	c #232324",
"A= 	c #212021",
"B= 	c #1D2222",
"C= 	c #212324",
"D= 	c #202225",
"E= 	c #222627",
"F= 	c #232427",
"G= 	c #212425",
"H= 	c #232527",
"I= 	c #272829",
"J= 	c #262726",
"K= 	c #212423",
"L= 	c #202424",
"M= 	c #232123",
"N= 	c #252829",
"O= 	c #212123",
"P= 	c #232426",
"Q= 	c #252527",
"R= 	c #252526",
"S= 	c #222226",
"T= 	c #252324",
"U= 	c #242727",
"V= 	c #232526",
"W= 	c #222526",
"X= 	c #242224",
"Y= 	c #212020",
"Z= 	c #27272A",
"`= 	c #222224",
" - 	c #252726",
".- 	c #202423",
"+- 	c #222628",
"@- 	c #212525",
"#- 	c #202326",
"$- 	c #1D1F1F",
"%- 	c #222124",
"&- 	c #222727",
"*- 	c #222726",
"=- 	c #1D1E21",
"-- 	c #252828",
";- 	c #262727",
">- 	c #242528",
",- 	c #282829",
"'- 	c #232626",
")- 	c #232224",
"!- 	c #1D2321",
"~- 	c #252627",
"{- 	c #212526",
"]- 	c #222426",
"^- 	c #272729",
"/- 	c #232726",
"(- 	c #222529",
"_- 	c #242726",
":- 	c #242527",
"<- 	c #252629",
"[- 	c #242427",
"}- 	c #232727",
"|- 	c #282729",
"1- 	c #252326",
"2- 	c #272A2B",
"3- 	c #202422",
"4- 	c #242324",
"5- 	c #26292C",
"6- 	c #252626",
"7- 	c #272428",
"8- 	c #242627",
"9- 	c #242327",
"0- 	c #222121",
"a- 	c #1D2022",
"b- 	c #232528",
"c- 	c #272629",
"d- 	c #292B29",
"e- 	c #232523",
"f- 	c #232628",
"g- 	c #232625",
"h- 	c #222728",
"i- 	c #1F2321",
"j- 	c #1F2224",
"k- 	c #1D2220",
"l- 	c #232826",
"m- 	c #1E2121",
"n- 	c #1F1F22",
"o- 	c #1E1D20",
"p- 	c #272627",
"q- 	c #212022",
"r- 	c #242323",
"s- 	c #222123",
"t- 	c #1B1E1D",
"u- 	c #212220",
"v- 	c #201F22",
"w- 	c #1D1D1F",
"x- 	c #1F1F1E",
"y- 	c #1B1A1F",
"z- 	c #201E21",
"A- 	c #1F2022",
"B- 	c #1D201F",
"C- 	c #191A1D",
"D- 	c #1F1F1D",
"E- 	c #15120D",
"F- 	c #191716",
"G- 	c #212121",
"H- 	c #1E1F1F",
"I- 	c #1E1F22",
"J- 	c #1B1A1B",
"K- 	c #221F22",
"L- 	c #272628",
"M- 	c #222221",
"N- 	c #1B1D1E",
"O- 	c #1F1D1E",
"P- 	c #222527",
"Q- 	c #242424",
"R- 	c #232323",
"S- 	c #1E2221",
"T- 	c #212321",
"U- 	c #232222",
"V- 	c #232623",
"W- 	c #211F1F",
"X- 	c #272927",
"Y- 	c #28282B",
"Z- 	c #262729",
"`- 	c #242828",
" ; 	c #252628",
".; 	c #232226",
"+; 	c #211F22",
"@; 	c #252728",
"#; 	c #252528",
"$; 	c #242728",
"%; 	c #201F23",
"&; 	c #242226",
"*; 	c #212023",
"=; 	c #1E2223",
"-; 	c #282728",
";; 	c #222524",
">; 	c #262526",
",; 	c #212524",
"'; 	c #222227",
"); 	c #292A29",
"!; 	c #27282A",
"~; 	c #212221",
"{; 	c #232428",
"]; 	c #272828",
"^; 	c #26272A",
"/; 	c #1F2222",
"(; 	c #282929",
"_; 	c #282527",
":; 	c #222326",
"<; 	c #1F1F21",
"[; 	c #202024",
"}; 	c #27292A",
"|; 	c #1F2225",
"1; 	c #1C2121",
"2; 	c #252725",
"3; 	c #252529",
"4; 	c #212327",
"5; 	c #262627",
"6; 	c #252428",
"7; 	c #222625",
"8; 	c #211F24",
"9; 	c #262629",
"0; 	c #282A2B",
"a; 	c #202125",
"b; 	c #1F2323",
"c; 	c #252827",
"d; 	c #272726",
"e; 	c #242725",
"f; 	c #242225",
"g; 	c #232629",
"h; 	c #1F1F23",
"i; 	c #272929",
"j; 	c #232327",
"k; 	c #272525",
"l; 	c #252327",
"m; 	c #252623",
"n; 	c #242223",
"o; 	c #272827",
"p; 	c #252624",
"q; 	c #222624",
"r; 	c #232225",
"s; 	c #222522",
"t; 	c #272A29",
"u; 	c #272727",
"v; 	c #282628",
"w; 	c #272725",
"x; 	c #242826",
"y; 	c #262527",
"z; 	c #282A28",
"A; 	c #262725",
"B; 	c #262626",
"C; 	c #232622",
"D; 	c #282928",
"E; 	c #232624",
"F; 	c #242524",
"G; 	c #252525",
"H; 	c #282A29",
"I; 	c #262426",
"J; 	c #252427",
"K; 	c #1E2222",
"L; 	c #1F1D1B",
"M; 	c #16140F",
"N; 	c #1A1816",
"O; 	c #262525",
"P; 	c #191B19",
"Q; 	c #1A1C1A",
"R; 	c #2E2E2F",
"S; 	c #000000",
"T; 	c #000001",
"U; 	c #010001",
"V; 	c #020000",
"W; 	c #000201",
"X; 	c #000002",
"Y; 	c #010201",
"Z; 	c #010000",
"`; 	c #000100",
" > 	c #010100",
".> 	c #000101",
"+> 	c #020101",
"@> 	c #030401",
"#> 	c #010003",
"$> 	c #010002",
"%> 	c #000003",
"&> 	c #010203",
"*> 	c #060607",
"=> 	c #010405",
"-> 	c #010103",
";> 	c #030003",
">> 	c #010200",
",> 	c #040202",
"'> 	c #030204",
")> 	c #171716",
"!> 	c #262624",
"~> 	c #1D2120",
"{> 	c #252929",
"]> 	c #252729",
"^> 	c #29272A",
"/> 	c #272A2A",
"(> 	c #25252A",
"_> 	c #28292A",
":> 	c #28272A",
"<> 	c #26282A",
"[> 	c #242429",
"}> 	c #262827",
"|> 	c #28292B",
"1> 	c #252727",
"2> 	c #2A292E",
"3> 	c #242326",
"4> 	c #262929",
"5> 	c #2A2B2E",
"6> 	c #292B2C",
"7> 	c #262828",
"8> 	c #212426",
"9> 	c #232124",
"0> 	c #292A2A",
"a> 	c #161415",
"b> 	c #13120F",
"c> 	c #1A191A",
"d> 	c #0B0C09",
"e> 	c #020002",
"f> 	c #020206",
"g> 	c #020403",
"h> 	c #020202",
"i> 	c #000204",
"j> 	c #010202",
"k> 	c #020203",
"l> 	c #020105",
"m> 	c #080B0B",
"n> 	c #1E1E1C",
"o> 	c #1A1D1C",
"p> 	c #1C1F21",
"q> 	c #1B1B17",
"r> 	c #15120E",
"s> 	c #1B1814",
"t> 	c #262625",
"u> 	c #1B1A1D",
"v> 	c #1E1D1E",
"w> 	c #26262A",
"x> 	c #1B1C1A",
"y> 	c #919796",
"z> 	c #959898",
"A> 	c #7F8485",
"B> 	c #787B7D",
"C> 	c #717276",
"D> 	c #75747A",
"E> 	c #757679",
"F> 	c #707477",
"G> 	c #77797C",
"H> 	c #777B7C",
"I> 	c #76787A",
"J> 	c #7C7D7F",
"K> 	c #7A7A7E",
"L> 	c #676B6A",
"M> 	c #6A6C6D",
"N> 	c #666869",
"O> 	c #787A7C",
"P> 	c #757979",
"Q> 	c #676A6B",
"R> 	c #76777B",
"S> 	c #7D7E80",
"T> 	c #777C7D",
"U> 	c #75787A",
"V> 	c #75797B",
"W> 	c #757779",
"X> 	c #787A7E",
"Y> 	c #7F8284",
"Z> 	c #67686D",
"`> 	c #5F6162",
" , 	c #656768",
"., 	c #757778",
"+, 	c #6E7175",
"@, 	c #6B6A6B",
"#, 	c #707473",
"$, 	c #626263",
"%, 	c #686B6C",
"&, 	c #626567",
"*, 	c #68676C",
"=, 	c #808285",
"-, 	c #76747C",
";, 	c #717475",
">, 	c #6C7071",
",, 	c #797D7F",
"', 	c #656467",
"), 	c #6D7074",
"!, 	c #6A6C70",
"~, 	c #6F6F74",
"{, 	c #707173",
"], 	c #6D7174",
"^, 	c #6A6E70",
"/, 	c #7C7E81",
"(, 	c #575759",
"_, 	c #6A6F71",
":, 	c #6D6F72",
"<, 	c #737478",
"[, 	c #7C7C80",
"}, 	c #747779",
"|, 	c #797B80",
"1, 	c #838385",
"2, 	c #767679",
"3, 	c #7B7D80",
"4, 	c #737577",
"5, 	c #747675",
"6, 	c #77777C",
"7, 	c #777A7D",
"8, 	c #7E8082",
"9, 	c #7F8484",
"0, 	c #9B9FA1",
"a, 	c #181A1A",
"b, 	c #191717",
"c, 	c #323438",
"d, 	c #27292B",
"e, 	c #272529",
"f, 	c #262A2B",
"g, 	c #252625",
"h, 	c #282A2C",
"i, 	c #26292B",
"j, 	c #28282A",
"k, 	c #292C2C",
"l, 	c #2A2C2C",
"m, 	c #1D1D20",
"n, 	c #28292C",
"o, 	c #29282A",
"p, 	c #27282B",
"q, 	c #242827",
"r, 	c #262B28",
"s, 	c #1F2125",
"t, 	c #25272A",
"u, 	c #292C2A",
"v, 	c #070808",
"w, 	c #222120",
"x, 	c #020204",
"y, 	c #A0A3A4",
"z, 	c #A8A9AB",
"A, 	c #87888D",
"B, 	c #707374",
"C, 	c #6D7372",
"D, 	c #737778",
"E, 	c #7C7F81",
"F, 	c #747979",
"G, 	c #74767A",
"H, 	c #767B7C",
"I, 	c #707274",
"J, 	c #737172",
"K, 	c #73787A",
"L, 	c #616666",
"M, 	c #686C6B",
"N, 	c #727376",
"O, 	c #646868",
"P, 	c #555659",
"Q, 	c #505254",
"R, 	c #686B6D",
"S, 	c #6C6D6F",
"T, 	c #696A70",
"U, 	c #6D7171",
"V, 	c #707376",
"W, 	c #6D6F70",
"X, 	c #6C6D70",
"Y, 	c #66676A",
"Z, 	c #616668",
"`, 	c #5C6061",
" ' 	c #696E71",
".' 	c #686A6D",
"+' 	c #6D6E70",
"@' 	c #767579",
"#' 	c #4F5055",
"$' 	c #504E50",
"%' 	c #5D5C61",
"&' 	c #6A6D6E",
"*' 	c #6D6F73",
"=' 	c #6E7073",
"-' 	c #767778",
";' 	c #626468",
">' 	c #636766",
",' 	c #606266",
"'' 	c #666A6E",
")' 	c #6B6C6F",
"!' 	c #6A6F74",
"~' 	c #696D71",
"{' 	c #656666",
"]' 	c #6E6D70",
"^' 	c #5D5E61",
"/' 	c #6A6B6F",
"(' 	c #66696C",
"_' 	c #606064",
":' 	c #5F6265",
"<' 	c #545556",
"[' 	c #444849",
"}' 	c #595C5E",
"|' 	c #6B6C6E",
"1' 	c #4E4F52",
"2' 	c #707271",
"3' 	c #7D7F81",
"4' 	c #919295",
"5' 	c #878789",
"6' 	c #1A1919",
"7' 	c #1C1D1C",
"8' 	c #191918",
"9' 	c #16110E",
"0' 	c #1C1915",
"a' 	c #2B2A29",
"b' 	c #2C2E2E",
"c' 	c #090A0A",
"d' 	c #1E1D19",
"e' 	c #4B4D4D",
"f' 	c #5E6062",
"g' 	c #292827",
"h' 	c #292A2B",
"i' 	c #262928",
"j' 	c #2C2C2E",
"k' 	c #2A2929",
"l' 	c #29292A",
"m' 	c #2E2D30",
"n' 	c #282A2D",
"o' 	c #29292C",
"p' 	c #26252B",
"q' 	c #242124",
"r' 	c #2B2E2D",
"s' 	c #2B2C2D",
"t' 	c #2E2E2D",
"u' 	c #2B2B2D",
"v' 	c #2D2C2D",
"w' 	c #29282B",
"x' 	c #272528",
"y' 	c #252425",
"z' 	c #272928",
"A' 	c #282627",
"B' 	c #292829",
"C' 	c #525256",
"D' 	c #151312",
"E' 	c #1C1B1D",
"F' 	c #161716",
"G' 	c #383638",
"H' 	c #212226",
"I' 	c #1E1D21",
"J' 	c #282B2A",
"K' 	c #2A2B2B",
"L' 	c #242729",
"M' 	c #292B2B",
"N' 	c #252928",
"O' 	c #202425",
"P' 	c #232725",
"Q' 	c #1C1F20",
"R' 	c #262A2A",
"S' 	c #1F1E20",
"T' 	c #262A29",
"U' 	c #25262B",
"V' 	c #2B2C2E",
"W' 	c #242829",
"X' 	c #2B2D2C",
"Y' 	c #2A2B2A",
"Z' 	c #0B0B08",
"`' 	c #201D1E",
" ) 	c #444746",
".) 	c #252826",
"+) 	c #282828",
"@) 	c #2A2B2C",
"#) 	c #292828",
"$) 	c #232026",
"%) 	c #2B292A",
"&) 	c #2B2D2D",
"*) 	c #2A2C2D",
"=) 	c #2C2C2D",
"-) 	c #2A2C2A",
";) 	c #1E1F23",
">) 	c #25252B",
",) 	c #272A2C",
"') 	c #2B2C2B",
")) 	c #26292A",
"!) 	c #27252B",
"~) 	c #242623",
"{) 	c #404546",
"]) 	c #484948",
"^) 	c #181817",
"/) 	c #1B1B1B",
"() 	c #0F0E0C",
"_) 	c #1B1819",
":) 	c #15130D",
"<) 	c #1D1A16",
"[) 	c #20221C",
"}) 	c #737775",
"|) 	c #2A2D2E",
"1) 	c #2A2B2D",
"2) 	c #292C2D",
"3) 	c #24282A",
"4) 	c #272B2B",
"5) 	c #25282A",
"6) 	c #282B2D",
"7) 	c #25262A",
"8) 	c #282B2B",
"9) 	c #272D2E",
"0) 	c #1F2322",
"a) 	c #232522",
"b) 	c #1D2322",
"c) 	c #28282C",
"d) 	c #2A2A2B",
"e) 	c #2B2B2B",
"f) 	c #2A2A2C",
"g) 	c #363636",
"h) 	c #171916",
"i) 	c #2B2A2D",
"j) 	c #1E2023",
"k) 	c #1E2123",
"l) 	c #1D1F23",
"m) 	c #292B2A",
"n) 	c #252A2B",
"o) 	c #252523",
"p) 	c #1E1E1F",
"q) 	c #222626",
"r) 	c #29292B",
"s) 	c #25292A",
"t) 	c #212527",
"u) 	c #232227",
"v) 	c #1D1F21",
"w) 	c #202321",
"x) 	c #232829",
"y) 	c #0E0F0B",
"z) 	c #353937",
"A) 	c #232125",
"B) 	c #28272B",
"C) 	c #24272A",
"D) 	c #2C292A",
"E) 	c #2B2E2F",
"F) 	c #212627",
"G) 	c #232828",
"H) 	c #2B302F",
"I) 	c #68696B",
"J) 	c #141312",
"K) 	c #1B1B1A",
"L) 	c #070603",
"M) 	c #1F211F",
"N) 	c #191B17",
"O) 	c #15110E",
"P) 	c #272626",
"Q) 	c #1B1F20",
"R) 	c #080506",
"S) 	c #1D1F1D",
"T) 	c #727577",
"U) 	c #282C2B",
"V) 	c #242328",
"W) 	c #1C2020",
"X) 	c #262A28",
"Y) 	c #242325",
"Z) 	c #313030",
"`) 	c #141410",
" ! 	c #181918",
".! 	c #131411",
"+! 	c #333435",
"@! 	c #242924",
"#! 	c #202025",
"$! 	c #272527",
"%! 	c #1A1C1D",
"&! 	c #27272B",
"*! 	c #201E20",
"=! 	c #1C1E20",
"-! 	c #282827",
";! 	c #27252A",
">! 	c #26272B",
",! 	c #242529",
"'! 	c #29292D",
")! 	c #201F1F",
"!! 	c #070604",
"~! 	c #1C1C1B",
"{! 	c #1B1D1C",
"]! 	c #292D2D",
"^! 	c #202427",
"/! 	c #282629",
"(! 	c #1D1F1E",
"_! 	c #292B2E",
":! 	c #24242A",
"<! 	c #2E2F2F",
"[! 	c #68696D",
"}! 	c #292A2D",
"|! 	c #191A16",
"1! 	c #161310",
"2! 	c #1A1815",
"3! 	c #191A1C",
"4! 	c #211F21",
"5! 	c #040504",
"6! 	c #1D1C1D",
"7! 	c #0F1012",
"8! 	c #696D6A",
"9! 	c #222523",
"0! 	c #222528",
"a! 	c #1F2320",
"b! 	c #212727",
"c! 	c #2C2F2D",
"d! 	c #181917",
"e! 	c #313233",
"f! 	c #1E2024",
"g! 	c #202226",
"h! 	c #26252A",
"i! 	c #292A2C",
"j! 	c #222328",
"k! 	c #27262A",
"l! 	c #222422",
"m! 	c #232728",
"n! 	c #202527",
"o! 	c #1F2426",
"p! 	c #25272B",
"q! 	c #27282C",
"r! 	c #1F1E23",
"s! 	c #060504",
"t! 	c #19191A",
"u! 	c #1C1B1B",
"v! 	c #1E2422",
"w! 	c #212025",
"x! 	c #212625",
"y! 	c #252A29",
"z! 	c #6B6B6E",
"A! 	c #141311",
"B! 	c #2D2F34",
"C! 	c #1A1A18",
"D! 	c #19120F",
"E! 	c #1D1A15",
"F! 	c #1F2024",
"G! 	c #2D2E2D",
"H! 	c #040302",
"I! 	c #6B6E6F",
"J! 	c #1C2021",
"K! 	c #303232",
"L! 	c #13110F",
"M! 	c #131211",
"N! 	c #373838",
"O! 	c #2B2E2E",
"P! 	c #2C2D2E",
"Q! 	c #2D2E2F",
"R! 	c #292B2D",
"S! 	c #2D2F2F",
"T! 	c #2B2B2E",
"U! 	c #2C2F2F",
"V! 	c #313032",
"W! 	c #2C2E2F",
"X! 	c #292C2B",
"Y! 	c #2F3032",
"Z! 	c #2F2F32",
"`! 	c #2D2B2C",
" ~ 	c #2C2D2D",
".~ 	c #2E2F30",
"+~ 	c #2F3130",
"@~ 	c #2A2D2D",
"#~ 	c #2A292D",
"$~ 	c #292E2B",
"%~ 	c #313434",
"&~ 	c #2D2D2D",
"*~ 	c #2A2A2A",
"=~ 	c #2E2E30",
"-~ 	c #2D3031",
";~ 	c #303132",
">~ 	c #2E2E31",
",~ 	c #2B2B2C",
"'~ 	c #2A2A2D",
")~ 	c #2F3030",
"!~ 	c #2C2F2E",
"~~ 	c #2D2C2F",
"{~ 	c #303335",
"]~ 	c #343434",
"^~ 	c #2C2E30",
"/~ 	c #2E3031",
"(~ 	c #2A2C2F",
"_~ 	c #313131",
":~ 	c #303234",
"<~ 	c #2D2E30",
"[~ 	c #2F3133",
"}~ 	c #2B2E31",
"|~ 	c #313431",
"1~ 	c #2D2E2E",
"2~ 	c #2E3131",
"3~ 	c #292929",
"4~ 	c #2E3030",
"5~ 	c #2B2C2F",
"6~ 	c #2F3033",
"7~ 	c #2A2E2D",
"8~ 	c #2E2F32",
"9~ 	c #2E3231",
"0~ 	c #2B2F31",
"a~ 	c #2B2D2E",
"b~ 	c #303130",
"c~ 	c #2D2D2F",
"d~ 	c #313235",
"e~ 	c #2E2D2F",
"f~ 	c #323335",
"g~ 	c #2A2E31",
"h~ 	c #2A2B2F",
"i~ 	c #323032",
"j~ 	c #303033",
"k~ 	c #2D2B2E",
"l~ 	c #2C2B2D",
"m~ 	c #2E3032",
"n~ 	c #2A2E2E",
"o~ 	c #2D2D30",
"p~ 	c #2B2F2D",
"q~ 	c #2A2C2E",
"r~ 	c #2B2C2C",
"s~ 	c #2C2B2C",
"t~ 	c #323135",
"u~ 	c #2C2F31",
"v~ 	c #2D302F",
"w~ 	c #2A2F2F",
"x~ 	c #2D3033",
"y~ 	c #2F2E32",
"z~ 	c #2C2C2F",
"A~ 	c #282B2E",
"B~ 	c #2F2D2F",
"C~ 	c #2E2D2E",
"D~ 	c #2D302E",
"E~ 	c #2C2D2F",
"F~ 	c #2E2C2F",
"G~ 	c #2D2F31",
"H~ 	c #282C2E",
"I~ 	c #2B2E2B",
"J~ 	c #2B2F2F",
"K~ 	c #2F3233",
"L~ 	c #2D3030",
"M~ 	c #2A2C30",
"N~ 	c #292D2C",
"O~ 	c #2D2D2E",
"P~ 	c #303131",
"Q~ 	c #2E3132",
"R~ 	c #2B2C2A",
"S~ 	c #2D2E31",
"T~ 	c #303230",
"U~ 	c #292C2E",
"V~ 	c #2A2D30",
"W~ 	c #2B2D2F",
"X~ 	c #2D3032",
"Y~ 	c #2A2D2F",
"Z~ 	c #292B2F",
"`~ 	c #282C2C",
" { 	c #2C2E2C",
".{ 	c #2C2C2C",
"+{ 	c #2A2E2C",
"@{ 	c #373938",
"#{ 	c #040502",
"${ 	c #171817",
"%{ 	c #1A1A19",
"&{ 	c #131010",
"*{ 	c #1E2323",
"={ 	c #212528",
"-{ 	c #1F2124",
";{ 	c #222428",
">{ 	c #6C6F74",
",{ 	c #2E3233",
"'{ 	c #20211F",
"){ 	c #1E1C1F",
"!{ 	c #16120E",
"~{ 	c #1D1A17",
"{{ 	c #1C1C1D",
"]{ 	c #020302",
"^{ 	c #0F1113",
"/{ 	c #676868",
"({ 	c #1F2025",
"_{ 	c #262427",
":{ 	c #2E312F",
"<{ 	c #1B1A17",
"[{ 	c #201F20",
"}{ 	c #262825",
"|{ 	c #1A1C1B",
"1{ 	c #262423",
"2{ 	c #242322",
"3{ 	c #252524",
"4{ 	c #282826",
"5{ 	c #242522",
"6{ 	c #2B2A2B",
"7{ 	c #232322",
"8{ 	c #292928",
"9{ 	c #201F1D",
"0{ 	c #161714",
"a{ 	c #020200",
"b{ 	c #030200",
"c{ 	c #020100",
"d{ 	c #020001",
"e{ 	c #030301",
"f{ 	c #030100",
"g{ 	c #010101",
"h{ 	c #010102",
"i{ 	c #040102",
"j{ 	c #030400",
"k{ 	c #000200",
"l{ 	c #040100",
"m{ 	c #000102",
"n{ 	c #030101",
"o{ 	c #030001",
"p{ 	c #020300",
"q{ 	c #030000",
"r{ 	c #070809",
"s{ 	c #121210",
"t{ 	c #11110C",
"u{ 	c #2B2B28",
"v{ 	c #2B2B29",
"w{ 	c #1B1D1B",
"x{ 	c #1C1B1A",
"y{ 	c #1C1E1C",
"z{ 	c #1B1F1D",
"A{ 	c #1F211E",
"B{ 	c #1B1B1C",
"C{ 	c #1D1D1E",
"D{ 	c #1D1B1D",
"E{ 	c #1D1C1B",
"F{ 	c #252323",
"G{ 	c #22201F",
"H{ 	c #282925",
"I{ 	c #191B1C",
"J{ 	c #626466",
"K{ 	c #171516",
"L{ 	c #150F0D",
"M{ 	c #1E1A17",
"N{ 	c #222023",
"O{ 	c #2C2A2A",
"P{ 	c #040303",
"Q{ 	c #212320",
"R{ 	c #747473",
"S{ 	c #1B2022",
"T{ 	c #060907",
"U{ 	c #090909",
"V{ 	c #090809",
"W{ 	c #110E0E",
"X{ 	c #0E0D0B",
"Y{ 	c #0D0D0A",
"Z{ 	c #0F0F0D",
"`{ 	c #0F0C0D",
" ] 	c #100D0B",
".] 	c #0B0D0C",
"+] 	c #0D0B0C",
"@] 	c #11100D",
"#] 	c #0E0C0B",
"$] 	c #0A0D08",
"%] 	c #0F110E",
"&] 	c #0F0F0C",
"*] 	c #0F110D",
"=] 	c #0E0E0B",
"-] 	c #0D0F0C",
";] 	c #12100F",
">] 	c #0B0B09",
",] 	c #0D0B0A",
"'] 	c #090B07",
")] 	c #100F0D",
"!] 	c #0B0B0A",
"~] 	c #10120F",
"{] 	c #0E0D0A",
"]] 	c #0C0F0B",
"^] 	c #0F100A",
"/] 	c #0C0B0A",
"(] 	c #0C0A09",
"_] 	c #12140F",
":] 	c #11120D",
"<] 	c #141210",
"[] 	c #181716",
"}] 	c #131210",
"|] 	c #18191A",
"1] 	c #1A1B19",
"2] 	c #1B1A1C",
"3] 	c #1A1B1D",
"4] 	c #181C1A",
"5] 	c #1C1D1E",
"6] 	c #1A1E1C",
"7] 	c #191C1A",
"8] 	c #1E1D1F",
"9] 	c #211F1E",
"0] 	c #21211F",
"a] 	c #1E1E1E",
"b] 	c #1D1C1E",
"c] 	c #1A181B",
"d] 	c #201F1E",
"e] 	c #201E1E",
"f] 	c #1E1C1E",
"g] 	c #191B1B",
"h] 	c #191919",
"i] 	c #1B191C",
"j] 	c #1D1E1D",
"k] 	c #1B1D19",
"l] 	c #1C1B1C",
"m] 	c #181B1B",
"n] 	c #1A1D1E",
"o] 	c #1D1C1C",
"p] 	c #191C1C",
"q] 	c #1B191B",
"r] 	c #211E1E",
"s] 	c #191E1A",
"t] 	c #1B1E1E",
"u] 	c #1F1F1C",
"v] 	c #1F201C",
"w] 	c #191D1B",
"x] 	c #1F201D",
"y] 	c #1B1C1C",
"z] 	c #1D1F1C",
"A] 	c #1E1B1C",
"B] 	c #1A1B1C",
"C] 	c #1D1B1C",
"D] 	c #201D20",
"E] 	c #1F1D20",
"F] 	c #1D1D1B",
"G] 	c #191B18",
"H] 	c #1D1A1D",
"I] 	c #1E1D1C",
"J] 	c #1E1E1D",
"K] 	c #1F1B1C",
"L] 	c #1C1A1B",
"M] 	c #1C1F1C",
"N] 	c #1F1E1D",
"O] 	c #1F1D1D",
"P] 	c #1E1C1C",
"Q] 	c #20211D",
"R] 	c #201D1D",
"S] 	c #222021",
"T] 	c #1D1D1C",
"U] 	c #1B1C1F",
"V] 	c #1D1E1C",
"W] 	c #1D1B1A",
"X] 	c #221F20",
"Y] 	c #232221",
"Z] 	c #21201F",
"`] 	c #201D1F",
" ^ 	c #1D1E1B",
".^ 	c #161614",
"+^ 	c #141112",
"@^ 	c #1A1D1B",
"#^ 	c #161414",
"$^ 	c #141514",
"%^ 	c #141613",
"&^ 	c #161813",
"*^ 	c #151513",
"=^ 	c #12110F",
"-^ 	c #141511",
";^ 	c #151612",
">^ 	c #131412",
",^ 	c #110F10",
"'^ 	c #121111",
")^ 	c #100F0E",
"!^ 	c #11120F",
"~^ 	c #121110",
"{^ 	c #0F0E0E",
"]^ 	c #131511",
"^^ 	c #141413",
"/^ 	c #131311",
"(^ 	c #161314",
"_^ 	c #11120E",
":^ 	c #110F0E",
"<^ 	c #0C0D0A",
"[^ 	c #12120E",
"}^ 	c #0E0C0C",
"|^ 	c #0D0A0A",
"1^ 	c #0B0809",
"2^ 	c #0D0B0B",
"3^ 	c #090A08",
"4^ 	c #090907",
"5^ 	c #090807",
"6^ 	c #040405",
"7^ 	c #060604",
"8^ 	c #060706",
"9^ 	c #252927",
"0^ 	c #282B2C",
"a^ 	c #5D5F62",
"b^ 	c #151514",
"c^ 	c #020201",
"d^ 	c #191A19",
"e^ 	c #14120C",
"f^ 	c #1B1815",
"g^ 	c #737777",
"h^ 	c #131615",
"i^ 	c #26282B",
"j^ 	c #222421",
"k^ 	c #191B1D",
"l^ 	c #171B1D",
"m^ 	c #1C1E1F",
"n^ 	c #181C1E",
"o^ 	c #16171A",
"p^ 	c #191D1D",
"q^ 	c #1B1C1E",
"r^ 	c #1A1C20",
"s^ 	c #1C1F22",
"t^ 	c #1D1B1E",
"u^ 	c #0E0E09",
"v^ 	c #1C1B1E",
"w^ 	c #1A1A1B",
"x^ 	c #1B1C1D",
"y^ 	c #1A1D1A",
"z^ 	c #1C1B1F",
"A^ 	c #1D1D21",
"B^ 	c #181D1B",
"C^ 	c #171A1B",
"D^ 	c #1B1E1F",
"E^ 	c #1C1A1D",
"F^ 	c #1B1E20",
"G^ 	c #1D1B20",
"H^ 	c #1C1F1B",
"I^ 	c #1E1B1D",
"J^ 	c #1B1D1F",
"K^ 	c #1A191C",
"L^ 	c #161718",
"M^ 	c #1B1A19",
"N^ 	c #171918",
"O^ 	c #1B181B",
"P^ 	c #1A1A1C",
"Q^ 	c #19191C",
"R^ 	c #18171A",
"S^ 	c #1C1D1F",
"T^ 	c #1C1E1B",
"U^ 	c #191A1B",
"V^ 	c #1C1B19",
"W^ 	c #18181A",
"X^ 	c #1A181A",
"Y^ 	c #191C1D",
"Z^ 	c #181818",
"`^ 	c #181B1A",
" / 	c #18191C",
"./ 	c #1B1B1D",
"+/ 	c #1C1A1A",
"@/ 	c #181819",
"#/ 	c #1A191B",
"$/ 	c #191618",
"%/ 	c #181A18",
"&/ 	c #17191A",
"*/ 	c #161916",
"=/ 	c #1F1C1D",
"-/ 	c #161918",
";/ 	c #16191A",
">/ 	c #191819",
",/ 	c #181616",
"'/ 	c #1C1D21",
")/ 	c #141714",
"!/ 	c #181618",
"~/ 	c #19171A",
"{/ 	c #1B1719",
"]/ 	c #161819",
"^/ 	c #191718",
"// 	c #1A1C19",
"(/ 	c #16161A",
"_/ 	c #181718",
":/ 	c #121616",
"</ 	c #131616",
"[/ 	c #151517",
"}/ 	c #17171A",
"|/ 	c #171517",
"1/ 	c #181A19",
"2/ 	c #141416",
"3/ 	c #131417",
"4/ 	c #171719",
"5/ 	c #16171B",
"6/ 	c #181717",
"7/ 	c #141515",
"8/ 	c #17181A",
"9/ 	c #17161A",
"0/ 	c #151715",
"a/ 	c #151917",
"b/ 	c #191A1E",
"c/ 	c #19181C",
"d/ 	c #121415",
"e/ 	c #191617",
"f/ 	c #19181A",
"g/ 	c #171917",
"h/ 	c #161917",
"i/ 	c #131715",
"j/ 	c #161313",
"k/ 	c #151817",
"l/ 	c #1A1918",
"m/ 	c #1B1B1E",
"n/ 	c #1D2223",
"o/ 	c #1C2220",
"p/ 	c #1B1C20",
"q/ 	c #1E211F",
"r/ 	c #1C1D22",
"s/ 	c #1C2123",
"t/ 	c #1F2324",
"u/ 	c #282B2F",
"v/ 	c #242929",
"w/ 	c #4B4D50",
"x/ 	c #030302",
"y/ 	c #2D2C32",
"z/ 	c #16130E",
"A/ 	c #1C1A16",
"B/ 	c #080706",
"C/ 	c #0F0E10",
"D/ 	c #737675",
"E/ 	c #272426",
"F/ 	c #474849",
"G/ 	c #070705",
"H/ 	c #060806",
"I/ 	c #0C0E0D",
"J/ 	c #080908",
"K/ 	c #0C0B0E",
"L/ 	c #060909",
"M/ 	c #080A0D",
"N/ 	c #0A0A09",
"O/ 	c #0A0B0D",
"P/ 	c #070B0B",
"Q/ 	c #09090C",
"R/ 	c #0C0E0F",
"S/ 	c #0A0D0E",
"T/ 	c #090B0B",
"U/ 	c #09080B",
"V/ 	c #090B0C",
"W/ 	c #0C0F11",
"X/ 	c #060709",
"Y/ 	c #101013",
"Z/ 	c #090A0D",
"`/ 	c #0B0A0D",
" ( 	c #090A0C",
".( 	c #131416",
"+( 	c #0B0D0D",
"@( 	c #1A1C18",
"#( 	c #424141",
"$( 	c #949595",
"%( 	c #818385",
"&( 	c #7B7C7E",
"*( 	c #7A7B7C",
"=( 	c #7F8082",
"-( 	c #808081",
";( 	c #747678",
">( 	c #787A7D",
",( 	c #787C7F",
"'( 	c #75767B",
")( 	c #707375",
"!( 	c #6C6C70",
"~( 	c #757877",
"{( 	c #737676",
"]( 	c #79777B",
"^( 	c #757B7B",
"/( 	c #77787B",
"(( 	c #7B7C7D",
"_( 	c #747377",
":( 	c #797C7D",
"<( 	c #696A6B",
"[( 	c #6E6F72",
"}( 	c #6F7271",
"|( 	c #6F7074",
"1( 	c #656869",
"2( 	c #747778",
"3( 	c #727575",
"4( 	c #6A6D6F",
"5( 	c #696D6D",
"6( 	c #696D6E",
"7( 	c #696C6D",
"8( 	c #757578",
"9( 	c #737877",
"0( 	c #747577",
"a( 	c #7A7A7C",
"b( 	c #838486",
"c( 	c #747679",
"d( 	c #6F7170",
"e( 	c #6F7174",
"f( 	c #717577",
"g( 	c #767A7B",
"h( 	c #6F7172",
"i( 	c #727377",
"j( 	c #7C7E7E",
"k( 	c #77787A",
"l( 	c #707474",
"m( 	c #767677",
"n( 	c #717376",
"o( 	c #737276",
"p( 	c #757475",
"q( 	c #7D7D7D",
"r( 	c #7F8382",
"s( 	c #7B7B80",
"t( 	c #6E7171",
"u( 	c #7D7C81",
"v( 	c #737275",
"w( 	c #6F7171",
"x( 	c #757375",
"y( 	c #717375",
"z( 	c #696C6F",
"A( 	c #77777A",
"B( 	c #727174",
"C( 	c #6A6A6C",
"D( 	c #797E80",
"E( 	c #838586",
"F( 	c #797B7E",
"G( 	c #7B7E7F",
"H( 	c #6C6D71",
"I( 	c #727676",
"J( 	c #57585A",
"K( 	c #717075",
"L( 	c #69696C",
"M( 	c #6E7072",
"N( 	c #808083",
"O( 	c #727073",
"P( 	c #727374",
"Q( 	c #797B7C",
"R( 	c #818787",
"S( 	c #707172",
"T( 	c #7B7F80",
"U( 	c #7E7E82",
"V( 	c #808382",
"W( 	c #76797B",
"X( 	c #777B7A",
"Y( 	c #777E7B",
"Z( 	c #7C7C7D",
"`( 	c #6D6F71",
" _ 	c #6D6E71",
"._ 	c #75787C",
"+_ 	c #85898A",
"@_ 	c #777B7B",
"#_ 	c #7A7C7E",
"$_ 	c #7F8183",
"%_ 	c #78797A",
"&_ 	c #6E7374",
"*_ 	c #818488",
"=_ 	c #7C7E83",
"-_ 	c #7B7D7E",
";_ 	c #7C7D7E",
">_ 	c #747477",
",_ 	c #6A6C6C",
"'_ 	c #707174",
")_ 	c #808286",
"!_ 	c #717374",
"~_ 	c #797A7B",
"{_ 	c #797D7D",
"]_ 	c #868688",
"^_ 	c #7A7A7D",
"/_ 	c #787977",
"(_ 	c #7B7D7B",
"__ 	c #797C7F",
":_ 	c #7A7D7E",
"<_ 	c #7E8181",
"[_ 	c #777A7A",
"}_ 	c #747977",
"|_ 	c #87898B",
"1_ 	c #8A8D8D",
"2_ 	c #878786",
"3_ 	c #878B8C",
"4_ 	c #868B8A",
"5_ 	c #828286",
"6_ 	c #8D9093",
"7_ 	c #7E7F80",
"8_ 	c #808181",
"9_ 	c #808383",
"0_ 	c #838485",
"a_ 	c #797A7D",
"b_ 	c #818384",
"c_ 	c #808282",
"d_ 	c #888B8B",
"e_ 	c #86878B",
"f_ 	c #85888A",
"g_ 	c #7A7C7D",
"h_ 	c #7F8282",
"i_ 	c #7A7D7F",
"j_ 	c #797C7C",
"k_ 	c #7D7E83",
"l_ 	c #727272",
"m_ 	c #7C7F80",
"n_ 	c #86898B",
"o_ 	c #898B8B",
"p_ 	c #7E8080",
"q_ 	c #878988",
"r_ 	c #7C7C7E",
"s_ 	c #7D7C7F",
"t_ 	c #808385",
"u_ 	c #757879",
"v_ 	c #828283",
"w_ 	c #858988",
"x_ 	c #828585",
"y_ 	c #797D7E",
"z_ 	c #818082",
"A_ 	c #7D7E7F",
"B_ 	c #7E8382",
"C_ 	c #767A78",
"D_ 	c #838484",
"E_ 	c #868B8B",
"F_ 	c #838387",
"G_ 	c #8B8D8D",
"H_ 	c #828486",
"I_ 	c #858889",
"J_ 	c #9C9FA2",
"K_ 	c #979A9B",
"L_ 	c #858A8E",
"M_ 	c #838687",
"N_ 	c #86868B",
"O_ 	c #868989",
"P_ 	c #888A8D",
"Q_ 	c #7E8180",
"R_ 	c #787879",
"S_ 	c #84868A",
"T_ 	c #818584",
"U_ 	c #848689",
"V_ 	c #828184",
"W_ 	c #7D8081",
"X_ 	c #7E8183",
"Y_ 	c #94969B",
"Z_ 	c #58595A",
"`_ 	c #797C7E",
" : 	c #828488",
".: 	c #838488",
"+: 	c #88898B",
"@: 	c #7F8280",
"#: 	c #7E8083",
"$: 	c #7B7E80",
"%: 	c #919396",
"&: 	c #89898B",
"*: 	c #8D8C8F",
"=: 	c #898D8E",
"-: 	c #888788",
";: 	c #808482",
">: 	c #868789",
",: 	c #818081",
"': 	c #818184",
"): 	c #8C9093",
"!: 	c #909395",
"~: 	c #8F9193",
"{: 	c #7E7F83",
"]: 	c #7B7F82",
"^: 	c #7F8182",
"/: 	c #808084",
"(: 	c #65696B",
"_: 	c #737473",
":: 	c #77787E",
"<: 	c #83868A",
"[: 	c #7E8282",
"}: 	c #7D7F83",
"|: 	c #858687",
"1: 	c #6A6C6F",
"2: 	c #7B7E81",
"3: 	c #797A7C",
"4: 	c #7E7F81",
"5: 	c #838388",
"6: 	c #7C7D80",
"7: 	c #7F7F81",
"8: 	c #848789",
"9: 	c #727477",
"0: 	c #808182",
"a: 	c #9A9B9B",
"b: 	c #3C3D3E",
"c: 	c #2D3130",
"d: 	c #141717",
"e: 	c #100F13",
"f: 	c #0F1212",
"g: 	c #111014",
"h: 	c #0D0E11",
"i: 	c #0F1211",
"j: 	c #08090A",
"k: 	c #0C0F10",
"l: 	c #09090B",
"m: 	c #090C0E",
"n: 	c #060707",
"o: 	c #050505",
"p: 	c #09070A",
"q: 	c #060505",
"r: 	c #08080B",
"s: 	c #050506",
"t: 	c #050605",
"u: 	c #080709",
"v: 	c #060606",
"w: 	c #030406",
"x: 	c #070707",
"y: 	c #070607",
"z: 	c #040304",
"A: 	c #272A2E",
"B: 	c #0E0D09",
"C: 	c #080806",
"D: 	c #2C2E32",
"E: 	c #232928",
"F: 	c #585A5E",
"G: 	c #161814",
"H: 	c #050603",
"I: 	c #2C3032",
"J: 	c #17100F",
"K: 	c #1D1B16",
"L: 	c #2F2D30",
"M: 	c #050503",
"N: 	c #777979",
"O: 	c #2F3132",
"P: 	c #171714",
"Q: 	c #050403",
"R: 	c #0C0E0A",
"S: 	c #0E0B0E",
"T: 	c #0E0F0A",
"U: 	c #0F0F0B",
"V: 	c #0B0B06",
"W: 	c #070704",
"X: 	c #302F33",
"Y: 	c #272A2D",
"Z: 	c #2A292A",
"`: 	c #17181B",
" < 	c #181A1C",
".< 	c #171A1D",
"+< 	c #07090B",
"@< 	c #535455",
"#< 	c #151714",
"$< 	c #161817",
"%< 	c #171A18",
"&< 	c #17151A",
"*< 	c #161A19",
"=< 	c #171819",
"-< 	c #131517",
";< 	c #141518",
">< 	c #1D1C20",
",< 	c #141718",
"'< 	c #141618",
")< 	c #161619",
"!< 	c #171818",
"~< 	c #1A1B1A",
"{< 	c #181C1F",
"]< 	c #141617",
"^< 	c #1A1B1F",
"/< 	c #161A1B",
"(< 	c #151716",
"_< 	c #1E1C1D",
":< 	c #161919",
"<< 	c #1D1C1F",
"[< 	c #161418",
"}< 	c #19191E",
"|< 	c #1B1C1B",
"1< 	c #191D1C",
"2< 	c #1A1E1D",
"3< 	c #1E221F",
"4< 	c #201E1F",
"5< 	c #252223",
"6< 	c #1D2023",
"7< 	c #211E21",
"8< 	c #1C1A1C",
"9< 	c #1A1E1F",
"0< 	c #181719",
"a< 	c #191F20",
"b< 	c #1F1C21",
"c< 	c #1C1C1F",
"d< 	c #1B1F1F",
"e< 	c #343336",
"f< 	c #272926",
"g< 	c #1F1E22",
"h< 	c #1C1E22",
"i< 	c #303135",
"j< 	c #202625",
"k< 	c #2F2F33",
"l< 	c #2F3031",
"m< 	c #333537",
"n< 	c #353737",
"o< 	c #3A3B3E",
"p< 	c #3A3C3D",
"q< 	c #3B3B3C",
"r< 	c #3C3F41",
"s< 	c #393A3C",
"t< 	c #37383A",
"u< 	c #3C3C3F",
"v< 	c #353839",
"w< 	c #353539",
"x< 	c #363638",
"y< 	c #3C3F40",
"z< 	c #3B3B3A",
"A< 	c #353638",
"B< 	c #3B3D3E",
"C< 	c #454747",
"D< 	c #484A4B",
"E< 	c #494C4C",
"F< 	c #46494A",
"G< 	c #4E5053",
"H< 	c #4C4E51",
"I< 	c #2C3031",
"J< 	c #020400",
"K< 	c #0A0905",
"L< 	c #131110",
"M< 	c #10110C",
"N< 	c #030300",
"O< 	c #010300",
"P< 	c #25282B",
"Q< 	c #5A5E5F",
"R< 	c #171415",
"S< 	c #040200",
"T< 	c #19120D",
"U< 	c #2E2C2E",
"V< 	c #18191E",
"W< 	c #0F0D0A",
"X< 	c #131410",
"Y< 	c #030201",
"Z< 	c #060708",
"`< 	c #070302",
" [ 	c #272B2A",
".[ 	c #303030",
"+[ 	c #1D1F22",
"@[ 	c #1A1D1F",
"#[ 	c #262826",
"$[ 	c #252A28",
"%[ 	c #1E2124",
"&[ 	c #282C2D",
"*[ 	c #232127",
"=[ 	c #282529",
"-[ 	c #1F1D21",
";[ 	c #27292C",
">[ 	c #161613",
",[ 	c #141314",
"'[ 	c #10110F",
")[ 	c #100E0A",
"![ 	c #535558",
"~[ 	c #030303",
"{[ 	c #080704",
"][ 	c #6D6E72",
"^[ 	c #242724",
"/[ 	c #181715",
"([ 	c #060701",
"_[ 	c #151313",
":[ 	c #0B0A0A",
"<[ 	c #2E2E2E",
"[[ 	c #171C1B",
"}[ 	c #3F3E3F",
"|[ 	c #12100E",
"1[ 	c #0F100D",
"2[ 	c #25292C",
"3[ 	c #1B1A1E",
"4[ 	c #212628",
"5[ 	c #1E2225",
"6[ 	c #232429",
"7[ 	c #232328",
"8[ 	c #202526",
"9[ 	c #1D2123",
"0[ 	c #2A292C",
"a[ 	c #1C1C20",
"b[ 	c #1F2226",
"c[ 	c #1B1F22",
"d[ 	c #1D1D22",
"e[ 	c #262A2C",
"f[ 	c #1F2126",
"g[ 	c #272B2C",
"h[ 	c #232529",
"i[ 	c #0E120F",
"j[ 	c #262926",
"k[ 	c #212624",
"l[ 	c #1E2224",
"m[ 	c #2E3034",
"n[ 	c #111411",
"o[ 	c #151613",
"p[ 	c #2E302B",
"q[ 	c #151816",
"r[ 	c #23262A",
"s[ 	c #282726",
"t[ 	c #17130F",
"u[ 	c #1E1B15",
"v[ 	c #100E10",
"w[ 	c #707373",
"x[ 	c #1E1D22",
"y[ 	c #0C0C0A",
"z[ 	c #353834",
"A[ 	c #131512",
"B[ 	c #141516",
"C[ 	c #191A18",
"D[ 	c #303432",
"E[ 	c #0F120F",
"F[ 	c #222826",
"G[ 	c #201F25",
"H[ 	c #1E1E23",
"I[ 	c #25292B",
"J[ 	c #1D2122",
"K[ 	c #121512",
"L[ 	c #2F312E",
"M[ 	c #222723",
"N[ 	c #28262B",
"O[ 	c #1D1E22",
"P[ 	c #292C2F",
"Q[ 	c #2A282D",
"R[ 	c #2C2E31",
"S[ 	c #222629",
"T[ 	c #27282D",
"U[ 	c #262425",
"V[ 	c #212428",
"W[ 	c #222429",
"X[ 	c #1E2426",
"Y[ 	c #2A282B",
"Z[ 	c #252A2A",
"`[ 	c #14130F",
" } 	c #2F3234",
".} 	c #1E1E22",
"+} 	c #1D2125",
"@} 	c #212826",
"#} 	c #222024",
"$} 	c #252429",
"%} 	c #090706",
"&} 	c #0B0E09",
"*} 	c #333234",
"=} 	c #161715",
"-} 	c #363536",
";} 	c #3E413F",
">} 	c #48454B",
",} 	c #181915",
"'} 	c #040605",
")} 	c #28292E",
"!} 	c #17120F",
"~} 	c #1C1B16",
"{} 	c #0E100F",
"]} 	c #222521",
"^} 	c #040707",
"/} 	c #151413",
"(} 	c #131310",
"_} 	c #1B1D1A",
":} 	c #242928",
"<} 	c #212522",
"[} 	c #2E3033",
"}} 	c #232120",
"|} 	c #21201E",
"1} 	c #22211D",
"2} 	c #191B1A",
"3} 	c #1E1B1A",
"4} 	c #1C1A19",
"5} 	c #1B1A18",
"6} 	c #1B1818",
"7} 	c #0B0A05",
"8} 	c #151512",
"9} 	c #050504",
"0} 	c #0B0806",
"a} 	c #070605",
"b} 	c #0B0908",
"c} 	c #0C0C09",
"d} 	c #0D0A09",
"e} 	c #0B0906",
"f} 	c #0D0A08",
"g} 	c #0A0A07",
"h} 	c #0B0A07",
"i} 	c #0E0B09",
"j} 	c #0F0E0A",
"k} 	c #0B0805",
"l} 	c #0C0A0B",
"m} 	c #080705",
"n} 	c #0A090B",
"o} 	c #090705",
"p} 	c #0D0C09",
"q} 	c #100C0A",
"r} 	c #0C0A07",
"s} 	c #0A0805",
"t} 	c #0D0A07",
"u} 	c #0B0907",
"v} 	c #0C0B09",
"w} 	c #0C0908",
"x} 	c #0D0909",
"y} 	c #0C0906",
"z} 	c #10100D",
"A} 	c #0C0A08",
"B} 	c #0A0806",
"C} 	c #0D0C08",
"D} 	c #0C0B08",
"E} 	c #0B0A08",
"F} 	c #0D0F0B",
"G} 	c #0C0907",
"H} 	c #0C0909",
"I} 	c #0B0909",
"J} 	c #0E090A",
"K} 	c #0C090A",
"L} 	c #0D0B09",
"M} 	c #0B0807",
"N} 	c #080805",
"O} 	c #090804",
"P} 	c #0C0905",
"Q} 	c #0A0705",
"R} 	c #090604",
"S} 	c #0A0906",
"T} 	c #090403",
"U} 	c #0B0707",
"V} 	c #0A0907",
"W} 	c #0C0B07",
"X} 	c #0C0807",
"Y} 	c #0C0808",
"Z} 	c #0D0908",
"`} 	c #0A0A06",
" | 	c #0F0B0B",
".| 	c #0D0B08",
"+| 	c #0D0D09",
"@| 	c #0D0907",
"#| 	c #0E0A07",
"$| 	c #0A0707",
"%| 	c #0D0806",
"&| 	c #0E0A09",
"*| 	c #0F0B0A",
"=| 	c #090606",
"-| 	c #080605",
";| 	c #080808",
">| 	c #0B0B07",
",| 	c #0E0C09",
"'| 	c #0A0807",
")| 	c #0E0B0A",
"!| 	c #0A0605",
"~| 	c #0F0C09",
"{| 	c #0F0C0C",
"]| 	c #100C0C",
"^| 	c #0B0A06",
"/| 	c #0B0605",
"(| 	c #0D090A",
"_| 	c #0A0706",
":| 	c #0A0A05",
"<| 	c #070905",
"[| 	c #080905",
"}| 	c #090905",
"|| 	c #090704",
"1| 	c #0F0E0B",
"2| 	c #100E0B",
"3| 	c #0A0A08",
"4| 	c #0A0808",
"5| 	c #090707",
"6| 	c #0C0A05",
"7| 	c #080606",
"8| 	c #0C0806",
"9| 	c #0C0809",
"0| 	c #080804",
"a| 	c #100B0A",
"b| 	c #0B0706",
"c| 	c #090805",
"d| 	c #080807",
"e| 	c #090904",
"f| 	c #050201",
"g| 	c #0C0706",
"h| 	c #070706",
"i| 	c #0B0808",
"j| 	c #0E0A08",
"k| 	c #070903",
"l| 	c #0B0C08",
"m| 	c #050100",
"n| 	c #1A1514",
"o| 	c #1D1E1A",
"p| 	c #1B1B19",
"q| 	c #20211E",
"r| 	c #232020",
"s| 	c #22211F",
"t| 	c #221E1E",
"u| 	c #1C1A18",
"v| 	c #201D1B",
"w| 	c #1D2221",
"x| 	c #060502",
"y| 	c #343433",
"z| 	c #070A06",
"A| 	c #323333",
"B| 	c #434444",
"C| 	c #050601",
"D| 	c #1D1C19",
"E| 	c #1C1913",
"F| 	c #1F1C19",
"G| 	c #5F6063",
"H| 	c #1B1F23",
"I| 	c #202421",
"J| 	c #070A09",
"K| 	c #070702",
"L| 	c #040000",
"M| 	c #090402",
"N| 	c #060201",
"O| 	c #080502",
"P| 	c #070201",
"Q| 	c #080300",
"R| 	c #050000",
"S| 	c #060202",
"T| 	c #080401",
"U| 	c #080402",
"V| 	c #070401",
"W| 	c #0A0505",
"X| 	c #080400",
"Y| 	c #0B0603",
"Z| 	c #080603",
"`| 	c #090501",
" 1 	c #060301",
".1 	c #090401",
"+1 	c #070301",
"@1 	c #050400",
"#1 	c #090503",
"$1 	c #0D0C07",
"%1 	c #060503",
"&1 	c #0B0703",
"*1 	c #090703",
"=1 	c #0B0604",
"-1 	c #0A0803",
";1 	c #0A0502",
">1 	c #0A0602",
",1 	c #0A0703",
"'1 	c #0D0503",
")1 	c #0A0603",
"!1 	c #0B0702",
"~1 	c #0B0803",
"{1 	c #0A0702",
"]1 	c #0A0802",
"^1 	c #0C0605",
"/1 	c #0B0704",
"(1 	c #0C0704",
"_1 	c #0C0403",
":1 	c #0B0505",
"<1 	c #0C0804",
"[1 	c #0C0603",
"}1 	c #0C0705",
"|1 	c #0B0602",
"11 	c #0E0604",
"21 	c #0C0502",
"31 	c #0C0702",
"41 	c #0C0703",
"51 	c #0E0803",
"61 	c #0F0804",
"71 	c #0C0604",
"81 	c #0D0704",
"91 	c #0F0604",
"01 	c #0D0703",
"a1 	c #0D0604",
"b1 	c #0C0805",
"c1 	c #0D0803",
"d1 	c #0A0704",
"e1 	c #0D0904",
"f1 	c #0C0803",
"g1 	c #0B0701",
"h1 	c #0A0801",
"i1 	c #0D0702",
"j1 	c #0C0503",
"k1 	c #0E0702",
"l1 	c #0E0603",
"m1 	c #100706",
"n1 	c #0D0504",
"o1 	c #0D0603",
"p1 	c #0E0705",
"q1 	c #0D0805",
"r1 	c #0E0704",
"s1 	c #0E0706",
"t1 	c #0E0602",
"u1 	c #0D0804",
"v1 	c #0B0503",
"w1 	c #0B0606",
"x1 	c #0B0504",
"y1 	c #0E0605",
"z1 	c #0D0701",
"A1 	c #0A0504",
"B1 	c #0D0501",
"C1 	c #0D0302",
"D1 	c #0A0500",
"E1 	c #0B0902",
"F1 	c #0C0401",
"G1 	c #0C0303",
"H1 	c #0D0602",
"I1 	c #0E0905",
"J1 	c #100A04",
"K1 	c #0E0703",
"L1 	c #0F0805",
"M1 	c #0C0802",
"N1 	c #100705",
"O1 	c #0F0702",
"P1 	c #0F0704",
"Q1 	c #0F0904",
"R1 	c #0E0701",
"S1 	c #0E0601",
"T1 	c #0E0504",
"U1 	c #0D0605",
"V1 	c #0F0602",
"W1 	c #0A0701",
"X1 	c #0B0601",
"Y1 	c #0D0505",
"Z1 	c #0C0602",
"`1 	c #0C0701",
" 2 	c #0D0601",
".2 	c #0D0705",
"+2 	c #0C0600",
"@2 	c #0B0403",
"#2 	c #0B0705",
"$2 	c #0B0501",
"%2 	c #0C0504",
"&2 	c #0C0501",
"*2 	c #0B0502",
"=2 	c #0C0606",
"-2 	c #0E0502",
";2 	c #0E0802",
">2 	c #0E0805",
",2 	c #0E0903",
"'2 	c #0A0600",
")2 	c #0D0903",
"!2 	c #0A0402",
"~2 	c #0B0804",
"{2 	c #0B0402",
"]2 	c #0C0601",
"^2 	c #0D0802",
"/2 	c #0B0802",
"(2 	c #090601",
"_2 	c #090802",
":2 	c #080802",
"<2 	c #0E0A0A",
"[2 	c #0F0C08",
"}2 	c #080503",
"|2 	c #090702",
"12 	c #070400",
"22 	c #080101",
"32 	c #060200",
"42 	c #090400",
"52 	c #080301",
"62 	c #070101",
"72 	c #0A0301",
"82 	c #090301",
"92 	c #050101",
"02 	c #060300",
"a2 	c #060000",
"b2 	c #070504",
"c2 	c #232321",
"d2 	c #1E2324",
"e2 	c #1A1D1D",
"f2 	c #151713",
"g2 	c #060605",
"h2 	c #1B1F1C",
"i2 	c #2D2D2C",
"j2 	c #353838",
"k2 	c #484A4D",
"l2 	c #18130F",
"m2 	c #232122",
"n2 	c #0C0F0C",
"o2 	c #474747",
"p2 	c #141517",
"q2 	c #19181B",
"r2 	c #1C1C1A",
"s2 	c #323132",
"t2 	c #1C2022",
"u2 	c #2A292B",
"v2 	c #060102",
"w2 	c #0A0A02",
"x2 	c #0A0B07",
"y2 	c #090806",
"z2 	c #090A06",
"A2 	c #080604",
"B2 	c #080703",
"C2 	c #070502",
"D2 	c #050502",
"E2 	c #040201",
"F2 	c #040402",
"G2 	c #020301",
"H2 	c #050501",
"I2 	c #040500",
"J2 	c #050302",
"K2 	c #030501",
"L2 	c #050402",
"M2 	c #030503",
"N2 	c #030603",
"O2 	c #040401",
"P2 	c #030701",
"Q2 	c #060603",
"R2 	c #070701",
"S2 	c #050602",
"T2 	c #030502",
"U2 	c #030402",
"V2 	c #070803",
"W2 	c #060501",
"X2 	c #040404",
"Y2 	c #050404",
"Z2 	c #030403",
"`2 	c #040403",
" 3 	c #040601",
".3 	c #030500",
"+3 	c #040503",
"@3 	c #010401",
"#3 	c #040400",
"$3 	c #050303",
"%3 	c #040203",
"&3 	c #050202",
"*3 	c #060602",
"=3 	c #050803",
"-3 	c #070403",
";3 	c #060402",
">3 	c #040705",
",3 	c #050604",
"'3 	c #060705",
")3 	c #060304",
"!3 	c #050705",
"~3 	c #040604",
"{3 	c #070703",
"]3 	c #060805",
"^3 	c #060704",
"/3 	c #040301",
"(3 	c #060403",
"_3 	c #040602",
":3 	c #030504",
"<3 	c #030601",
"[3 	c #040703",
"}3 	c #050702",
"|3 	c #050703",
"13 	c #080903",
"23 	c #070805",
"33 	c #040805",
"43 	c #040501",
"53 	c #040603",
"63 	c #060400",
"73 	c #060401",
"83 	c #040505",
"93 	c #040804",
"03 	c #050707",
"a3 	c #070503",
"b3 	c #040702",
"c3 	c #040802",
"d3 	c #050704",
"e3 	c #060703",
"f3 	c #080405",
"g3 	c #110E0C",
"h3 	c #0D0B07",
"i3 	c #090A07",
"j3 	c #0B0905",
"k3 	c #090906",
"l3 	c #0A0804",
"m3 	c #1A1819",
"n3 	c #070507",
"o3 	c #151614",
"p3 	c #171411",
"q3 	c #1C1916",
"r3 	c #161815",
"s3 	c #4B4B4C",
"t3 	c #1A1917",
"u3 	c #21221F",
"v3 	c #1C1818",
"w3 	c #151515",
"x3 	c #080906",
"y3 	c #090C07",
"z3 	c #0B0903",
"A3 	c #080702",
"B3 	c #030202",
"C3 	c #050401",
"D3 	c #050301",
"E3 	c #060601",
"F3 	c #070602",
"G3 	c #070402",
"H3 	c #070501",
"I3 	c #060700",
"J3 	c #060302",
"K3 	c #080601",
"L3 	c #060500",
"M3 	c #080504",
"N3 	c #090502",
"O3 	c #070601",
"P3 	c #070500",
"Q3 	c #050500",
"R3 	c #050200",
"S3 	c #040300",
"T3 	c #060405",
"U3 	c #060600",
"V3 	c #080302",
"W3 	c #060303",
"X3 	c #070200",
"Y3 	c #070303",
"Z3 	c #080100",
"`3 	c #080501",
" 4 	c #080602",
".4 	c #080403",
"+4 	c #080203",
"@4 	c #0B0D09",
"#4 	c #090803",
"$4 	c #070908",
"%4 	c #2D2E2C",
"&4 	c #2F2F30",
"*4 	c #181713",
"=4 	c #181110",
"-4 	c #404142",
";4 	c #171619",
">4 	c #0C0F09",
",4 	c #2C2E2D",
"'4 	c #070606",
")4 	c #0D0E0A",
"!4 	c #070804",
"~4 	c #0A0B05",
"{4 	c #090B05",
"]4 	c #050802",
"^4 	c #050806",
"/4 	c #070906",
"(4 	c #070907",
"_4 	c #0A0C0A",
":4 	c #0A0B08",
"<4 	c #080B06",
"[4 	c #0A0C09",
"}4 	c #090B08",
"|4 	c #080A08",
"14 	c #080A07",
"24 	c #0A0C08",
"34 	c #080A06",
"44 	c #0C0B06",
"54 	c #0A0D09",
"64 	c #0B0A09",
"74 	c #090B06",
"84 	c #080907",
"94 	c #080B08",
"04 	c #070806",
"a4 	c #090B04",
"b4 	c #0D0C0A",
"c4 	c #0B0D07",
"d4 	c #090C09",
"e4 	c #0A0B06",
"f4 	c #080A04",
"g4 	c #0B0C07",
"h4 	c #090C06",
"i4 	c #090908",
"j4 	c #0C0C07",
"k4 	c #070A08",
"l4 	c #090C05",
"m4 	c #0A0C07",
"n4 	c #080C08",
"o4 	c #060905",
"p4 	c #070A05",
"q4 	c #080803",
"r4 	c #080C07",
"s4 	c #0C0C08",
"t4 	c #080B07",
"u4 	c #090903",
"v4 	c #100F0C",
"w4 	c #090A04",
"x4 	c #080A05",
"y4 	c #0B0C06",
"z4 	c #1F2325",
"A4 	c #2C2A2B",
"B4 	c #161A18",
"C4 	c #050606",
"D4 	c #343638",
"E4 	c #120F10",
"F4 	c #161211",
"G4 	c #1B1E1C",
"H4 	c #18120F",
"I4 	c #343536",
"J4 	c #36363A",
"K4 	c #161412",
"L4 	c #10130F",
"M4 	c #2F2E30",
"N4 	c #0A0D0C",
"O4 	c #373738",
"P4 	c #212227",
"Q4 	c #28292D",
"R4 	c #242523",
"S4 	c #070802",
"T4 	c #090A05",
"U4 	c #0C0E08",
"V4 	c #0E100C",
"W4 	c #020501",
"X4 	c #0D0F09",
"Y4 	c #0D0E0B",
"Z4 	c #0A0D0A",
"`4 	c #0C0A0A",
" 5 	c #0E0F0C",
".5 	c #0E0E0C",
"+5 	c #0F0D0B",
"@5 	c #0C0D0C",
"#5 	c #0F0C0A",
"$5 	c #0F0D0D",
"%5 	c #0E0E0A",
"&5 	c #0B0E0A",
"*5 	c #0E100D",
"=5 	c #0D100B",
"-5 	c #0E0B0C",
";5 	c #0B0D08",
">5 	c #0C0D09",
",5 	c #0B0E0C",
"'5 	c #0A0D0B",
")5 	c #0E0C0A",
"!5 	c #0C0F0D",
"~5 	c #100E0C",
"{5 	c #0D0E08",
"]5 	c #0B0D0A",
"^5 	c #0B0E0B",
"/5 	c #100F0B",
"(5 	c #10110E",
"_5 	c #10100C",
":5 	c #11100E",
"<5 	c #0B0904",
"[5 	c #161A17",
"}5 	c #171A1A",
"|5 	c #0E0908",
"15 	c #363938",
"25 	c #181614",
"35 	c #15110D",
"45 	c #1B1812",
"55 	c #323233",
"65 	c #323637",
"75 	c #040506",
"85 	c #505155",
"95 	c #0D0C0D",
"05 	c #151719",
"a5 	c #030304",
"b5 	c #303331",
"c5 	c #0C0707",
"d5 	c #090607",
"e5 	c #11100C",
"f5 	c #110F0D",
"g5 	c #0F100C",
"h5 	c #11130E",
"i5 	c #12130F",
"j5 	c #100E0D",
"k5 	c #120F0F",
"l5 	c #0E110C",
"m5 	c #0F0F10",
"n5 	c #0E110D",
"o5 	c #0D100C",
"p5 	c #10120C",
"q5 	c #10110D",
"r5 	c #110F0F",
"s5 	c #110E0B",
"t5 	c #12100D",
"u5 	c #12110E",
"v5 	c #11110E",
"w5 	c #12120D",
"x5 	c #13140F",
"y5 	c #0E120D",
"z5 	c #0F110B",
"A5 	c #101310",
"B5 	c #100E11",
"C5 	c #0F100B",
"D5 	c #10100B",
"E5 	c #0D100E",
"F5 	c #0E120E",
"G5 	c #11110D",
"H5 	c #080D07",
"I5 	c #060904",
"J5 	c #080904",
"K5 	c #070300",
"L5 	c #0E0B08",
"M5 	c #0B0B04",
"N5 	c #070001",
"O5 	c #303134",
"P5 	c #444548",
"Q5 	c #1E1D1B",
"R5 	c #1A1B1E",
"S5 	c #4E5251",
"T5 	c #141012",
"U5 	c #1A1E1B",
"V5 	c #1A1814",
"W5 	c #17130E",
"X5 	c #1C1914",
"Y5 	c #323434",
"Z5 	c #242227",
"`5 	c #343533",
" 6 	c #171815",
".6 	c #393838",
"+6 	c #161416",
"@6 	c #0E0B0B",
"#6 	c #030102",
"$6 	c #161214",
"%6 	c #141111",
"&6 	c #11120C",
"*6 	c #0F1210",
"=6 	c #0F130E",
"-6 	c #121612",
";6 	c #11130F",
">6 	c #101311",
",6 	c #141310",
"'6 	c #141313",
")6 	c #121113",
"!6 	c #12120F",
"~6 	c #121614",
"{6 	c #121410",
"]6 	c #121511",
"^6 	c #10120E",
"/6 	c #121510",
"(6 	c #111410",
"_6 	c #10130C",
":6 	c #171613",
"<6 	c #141715",
"[6 	c #141814",
"}6 	c #0E100B",
"|6 	c #020500",
"16 	c #0A0604",
"26 	c #0E0B06",
"36 	c #2C2C30",
"46 	c #1B1D20",
"56 	c #2E2F31",
"66 	c #313337",
"76 	c #4C5052",
"86 	c #77787C",
"96 	c #393C39",
"06 	c #151411",
"a6 	c #171110",
"b6 	c #1C1813",
"c6 	c #141510",
"d6 	c #353435",
"e6 	c #07090C",
"f6 	c #333635",
"g6 	c #050607",
"h6 	c #474A49",
"i6 	c #585A5C",
"j6 	c #282C2A",
"k6 	c #0A0A04",
"l6 	c #191815",
"m6 	c #0D0E09",
"n6 	c #030602",
"o6 	c #0F120E",
"p6 	c #151311",
"q6 	c #111511",
"r6 	c #121513",
"s6 	c #0E110F",
"t6 	c #121011",
"u6 	c #161512",
"v6 	c #151412",
"w6 	c #121214",
"x6 	c #11140F",
"y6 	c #141212",
"z6 	c #191A17",
"A6 	c #161816",
"B6 	c #171915",
"C6 	c #171513",
"D6 	c #181916",
"E6 	c #181816",
"F6 	c #151814",
"G6 	c #191916",
"H6 	c #181B18",
"I6 	c #181615",
"J6 	c #141713",
"K6 	c #171A16",
"L6 	c #181A17",
"M6 	c #181815",
"N6 	c #161A14",
"O6 	c #181518",
"P6 	c #171A15",
"Q6 	c #161915",
"R6 	c #151A15",
"S6 	c #1A1817",
"T6 	c #181814",
"U6 	c #10120D",
"V6 	c #141612",
"W6 	c #13110E",
"X6 	c #141411",
"Y6 	c #141214",
"Z6 	c #161612",
"`6 	c #121514",
" 7 	c #101312",
".7 	c #0D0D08",
"+7 	c #12110D",
"@7 	c #0F0D09",
"#7 	c #202426",
"$7 	c #474547",
"%7 	c #111415",
"&7 	c #080708",
"*7 	c #6C6F70",
"=7 	c #535555",
"-7 	c #393D3E",
";7 	c #181613",
">7 	c #1D1B15",
",7 	c #1A1F1E",
"'7 	c #323134",
")7 	c #282927",
"!7 	c #6A6B6C",
"~7 	c #050805",
"{7 	c #4D4E51",
"]7 	c #424344",
"^7 	c #555658",
"/7 	c #13100F",
"(7 	c #1B1918",
"_7 	c #171515",
":7 	c #131611",
"<7 	c #181617",
"[7 	c #11130D",
"}7 	c #100D0D",
"|7 	c #110E0D",
"17 	c #0F120D",
"27 	c #120F0B",
"37 	c #13100D",
"47 	c #100D0C",
"57 	c #13120E",
"67 	c #130F0F",
"77 	c #11100B",
"87 	c #13110D",
"97 	c #100D0F",
"07 	c #12110C",
"a7 	c #120F0D",
"b7 	c #0F0E09",
"c7 	c #110D0B",
"d7 	c #323133",
"e7 	c #151315",
"f7 	c #141215",
"g7 	c #171816",
"h7 	c #120F11",
"i7 	c #111214",
"j7 	c #110E0F",
"k7 	c #0F0F0A",
"l7 	c #343739",
"m7 	c #4E5455",
"n7 	c #4E5254",
"o7 	c #353738",
"p7 	c #141616",
"q7 	c #101412",
"r7 	c #130F0D",
"s7 	c #1D1A14",
"t7 	c #323435",
"u7 	c #717173",
"v7 	c #181514",
"w7 	c #4E4F50",
"x7 	c #0E0B07",
"y7 	c #282824",
"z7 	c #18191B",
"A7 	c #4D4A4D",
"B7 	c #000300",
"C7 	c #494A46",
"D7 	c #171514",
"E7 	c #1B181A",
"F7 	c #120F0E",
"G7 	c #0B0A04",
"H7 	c #0E0904",
"I7 	c #38373B",
"J7 	c #171614",
"K7 	c #7C7C7F",
"L7 	c #242422",
"M7 	c #161411",
"N7 	c #15100B",
"O7 	c #1B1813",
"P7 	c #272B29",
"Q7 	c #2A2B29",
"R7 	c #7D8083",
"S7 	c #101414",
"T7 	c #0D0A05",
"U7 	c #0E1111",
"V7 	c #1A1C1E",
"W7 	c #404342",
"X7 	c #414244",
"Y7 	c #414143",
"Z7 	c #404245",
"`7 	c #3B3C3D",
" 8 	c #3E4041",
".8 	c #38393D",
"+8 	c #3F4045",
"@8 	c #3E3E42",
"#8 	c #3B3E3D",
"$8 	c #3C3E3F",
"%8 	c #424345",
"&8 	c #3C3D3F",
"*8 	c #3A3C3C",
"=8 	c #393C3D",
"-8 	c #3C3A3E",
";8 	c #3D3D3E",
">8 	c #3C3E3E",
",8 	c #3D3F40",
"'8 	c #404144",
")8 	c #363738",
"!8 	c #414144",
"~8 	c #404242",
"{8 	c #414343",
"]8 	c #3C3C3E",
"^8 	c #3E3E3D",
"/8 	c #444448",
"(8 	c #3E3E3F",
"_8 	c #414344",
":8 	c #454445",
"<8 	c #3E3F40",
"[8 	c #444347",
"}8 	c #3B3E3F",
"|8 	c #414444",
"18 	c #454748",
"28 	c #444646",
"38 	c #3E3D40",
"48 	c #414245",
"58 	c #3D3D3F",
"68 	c #3D4040",
"78 	c #3E3F42",
"88 	c #454649",
"98 	c #434446",
"08 	c #434347",
"a8 	c #3F4141",
"b8 	c #434445",
"c8 	c #3F4143",
"d8 	c #424244",
"e8 	c #3E4042",
"f8 	c #3F3F42",
"g8 	c #424245",
"h8 	c #3D3D40",
"i8 	c #3E3F3F",
"j8 	c #39393B",
"k8 	c #3A3A3C",
"l8 	c #444446",
"m8 	c #3E4141",
"n8 	c #3B3E42",
"o8 	c #3F4242",
"p8 	c #3F4243",
"q8 	c #414243",
"r8 	c #464849",
"s8 	c #424547",
"t8 	c #3F3F43",
"u8 	c #3D3E3F",
"v8 	c #3A3E3F",
"w8 	c #3F4142",
"x8 	c #3E3F41",
"y8 	c #424445",
"z8 	c #434544",
"A8 	c #404345",
"B8 	c #47484A",
"C8 	c #403E41",
"D8 	c #434243",
"E8 	c #3F4241",
"F8 	c #474748",
"G8 	c #434346",
"H8 	c #46474B",
"I8 	c #151915",
"J8 	c #171B1A",
"K8 	c #0D110C",
"L8 	c #110F0C",
"M8 	c #0F0A09",
"N8 	c #0D0906",
"O8 	c #303133",
"P8 	c #5D605F",
"Q8 	c #050807",
"R8 	c #1E2220",
"S8 	c #060807",
"T8 	c #313234",
"U8 	c #707576",
"V8 	c #1D201D",
"W8 	c #1E1B16",
"X8 	c #6B6D70",
"Y8 	c #5B5C5D",
"Z8 	c #2F292F",
"`8 	c #57575C",
" 9 	c #999B9C",
".9 	c #2C2D2C",
"+9 	c #181C1C",
"@9 	c #343938",
"#9 	c #171B19",
"$9 	c #171A19",
"%9 	c #16181A",
"&9 	c #141619",
"*9 	c #1A1E1E",
"=9 	c #1F1D1F",
"-9 	c #131714",
";9 	c #151718",
">9 	c #181B19",
",9 	c #131817",
"'9 	c #161518",
")9 	c #191C19",
"!9 	c #1F211D",
"~9 	c #020401",
"{9 	c #131111",
"]9 	c #0C0A06",
"^9 	c #110E0A",
"/9 	c #313436",
"(9 	c #26292D",
"_9 	c #1A191D",
":9 	c #55565A",
"<9 	c #21201D",
"[9 	c #3E3E40",
"}9 	c #606365",
"|9 	c #1C201F",
"19 	c #14110D",
"29 	c #1D1916",
"39 	c #373637",
"49 	c #101415",
"59 	c #0C0C06",
"69 	c #070404",
"79 	c #505052",
"89 	c #1B1919",
"99 	c #1A1719",
"09 	c #151813",
"a9 	c #181B1C",
"b9 	c #171C1A",
"c9 	c #1C191D",
"d9 	c #1B1B1F",
"e9 	c #1F1D1C",
"f9 	c #181619",
"g9 	c #131013",
"h9 	c #050300",
"i9 	c #171914",
"j9 	c #0F0B06",
"k9 	c #222725",
"l9 	c #23282B",
"m9 	c #15181C",
"n9 	c #07080B",
"o9 	c #1A1916",
"p9 	c #15100D",
"q9 	c #1C1A15",
"r9 	c #14140F",
"s9 	c #333335",
"t9 	c #212626",
"u9 	c #0F0A06",
"v9 	c #111013",
"w9 	c #040706",
"x9 	c #565959",
"y9 	c #0E0A06",
"z9 	c #181C1B",
"A9 	c #191719",
"B9 	c #1F1F24",
"C9 	c #181B1D",
"D9 	c #141819",
"E9 	c #191C1E",
"F9 	c #151918",
"G9 	c #1E1C20",
"H9 	c #141816",
"I9 	c #0A0709",
"J9 	c #171518",
"K9 	c #161513",
"L9 	c #0C0D08",
"M9 	c #13100E",
"N9 	c #1B191A",
"O9 	c #4A4D4A",
"P9 	c #090709",
"Q9 	c #131613",
"R9 	c #303534",
"S9 	c #1C1D20",
"T9 	c #191714",
"U9 	c #16110F",
"V9 	c #1D1B17",
"W9 	c #0E0804",
"X9 	c #161B17",
"Y9 	c #1A1818",
"Z9 	c #131510",
"`9 	c #131011",
" 0 	c #131114",
".0 	c #100A08",
"+0 	c #0A0903",
"@0 	c #0A0400",
"#0 	c #20221F",
"$0 	c #494B4B",
"%0 	c #0E0C07",
"&0 	c #0D0B05",
"*0 	c #24252A",
"=0 	c #191413",
"-0 	c #17120E",
";0 	c #353538",
">0 	c #1C201E",
",0 	c #1C2120",
"'0 	c #2A2D2A",
")0 	c #110D0C",
"!0 	c #232422",
"~0 	c #1B1E1B",
"{0 	c #020303",
"]0 	c #030505",
"^0 	c #020504",
"/0 	c #050304",
"(0 	c #020402",
"_0 	c #030404",
":0 	c #020604",
"<0 	c #161417",
"[0 	c #0E0A05",
"}0 	c #4E4E50",
"|0 	c #0E0C06",
"10 	c #0D0C05",
"20 	c #0D0A06",
"30 	c #080200",
"40 	c #191615",
"50 	c #1A191E",
"60 	c #1B1C17",
"70 	c #14120E",
"80 	c #151310",
"90 	c #0F0A07",
"00 	c #666865",
"a0 	c #0A0606",
"b0 	c #201E23",
"c0 	c #4E5051",
"d0 	c #505152",
"e0 	c #565659",
"f0 	c #535255",
"g0 	c #525253",
"h0 	c #565757",
"i0 	c #525053",
"j0 	c #55575A",
"k0 	c #565558",
"l0 	c #4D4B4F",
"m0 	c #535554",
"n0 	c #565658",
"o0 	c #525456",
"p0 	c #575559",
"q0 	c #575959",
"r0 	c #5C5D5E",
"s0 	c #545458",
"t0 	c #535655",
"u0 	c #585659",
"v0 	c #484C4D",
"w0 	c #4D4F51",
"x0 	c #4E4F4F",
"y0 	c #545356",
"z0 	c #4D4D4D",
"A0 	c #454546",
"B0 	c #48484A",
"C0 	c #444648",
"D0 	c #4E4E4F",
"E0 	c #515153",
"F0 	c #525455",
"G0 	c #525255",
"H0 	c #575859",
"I0 	c #4D4E4E",
"J0 	c #4B4C4D",
"K0 	c #484A4A",
"L0 	c #4F5151",
"M0 	c #48494B",
"N0 	c #3F403F",
"O0 	c #3C3D3B",
"P0 	c #100C07",
"Q0 	c #070102",
"R0 	c #4D4D4B",
"S0 	c #060808",
"T0 	c #141815",
"U0 	c #0F0908",
"V0 	c #090600",
"W0 	c #050102",
"X0 	c #303036",
"Y0 	c #161312",
"Z0 	c #1B1B16",
"`0 	c #343437",
" a 	c #0D0C06",
".a 	c #616263",
"+a 	c #171B1B",
"@a 	c #1C201C",
"#a 	c #191D1F",
"$a 	c #242125",
"%a 	c #29262B",
"&a 	c #252224",
"*a 	c #3D3E40",
"=a 	c #1A1B17",
"-a 	c #0F1213",
";a 	c #110B0A",
">a 	c #4E504F",
",a 	c #090708",
"'a 	c #110D0E",
")a 	c #0F0B07",
"!a 	c #191715",
"~a 	c #17120B",
"{a 	c #1B1B15",
"]a 	c #313231",
"^a 	c #2C2F30",
"/a 	c #0F0B08",
"(a 	c #100B06",
"_a 	c #0A0C05",
":a 	c #040101",
"<a 	c #131612",
"[a 	c #6C6E6C",
"}a 	c #111315",
"|a 	c #0F0A04",
"1a 	c #0D0B06",
"2a 	c #0F0E08",
"3a 	c #030103",
"4a 	c #222020",
"5a 	c #252325",
"6a 	c #272325",
"7a 	c #292628",
"8a 	c #262326",
"9a 	c #191B1E",
"0a 	c #0F0D11",
"aa 	c #151B19",
"ba 	c #15191A",
"ca 	c #131113",
"da 	c #110C08",
"ea 	c #0D0905",
"fa 	c #141919",
"ga 	c #575C5C",
"ha 	c #090C0C",
"ia 	c #151214",
"ja 	c #10130E",
"ka 	c #110B08",
"la 	c #0E0A0B",
"ma 	c #222827",
"na 	c #27262B",
"oa 	c #171712",
"pa 	c #15110A",
"qa 	c #191915",
"ra 	c #313031",
"sa 	c #262A2D",
"ta 	c #0E0A04",
"ua 	c #100A05",
"va 	c #2A282A",
"wa 	c #241F20",
"xa 	c #262424",
"ya 	c #2A2829",
"za 	c #272225",
"Aa 	c #221F23",
"Ba 	c #1C1D1A",
"Ca 	c #111515",
"Da 	c #161A1A",
"Ea 	c #171A17",
"Fa 	c #1D201C",
"Ga 	c #070909",
"Ha 	c #120B08",
"Ia 	c #100904",
"Ja 	c #2E3133",
"Ka 	c #3A3C3A",
"La 	c #363537",
"Ma 	c #080607",
"Na 	c #030604",
"Oa 	c #100907",
"Pa 	c #1B1C18",
"Qa 	c #070904",
"Ra 	c #1C2222",
"Sa 	c #291F22",
"Ta 	c #252023",
"Ua 	c #2A2529",
"Va 	c #272424",
"Wa 	c #272224",
"Xa 	c #2D2928",
"Ya 	c #2A2327",
"Za 	c #2C2828",
"`a 	c #2B2427",
" b 	c #2A2526",
".b 	c #2B2628",
"+b 	c #2C282B",
"@b 	c #292426",
"#b 	c #282428",
"$b 	c #252226",
"%b 	c #282326",
"&b 	c #2C272A",
"*b 	c #282427",
"=b 	c #2B2728",
"-b 	c #272126",
";b 	c #282522",
">b 	c #282429",
",b 	c #2A2627",
"'b 	c #2E272C",
")b 	c #262229",
"!b 	c #2B2225",
"~b 	c #2B2429",
"{b 	c #2C242B",
"]b 	c #2C252B",
"^b 	c #2A272A",
"/b 	c #272326",
"(b 	c #272327",
"_b 	c #2C2428",
":b 	c #2A2427",
"<b 	c #2A2527",
"[b 	c #2C2629",
"}b 	c #2B2227",
"|b 	c #2A2127",
"1b 	c #272321",
"2b 	c #292322",
"3b 	c #2A2729",
"4b 	c #2A2125",
"5b 	c #2B262A",
"6b 	c #262327",
"7b 	c #272228",
"8b 	c #292429",
"9b 	c #282125",
"0b 	c #272121",
"ab 	c #262428",
"bb 	c #272322",
"cb 	c #2A2428",
"db 	c #2B2428",
"eb 	c #29252A",
"fb 	c #282329",
"gb 	c #2D2D31",
"hb 	c #191E1C",
"ib 	c #110D0D",
"jb 	c #120E0B",
"kb 	c #0F0A05",
"lb 	c #0A0503",
"mb 	c #5C5F5E",
"nb 	c #1A1718",
"ob 	c #14100E",
"pb 	c #333336",
"qb 	c #0E0907",
"rb 	c #0E0E10",
"sb 	c #140E0D",
"tb 	c #2D2A2F",
"ub 	c #1E1817",
"vb 	c #171313",
"wb 	c #181912",
"xb 	c #1C191E",
"yb 	c #221C18",
"zb 	c #1D1917",
"Ab 	c #221714",
"Bb 	c #231713",
"Cb 	c #1F1516",
"Db 	c #231B17",
"Eb 	c #271618",
"Fb 	c #261814",
"Gb 	c #291A18",
"Hb 	c #241613",
"Ib 	c #2A1917",
"Jb 	c #251F17",
"Kb 	c #281D1B",
"Lb 	c #231E1C",
"Mb 	c #211A19",
"Nb 	c #251C1C",
"Ob 	c #26191B",
"Pb 	c #1E1415",
"Qb 	c #251D1E",
"Rb 	c #221917",
"Sb 	c #221E18",
"Tb 	c #25191A",
"Ub 	c #211A18",
"Vb 	c #211A16",
"Wb 	c #201F18",
"Xb 	c #1C1816",
"Yb 	c #241D18",
"Zb 	c #231A1A",
"`b 	c #1F1917",
" c 	c #241918",
".c 	c #261817",
"+c 	c #271718",
"@c 	c #23181A",
"#c 	c #230F15",
"$c 	c #251917",
"%c 	c #281919",
"&c 	c #261719",
"*c 	c #271C18",
"=c 	c #261F1A",
"-c 	c #241D19",
";c 	c #271E1A",
">c 	c #241D16",
",c 	c #251C1B",
"'c 	c #251D19",
")c 	c #211919",
"!c 	c #231C20",
"~c 	c #22181A",
"{c 	c #221D1C",
"]c 	c #271D1D",
"^c 	c #261F1B",
"/c 	c #241F1D",
"(c 	c #221C19",
"_c 	c #241C19",
":c 	c #231B1A",
"<c 	c #261A1B",
"[c 	c #231C1A",
"}c 	c #23161A",
"|c 	c #251B1E",
"1c 	c #231A18",
"2c 	c #251B21",
"3c 	c #201A17",
"4c 	c #261A1C",
"5c 	c #26201E",
"6c 	c #2B2627",
"7c 	c #07090D",
"8c 	c #424646",
"9c 	c #120C07",
"0c 	c #100A07",
"ac 	c #110805",
"bc 	c #2B3135",
"cc 	c #0C0904",
"dc 	c #0F0C0B",
"ec 	c #100D0A",
"fc 	c #080201",
"gc 	c #2E3235",
"hc 	c #393938",
"ic 	c #191611",
"jc 	c #13100C",
"kc 	c #1A1915",
"lc 	c #37373A",
"mc 	c #020102",
"nc 	c #2D2B30",
"oc 	c #060404",
"pc 	c #100D0E",
"qc 	c #151511",
"rc 	c #120D0A",
"sc 	c #0E0D08",
"tc 	c #12100C",
"uc 	c #333434",
"vc 	c #48494A",
"wc 	c #505051",
"xc 	c #49494B",
"yc 	c #4A4C4C",
"zc 	c #4A4D4E",
"Ac 	c #464948",
"Bc 	c #444747",
"Cc 	c #474647",
"Dc 	c #49484A",
"Ec 	c #474749",
"Fc 	c #4C4D4D",
"Gc 	c #4B4A4D",
"Hc 	c #4A4D4D",
"Ic 	c #4B4C4E",
"Jc 	c #494C4B",
"Kc 	c #494C4D",
"Lc 	c #454849",
"Mc 	c #464547",
"Nc 	c #474A4A",
"Oc 	c #474848",
"Pc 	c #484949",
"Qc 	c #464747",
"Rc 	c #434545",
"Sc 	c #474847",
"Tc 	c #434443",
"Uc 	c #484A49",
"Vc 	c #4A4B4B",
"Wc 	c #464646",
"Xc 	c #424444",
"Yc 	c #46484A",
"Zc 	c #373839",
"`c 	c #363637",
" d 	c #1B0708",
".d 	c #1C0A09",
"+d 	c #31090D",
"@d 	c #390710",
"#d 	c #3E0816",
"$d 	c #480D0E",
"%d 	c #4D0F12",
"&d 	c #4F0F10",
"*d 	c #4B0C0C",
"=d 	c #4A0C0D",
"-d 	c #480F0C",
";d 	c #4D0F11",
">d 	c #510D10",
",d 	c #511111",
"'d 	c #4E0A0C",
")d 	c #4E0D0C",
"!d 	c #530E10",
"~d 	c #51100E",
"{d 	c #500D0F",
"]d 	c #4E0F11",
"^d 	c #4D0D11",
"/d 	c #501010",
"(d 	c #500D0D",
"_d 	c #500F0D",
":d 	c #4A0C0E",
"<d 	c #4C0B0E",
"[d 	c #4F0D13",
"}d 	c #4D0C10",
"|d 	c #4D0D13",
"1d 	c #4A0C10",
"2d 	c #490D11",
"3d 	c #4D0F13",
"4d 	c #490F0E",
"5d 	c #500C11",
"6d 	c #4D0C0F",
"7d 	c #4E0C0B",
"8d 	c #4F0B0E",
"9d 	c #50100F",
"0d 	c #4F1111",
"ad 	c #4F1011",
"bd 	c #530A0E",
"cd 	c #500B0E",
"dd 	c #4E090B",
"ed 	c #540B0F",
"fd 	c #4B0D0D",
"gd 	c #4B0C0E",
"hd 	c #480C0D",
"id 	c #4E0D0E",
"jd 	c #501013",
"kd 	c #4E1112",
"ld 	c #4F100F",
"md 	c #520E0A",
"nd 	c #51110E",
"od 	c #4D100F",
"pd 	c #4A0C0A",
"qd 	c #500F0F",
"rd 	c #4A0B0B",
"sd 	c #530F11",
"td 	c #510A0E",
"ud 	c #500C10",
"vd 	c #510E13",
"wd 	c #510E11",
"xd 	c #530910",
"yd 	c #4F0E0F",
"zd 	c #510C11",
"Ad 	c #4E0D10",
"Bd 	c #510B17",
"Cd 	c #48140E",
"Dd 	c #401412",
"Ed 	c #330C0F",
"Fd 	c #290606",
"Gd 	c #2B1D20",
"Hd 	c #262422",
"Id 	c #111510",
"Jd 	c #535355",
"Kd 	c #131418",
"Ld 	c #2D2F2D",
"Md 	c #120E0A",
"Nd 	c #171B17",
"Od 	c #585859",
"Pd 	c #0E0C08",
"Qd 	c #0A0904",
"Rd 	c #110F0A",
"Sd 	c #303031",
"Td 	c #383838",
"Ud 	c #1A1813",
"Vd 	c #15110C",
"Wd 	c #1C1817",
"Xd 	c #282B29",
"Yd 	c #292A2E",
"Zd 	c #0A0C0B",
"`d 	c #2D2C2E",
" e 	c #130B09",
".e 	c #14110E",
"+e 	c #39383A",
"@e 	c #08090B",
"#e 	c #0A0809",
"$e 	c #030306",
"%e 	c #080609",
"&e 	c #080A0C",
"*e 	c #0B0E0E",
"=e 	c #070807",
"-e 	c #0C090D",
";e 	c #2B2A2C",
">e 	c #262524",
",e 	c #282021",
"'e 	c #200707",
")e 	c #270000",
"!e 	c #510703",
"~e 	c #93311D",
"{e 	c #9B3C2C",
"]e 	c #9C3C29",
"^e 	c #9A3D2C",
"/e 	c #9F3E2D",
"(e 	c #A03E2D",
"_e 	c #A64735",
":e 	c #A84A38",
"<e 	c #A54C38",
"[e 	c #A84B39",
"}e 	c #A54836",
"|e 	c #A54934",
"1e 	c #A44834",
"2e 	c #A54532",
"3e 	c #AC4836",
"4e 	c #AC4C3C",
"5e 	c #A64731",
"6e 	c #A94736",
"7e 	c #AF4C3D",
"8e 	c #AF473B",
"9e 	c #AB4A3B",
"0e 	c #AE4E3C",
"ae 	c #AE503B",
"be 	c #AD4C3C",
"ce 	c #AD523B",
"de 	c #AB543F",
"ee 	c #AC5040",
"fe 	c #AC513D",
"ge 	c #AE503E",
"he 	c #B4513E",
"ie 	c #B45040",
"je 	c #B14E40",
"ke 	c #B45343",
"le 	c #AD503B",
"me 	c #AD513E",
"ne 	c #AC4F3D",
"oe 	c #B75842",
"pe 	c #B75743",
"qe 	c #B35340",
"re 	c #B45442",
"se 	c #B04F41",
"te 	c #AE4E40",
"ue 	c #B15245",
"ve 	c #AC5141",
"we 	c #B24E3F",
"xe 	c #AF5340",
"ye 	c #AE5443",
"ze 	c #AF5241",
"Ae 	c #B65643",
"Be 	c #BA5947",
"Ce 	c #B45142",
"De 	c #B35441",
"Ee 	c #AC4C3D",
"Fe 	c #AC4D3D",
"Ge 	c #B14F3F",
"He 	c #AC5243",
"Ie 	c #B9593C",
"Je 	c #B9563F",
"Ke 	c #BC5A45",
"Le 	c #BB5C44",
"Me 	c #C15C46",
"Ne 	c #BF5C43",
"Oe 	c #BC5A44",
"Pe 	c #BA5946",
"Qe 	c #B0453E",
"Re 	c #A34837",
"Se 	c #4A0E02",
"Te 	c #3A070F",
"Ue 	c #2E1110",
"Ve 	c #322C2E",
"We 	c #4E5050",
"Xe 	c #313232",
"Ye 	c #110906",
"Ze 	c #0A0403",
"`e 	c #5A5B5C",
" f 	c #15120C",
".f 	c #1C1A14",
"+f 	c #36393A",
"@f 	c #080404",
"#f 	c #333436",
"$f 	c #0F0907",
"%f 	c #0E0D07",
"&f 	c #646668",
"*f 	c #0E1011",
"=f 	c #202523",
"-f 	c #242123",
";f 	c #2A2626",
">f 	c #2A0E10",
",f 	c #3C0701",
"'f 	c #FFE0B9",
")f 	c #FFCA95",
"!f 	c #FDC490",
"~f 	c #FFBB81",
"{f 	c #FFC589",
"]f 	c #FEC284",
"^f 	c #FFBE82",
"/f 	c #FBC98C",
"(f 	c #FCC58B",
"_f 	c #F7C785",
":f 	c #F9C387",
"<f 	c #FDBF82",
"[f 	c #FCC280",
"}f 	c #FABE83",
"|f 	c #F9BD85",
"1f 	c #FFBB80",
"2f 	c #FDBC88",
"3f 	c #FEBB84",
"4f 	c #FCBB84",
"5f 	c #FDBD7E",
"6f 	c #F9B983",
"7f 	c #F6B97F",
"8f 	c #FAB780",
"9f 	c #F9B67A",
"0f 	c #FBB782",
"af 	c #F8B67F",
"bf 	c #F8B17E",
"cf 	c #FDB27E",
"df 	c #FBBC83",
"ef 	c #FDB685",
"ff 	c #FDB481",
"gf 	c #FEB881",
"hf 	c #FFBF86",
"if 	c #FFBC7F",
"jf 	c #FEB77C",
"kf 	c #FCBC7F",
"lf 	c #FEBC80",
"mf 	c #F9BA7A",
"nf 	c #FBB679",
"of 	c #FDB77B",
"pf 	c #FDBC85",
"qf 	c #FBB983",
"rf 	c #FFBA83",
"sf 	c #FDBD7F",
"tf 	c #FDBA7F",
"uf 	c #FEB57A",
"vf 	c #FCB580",
"wf 	c #F7B977",
"xf 	c #F7B574",
"yf 	c #F9AF75",
"zf 	c #FAB284",
"Af 	c #FEB17F",
"Bf 	c #FDB07A",
"Cf 	c #FDAF79",
"Df 	c #F9B279",
"Ef 	c #FDB57F",
"Ff 	c #FAB67F",
"Gf 	c #F7B07A",
"Hf 	c #F9B37F",
"If 	c #FDB782",
"Jf 	c #F6B77C",
"Kf 	c #F9B77F",
"Lf 	c #FFB984",
"Mf 	c #FDBB87",
"Nf 	c #FBBA7B",
"Of 	c #FBB17F",
"Pf 	c #F5B683",
"Qf 	c #F8BA87",
"Rf 	c #D58E6F",
"Sf 	c #2F0001",
"Tf 	c #412828",
"Uf 	c #292629",
"Vf 	c #1D211D",
"Wf 	c #131316",
"Xf 	c #171C1D",
"Yf 	c #303032",
"Zf 	c #100D07",
"`f 	c #130B05",
" g 	c #5A585B",
".g 	c #161712",
"+g 	c #171612",
"@g 	c #14100D",
"#g 	c #1E1C19",
"$g 	c #0D110E",
"%g 	c #232729",
"&g 	c #121615",
"*g 	c #101314",
"=g 	c #100E08",
"-g 	c #111614",
";g 	c #201E22",
">g 	c #292328",
",g 	c #6D494E",
"'g 	c #57191E",
")g 	c #400000",
"!g 	c #490000",
"~g 	c #520000",
"{g 	c #510000",
"]g 	c #580000",
"^g 	c #590000",
"/g 	c #5F0000",
"(g 	c #5D0000",
"_g 	c #5A0000",
":g 	c #5C0000",
"<g 	c #630000",
"[g 	c #620000",
"}g 	c #610000",
"|g 	c #650000",
"1g 	c #5E0000",
"2g 	c #5B0000",
"3g 	c #600000",
"4g 	c #560000",
"5g 	c #610001",
"6g 	c #670000",
"7g 	c #660000",
"8g 	c #690001",
"9g 	c #680001",
"0g 	c #680000",
"ag 	c #640000",
"bg 	c #640004",
"cg 	c #620003",
"dg 	c #620002",
"eg 	c #640001",
"fg 	c #5F0001",
"gg 	c #600001",
"hg 	c #550000",
"ig 	c #4C0000",
"jg 	c #400409",
"kg 	c #3B141C",
"lg 	c #413134",
"mg 	c #150C0A",
"ng 	c #100905",
"og 	c #0F0705",
"pg 	c #060100",
"qg 	c #2A2E30",
"rg 	c #5A5C5C",
"sg 	c #0F0C07",
"tg 	c #090505",
"ug 	c #0D0808",
"vg 	c #232521",
"wg 	c #1D1815",
"xg 	c #363838",
"yg 	c #6A6A6E",
"zg 	c #1E2322",
"Ag 	c #140E0E",
"Bg 	c #0F0906",
"Cg 	c #100F09",
"Dg 	c #1B1B18",
"Eg 	c #191D1A",
"Fg 	c #181B1E",
"Gg 	c #46484C",
"Hg 	c #35272A",
"Ig 	c #463A3C",
"Jg 	c #3E2931",
"Kg 	c #432D34",
"Lg 	c #4B3136",
"Mg 	c #3E3431",
"Ng 	c #433234",
"Og 	c #413033",
"Pg 	c #40322E",
"Qg 	c #3D2C35",
"Rg 	c #463336",
"Sg 	c #43343B",
"Tg 	c #403334",
"Ug 	c #402D2E",
"Vg 	c #3F2F32",
"Wg 	c #403333",
"Xg 	c #3C3537",
"Yg 	c #3D3234",
"Zg 	c #3E3032",
"`g 	c #392E2F",
" h 	c #392F31",
".h 	c #473235",
"+h 	c #412D2E",
"@h 	c #493331",
"#h 	c #4A3833",
"$h 	c #3F3232",
"%h 	c #433138",
"&h 	c #3B2B34",
"*h 	c #422D30",
"=h 	c #402D26",
"-h 	c #463433",
";h 	c #3F302F",
">h 	c #493431",
",h 	c #443431",
"'h 	c #4B3235",
")h 	c #412E2D",
"!h 	c #3F3233",
"~h 	c #402F2C",
"{h 	c #3C2C2F",
"]h 	c #3E3131",
"^h 	c #413232",
"/h 	c #432F31",
"(h 	c #402F32",
"_h 	c #423431",
":h 	c #473434",
"<h 	c #3A2F2A",
"[h 	c #3B322D",
"}h 	c #362B26",
"|h 	c #3D322F",
"1h 	c #3B2C31",
"2h 	c #3C3131",
"3h 	c #3F312D",
"4h 	c #403130",
"5h 	c #3D2D2D",
"6h 	c #3A282B",
"7h 	c #402A2D",
"8h 	c #392E2B",
"9h 	c #3C2D29",
"0h 	c #382E2A",
"ah 	c #402E2D",
"bh 	c #342A2A",
"ch 	c #3A2B31",
"dh 	c #3B2D31",
"eh 	c #3A2E2D",
"fh 	c #322B28",
"gh 	c #302825",
"hh 	c #3B3031",
"ih 	c #392C2B",
"jh 	c #312429",
"kh 	c #2E2C29",
"lh 	c #382C2E",
"mh 	c #3A2F30",
"nh 	c #282727",
"oh 	c #202320",
"ph 	c #2F322E",
"qh 	c #140F0D",
"rh 	c #0F0905",
"sh 	c #555656",
"th 	c #111513",
"uh 	c #0F1311",
"vh 	c #151812",
"wh 	c #2B2D30",
"xh 	c #35383A",
"yh 	c #181714",
"zh 	c #353636",
"Ah 	c #222126",
"Bh 	c #2D2F2E",
"Ch 	c #2D2F32",
"Dh 	c #101213",
"Eh 	c #404343",
"Fh 	c #1F1C1E",
"Gh 	c #1A1A1E",
"Hh 	c #4A4A4B",
"Ih 	c #232024",
"Jh 	c #232023",
"Kh 	c #242022",
"Lh 	c #272020",
"Mh 	c #342228",
"Nh 	c #2E2627",
"Oh 	c #301E23",
"Ph 	c #3A242B",
"Qh 	c #342126",
"Rh 	c #34202A",
"Sh 	c #392127",
"Th 	c #3D2126",
"Uh 	c #372126",
"Vh 	c #36232A",
"Wh 	c #3A222A",
"Xh 	c #412C2E",
"Yh 	c #3A2229",
"Zh 	c #3B242B",
"`h 	c #3C1E27",
" i 	c #372326",
".i 	c #3A262B",
"+i 	c #3C242A",
"@i 	c #3C2327",
"#i 	c #37171B",
"$i 	c #34252A",
"%i 	c #34232A",
"&i 	c #312423",
"*i 	c #2F2324",
"=i 	c #31221F",
"-i 	c #362221",
";i 	c #362325",
">i 	c #3B2428",
",i 	c #37222C",
"'i 	c #37242A",
")i 	c #382224",
"!i 	c #342323",
"~i 	c #32222C",
"{i 	c #38292A",
"]i 	c #2B201E",
"^i 	c #331921",
"/i 	c #392427",
"(i 	c #412A2D",
"_i 	c #382228",
":i 	c #39242E",
"<i 	c #352628",
"[i 	c #3A282A",
"}i 	c #382426",
"|i 	c #301E26",
"1i 	c #3B272B",
"2i 	c #38252E",
"3i 	c #36212D",
"4i 	c #33202D",
"5i 	c #341F25",
"6i 	c #372127",
"7i 	c #332124",
"8i 	c #362028",
"9i 	c #302126",
"0i 	c #322021",
"ai 	c #342326",
"bi 	c #352323",
"ci 	c #392327",
"di 	c #362226",
"ei 	c #311F20",
"fi 	c #382225",
"gi 	c #382027",
"hi 	c #3B2225",
"ii 	c #381D24",
"ji 	c #3F2127",
"ki 	c #3A2026",
"li 	c #3A2125",
"mi 	c #322224",
"ni 	c #321D24",
"oi 	c #321F27",
"pi 	c #281E26",
"qi 	c #302529",
"ri 	c #232121",
"si 	c #19191D",
"ti 	c #020505",
"ui 	c #424246",
"vi 	c #14100C",
"wi 	c #110C04",
"xi 	c #110B09",
"yi 	c #2B2A2F",
"zi 	c #2E3232",
"Ai 	c #27272C",
"Bi 	c #383839",
"Ci 	c #343436",
"Di 	c #0F0A0A",
"Ei 	c #0D0F0A",
"Fi 	c #696A6E",
"Gi 	c #0F0B0C",
"Hi 	c #3D3F3F",
"Ii 	c #353537",
"Ji 	c #2A2727",
"Ki 	c #2B2426",
"Li 	c #282424",
"Mi 	c #292326",
"Ni 	c #2E2A2B",
"Oi 	c #302727",
"Pi 	c #2E2527",
"Qi 	c #2B2422",
"Ri 	c #2F2625",
"Si 	c #2B2424",
"Ti 	c #2E2223",
"Ui 	c #2A2321",
"Vi 	c #30282A",
"Wi 	c #22201E",
"Xi 	c #2C2522",
"Yi 	c #2B2824",
"Zi 	c #2D2824",
"`i 	c #282123",
" j 	c #292125",
".j 	c #2C2827",
"+j 	c #2C2122",
"@j 	c #2B2223",
"#j 	c #292423",
"$j 	c #312827",
"%j 	c #2B2726",
"&j 	c #2C2726",
"*j 	c #2D2527",
"=j 	c #2D2926",
"-j 	c #2D2727",
";j 	c #292625",
">j 	c #292623",
",j 	c #2E2427",
"'j 	c #2B2023",
")j 	c #2C2524",
"!j 	c #2E2324",
"~j 	c #292122",
"{j 	c #2D2624",
"]j 	c #2A2121",
"^j 	c #2A2425",
"/j 	c #292124",
"(j 	c #2C2526",
"_j 	c #292024",
":j 	c #2D2425",
"<j 	c #332929",
"[j 	c #2E2322",
"}j 	c #2E2424",
"|j 	c #2D2524",
"1j 	c #292020",
"2j 	c #2C252A",
"3j 	c #2A2324",
"4j 	c #282223",
"5j 	c #2E2625",
"6j 	c #322628",
"7j 	c #2B2525",
"8j 	c #2C2325",
"9j 	c #312627",
"0j 	c #272022",
"aj 	c #2A2122",
"bj 	c #2F2627",
"cj 	c #282226",
"dj 	c #2A2326",
"ej 	c #292525",
"fj 	c #272324",
"gj 	c #2F2F2F",
"hj 	c #130D09",
"ij 	c #110904",
"jj 	c #070100",
"kj 	c #616364",
"lj 	c #252423",
"mj 	c #343636",
"nj 	c #17120D",
"oj 	c #1E1A15",
"pj 	c #141611",
"qj 	c #302E31",
"rj 	c #29272C",
"sj 	c #151619",
"tj 	c #363837",
"uj 	c #2B2629",
"vj 	c #2C2527",
"wj 	c #292526",
"xj 	c #2D2929",
"yj 	c #282624",
"zj 	c #2E2925",
"Aj 	c #2D2626",
"Bj 	c #2B2524",
"Cj 	c #2E2828",
"Dj 	c #2F2729",
"Ej 	c #2E2727",
"Fj 	c #2A2525",
"Gj 	c #32272A",
"Hj 	c #2C2027",
"Ij 	c #30252A",
"Jj 	c #2E2729",
"Kj 	c #2E282C",
"Lj 	c #2E292B",
"Mj 	c #2F2928",
"Nj 	c #2D2526",
"Oj 	c #292223",
"Pj 	c #272323",
"Qj 	c #282323",
"Rj 	c #292425",
"Sj 	c #2C2224",
"Tj 	c #2D2728",
"Uj 	c #2B2527",
"Vj 	c #2C2627",
"Wj 	c #2C2423",
"Xj 	c #332C2E",
"Yj 	c #2C2426",
"Zj 	c #2C2427",
"`j 	c #2F2628",
" k 	c #2F2926",
".k 	c #2B2725",
"+k 	c #2C2425",
"@k 	c #2E2728",
"#k 	c #2F272A",
"$k 	c #342D2E",
"%k 	c #2D2627",
"&k 	c #302928",
"*k 	c #2E2626",
"=k 	c #312B2B",
"-k 	c #2F2425",
";k 	c #2D2525",
">k 	c #2C2727",
",k 	c #272624",
"'k 	c #2B2324",
")k 	c #2F2726",
"!k 	c #282228",
"~k 	c #282321",
"{k 	c #2E2928",
"]k 	c #2B2826",
"^k 	c #282524",
"/k 	c #292727",
"(k 	c #28262A",
"_k 	c #24262A",
":k 	c #212328",
"<k 	c #555456",
"[k 	c #1B201F",
"}k 	c #2C302E",
"|k 	c #170D0C",
"1k 	c #100606",
"2k 	c #303334",
"3k 	c #565B5C",
"4k 	c #2B2E30",
"5k 	c #2F3332",
"6k 	c #1A1A15",
"7k 	c #1D1A1E",
"8k 	c #171211",
"9k 	c #313333",
"0k 	c #2A2A30",
"ak 	c #121216",
"bk 	c #0D0706",
"ck 	c #0F0A08",
"dk 	c #060A05",
"ek 	c #1B1F1E",
"fk 	c #191D1E",
"gk 	c #120C0D",
"hk 	c #130D0A",
"ik 	c #130C0C",
"jk 	c #120E0E",
"kk 	c #15100E",
"lk 	c #120B0A",
"mk 	c #120B0B",
"nk 	c #110B0B",
"ok 	c #110909",
"pk 	c #110A09",
"qk 	c #14090C",
"rk 	c #120D0B",
"sk 	c #120C0B",
"tk 	c #140C0C",
"uk 	c #120B07",
"vk 	c #150E0E",
"wk 	c #120909",
"xk 	c #130D0B",
"yk 	c #130B0A",
"zk 	c #110C0B",
"Ak 	c #120C09",
"Bk 	c #140F0F",
"Ck 	c #120D0C",
"Dk 	c #150D0D",
"Ek 	c #110C0A",
"Fk 	c #160E0D",
"Gk 	c #110B07",
"Hk 	c #120A07",
"Ik 	c #130B0D",
"Jk 	c #120A09",
"Kk 	c #0F0B09",
"Lk 	c #0E0807",
"Mk 	c #11080A",
"Nk 	c #120C0C",
"Ok 	c #120807",
"Pk 	c #100808",
"Qk 	c #100A09",
"Rk 	c #10090B",
"Sk 	c #110C0D",
"Tk 	c #060804",
"Uk 	c #0E0B0D",
"Vk 	c #404143",
"Wk 	c #131116",
"Xk 	c #303231",
"Yk 	c #100806",
"Zk 	c #100804",
"`k 	c #0A0303",
" l 	c #5A5C5D",
".l 	c #050804",
"+l 	c #2F3232",
"@l 	c #363939",
"#l 	c #160E0B",
"$l 	c #282D2C",
"%l 	c #151213",
"&l 	c #0D0807",
"*l 	c #31322F",
"=l 	c #1D1B1B",
"-l 	c #191E1D",
";l 	c #090D09",
">l 	c #080B09",
",l 	c #090C08",
"'l 	c #0E0806",
")l 	c #100906",
"!l 	c #0E0906",
"~l 	c #110A07",
"{l 	c #100908",
"]l 	c #0C0B05",
"^l 	c #0F0806",
"/l 	c #100909",
"(l 	c #100B08",
"_l 	c #100A06",
":l 	c #0E0607",
"<l 	c #0F0807",
"[l 	c #100707",
"}l 	c #100809",
"|l 	c #100A0A",
"1l 	c #110808",
"2l 	c #110A06",
"3l 	c #0E0909",
"4l 	c #100B09",
"5l 	c #0D0809",
"6l 	c #151819",
"7l 	c #16100D",
"8l 	c #110804",
"9l 	c #100602",
"0l 	c #242121",
"al 	c #373A38",
"bl 	c #19130E",
"cl 	c #363737",
"dl 	c #000202",
"el 	c #636468",
"fl 	c #333334",
"gl 	c #140F10",
"hl 	c #13130F",
"il 	c #120E0F",
"jl 	c #130E0E",
"kl 	c #141110",
"ll 	c #15120F",
"ml 	c #14120F",
"nl 	c #0F110C",
"ol 	c #120E0D",
"pl 	c #13120B",
"ql 	c #101411",
"rl 	c #393A3D",
"sl 	c #303330",
"tl 	c #150E07",
"ul 	c #110505",
"vl 	c #130907",
"wl 	c #080000",
"xl 	c #595B5E",
"yl 	c #181516",
"zl 	c #242723",
"Al 	c #181513",
"Bl 	c #1C1814",
"Cl 	c #2C2B2E",
"Dl 	c #202227",
"El 	c #2C3231",
"Fl 	c #101410",
"Gl 	c #646568",
"Hl 	c #0E0E12",
"Il 	c #0B0F0C",
"Jl 	c #130F11",
"Kl 	c #0B0E0D",
"Ll 	c #141010",
"Ml 	c #120E10",
"Nl 	c #110F11",
"Ol 	c #0D0A0B",
"Pl 	c #0F0B0E",
"Ql 	c #1C1B20",
"Rl 	c #282A27",
"Sl 	c #30312F",
"Tl 	c #150D08",
"Ul 	c #120A06",
"Vl 	c #292D30",
"Wl 	c #191519",
"Xl 	c #606263",
"Yl 	c #383938",
"Zl 	c #15100F",
"`l 	c #1B1916",
" m 	c #333437",
".m 	c #2A2C2B",
"+m 	c #2D3133",
"@m 	c #666A6A",
"#m 	c #100C0B",
"$m 	c #090602",
"%m 	c #797C7A",
"&m 	c #787B7B",
"*m 	c #6B6A6E",
"=m 	c #747375",
"-m 	c #6F716F",
";m 	c #737373",
">m 	c #777778",
",m 	c #737679",
"'m 	c #737273",
")m 	c #6B6C6A",
"!m 	c #727674",
"~m 	c #79797A",
"{m 	c #76767A",
"]m 	c #78787B",
"^m 	c #75767A",
"/m 	c #767D7A",
"(m 	c #7A7A78",
"_m 	c #797C7B",
":m 	c #7E7E7E",
"<m 	c #7C7B7E",
"[m 	c #7E7E7F",
"}m 	c #767A7D",
"|m 	c #787C7B",
"1m 	c #757476",
"2m 	c #757575",
"3m 	c #757576",
"4m 	c #7A7B7A",
"5m 	c #777878",
"6m 	c #7A7D81",
"7m 	c #777A7B",
"8m 	c #727476",
"9m 	c #7B7C7F",
"0m 	c #747674",
"am 	c #757674",
"bm 	c #737477",
"cm 	c #797D7B",
"dm 	c #7D8180",
"em 	c #7D7D81",
"fm 	c #777577",
"gm 	c #777776",
"hm 	c #7D7D7C",
"im 	c #7D7D7E",
"jm 	c #787A78",
"km 	c #7E7E7C",
"lm 	c #797878",
"mm 	c #7B7B7C",
"nm 	c #7A7D7D",
"om 	c #7C7E7F",
"pm 	c #7E7D7F",
"qm 	c #7C7E80",
"rm 	c #777C7E",
"sm 	c #7C7D7D",
"tm 	c #777978",
"um 	c #7B7B7D",
"vm 	c #78797B",
"wm 	c #6E6C6F",
"xm 	c #7F807F",
"ym 	c #777877",
"zm 	c #838689",
"Am 	c #7D7D82",
"Bm 	c #7E7F82",
"Cm 	c #787B7E",
"Dm 	c #7D7F80",
"Em 	c #7D7E7E",
"Fm 	c #7A7E81",
"Gm 	c #76787B",
"Hm 	c #757677",
"Im 	c #797B7A",
"Jm 	c #7B7A7C",
"Km 	c #808082",
"Lm 	c #77797E",
"Mm 	c #79797B",
"Nm 	c #7D7E81",
"Om 	c #7D7D7F",
"Pm 	c #323232",
"Qm 	c #2E302E",
"Rm 	c #636465",
"Sm 	c #100C09",
"Tm 	c #373837",
"Um 	c #14100F",
"Vm 	c #1B1A16",
"Wm 	c #272C2D",
"Xm 	c #050203",
"Ym 	c #1D211E",
"Zm 	c #1A1D20",
"`m 	c #191E1E",
" n 	c #414142",
".n 	c #1D1F1B",
"+n 	c #1E1F25",
"@n 	c #222729",
"#n 	c #4F5052",
"$n 	c #202525",
"%n 	c #211C20",
"&n 	c #1A1B20",
"*n 	c #393B3B",
"=n 	c #140E0A",
"-n 	c #120A05",
";n 	c #100B05",
">n 	c #5C5E5E",
",n 	c #2A2D2C",
"'n 	c #14110F",
")n 	c #282B28",
"!n 	c #0F1312",
"~n 	c #3A3C3E",
"{n 	c #373636",
"]n 	c #1B1D21",
"^n 	c #130E0A",
"/n 	c #140703",
"(n 	c #0A0000",
"_n 	c #140F0E",
":n 	c #2B2D31",
"<n 	c #17191C",
"[n 	c #20231E",
"}n 	c #676A68",
"|n 	c #100D08",
"1n 	c #101116",
"2n 	c #363639",
"3n 	c #140D0A",
"4n 	c #110905",
"5n 	c #302F32",
"6n 	c #4B4D4B",
"7n 	c #0D0502",
"8n 	c #0F0C06",
"9n 	c #393A3A",
"0n 	c #16100E",
"an 	c #211D20",
"bn 	c #131716",
"cn 	c #656465",
"dn 	c #1E2423",
"en 	c #1F1E1C",
"fn 	c #40413F",
"gn 	c #4A4C4E",
"hn 	c #0A0708",
"in 	c #1E211D",
"jn 	c #212126",
"kn 	c #363633",
"ln 	c #130F0A",
"mn 	c #110A05",
"nn 	c #474949",
"on 	c #343637",
"pn 	c #1A1717",
"qn 	c #15110B",
"rn 	c #1B1A15",
"sn 	c #020404",
"tn 	c #0E0E07",
"un 	c #18181C",
"vn 	c #1B1F21",
"wn 	c #373B3A",
"xn 	c #1E1F24",
"yn 	c #2A2F2E",
"zn 	c #1A1F1F",
"An 	c #393A3B",
"Bn 	c #171A1C",
"Cn 	c #140D0D",
"Dn 	c #110603",
"En 	c #272B2D",
"Fn 	c #161410",
"Gn 	c #2E3130",
"Hn 	c #050706",
"In 	c #090603",
"Jn 	c #100B07",
"Kn 	c #1D1C21",
"Ln 	c #414345",
"Mn 	c #1C221F",
"Nn 	c #464848",
"On 	c #161B19",
"Pn 	c #150F09",
"Qn 	c #4C4C50",
"Rn 	c #0C0A04",
"Sn 	c #110907",
"Tn 	c #16100F",
"Un 	c #343537",
"Vn 	c #717575",
"Wn 	c #484B4C",
"Xn 	c #202524",
"Yn 	c #0C0D10",
"Zn 	c #010302",
"`n 	c #141114",
" o 	c #202327",
".o 	c #3D3C3D",
"+o 	c #201D21",
"@o 	c #170D0A",
"#o 	c #0E0E08",
"$o 	c #39393C",
"%o 	c #181515",
"&o 	c #1B1A14",
"*o 	c #070505",
"=o 	c #706E71",
"-o 	c #161511",
";o 	c #444647",
">o 	c #323334",
",o 	c #1B1E21",
"'o 	c #120E09",
")o 	c #120A08",
"!o 	c #2E2C2D",
"~o 	c #434748",
"{o 	c #050808",
"]o 	c #13130E",
"^o 	c #3D3C3E",
"/o 	c #191516",
"(o 	c #15110F",
"_o 	c #2B2A2E",
":o 	c #626866",
"<o 	c #211F23",
"[o 	c #49494D",
"}o 	c #232827",
"|o 	c #47474A",
"1o 	c #111516",
"2o 	c #39393A",
"3o 	c #1A1B18",
"4o 	c #141009",
"5o 	c #0F0B04",
"6o 	c #0C0708",
"7o 	c #444748",
"8o 	c #363736",
"9o 	c #2A2A2E",
"0o 	c #222828",
"ao 	c #130E08",
"bo 	c #1D1B1F",
"co 	c #4F4F50",
"do 	c #10140F",
"eo 	c #24272B",
"fo 	c #0F130F",
"go 	c #06070A",
"ho 	c #6D6D6D",
"io 	c #130F0B",
"jo 	c #1D1E23",
"ko 	c #1B1E22",
"lo 	c #3C4041",
"mo 	c #1B2021",
"no 	c #1D2224",
"oo 	c #48494C",
"po 	c #23252A",
"qo 	c #3F403D",
"ro 	c #160C07",
"so 	c #110705",
"to 	c #515253",
"uo 	c #1A1716",
"vo 	c #18191D",
"wo 	c #696C6C",
"xo 	c #282D2D",
"yo 	c #424443",
"zo 	c #151410",
"Ao 	c #100704",
"Bo 	c #090000",
"Co 	c #2A2928",
"Do 	c #1E1B1F",
"Eo 	c #464448",
"Fo 	c #3B3B3D",
"Go 	c #31312F",
"Ho 	c #727474",
"Io 	c #111414",
"Jo 	c #41464D",
"Ko 	c #090A03",
"Lo 	c #3B3D3F",
"Mo 	c #323433",
"No 	c #151210",
"Oo 	c #313132",
"Po 	c #2F302F",
"Qo 	c #4E5052",
"Ro 	c #3A393A",
"So 	c #6F7175",
"To 	c #0C0B04",
"Uo 	c #1C191B",
"Vo 	c #4A4C4D",
"Wo 	c #1B1B20",
"Xo 	c #16181B",
"Yo 	c #282A2F",
"Zo 	c #434646",
"`o 	c #444447",
" p 	c #333636",
".p 	c #140D06",
"+p 	c #140A05",
"@p 	c #1B1817",
"#p 	c #3B3F3F",
"$p 	c #161311",
"%p 	c #1C1918",
"&p 	c #170F0C",
"*p 	c #1E1C16",
"=p 	c #090605",
"-p 	c #151916",
";p 	c #080505",
">p 	c #393C3C",
",p 	c #252A2E",
"'p 	c #242927",
")p 	c #24292A",
"!p 	c #1F2421",
"~p 	c #393939",
"{p 	c #160D0B",
"]p 	c #140706",
"^p 	c #070000",
"/p 	c #3C3E40",
"(p 	c #090504",
"_p 	c #3E403E",
":p 	c #15100A",
"<p 	c #3F4346",
"[p 	c #2B2F2E",
"}p 	c #1B2121",
"|p 	c #4E5151",
"1p 	c #47494A",
"2p 	c #333535",
"3p 	c #18100D",
"4p 	c #2D2B2B",
"5p 	c #414242",
"6p 	c #3F3F3F",
"7p 	c #161713",
"8p 	c #17100B",
"9p 	c #1D1915",
"0p 	c #0E0B05",
"ap 	c #020603",
"bp 	c #030600",
"cp 	c #1E2125",
"dp 	c #35373A",
"ep 	c #17181D",
"fp 	c #1D2424",
"gp 	c #1C2023",
"hp 	c #1C201D",
"ip 	c #333739",
"jp 	c #190F09",
"kp 	c #130A06",
"lp 	c #0A0100",
"mp 	c #2B2F30",
"np 	c #1A1615",
"op 	c #17110D",
"pp 	c #1A1714",
"qp 	c #030605",
"rp 	c #2C2B2B",
"sp 	c #2B3030",
"tp 	c #29282C",
"up 	c #26282C",
"vp 	c #393C3E",
"wp 	c #36373B",
"xp 	c #12130E",
"yp 	c #373939",
"zp 	c #170C0A",
"Ap 	c #090100",
"Bp 	c #39383B",
"Cp 	c #16120C",
"Dp 	c #2A282C",
"Ep 	c #191C1F",
"Fp 	c #212529",
"Gp 	c #4B4B4D",
"Hp 	c #3D3E3B",
"Ip 	c #3E3F43",
"Jp 	c #2F3131",
"Kp 	c #180D0B",
"Lp 	c #110807",
"Mp 	c #0A0300",
"Np 	c #3E4241",
"Op 	c #3B3A3B",
"Pp 	c #222320",
"Qp 	c #323535",
"Rp 	c #010301",
"Sp 	c #6D6C70",
"Tp 	c #23242A",
"Up 	c #312F31",
"Vp 	c #151A18",
"Wp 	c #181C1D",
"Xp 	c #1D221F",
"Yp 	c #0D1214",
"Zp 	c #464548",
"`p 	c #16100C",
" q 	c #120806",
".q 	c #130906",
"+q 	c #0D0100",
"@q 	c #4E4C4E",
"#q 	c #0F0B0D",
"$q 	c #1B1915",
"%q 	c #474649",
"&q 	c #1F1C1F",
"*q 	c #1A1E21",
"=q 	c #1F2326",
"-q 	c #292E2C",
";q 	c #160D09",
">q 	c #2C292B",
",q 	c #47494C",
"'q 	c #383A38",
")q 	c #1D2024",
"!q 	c #16120D",
"~q 	c #1B1816",
"{q 	c #151611",
"]q 	c #313134",
"^q 	c #0E0F09",
"/q 	c #2F3231",
"(q 	c #22262A",
"_q 	c #17171B",
":q 	c #171414",
"<q 	c #2C2D30",
"[q 	c #373737",
"}q 	c #170D08",
"|q 	c #120905",
"1q 	c #120604",
"2q 	c #0C0000",
"3q 	c #444445",
"4q 	c #363839",
"5q 	c #363437",
"6q 	c #29292E",
"7q 	c #13140D",
"8q 	c #060001",
"9q 	c #181A1E",
"0q 	c #030405",
"aq 	c #3A3E42",
"bq 	c #1A2020",
"cq 	c #36383B",
"dq 	c #424546",
"eq 	c #404244",
"fq 	c #160807",
"gq 	c #4D4D4F",
"hq 	c #15140F",
"iq 	c #17140C",
"jq 	c #1A1713",
"kq 	c #151711",
"lq 	c #040606",
"mq 	c #100F0A",
"nq 	c #424447",
"oq 	c #313336",
"pq 	c #28282D",
"qq 	c #1B1C21",
"rq 	c #3A3C3B",
"sq 	c #3C3F3D",
"tq 	c #1B181C",
"uq 	c #160F0A",
"vq 	c #140806",
"wq 	c #120803",
"xq 	c #090101",
"yq 	c #535757",
"zq 	c #313331",
"Aq 	c #727475",
"Bq 	c #1D1F24",
"Cq 	c #0A080B",
"Dq 	c #464745",
"Eq 	c #1E2325",
"Fq 	c #131215",
"Gq 	c #130A04",
"Hq 	c #120804",
"Iq 	c #444848",
"Jq 	c #15191B",
"Kq 	c #353739",
"Lq 	c #383B3B",
"Mq 	c #151211",
"Nq 	c #363535",
"Oq 	c #040305",
"Pq 	c #262B2B",
"Qq 	c #131618",
"Rq 	c #48474B",
"Sq 	c #4E4E52",
"Tq 	c #353535",
"Uq 	c #1B191D",
"Vq 	c #140704",
"Wq 	c #0A0200",
"Xq 	c #1F2227",
"Yq 	c #535254",
"Zq 	c #160F0F",
"`q 	c #1B1A13",
" r 	c #171512",
".r 	c #505453",
"+r 	c #313135",
"@r 	c #4A4B4C",
"#r 	c #484A4C",
"$r 	c #77797B",
"%r 	c #121012",
"&r 	c #030705",
"*r 	c #1E1C21",
"=r 	c #1E2226",
"-r 	c #434448",
";r 	c #21242A",
">r 	c #26262B",
",r 	c #292930",
"'r 	c #100D09",
")r 	c #141817",
"!r 	c #131718",
"~r 	c #211E20",
"{r 	c #130904",
"]r 	c #110606",
"^r 	c #2C2D31",
"/r 	c #565656",
"(r 	c #090509",
"_r 	c #73777C",
":r 	c #0D0C10",
"<r 	c #38373C",
"[r 	c #1D1A1F",
"}r 	c #07070B",
"|r 	c #151919",
"1r 	c #15171C",
"2r 	c #383739",
"3r 	c #464749",
"4r 	c #1F2524",
"5r 	c #130D08",
"6r 	c #0E1312",
"7r 	c #171814",
"8r 	c #161710",
"9r 	c #111512",
"0r 	c #201F24",
"ar 	c #1A1E20",
"br 	c #181C19",
"cr 	c #140C0A",
"dr 	c #191914",
"er 	c #313332",
"fr 	c #1C1C21",
"gr 	c #424446",
"hr 	c #13120D",
"ir 	c #343538",
"jr 	c #202026",
"kr 	c #1D1A1C",
"lr 	c #181A16",
"mr 	c #170D09",
"nr 	c #0F0803",
"or 	c #0B0000",
"pr 	c #16110C",
"qr 	c #292D2E",
"rr 	c #020502",
"sr 	c #454549",
"tr 	c #090C0A",
"ur 	c #1B2122",
"vr 	c #0C100D",
"wr 	c #0B090B",
"xr 	c #0E090B",
"yr 	c #080A0B",
"zr 	c #1E2025",
"Ar 	c #232022",
"Br 	c #0B090A",
"Cr 	c #160C0C",
"Dr 	c #100507",
"Er 	c #130807",
"Fr 	c #0B0300",
"Gr 	c #343635",
"Hr 	c #212421",
"Ir 	c #313133",
"Jr 	c #6F7073",
"Kr 	c #7E8081",
"Lr 	c #747578",
"Mr 	c #78787C",
"Nr 	c #7D7F82",
"Or 	c #777C7F",
"Pr 	c #808384",
"Qr 	c #7D7E82",
"Rr 	c #7C8080",
"Sr 	c #858486",
"Tr 	c #7F8386",
"Ur 	c #808284",
"Vr 	c #7E8284",
"Wr 	c #838487",
"Xr 	c #818386",
"Yr 	c #808283",
"Zr 	c #7F8185",
"`r 	c #828584",
" s 	c #808183",
".s 	c #4F504E",
"+s 	c #070506",
"@s 	c #040806",
"#s 	c #7F8384",
"$s 	c #808387",
"%s 	c #7E7F86",
"&s 	c #7B7D81",
"*s 	c #818283",
"=s 	c #797D80",
"-s 	c #7E7F84",
";s 	c #727679",
">s 	c #7D8080",
",s 	c #828384",
"'s 	c #828588",
")s 	c #7E8182",
"!s 	c #818484",
"~s 	c #7F8181",
"{s 	c #7D7F7F",
"]s 	c #3B3E3E",
"^s 	c #353531",
"/s 	c #2A2927",
"(s 	c #010403",
"_s 	c #1F2422",
":s 	c #131719",
"<s 	c #26232A",
"[s 	c #1B2020",
"}s 	c #373537",
"|s 	c #221F21",
"1s 	c #1D1A1B",
"2s 	c #150D0C",
"3s 	c #38393A",
"4s 	c #14150F",
"5s 	c #1D1C17",
"6s 	c #303332",
"7s 	c #0C0A02",
"8s 	c #010402",
"9s 	c #4B4D4E",
"0s 	c #434344",
"as 	c #23272A",
"bs 	c #160D08",
"cs 	c #120A03",
"ds 	c #252926",
"es 	c #2D2D32",
"fs 	c #494D4C",
"gs 	c #1B201E",
"hs 	c #4D4E4F",
"is 	c #1D1E24",
"js 	c #27262C",
"ks 	c #363534",
"ls 	c #160C08",
"ms 	c #110706",
"ns 	c #0C0100",
"os 	c #14120D",
"ps 	c #2F2D2D",
"qs 	c #070608",
"rs 	c #4C4E4E",
"ss 	c #161B1A",
"ts 	c #454847",
"us 	c #1C2122",
"vs 	c #1D2423",
"ws 	c #3F3F44",
"xs 	c #2E2E2C",
"ys 	c #0E0101",
"zs 	c #252322",
"As 	c #2E3134",
"Bs 	c #1A181C",
"Cs 	c #1E1C1B",
"Ds 	c #211E1F",
"Es 	c #373535",
"Fs 	c #201E24",
"Gs 	c #414446",
"Hs 	c #030203",
"Is 	c #363734",
"Js 	c #393C3B",
"Ks 	c #14130E",
"Ls 	c #1B1914",
"Ms 	c #30302F",
"Ns 	c #4D4D50",
"Os 	c #262B2E",
"Ps 	c #37393C",
"Qs 	c #201D22",
"Rs 	c #201C20",
"Ss 	c #0C0F0E",
"Ts 	c #130B08",
"Us 	c #130905",
"Vs 	c #0C0202",
"Ws 	c #232126",
"Xs 	c #141109",
"Ys 	c #484B4B",
"Zs 	c #464648",
"`s 	c #161213",
" t 	c #343335",
".t 	c #1E1B1B",
"+t 	c #140B09",
"@t 	c #090201",
"#t 	c #0B070A",
"$t 	c #302F30",
"%t 	c #232320",
"&t 	c #262522",
"*t 	c #080701",
"=t 	c #4C4D4E",
"-t 	c #1F2525",
";t 	c #4C4F50",
">t 	c #191515",
",t 	c #141113",
"'t 	c #333231",
")t 	c #232021",
"!t 	c #2F302D",
"~t 	c #191A14",
"{t 	c #080500",
"]t 	c #4E4F51",
"^t 	c #484C4C",
"/t 	c #151111",
"(t 	c #313433",
"_t 	c #060203",
":t 	c #080A09",
"<t 	c #4F5051",
"[t 	c #181A1D",
"}t 	c #15181A",
"|t 	c #0B0709",
"1t 	c #040600",
"2t 	c #16120B",
"3t 	c #21221E",
"4t 	c #11120B",
"5t 	c #505352",
"6t 	c #242222",
"7t 	c #1D2124",
"8t 	c #313437",
"9t 	c #16161C",
"0t 	c #040306",
"at 	c #171413",
"bt 	c #221E1F",
"ct 	c #1A1A16",
"dt 	c #595C5C",
"et 	c #202126",
"ft 	c #191E1F",
"gt 	c #333738",
"ht 	c #262429",
"it 	c #242127",
"jt 	c #313130",
"kt 	c #1E1A1D",
"lt 	c #221E21",
"mt 	c #10110B",
"nt 	c #1B1E1A",
"ot 	c #565254",
"pt 	c #070700",
"qt 	c #49484D",
"rt 	c #37393B",
"st 	c #020405",
"tt 	c #292A2F",
"ut 	c #1A1715",
"vt 	c #191C18",
"wt 	c #050308",
"xt 	c #58595B",
"yt 	c #0D0D10",
"zt 	c #454846",
"At 	c #1E2126",
"Bt 	c #3F4043",
"Ct 	c #474B4C",
"Dt 	c #0E1212",
"Et 	c #434647",
"Ft 	c #171312",
"Gt 	c #31322E",
"Ht 	c #1E1B1E",
"It 	c #252121",
"Jt 	c #1F1B1E",
"Kt 	c #010400",
"Lt 	c #2D2F30",
"Mt 	c #4B4E4F",
"Nt 	c #2B292D",
"Ot 	c #171412",
"Pt 	c #2F2E2F",
"Qt 	c #242122",
"Rt 	c #1C1919",
"St 	c #1D1C1A",
"Tt 	c #231F24",
"Ut 	c #120D0E",
"Vt 	c #150F0B",
"Wt 	c #171C1C",
"Xt 	c #353434",
"Yt 	c #535654",
"Zt 	c #121114",
"`t 	c #151112",
" u 	c #0A0509",
".u 	c #222025",
"+u 	c #1C2325",
"@u 	c #181413",
"#u 	c #323030",
"$u 	c #272425",
"%u 	c #252123",
"&u 	c #221E20",
"*u 	c #070801",
"=u 	c #1A1A13",
"-u 	c #252321",
";u 	c #1A1D17",
">u 	c #0C0D06",
",u 	c #4E4D50",
"'u 	c #000301",
")u 	c #292723",
"!u 	c #231F22",
"~u 	c #1A1D18",
"{u 	c #3B3C3E",
"]u 	c #3D3F42",
"^u 	c #252328",
"/u 	c #201C1D",
"(u 	c #292627",
"_u 	c #171410",
":u 	c #353533",
"<u 	c #1C191C",
"[u 	c #242021",
"}u 	c #221F1F",
"|u 	c #161315",
"1u 	c #1B1714",
"2u 	c #3A3D3E",
"3u 	c #3A3B3B",
"4u 	c #46474A",
"5u 	c #1D2025",
"6u 	c #22282A",
"7u 	c #3B3D3B",
"8u 	c #161212",
"9u 	c #323130",
"0u 	c #211B1F",
"au 	c #1F191C",
"bu 	c #242221",
"cu 	c #1C191A",
"du 	c #1F1C1C",
"eu 	c #14171A",
"fu 	c #15100C",
"gu 	c #343738",
"hu 	c #36383A",
"iu 	c #252A2D",
"ju 	c #211E22",
"ku 	c #191613",
"lu 	c #161110",
"mu 	c #363132",
"nu 	c #211D1E",
"ou 	c #221D1D",
"pu 	c #1E191B",
"qu 	c #252221",
"ru 	c #252122",
"su 	c #181B16",
"tu 	c #1A1913",
"uu 	c #484946",
"vu 	c #3B3D41",
"wu 	c #010601",
"xu 	c #1A1F20",
"yu 	c #46464A",
"zu 	c #252225",
"Au 	c #292729",
"Bu 	c #070202",
"Cu 	c #181410",
"Du 	c #181312",
"Eu 	c #363131",
"Fu 	c #262223",
"Gu 	c #201A1E",
"Hu 	c #211D1F",
"Iu 	c #0B0F0B",
"Ju 	c #17110E",
"Ku 	c #313335",
"Lu 	c #0F0F09",
"Mu 	c #27292D",
"Nu 	c #252422",
"Ou 	c #464A4C",
"Pu 	c #252220",
"Qu 	c #2F2D2E",
"Ru 	c #191312",
"Su 	c #343231",
"Tu 	c #231F21",
"Uu 	c #231F1F",
"Vu 	c #201D1C",
"Wu 	c #241E1E",
"Xu 	c #241F1F",
"Yu 	c #231F20",
"Zu 	c #231E21",
"`u 	c #211E1D",
" v 	c #221D1F",
".v 	c #17100C",
"+v 	c #1B1614",
"@v 	c #302F34",
"#v 	c #4F5252",
"$v 	c #2B2B2F",
"%v 	c #1F2128",
"&v 	c #3E4043",
"*v 	c #221C1F",
"=v 	c #2B2929",
"-v 	c #0A0404",
";v 	c #1A1411",
">v 	c #322E2F",
",v 	c #24201F",
"'v 	c #251E1F",
")v 	c #272123",
"!v 	c #201C1B",
"~v 	c #262122",
"{v 	c #292323",
"]v 	c #241D1F",
"^v 	c #252021",
"/v 	c #262323",
"(v 	c #221E1D",
"_v 	c #1D1A1A",
":v 	c #141216",
"<v 	c #353939",
"[v 	c #424545",
"}v 	c #1D1C22",
"|v 	c #37383D",
"1v 	c #242023",
"2v 	c #090304",
"3v 	c #1C1511",
"4v 	c #181311",
"5v 	c #383433",
"6v 	c #262224",
"7v 	c #2B2425",
"8v 	c #242020",
"9v 	c #292226",
"0v 	c #201A1C",
"av 	c #282423",
"bv 	c #221D1E",
"cv 	c #1F1C20",
"dv 	c #1C1812",
"ev 	c #35393A",
"fv 	c #323234",
"gv 	c #231F1D",
"hv 	c #2D2A29",
"iv 	c #1B1514",
"jv 	c #1B1315",
"kv 	c #373635",
"lv 	c #1D191C",
"mv 	c #262121",
"nv 	c #262025",
"ov 	c #272423",
"pv 	c #2C2323",
"qv 	c #2C2724",
"rv 	c #2A2123",
"sv 	c #25211E",
"tv 	c #221C1D",
"uv 	c #353736",
"vv 	c #404444",
"wv 	c #1C1A1F",
"xv 	c #3A3A42",
"yv 	c #3E4142",
"zv 	c #131012",
"Av 	c #242321",
"Bv 	c #252124",
"Cv 	c #242120",
"Dv 	c #2A2728",
"Ev 	c #1D1511",
"Fv 	c #1C1312",
"Gv 	c #282121",
"Hv 	c #262020",
"Iv 	c #231B1B",
"Jv 	c #2A2221",
"Kv 	c #241D20",
"Lv 	c #1E0B09",
"Mv 	c #1F0001",
"Nv 	c #210703",
"Ov 	c #251214",
"Pv 	c #2B2022",
"Qv 	c #261F20",
"Rv 	c #201C1E",
"Sv 	c #211D1D",
"Tv 	c #211B1C",
"Uv 	c #3E4040",
"Vv 	c #1C211F",
"Wv 	c #464A4D",
"Xv 	c #1F2527",
"Yv 	c #070407",
"Zv 	c #272C2B",
"`v 	c #1C2221",
" w 	c #1E1A1A",
".w 	c #221F1D",
"+w 	c #23201F",
"@w 	c #232220",
"#w 	c #090302",
"$w 	c #1A1310",
"%w 	c #352E2F",
"&w 	c #2A2225",
"*w 	c #2E2526",
"=w 	c #2B181A",
"-w 	c #220800",
";w 	c #0F0000",
">w 	c #260707",
",w 	c #31080D",
"'w 	c #292622",
")w 	c #2B2222",
"!w 	c #262022",
"~w 	c #231D1D",
"{w 	c #201E1D",
"]w 	c #1E1A1E",
"^w 	c #373C3B",
"/w 	c #181D1C",
"(w 	c #38393B",
"_w 	c #46484B",
":w 	c #212429",
"<w 	c #25282C",
"[w 	c #252222",
"}w 	c #2E2D2B",
"|w 	c #1D1513",
"1w 	c #1E1413",
"2w 	c #342D2B",
"3w 	c #272124",
"4w 	c #242220",
"5w 	c #2D2222",
"6w 	c #271414",
"7w 	c #1E0000",
"8w 	c #F8FFED",
"9w 	c #3D0000",
"0w 	c #430E17",
"aw 	c #2D2322",
"bw 	c #2E2224",
"cw 	c #261F1E",
"dw 	c #271D1E",
"ew 	c #231F1C",
"fw 	c #282023",
"gw 	c #201C1C",
"hw 	c #231D1F",
"iw 	c #262927",
"jw 	c #141519",
"kw 	c #17130D",
"lw 	c #373A3B",
"mw 	c #151A1A",
"nw 	c #393B3D",
"ow 	c #3F4344",
"pw 	c #201B1D",
"qw 	c #272422",
"rw 	c #1B1310",
"sw 	c #1E1614",
"tw 	c #373131",
"uw 	c #281F20",
"vw 	c #291F20",
"ww 	c #302322",
"xw 	c #2E1B19",
"yw 	c #2D0002",
"zw 	c #FFEAC5",
"Aw 	c #771E0F",
"Bw 	c #450F16",
"Cw 	c #312421",
"Dw 	c #2A1D21",
"Ew 	c #2B2224",
"Fw 	c #231D1C",
"Gw 	c #241D1E",
"Hw 	c #252020",
"Iw 	c #17130C",
"Jw 	c #373A3A",
"Kw 	c #181415",
"Lw 	c #19181D",
"Mw 	c #424043",
"Nw 	c #333936",
"Ow 	c #110E11",
"Pw 	c #020103",
"Qw 	c #282324",
"Rw 	c #2D2829",
"Sw 	c #0D0403",
"Tw 	c #1E1514",
"Uw 	c #1D1412",
"Vw 	c #372F2D",
"Ww 	c #251C1E",
"Xw 	c #272120",
"Yw 	c #272223",
"Zw 	c #28201F",
"`w 	c #2C2022",
" x 	c #322120",
".x 	c #351D1C",
"+x 	c #3A0100",
"@x 	c #FFDDBB",
"#x 	c #821C13",
"$x 	c #51090E",
"%x 	c #312325",
"&x 	c #2F2020",
"*x 	c #281D1F",
"=x 	c #292021",
"-x 	c #251E20",
";x 	c #231D20",
">x 	c #241E21",
",x 	c #1C1E1A",
"'x 	c #2B2C30",
")x 	c #17120C",
"!x 	c #393E3F",
"~x 	c #110F0B",
"{x 	c #1A181E",
"]x 	c #3F3F41",
"^x 	c #2E2C30",
"/x 	c #26242A",
"(x 	c #262322",
"_x 	c #2B2928",
":x 	c #1E1411",
"<x 	c #1C1011",
"[x 	c #342D2D",
"}x 	c #231C1C",
"|x 	c #271F1F",
"1x 	c #281B1C",
"2x 	c #332525",
"3x 	c #2D1C1E",
"4x 	c #321B1A",
"5x 	c #FFE3BB",
"6x 	c #831C14",
"7x 	c #520D12",
"8x 	c #312320",
"9x 	c #2F2121",
"0x 	c #2A2222",
"ax 	c #271E1E",
"bx 	c #231D1E",
"cx 	c #231E1E",
"dx 	c #231E1F",
"ex 	c #1F1A1B",
"fx 	c #1F1B1D",
"gx 	c #171210",
"hx 	c #3B3A3D",
"ix 	c #1F2026",
"jx 	c #262124",
"kx 	c #262222",
"lx 	c #201614",
"mx 	c #3A302F",
"nx 	c #282020",
"ox 	c #342022",
"px 	c #331E20",
"qx 	c #410300",
"rx 	c #FFDFB9",
"sx 	c #812110",
"tx 	c #4D0B0F",
"ux 	c #352120",
"vx 	c #2E1E20",
"wx 	c #271F1D",
"xx 	c #22191A",
"yx 	c #251E1E",
"zx 	c #363A3A",
"Ax 	c #767577",
"Bx 	c #737378",
"Cx 	c #717377",
"Dx 	c #737376",
"Ex 	c #6E7172",
"Fx 	c #6D7173",
"Gx 	c #6D6B6E",
"Hx 	c #68686A",
"Ix 	c #656568",
"Jx 	c #646766",
"Kx 	c #646466",
"Lx 	c #66666B",
"Mx 	c #68686C",
"Nx 	c #5D5F60",
"Ox 	c #2F2D2C",
"Px 	c #565A5A",
"Qx 	c #616464",
"Rx 	c #5F6163",
"Sx 	c #5D6061",
"Tx 	c #606262",
"Ux 	c #606264",
"Vx 	c #5E6063",
"Wx 	c #626364",
"Xx 	c #5E6160",
"Yx 	c #636666",
"Zx 	c #676569",
"`x 	c #5E6262",
" y 	c #666669",
".y 	c #626362",
"+y 	c #5F6262",
"@y 	c #5D5E60",
"#y 	c #575758",
"$y 	c #5A5C5A",
"%y 	c #585858",
"&y 	c #5B5C5C",
"*y 	c #5A5A5C",
"=y 	c #606362",
"-y 	c #5B5A5D",
";y 	c #5B585A",
">y 	c #5F5D60",
",y 	c #5C5D5F",
"'y 	c #25201F",
")y 	c #0B0302",
"!y 	c #221814",
"~y 	c #231916",
"{y 	c #372F2E",
"]y 	c #2A1F20",
"^y 	c #2B2122",
"/y 	c #261F21",
"(y 	c #302425",
"_y 	c #311F1F",
":y 	c #31201E",
"<y 	c #480201",
"[y 	c #FFE2B7",
"}y 	c #8A1F12",
"|y 	c #4F0B11",
"1y 	c #332627",
"2y 	c #2E1D1E",
"3y 	c #2F2120",
"4y 	c #272222",
"5y 	c #211C1E",
"6y 	c #231F23",
"7y 	c #2B2B30",
"8y 	c #383A39",
"9y 	c #101115",
"0y 	c #0B0F10",
"ay 	c #0E1213",
"by 	c #0E1013",
"cy 	c #030205",
"dy 	c #0D0F11",
"ey 	c #0E1014",
"fy 	c #0A0D0F",
"gy 	c #0B0E10",
"hy 	c #0E0F12",
"iy 	c #0E1012",
"jy 	c #0C0E10",
"ky 	c #201B1F",
"ly 	c #0F0507",
"my 	c #211513",
"ny 	c #1F1413",
"oy 	c #3C3030",
"py 	c #281F1E",
"qy 	c #2C2223",
"ry 	c #311E20",
"sy 	c #3A1E1F",
"ty 	c #4A0200",
"uy 	c #FFE5B7",
"vy 	c #832216",
"wy 	c #4C1013",
"xy 	c #352527",
"yy 	c #2B1B1D",
"zy 	c #251D1D",
"Ay 	c #2A1D1F",
"By 	c #261D1E",
"Cy 	c #282122",
"Dy 	c #241E1D",
"Ey 	c #262021",
"Fy 	c #231E20",
"Gy 	c #201F1C",
"Hy 	c #010305",
"Iy 	c #4D4D4E",
"Jy 	c #1C1E23",
"Ky 	c #1D1813",
"Ly 	c #0F1115",
"My 	c #383A3B",
"Ny 	c #38383B",
"Oy 	c #25211F",
"Py 	c #23211F",
"Qy 	c #282526",
"Ry 	c #2C2829",
"Sy 	c #1C1412",
"Ty 	c #191010",
"Uy 	c #383030",
"Vy 	c #2A201E",
"Wy 	c #2F2423",
"Xy 	c #332425",
"Yy 	c #352324",
"Zy 	c #381D1E",
"`y 	c #4D0200",
" z 	c #FFE9BB",
".z 	c #852012",
"+z 	c #491313",
"@z 	c #302123",
"#z 	c #342123",
"$z 	c #2D2224",
"%z 	c #2D1F1F",
"&z 	c #251F20",
"*z 	c #262324",
"=z 	c #252022",
"-z 	c #1D1919",
";z 	c #1F1B1B",
">z 	c #4A4E50",
",z 	c #383B3D",
"'z 	c #444546",
")z 	c #060908",
"!z 	c #262325",
"~z 	c #221F1E",
"{z 	c #262221",
"]z 	c #1E1712",
"^z 	c #1E1313",
"/z 	c #3B3333",
"(z 	c #261D1D",
"_z 	c #271F1E",
":z 	c #2B1F22",
"<z 	c #2D2523",
"[z 	c #2C1F1F",
"}z 	c #382724",
"|z 	c #3E1B1F",
"1z 	c #4E0600",
"2z 	c #871E14",
"3z 	c #530F13",
"4z 	c #332628",
"5z 	c #312022",
"6z 	c #2C1F20",
"7z 	c #2D1D22",
"8z 	c #271F20",
"9z 	c #211C1D",
"0z 	c #221B1E",
"az 	c #222329",
"bz 	c #3D4142",
"cz 	c #4C5050",
"dz 	c #20201D",
"ez 	c #292728",
"fz 	c #282525",
"gz 	c #0B0204",
"hz 	c #201612",
"iz 	c #1E1412",
"jz 	c #393031",
"kz 	c #281F1D",
"lz 	c #2A1F22",
"mz 	c #2E2222",
"nz 	c #362322",
"oz 	c #421E21",
"pz 	c #500402",
"qz 	c #FFE4B6",
"rz 	c #881D11",
"sz 	c #501012",
"tz 	c #3A2B2A",
"uz 	c #2F1D1E",
"vz 	c #271E1F",
"wz 	c #2F2022",
"xz 	c #292022",
"yz 	c #251F21",
"zz 	c #241C1C",
"Az 	c #1F1A1D",
"Bz 	c #201B1C",
"Cz 	c #1D1A19",
"Dz 	c #444243",
"Ez 	c #4C4B4D",
"Fz 	c #1F1A1C",
"Gz 	c #241E1F",
"Hz 	c #2E2829",
"Iz 	c #120706",
"Jz 	c #1C1410",
"Kz 	c #1E1214",
"Lz 	c #372E2F",
"Mz 	c #261E1F",
"Nz 	c #281F1F",
"Oz 	c #312121",
"Pz 	c #32201E",
"Qz 	c #421D1F",
"Rz 	c #550301",
"Sz 	c #FFE6B4",
"Tz 	c #881D12",
"Uz 	c #541419",
"Vz 	c #352322",
"Wz 	c #2A1C1F",
"Xz 	c #211C1B",
"Yz 	c #241E20",
"Zz 	c #231F1E",
"`z 	c #262023",
" A 	c #010303",
".A 	c #545657",
"+A 	c #1C1713",
"@A 	c #383B3C",
"#A 	c #08080A",
"$A 	c #262123",
"%A 	c #1F1819",
"&A 	c #211516",
"*A 	c #352B2B",
"=A 	c #2A201F",
"-A 	c #2F2225",
";A 	c #312525",
">A 	c #322325",
",A 	c #34201E",
"'A 	c #422121",
")A 	c #560501",
"!A 	c #FFE5BA",
"~A 	c #8F2116",
"{A 	c #541319",
"]A 	c #3A292A",
"^A 	c #311F21",
"/A 	c #332626",
"(A 	c #2D1D1F",
"_A 	c #2B2325",
":A 	c #211C1A",
"<A 	c #272427",
"[A 	c #555657",
"}A 	c #191711",
"|A 	c #1A1F1D",
"1A 	c #202420",
"2A 	c #292324",
"3A 	c #261E22",
"4A 	c #0A0202",
"5A 	c #1F1512",
"6A 	c #201514",
"7A 	c #3C3332",
"8A 	c #271C1F",
"9A 	c #281F22",
"0A 	c #2B2220",
"aA 	c #302423",
"bA 	c #322023",
"cA 	c #322121",
"dA 	c #431F21",
"eA 	c #5C0200",
"fA 	c #901E15",
"gA 	c #531415",
"hA 	c #372426",
"iA 	c #312021",
"jA 	c #2F1F22",
"kA 	c #26201F",
"lA 	c #251F1F",
"mA 	c #282124",
"nA 	c #2A2629",
"oA 	c #181611",
"pA 	c #191814",
"qA 	c #17140D",
"rA 	c #282725",
"sA 	c #292F2F",
"tA 	c #424243",
"uA 	c #21211E",
"vA 	c #201E1C",
"wA 	c #282224",
"xA 	c #292927",
"yA 	c #0B0202",
"zA 	c #1F1611",
"AA 	c #201312",
"BA 	c #3B3232",
"CA 	c #2A1F1F",
"DA 	c #312524",
"EA 	c #342426",
"FA 	c #332121",
"GA 	c #422020",
"HA 	c #FFE7B7",
"IA 	c #8E1B10",
"JA 	c #4B1013",
"KA 	c #372425",
"LA 	c #332123",
"MA 	c #312625",
"NA 	c #302324",
"OA 	c #261E1E",
"PA 	c #282523",
"QA 	c #221B1D",
"RA 	c #231C1F",
"SA 	c #333337",
"TA 	c #191B1F",
"UA 	c #272523",
"VA 	c #231C1E",
"WA 	c #252120",
"XA 	c #1F1410",
"YA 	c #392F2E",
"ZA 	c #312224",
"`A 	c #2F2323",
" B 	c #342221",
".B 	c #3F1C1C",
"+B 	c #580300",
"@B 	c #FFE7BD",
"#B 	c #8F2016",
"$B 	c #501212",
"%B 	c #372826",
"&B 	c #301F20",
"*B 	c #2E2624",
"=B 	c #27201F",
"-B 	c #282625",
";B 	c #666568",
">B 	c #18110E",
",B 	c #1C1A13",
"'B 	c #343639",
")B 	c #434648",
"!B 	c #1F1E24",
"~B 	c #212026",
"{B 	c #1A1C21",
"]B 	c #272122",
"^B 	c #2D282A",
"/B 	c #0F0603",
"(B 	c #1E1311",
"_B 	c #1E1513",
":B 	c #3B2E2F",
"<B 	c #2B2120",
"[B 	c #292220",
"}B 	c #2C2020",
"|B 	c #2F2524",
"1B 	c #401D1E",
"2B 	c #530000",
"3B 	c #FEE8BA",
"4B 	c #8A2013",
"5B 	c #521112",
"6B 	c #372828",
"7B 	c #321E22",
"8B 	c #241B1D",
"9B 	c #25201E",
"0B 	c #221D20",
"aB 	c #241F22",
"bB 	c #303233",
"cB 	c #1B1713",
"dB 	c #2F2F2E",
"eB 	c #131317",
"fB 	c #4D5050",
"gB 	c #454548",
"hB 	c #251F24",
"iB 	c #282325",
"jB 	c #312A2A",
"kB 	c #1F1411",
"lB 	c #1F1311",
"mB 	c #393030",
"nB 	c #2A2322",
"oB 	c #302224",
"pB 	c #352320",
"qB 	c #3F201F",
"rB 	c #550300",
"sB 	c #FFE4B3",
"tB 	c #8B1C14",
"uB 	c #50120F",
"vB 	c #362923",
"wB 	c #332021",
"xB 	c #2D2122",
"yB 	c #2E1C1E",
"zB 	c #291F1E",
"AB 	c #231E1D",
"BB 	c #18110D",
"CB 	c #282626",
"DB 	c #3B3E40",
"EB 	c #3F3E43",
"FB 	c #3C3E42",
"GB 	c #424241",
"HB 	c #16191B",
"IB 	c #292224",
"JB 	c #262220",
"KB 	c #2A2524",
"LB 	c #0E0303",
"MB 	c #241616",
"NB 	c #3B312F",
"OB 	c #2D2325",
"PB 	c #2E2423",
"QB 	c #2F2421",
"RB 	c #2C2120",
"SB 	c #312323",
"TB 	c #332320",
"UB 	c #3D1F1F",
"VB 	c #520500",
"WB 	c #FFEAB6",
"XB 	c #901D13",
"YB 	c #571413",
"ZB 	c #312522",
"`B 	c #301D1E",
" C 	c #342424",
".C 	c #2F2424",
"+C 	c #201C1F",
"@C 	c #18120D",
"#C 	c #1C1815",
"$C 	c #2A2827",
"%C 	c #151010",
"&C 	c #29272B",
"*C 	c #363836",
"=C 	c #404243",
"-C 	c #050305",
";C 	c #1E1A1B",
">C 	c #2A2523",
",C 	c #2E282A",
"'C 	c #211512",
")C 	c #3A3031",
"!C 	c #281C1E",
"~C 	c #2D2022",
"{C 	c #2C2121",
"]C 	c #352528",
"^C 	c #332825",
"/C 	c #362223",
"(C 	c #391C1C",
"_C 	c #530400",
":C 	c #8C1F11",
"<C 	c #571416",
"[C 	c #2C2021",
"}C 	c #2D2123",
"|C 	c #291C1F",
"1C 	c #211A1B",
"2C 	c #231C1B",
"3C 	c #211D1C",
"4C 	c #241F21",
"5C 	c #14140E",
"6C 	c #18120C",
"7C 	c #1A1614",
"8C 	c #383A3D",
"9C 	c #181813",
"0C 	c #303333",
"aC 	c #323635",
"bC 	c #020304",
"cC 	c #44464B",
"dC 	c #333333",
"eC 	c #343737",
"fC 	c #221C1B",
"gC 	c #140908",
"hC 	c #211613",
"iC 	c #3B2F2F",
"jC 	c #2F2521",
"kC 	c #2D1E20",
"lC 	c #382123",
"mC 	c #3B1C1D",
"nC 	c #570200",
"oC 	c #FFE8BF",
"pC 	c #8E2213",
"qC 	c #550E17",
"rC 	c #322122",
"sC 	c #2E2220",
"tC 	c #282120",
"uC 	c #241D1D",
"vC 	c #4E4D4E",
"wC 	c #3A3C3F",
"xC 	c #17181C",
"yC 	c #4C4E50",
"zC 	c #383B3E",
"AC 	c #1C211E",
"BC 	c #1E1A1C",
"CC 	c #221E22",
"DC 	c #282221",
"EC 	c #272021",
"FC 	c #312B2A",
"GC 	c #100504",
"HC 	c #221712",
"IC 	c #251613",
"JC 	c #3B3131",
"KC 	c #2B2121",
"LC 	c #352727",
"MC 	c #341E1E",
"NC 	c #3A1C19",
"OC 	c #500600",
"PC 	c #FFEAC1",
"QC 	c #8F1E14",
"RC 	c #591419",
"SC 	c #362523",
"TC 	c #2F1E1F",
"UC 	c #281E21",
"VC 	c #23211E",
"WC 	c #0B0B10",
"XC 	c #3E4143",
"YC 	c #454346",
"ZC 	c #45484A",
"`C 	c #2C2729",
" D 	c #201A1A",
".D 	c #332D2A",
"+D 	c #130805",
"@D 	c #221614",
"#D 	c #362E2D",
"$D 	c #2B2021",
"%D 	c #321F1E",
"&D 	c #3F2020",
"*D 	c #580704",
"=D 	c #FFE8BE",
"-D 	c #8C2110",
";D 	c #551111",
">D 	c #332424",
",D 	c #2A1F1D",
"'D 	c #2A1C1C",
")D 	c #26201D",
"!D 	c #201B1B",
"~D 	c #18140F",
"{D 	c #414445",
"]D 	c #231C1D",
"^D 	c #2F2929",
"/D 	c #221516",
"(D 	c #342425",
"_D 	c #33221F",
":D 	c #3F1A1F",
"<D 	c #FFE6BC",
"[D 	c #8E221A",
"}D 	c #511216",
"|D 	c #331D20",
"1D 	c #302323",
"2D 	c #2A2124",
"3D 	c #2C2324",
"4D 	c #261C1F",
"5D 	c #1A1711",
"6D 	c #3B403F",
"7D 	c #1A171A",
"8D 	c #211B1A",
"9D 	c #221E1C",
"0D 	c #2B2326",
"aD 	c #2E2B29",
"bD 	c #110402",
"cD 	c #241816",
"dD 	c #221515",
"eD 	c #3A3130",
"fD 	c #2A1E21",
"gD 	c #2B211F",
"hD 	c #2A2020",
"iD 	c #2E1F1D",
"jD 	c #372323",
"kD 	c #3D1A1E",
"lD 	c #FFE7BF",
"mD 	c #8B2016",
"nD 	c #521319",
"oD 	c #372525",
"pD 	c #301F1E",
"qD 	c #2B1C20",
"rD 	c #291E1E",
"sD 	c #272221",
"tD 	c #241E23",
"uD 	c #18130E",
"vD 	c #313536",
"wD 	c #221C20",
"xD 	c #262120",
"yD 	c #2B2526",
"zD 	c #241F1E",
"AD 	c #2F2A2B",
"BD 	c #201313",
"CD 	c #372D2D",
"DD 	c #291F1F",
"ED 	c #2E2022",
"FD 	c #322425",
"GD 	c #372523",
"HD 	c #3C181C",
"ID 	c #550500",
"JD 	c #FFE1BC",
"KD 	c #8A1E17",
"LD 	c #4D1517",
"MD 	c #362624",
"ND 	c #2B201D",
"OD 	c #2C1E1D",
"PD 	c #211B1D",
"QD 	c #1F1C1B",
"RD 	c #231E22",
"SD 	c #353735",
"TD 	c #000401",
"UD 	c #19140C",
"VD 	c #2A2A29",
"WD 	c #353436",
"XD 	c #2A2826",
"YD 	c #100803",
"ZD 	c #1F1412",
"`D 	c #221816",
" E 	c #2F2527",
".E 	c #322326",
"+E 	c #392525",
"@E 	c #40201F",
"#E 	c #520200",
"$E 	c #FFDFBD",
"%E 	c #912319",
"&E 	c #4F1414",
"*E 	c #321F20",
"=E 	c #2A1E1D",
"-E 	c #2B2221",
";E 	c #241E22",
">E 	c #231D21",
",E 	c #1D1814",
"'E 	c #404544",
")E 	c #444146",
"!E 	c #292325",
"~E 	c #110704",
"{E 	c #1F1513",
"]E 	c #382F2F",
"^E 	c #29201F",
"/E 	c #322526",
"(E 	c #2F1F21",
"_E 	c #2E1F21",
":E 	c #321E1E",
"<E 	c #411F1C",
"[E 	c #570400",
"}E 	c #FEEBBC",
"|E 	c #882011",
"1E 	c #4F1416",
"2E 	c #382626",
"3E 	c #301C20",
"4E 	c #2F2221",
"5E 	c #211C1F",
"6E 	c #1B1911",
"7E 	c #3B3E41",
"8E 	c #0D100A",
"9E 	c #4B4A4C",
"0E 	c #0F1310",
"aE 	c #24252B",
"bE 	c #121013",
"cE 	c #262321",
"dE 	c #292624",
"eE 	c #292123",
"fE 	c #2F2828",
"gE 	c #20130F",
"hE 	c #201615",
"iE 	c #3B2F30",
"jE 	c #291D20",
"kE 	c #302225",
"lE 	c #3C2223",
"mE 	c #3F1D1E",
"nE 	c #560300",
"oE 	c #FFEBBC",
"pE 	c #861A11",
"qE 	c #4C1314",
"rE 	c #362421",
"sE 	c #331F23",
"tE 	c #302625",
"uE 	c #2E1F22",
"vE 	c #2B2322",
"wE 	c #251E21",
"xE 	c #12130D",
"yE 	c #151510",
"zE 	c #1C1C19",
"AE 	c #1A140F",
"BE 	c #2C2C2B",
"CE 	c #3F3F40",
"DE 	c #131713",
"EE 	c #0F120C",
"FE 	c #181D1D",
"GE 	c #383B3A",
"HE 	c #464949",
"IE 	c #434447",
"JE 	c #201B1E",
"KE 	c #271D21",
"LE 	c #261F1F",
"ME 	c #110403",
"NE 	c #231613",
"OE 	c #3C3032",
"PE 	c #2D2125",
"QE 	c #2F2525",
"RE 	c #362727",
"SE 	c #382522",
"TE 	c #3F1A1D",
"UE 	c #540900",
"VE 	c #891A0F",
"WE 	c #4D1111",
"XE 	c #332220",
"YE 	c #281D1D",
"ZE 	c #312324",
"`E 	c #261E1D",
" F 	c #231D1B",
".F 	c #251F22",
"+F 	c #242024",
"@F 	c #1D1914",
"#F 	c #2B2E2C",
"$F 	c #404043",
"%F 	c #070B09",
"&F 	c #434547",
"*F 	c #262225",
"=F 	c #1F1312",
"-F 	c #211815",
";F 	c #3C3133",
">F 	c #261B1C",
",F 	c #2D2221",
"'F 	c #32201D",
")F 	c #3B1A1A",
"!F 	c #500601",
"~F 	c #FFEABA",
"{F 	c #87190F",
"]F 	c #4B1010",
"^F 	c #332523",
"/F 	c #302523",
"(F 	c #2B1E1B",
"_F 	c #1A191F",
":F 	c #19120E",
"<F 	c #272625",
"[F 	c #3D3B3D",
"}F 	c #171417",
"|F 	c #18161B",
"1F 	c #323436",
"2F 	c #1F1B1A",
"3F 	c #2D2828",
"4F 	c #0E0503",
"5F 	c #201713",
"6F 	c #231614",
"7F 	c #3C3132",
"8F 	c #291E1F",
"9F 	c #2E2323",
"0F 	c #291D1D",
"aF 	c #332222",
"bF 	c #331E1D",
"cF 	c #3B1C1A",
"dF 	c #550200",
"eF 	c #FFEABE",
"fF 	c #861B11",
"gF 	c #51141A",
"hF 	c #2E221E",
"iF 	c #301E21",
"jF 	c #2D231F",
"kF 	c #2D1E1F",
"lF 	c #2A2021",
"mF 	c #292023",
"nF 	c #231B1E",
"oF 	c #1C1A1E",
"pF 	c #17150F",
"qF 	c #373739",
"rF 	c #31302F",
"sF 	c #141719",
"tF 	c #363539",
"uF 	c #251F1E",
"vF 	c #0F0707",
"wF 	c #211413",
"xF 	c #3D3432",
"yF 	c #2D2225",
"zF 	c #2B1D22",
"AF 	c #322222",
"BF 	c #362220",
"CF 	c #3D1A1B",
"DF 	c #590402",
"EF 	c #FFEBBE",
"FF 	c #8B1D14",
"GF 	c #531316",
"HF 	c #322623",
"IF 	c #352022",
"JF 	c #302524",
"KF 	c #322527",
"LF 	c #241C1D",
"MF 	c #221C1C",
"NF 	c #343534",
"OF 	c #3B3A39",
"PF 	c #130E0F",
"QF 	c #434141",
"RF 	c #3B3B3E",
"SF 	c #010605",
"TF 	c #0C090C",
"UF 	c #252227",
"VF 	c #1E1213",
"WF 	c #3A3231",
"XF 	c #2B1F23",
"YF 	c #2F1F23",
"ZF 	c #332223",
"`F 	c #3B1A17",
" G 	c #580600",
".G 	c #FFE9B7",
"+G 	c #891B14",
"@G 	c #501616",
"#G 	c #2F221F",
"$G 	c #332125",
"%G 	c #2B1F1F",
"&G 	c #2F2223",
"*G 	c #2A2223",
"=G 	c #241E1A",
"-G 	c #261C20",
";G 	c #161510",
">G 	c #57595A",
",G 	c #19140F",
"'G 	c #3B3C40",
")G 	c #101512",
"!G 	c #3B3D3C",
"~G 	c #454749",
"{G 	c #201B1A",
"]G 	c #221C1E",
"^G 	c #292726",
"/G 	c #201611",
"(G 	c #211414",
"_G 	c #352E2D",
":G 	c #291F23",
"<G 	c #281C1D",
"[G 	c #302424",
"}G 	c #362422",
"|G 	c #3D1919",
"1G 	c #520204",
"2G 	c #921D15",
"3G 	c #4C1618",
"4G 	c #342727",
"5G 	c #2E1B1C",
"6G 	c #241C1F",
"7G 	c #5C5F5D",
"8G 	c #030002",
"9G 	c #393B3C",
"0G 	c #2C2622",
"aG 	c #0D0401",
"bG 	c #201412",
"cG 	c #3D3331",
"dG 	c #22191B",
"eG 	c #362928",
"fG 	c #332221",
"gG 	c #3D171A",
"hG 	c #530802",
"iG 	c #FFEBBD",
"jG 	c #801C0F",
"kG 	c #4D1314",
"lG 	c #312122",
"mG 	c #332322",
"nG 	c #2B2020",
"oG 	c #261F1D",
"pG 	c #2D2726",
"qG 	c #191511",
"rG 	c #2E2F2E",
"sG 	c #1E1A14",
"tG 	c #2B2A27",
"uG 	c #404042",
"vG 	c #080600",
"wG 	c #1F1A1A",
"xG 	c #0F0504",
"yG 	c #1D1510",
"zG 	c #241514",
"AG 	c #3D3433",
"BG 	c #2A1E1E",
"CG 	c #2B2321",
"DG 	c #2D2021",
"EG 	c #312322",
"FG 	c #331F1E",
"GG 	c #3C1917",
"HG 	c #4F0A04",
"IG 	c #FFE9BC",
"JG 	c #83210F",
"KG 	c #501413",
"LG 	c #332426",
"MG 	c #30201F",
"NG 	c #281E1E",
"OG 	c #080608",
"PG 	c #1D1812",
"QG 	c #262523",
"RG 	c #373B3C",
"SG 	c #181D19",
"TG 	c #0D120E",
"UG 	c #0D110F",
"VG 	c #121613",
"WG 	c #201512",
"XG 	c #201314",
"YG 	c #3D3535",
"ZG 	c #2C2023",
"`G 	c #362321",
" H 	c #381A1C",
".H 	c #530906",
"+H 	c #871D10",
"@H 	c #4A1013",
"#H 	c #302120",
"$H 	c #311E21",
"%H 	c #2D1F21",
"&H 	c #28211F",
"*H 	c #251C1D",
"=H 	c #282426",
"-H 	c #18150F",
";H 	c #1A1812",
">H 	c #000400",
",H 	c #2F3134",
"'H 	c #262421",
")H 	c #26211F",
"!H 	c #2E2A29",
"~H 	c #0B0201",
"{H 	c #1D120F",
"]H 	c #201410",
"^H 	c #3C3333",
"/H 	c #291F21",
"(H 	c #382223",
"_H 	c #3B1B1B",
":H 	c #4E0704",
"<H 	c #FFE8BA",
"[H 	c #861A0F",
"}H 	c #4B1613",
"|H 	c #362524",
"1H 	c #2D2324",
"2H 	c #261D1B",
"3H 	c #19110E",
"4H 	c #272524",
"5H 	c #3B3F3E",
"6H 	c #3C3F42",
"7H 	c #393B3E",
"8H 	c #373A3C",
"9H 	c #313237",
"0H 	c #363739",
"aH 	c #353438",
"bH 	c #313535",
"cH 	c #323639",
"dH 	c #333134",
"eH 	c #333536",
"fH 	c #303434",
"gH 	c #333638",
"hH 	c #313538",
"iH 	c #2D2F33",
"jH 	c #454646",
"kH 	c #27292F",
"lH 	c #484848",
"mH 	c #2C2C31",
"nH 	c #29282D",
"oH 	c #312E33",
"pH 	c #292D2F",
"qH 	c #211F1D",
"rH 	c #23201E",
"sH 	c #2B2323",
"tH 	c #0E0401",
"uH 	c #231714",
"vH 	c #201416",
"wH 	c #372E2D",
"xH 	c #2B201C",
"yH 	c #372123",
"zH 	c #381A18",
"AH 	c #580703",
"BH 	c #FFEBBF",
"CH 	c #8A180F",
"DH 	c #511317",
"EH 	c #32201F",
"FH 	c #291E20",
"GH 	c #2C1F1E",
"HH 	c #2C2222",
"IH 	c #292221",
"JH 	c #191612",
"KH 	c #323537",
"LH 	c #1E1916",
"MH 	c #3A3D40",
"NH 	c #3E3C3F",
"OH 	c #100B0C",
"PH 	c #090C0B",
"QH 	c #201E1B",
"RH 	c #1D1614",
"SH 	c #1D0E0E",
"TH 	c #3D3334",
"UH 	c #2D1F1E",
"VH 	c #341F1D",
"WH 	c #550A05",
"XH 	c #FFE7BB",
"YH 	c #861B0E",
"ZH 	c #541619",
"`H 	c #322221",
" I 	c #2B1C1F",
".I 	c #292222",
"+I 	c #050001",
"@I 	c #3A3E3E",
"#I 	c #404344",
"$I 	c #4A4C4F",
"%I 	c #2B2727",
"&I 	c #0C0302",
"*I 	c #1C1610",
"=I 	c #221414",
"-I 	c #3C3635",
";I 	c #241B1C",
">I 	c #2C201F",
",I 	c #322324",
"'I 	c #311E1E",
")I 	c #3E1A1B",
"!I 	c #590B04",
"~I 	c #FFEBC0",
"{I 	c #88170C",
"]I 	c #4D1215",
"^I 	c #372627",
"/I 	c #2A1F21",
"(I 	c #2D2024",
"_I 	c #2C2424",
":I 	c #292427",
"<I 	c #373735",
"[I 	c #393D3D",
"}I 	c #131519",
"|I 	c #1B1512",
"1I 	c #201415",
"2I 	c #2B1E20",
"3I 	c #2D211E",
"4I 	c #302223",
"5I 	c #372221",
"6I 	c #361A18",
"7I 	c #540905",
"8I 	c #FFE5BE",
"9I 	c #871B0C",
"0I 	c #4A1515",
"aI 	c #2D1B1F",
"bI 	c #2C1E21",
"cI 	c #2C1F21",
"dI 	c #211D1B",
"eI 	c #3D4041",
"fI 	c #090404",
"gI 	c #050405",
"hI 	c #4A4A4E",
"iI 	c #313435",
"jI 	c #3A3B3D",
"kI 	c #2F2C2A",
"lI 	c #1C130E",
"mI 	c #3A3433",
"nI 	c #33201E",
"oI 	c #540902",
"pI 	c #FFEABB",
"qI 	c #821C10",
"rI 	c #480F17",
"sI 	c #362825",
"tI 	c #2C1D1D",
"uI 	c #2B2123",
"vI 	c #251E1D",
"wI 	c #191411",
"xI 	c #1B1715",
"yI 	c #403F41",
"zI 	c #414545",
"AI 	c #191C20",
"BI 	c #272023",
"CI 	c #1D1211",
"DI 	c #1B1010",
"EI 	c #3A3330",
"FI 	c #2A2120",
"GI 	c #281D21",
"HI 	c #2F2224",
"II 	c #342422",
"JI 	c #371A1B",
"KI 	c #570900",
"LI 	c #FFEDC0",
"MI 	c #842012",
"NI 	c #45151B",
"OI 	c #32211F",
"PI 	c #2C2322",
"QI 	c #302124",
"RI 	c #281F21",
"SI 	c #1A130F",
"TI 	c #212228",
"UI 	c #211C1C",
"VI 	c #302B2B",
"WI 	c #0E0402",
"XI 	c #1D110F",
"YI 	c #1F1414",
"ZI 	c #393231",
"`I 	c #261E20",
" J 	c #2E201F",
".J 	c #312426",
"+J 	c #301E1E",
"@J 	c #361818",
"#J 	c #5C0700",
"$J 	c #FFE7BC",
"%J 	c #7F1B0C",
"&J 	c #4B131B",
"*J 	c #32221E",
"=J 	c #2A1E20",
"-J 	c #281C1C",
";J 	c #221E1B",
">J 	c #16191E",
",J 	c #040607",
"'J 	c #1B1712",
")J 	c #1E1E24",
"!J 	c #2B292C",
"~J 	c #0C080B",
"{J 	c #15171A",
"]J 	c #2C2A2C",
"^J 	c #515354",
"/J 	c #2C2626",
"(J 	c #1D1111",
"_J 	c #3A3432",
":J 	c #322525",
"<J 	c #3C1A1B",
"[J 	c #590702",
"}J 	c #FFECBF",
"|J 	c #831F12",
"1J 	c #4B101A",
"2J 	c #35221F",
"3J 	c #2F1E21",
"4J 	c #2B1F1D",
"5J 	c #2E2121",
"6J 	c #1E1A19",
"7J 	c #2D2B2D",
"8J 	c #1A1210",
"9J 	c #272623",
"0J 	c #353639",
"aJ 	c #131115",
"bJ 	c #444246",
"cJ 	c #23221F",
"dJ 	c #090200",
"eJ 	c #1F1310",
"fJ 	c #1A1412",
"gJ 	c #362D2D",
"hJ 	c #261C1E",
"iJ 	c #351B1B",
"jJ 	c #5C0803",
"kJ 	c #871C0E",
"lJ 	c #4F1511",
"mJ 	c #322521",
"nJ 	c #333030",
"oJ 	c #040001",
"pJ 	c #1D1715",
"qJ 	c #3A3B3C",
"rJ 	c #171611",
"sJ 	c #3F423E",
"tJ 	c #08080C",
"uJ 	c #0F1410",
"vJ 	c #12140E",
"wJ 	c #3D3C3F",
"xJ 	c #25201D",
"yJ 	c #2B2827",
"zJ 	c #0A0203",
"AJ 	c #1C1311",
"BJ 	c #362F33",
"CJ 	c #251D1F",
"DJ 	c #2E211F",
"EJ 	c #32191C",
"FJ 	c #590C02",
"GJ 	c #FFE8BC",
"HJ 	c #821D13",
"IJ 	c #4A1410",
"JJ 	c #302025",
"KJ 	c #291E1D",
"LJ 	c #291D1F",
"MJ 	c #261D1F",
"NJ 	c #181416",
"OJ 	c #1B1912",
"PJ 	c #383C3D",
"QJ 	c #1E1E1B",
"RJ 	c #3C3E3D",
"SJ 	c #101315",
"TJ 	c #444649",
"UJ 	c #211E1C",
"VJ 	c #2A2426",
"WJ 	c #1D1411",
"XJ 	c #221718",
"YJ 	c #322A2A",
"ZJ 	c #271E1D",
"`J 	c #251E1C",
" K 	c #321F1F",
".K 	c #301C1C",
"+K 	c #5C0C06",
"@K 	c #7F1B0F",
"#K 	c #2F1C1D",
"$K 	c #2F2124",
"%K 	c #09060A",
"&K 	c #2F2E2E",
"*K 	c #181210",
"=K 	c #181414",
"-K 	c #3A3D3F",
";K 	c #4C4C4E",
">K 	c #1C1B18",
",K 	c #0F0605",
"'K 	c #1E1713",
")K 	c #211515",
"!K 	c #3D3636",
"~K 	c #2F2021",
"{K 	c #2B1F20",
"]K 	c #2F1E1C",
"^K 	c #371C1D",
"/K 	c #560703",
"(K 	c #FFE8B8",
"_K 	c #841C14",
":K 	c #4D1312",
"<K 	c #271D1A",
"[K 	c #271C1D",
"}K 	c #271E20",
"|K 	c #14161A",
"1K 	c #1E1C1A",
"2K 	c #1D1515",
"3K 	c #3A3232",
"4K 	c #312124",
"5K 	c #362323",
"6K 	c #3B1C1E",
"7K 	c #570600",
"8K 	c #FFF2BB",
"9K 	c #861B16",
"0K 	c #451310",
"aK 	c #301D1C",
"bK 	c #292120",
"cK 	c #231B19",
"dK 	c #191712",
"eK 	c #2E2D2C",
"fK 	c #191713",
"gK 	c #181310",
"hK 	c #1B1613",
"iK 	c #323336",
"jK 	c #261F22",
"kK 	c #0A0201",
"lK 	c #1D1612",
"mK 	c #3B3234",
"nK 	c #282222",
"oK 	c #271C1C",
"pK 	c #2A1E1B",
"qK 	c #311C1D",
"rK 	c #3D1A1C",
"sK 	c #550803",
"tK 	c #FEE9BC",
"uK 	c #821A13",
"vK 	c #461615",
"wK 	c #312221",
"xK 	c #211C19",
"yK 	c #2C2C2A",
"zK 	c #191510",
"AK 	c #3B3D3D",
"BK 	c #040406",
"CK 	c #45494A",
"DK 	c #3F3E3D",
"EK 	c #151A1C",
"FK 	c #211B1B",
"GK 	c #2C2927",
"HK 	c #0E0606",
"IK 	c #201414",
"JK 	c #342E2E",
"KK 	c #231A1B",
"LK 	c #29211F",
"MK 	c #540705",
"NK 	c #881713",
"OK 	c #461413",
"PK 	c #251A1B",
"QK 	c #15130F",
"RK 	c #18120E",
"SK 	c #1C1C18",
"TK 	c #3B3D40",
"UK 	c #060903",
"VK 	c #141818",
"WK 	c #303235",
"XK 	c #3C4142",
"YK 	c #1C1512",
"ZK 	c #372F30",
"`K 	c #271D20",
" L 	c #34211F",
".L 	c #3A1619",
"+L 	c #570804",
"@L 	c #FFE4BA",
"#L 	c #881813",
"$L 	c #511817",
"%L 	c #362324",
"&L 	c #271B1B",
"*L 	c #23191A",
"=L 	c #1A181D",
"-L 	c #1A150F",
";L 	c #383C3A",
">L 	c #302D2E",
",L 	c #3D3E3D",
"'L 	c #4C4C4C",
")L 	c #1C1614",
"!L 	c #1F1614",
"~L 	c #37312F",
"{L 	c #281E20",
"]L 	c #321F21",
"^L 	c #331917",
"/L 	c #550801",
"(L 	c #81190E",
"_L 	c #4D1113",
":L 	c #302021",
"<L 	c #2D2023",
"[L 	c #271D1C",
"}L 	c #282220",
"|L 	c #1E1F1C",
"1L 	c #454648",
"2L 	c #181517",
"3L 	c #1B1112",
"4L 	c #38302F",
"5L 	c #241C20",
"6L 	c #2E2321",
"7L 	c #311C1C",
"8L 	c #361614",
"9L 	c #580904",
"0L 	c #801F10",
"aL 	c #4D1014",
"bL 	c #312123",
"cL 	c #302024",
"dL 	c #181512",
"eL 	c #323031",
"fL 	c #0F1411",
"gL 	c #424347",
"hL 	c #231A1C",
"iL 	c #0C0304",
"jL 	c #373030",
"kL 	c #27201E",
"lL 	c #3B201E",
"mL 	c #5A0C06",
"nL 	c #FFEFC6",
"oL 	c #811A11",
"pL 	c #481212",
"qL 	c #30211E",
"rL 	c #301F21",
"sL 	c #281B1D",
"tL 	c #211A1D",
"uL 	c #302E30",
"vL 	c #18140E",
"wL 	c #2E2F33",
"xL 	c #39393D",
"yL 	c #323231",
"zL 	c #0A0101",
"AL 	c #1C1413",
"BL 	c #342F2E",
"CL 	c #352222",
"DL 	c #381818",
"EL 	c #550601",
"FL 	c #FFE9BD",
"GL 	c #7F170D",
"HL 	c #4D1112",
"IL 	c #362522",
"JL 	c #2E2124",
"KL 	c #241C1E",
"LL 	c #181B1F",
"ML 	c #25272C",
"NL 	c #2F2F31",
"OL 	c #0F0D08",
"PL 	c #454947",
"QL 	c #060809",
"RL 	c #0F0606",
"SL 	c #191112",
"TL 	c #352F2E",
"UL 	c #292121",
"VL 	c #3C171A",
"WL 	c #590800",
"XL 	c #FFECBC",
"YL 	c #811910",
"ZL 	c #521516",
"`L 	c #342120",
" M 	c #2C1C1E",
".M 	c #2A1C1D",
"+M 	c #2B1D1E",
"@M 	c #271F21",
"#M 	c #1E1919",
"$M 	c #3E3D43",
"%M 	c #221E23",
"&M 	c #444449",
"*M 	c #1C1C22",
"=M 	c #1D1213",
"-M 	c #362F2E",
";M 	c #281E1F",
">M 	c #2D1F20",
",M 	c #3B181A",
"'M 	c #520A01",
")M 	c #FFEBC1",
"!M 	c #7B1D0F",
"~M 	c #4E1514",
"{M 	c #342122",
"]M 	c #251B1A",
"^M 	c #211A1A",
"/M 	c #1C1716",
"(M 	c #221B1C",
"_M 	c #141418",
":M 	c #1A1612",
"<M 	c #16191C",
"[M 	c #333737",
"}M 	c #474648",
"|M 	c #383132",
"1M 	c #271F1C",
"2M 	c #2A1D1E",
"3M 	c #381819",
"4M 	c #5A0B06",
"5M 	c #FFE8BB",
"6M 	c #81170C",
"7M 	c #4F1317",
"8M 	c #372522",
"9M 	c #25191C",
"0M 	c #261C1D",
"aM 	c #19140D",
"bM 	c #403F3F",
"cM 	c #444947",
"dM 	c #191110",
"eM 	c #1D1212",
"fM 	c #3A3434",
"gM 	c #2F211F",
"hM 	c #3C181A",
"iM 	c #560904",
"jM 	c #FFEEBE",
"kM 	c #851D13",
"lM 	c #501719",
"mM 	c #312223",
"nM 	c #281A1B",
"oM 	c #26262C",
"pM 	c #434345",
"qM 	c #060906",
"rM 	c #2F312F",
"sM 	c #1D1615",
"tM 	c #1B1413",
"uM 	c #2A211F",
"vM 	c #2F1E1E",
"wM 	c #351A1A",
"xM 	c #4D0B02",
"yM 	c #FFE5C1",
"zM 	c #811B0F",
"AM 	c #4B1311",
"BM 	c #372623",
"CM 	c #2E1E1F",
"DM 	c #2D1E21",
"EM 	c #251B1C",
"FM 	c #1B1616",
"GM 	c #2A272B",
"HM 	c #1A1512",
"IM 	c #383B3F",
"JM 	c #2C2B2F",
"KM 	c #211E1B",
"LM 	c #2A2A27",
"MM 	c #191412",
"NM 	c #1D1514",
"OM 	c #363230",
"PM 	c #2A2423",
"QM 	c #331A1A",
"RM 	c #510602",
"SM 	c #FFE5B9",
"TM 	c #871E12",
"UM 	c #460D14",
"VM 	c #302022",
"WM 	c #281B1F",
"XM 	c #1B171A",
"YM 	c #302E2D",
"ZM 	c #151316",
"`M 	c #1B1913",
" N 	c #23201D",
".N 	c #2C2221",
"+N 	c #371C1F",
"@N 	c #490500",
"#N 	c #FFE3BA",
"$N 	c #801A09",
"%N 	c #491310",
"&N 	c #30201D",
"*N 	c #2E1F24",
"=N 	c #261B1B",
"-N 	c #171713",
";N 	c #16181C",
">N 	c #191310",
",N 	c #3B3635",
"'N 	c #361B1B",
")N 	c #460905",
"!N 	c #79170A",
"~N 	c #441112",
"{N 	c #302420",
"]N 	c #271C1B",
"^N 	c #1E191A",
"/N 	c #1F1E1B",
"(N 	c #1A150D",
"_N 	c #38383D",
":N 	c #060A08",
"<N 	c #211B20",
"[N 	c #322C2D",
"}N 	c #2A1B1D",
"|N 	c #34211D",
"1N 	c #3E0702",
"2N 	c #68190C",
"3N 	c #340912",
"4N 	c #221A1A",
"5N 	c #1B1917",
"6N 	c #2E2D2D",
"7N 	c #191410",
"8N 	c #191813",
"9N 	c #272724",
"0N 	c #2B2A2A",
"aN 	c #171511",
"bN 	c #464345",
"cN 	c #1F191D",
"dN 	c #191211",
"eN 	c #363032",
"fN 	c #241A1C",
"gN 	c #341E1F",
"hN 	c #3E0000",
"iN 	c #FFE8C4",
"jN 	c #631507",
"kN 	c #40120F",
"lN 	c #373638",
"mN 	c #17140F",
"nN 	c #393A3E",
"oN 	c #0F1014",
"pN 	c #171111",
"qN 	c #191212",
"rN 	c #363030",
"sN 	c #201A1D",
"tN 	c #1E171A",
"uN 	c #271F22",
"vN 	c #392727",
"wN 	c #270200",
"xN 	c #FFF4D1",
"yN 	c #550100",
"zN 	c #330E0F",
"AN 	c #352223",
"BN 	c #1D1D23",
"CN 	c #1A1510",
"DN 	c #070406",
"EN 	c #19130F",
"FN 	c #3C3536",
"GN 	c #261D20",
"HN 	c #291C1D",
"IN 	c #36292C",
"JN 	c #461513",
"KN 	c #570003",
"LN 	c #280000",
"MN 	c #472828",
"NN 	c #060506",
"ON 	c #2E312E",
"PN 	c #25282D",
"QN 	c #343234",
"RN 	c #1B140F",
"SN 	c #030703",
"TN 	c #050507",
"UN 	c #020305",
"VN 	c #040507",
"WN 	c #000203",
"XN 	c #040103",
"YN 	c #1B1411",
"ZN 	c #19110F",
"`N 	c #363231",
" O 	c #241D1C",
".O 	c #292527",
"+O 	c #574344",
"@O 	c #835857",
"#O 	c #83595B",
"$O 	c #62494C",
"%O 	c #261F23",
"&O 	c #271D22",
"*O 	c #323235",
"=O 	c #302F2F",
"-O 	c #0A0A03",
";O 	c #0A0E0F",
">O 	c #050908",
",O 	c #0C0D12",
"'O 	c #151418",
")O 	c #111116",
"!O 	c #111316",
"~O 	c #121317",
"{O 	c #0E1210",
"]O 	c #3B3C3C",
"^O 	c #1A1A1F",
"/O 	c #131217",
"(O 	c #0F0E12",
"_O 	c #0C0C10",
":O 	c #161317",
"<O 	c #13120C",
"[O 	c #191311",
"}O 	c #1A1314",
"|O 	c #343130",
"1O 	c #1B1718",
"2O 	c #1C1316",
"3O 	c #1C1515",
"4O 	c #221A1D",
"5O 	c #313034",
"6O 	c #494948",
"7O 	c #030305",
"8O 	c #434343",
"9O 	c #383432",
"0O 	c #1F191A",
"aO 	c #2A2828",
"bO 	c #1C191F",
"cO 	c #484849",
"dO 	c #1E221E",
"eO 	c #1A1A20",
"fO 	c #181412",
"gO 	c #383334",
"hO 	c #251C20",
"iO 	c #1F1C1A",
"jO 	c #171315",
"kO 	c #303336",
"lO 	c #434244",
"mO 	c #333132",
"nO 	c #2D2C2C",
"oO 	c #1C1A20",
"pO 	c #181B20",
"qO 	c #18151A",
"rO 	c #414443",
"sO 	c #3B3D42",
"tO 	c #181212",
"uO 	c #1F1B1F",
"vO 	c #36363B",
"wO 	c #35393B",
"xO 	c #151216",
"yO 	c #161B1B",
"zO 	c #141917",
"AO 	c #232025",
"BO 	c #1B1D22",
"CO 	c #353233",
"DO 	c #464647",
"EO 	c #414546",
"FO 	c #2F3034",
"GO 	c #2A2726",
"HO 	c #191210",
"IO 	c #171011",
"JO 	c #171416",
"KO 	c #18171B",
"LO 	c #0E0E11",
"MO 	c #333534",
"NO 	c #4B4B4E",
"OO 	c #33322F",
"PO 	c #1A120E",
"QO 	c #2E2C2C",
"RO 	c #333235",
"SO 	c #161316",
"TO 	c #424142",
"UO 	c #332F30",
"VO 	c #1C1917",
"WO 	c #151519",
"XO 	c #1D1713",
"YO 	c #2F2E2D",
"ZO 	c #171B1C",
"`O 	c #373A39",
" P 	c #353334",
".P 	c #1F1D22",
"+P 	c #171310",
"@P 	c #323034",
"#P 	c #404441",
"$P 	c #302F31",
"%P 	c #1F1A1E",
"&P 	c #1F231E",
"*P 	c #312E30",
"=P 	c #1C181B",
"-P 	c #3C3E41",
";P 	c #5B5D62",
">P 	c #1D221E",
",P 	c #1A1513",
"'P 	c #2C2D2B",
")P 	c #111416",
"!P 	c #3C403F",
"~P 	c #3F4244",
"{P 	c #181511",
"]P 	c #343333",
"^P 	c #18130D",
"/P 	c #161210",
"(P 	c #19161A",
"_P 	c #414141",
":P 	c #070405",
"<P 	c #333232",
"[P 	c #505154",
"}P 	c #101417",
"|P 	c #110E10",
"1P 	c #47494D",
"2P 	c #3A393C",
"3P 	c #302D2F",
"4P 	c #0A0D07",
"5P 	c #161519",
"6P 	c #16130D",
"7P 	c #34373A",
"8P 	c #1A1F21",
"9P 	c #111417",
"0P 	c #161111",
"aP 	c #1C1715",
"bP 	c #1A201D",
"cP 	c #343432",
"dP 	c #15140E",
"eP 	c #3A3B3F",
"fP 	c #424143",
"gP 	c #3F3D40",
"hP 	c #0F0C0E",
"iP 	c #171519",
"jP 	c #30302D",
"kP 	c #171D1B",
"lP 	c #15130E",
"mP 	c #1B150F",
"nP 	c #2B2C31",
"oP 	c #323131",
"pP 	c #3F3F3D",
"qP 	c #19150E",
"rP 	c #3D4243",
"sP 	c #0F1615",
"tP 	c #2A2E2F",
"uP 	c #312E31",
"vP 	c #1E1B21",
"wP 	c #3E3F3A",
"xP 	c #333637",
"yP 	c #373437",
"zP 	c #130E0D",
"AP 	c #252A2C",
"BP 	c #1D1712",
"CP 	c #4F5250",
"DP 	c #1B191E",
"EP 	c #444644",
"FP 	c #2E2F2D",
"GP 	c #040204",
"HP 	c #191812",
"IP 	c #2C2B2A",
"JP 	c #323638",
"KP 	c #3F4146",
"LP 	c #0A0E0B",
"MP 	c #494A4C",
"NP 	c #2F3333",
"OP 	c #313230",
"PP 	c #0B0B0E",
"QP 	c #12120C",
"RP 	c #161914",
"SP 	c #414043",
"TP 	c #2F2F34",
"UP 	c #35383B",
"VP 	c #4B4E4E",
"WP 	c #171419",
"XP 	c #454345",
"YP 	c #161A1C",
"ZP 	c #151110",
"`P 	c #16151C",
" Q 	c #4F5053",
".Q 	c #3D3E3C",
"+Q 	c #313334",
"@Q 	c #0D1011",
"#Q 	c #2D3132",
"$Q 	c #18161A",
"%Q 	c #242128",
"&Q 	c #494C4E",
"*Q 	c #373639",
"=Q 	c #0C0903",
"-Q 	c #131816",
";Q 	c #414042",
">Q 	c #545457",
",Q 	c #505253",
"'Q 	c #545256",
")Q 	c #504E51",
"!Q 	c #4F4E50",
"~Q 	c #4F5153",
"{Q 	c #545255",
"]Q 	c #515455",
"^Q 	c #4A494B",
"/Q 	c #4E4E51",
"(Q 	c #4D4E52",
"_Q 	c #555457",
":Q 	c #525254",
"<Q 	c #4F5253",
"[Q 	c #4E504E",
"}Q 	c #4D4B4D",
"|Q 	c #525355",
"1Q 	c #4B4F4F",
"2Q 	c #636568",
"3Q 	c #4A474B",
"4Q 	c #434245",
"5Q 	c #444547",
"6Q 	c #454447",
"7Q 	c #424242",
"8Q 	c #4A4B4D",
"9Q 	c #48484B",
"0Q 	c #47484B",
"aQ 	c #4F4F52",
"bQ 	c #444345",
"cQ 	c #4C4B4F",
"dQ 	c #494747",
"eQ 	c #4B4E50",
"fQ 	c #2E302F",
"gQ 	c #1A171D",
"hQ 	c #2D2D2B",
"iQ 	c #353637",
"jQ 	c #181313",
"kQ 	c #4C4E4F",
"lQ 	c #050608",
"mQ 	c #424343",
"nQ 	c #2C2C29",
"oQ 	c #494B4E",
"pQ 	c #121115",
"qQ 	c #18160F",
"rQ 	c #1C1714",
"sQ 	c #373937",
"tQ 	c #333532",
"uQ 	c #1A1610",
"vQ 	c #292926",
"wQ 	c #2B292B",
"xQ 	c #3D3D3D",
"yQ 	c #2A2C29",
"zQ 	c #130F10",
"AQ 	c #2B2B2A",
"BQ 	c #565A59",
"CQ 	c #383A3A",
"DQ 	c #46464B",
"EQ 	c #363438",
"FQ 	c #2F302E",
"GQ 	c #12150F",
"HQ 	c #1B201D",
"IQ 	c #3B3F3C",
"JQ 	c #15171B",
"KQ 	c #292B30",
"LQ 	c #10100A",
"MQ 	c #474948",
"NQ 	c #363538",
"OQ 	c #12120B",
"PQ 	c #1A171C",
"QQ 	c #060305",
"RQ 	c #323536",
"SQ 	c #19140E",
"TQ 	c #3C3F3E",
"UQ 	c #3B3B3B",
"VQ 	c #3C3B3D",
"WQ 	c #383939",
"XQ 	c #383837",
"YQ 	c #403D3D",
"ZQ 	c #313534",
"`Q 	c #353536",
" R 	c #19171C",
".R 	c #353635",
"+R 	c #191616",
"@R 	c #575857",
"#R 	c #191D20",
"$R 	c #1A1912",
"%R 	c #282A26",
"&R 	c #161A16",
"*R 	c #292B28",
"=R 	c #3A3D3C",
"-R 	c #1B1B21",
";R 	c #090D0B",
">R 	c #6A6A68",
",R 	c #757372",
"'R 	c #706C6E",
")R 	c #6F6D6E",
"!R 	c #686A6B",
"~R 	c #5D6063",
"{R 	c #69696B",
"]R 	c #626264",
"^R 	c #656466",
"/R 	c #616063",
"(R 	c #616062",
"_R 	c #6B6A6C",
":R 	c #6C6E6A",
"<R 	c #1C2223",
"[R 	c #444346",
"}R 	c #343133",
"|R 	c #151610",
"1R 	c #070709",
"2R 	c #010404",
"3R 	c #07070A",
"4R 	c #06090C",
"5R 	c #070609",
"6R 	c #383A3E",
"7R 	c #0F0D06",
"8R 	c #0E1311",
"9R 	c #1A1F1C",
"0R 	c #020503",
"aR 	c #18140D",
"bR 	c #383A3C",
"cR 	c #333433",
"dR 	c #282A2E",
"eR 	c #2D2E32",
"fR 	c #050809",
"gR 	c #3D3F3E",
"hR 	c #323538",
"iR 	c #120E0C",
"jR 	c #444545",
"kR 	c #18161C",
"lR 	c #3F3E41",
"mR 	c #18181D",
"nR 	c #323332",
"oR 	c #0F0D07",
"pR 	c #37383B",
"qR 	c #424042",
"rR 	c #18150E",
"sR 	c #333539",
"tR 	c #272429",
"uR 	c #201E25",
"vR 	c #2E2D32",
"wR 	c #2D3131",
"xR 	c #100C08",
"yR 	c #17191D",
"zR 	c #3F4343",
"AR 	c #353336",
"BR 	c #28282E",
"CR 	c #090D0C",
"DR 	c #353235",
"ER 	c #373A3D",
"FR 	c #161611",
"GR 	c #49484B",
"HR 	c #26272D",
"IR 	c #1C1A17",
"JR 	c #4C4B49",
"KR 	c #2A2D2B",
"LR 	c #17171C",
"MR 	c #3A3B3A",
"NR 	c #0C100F",
"OR 	c #484847",
"PR 	c #2A2B28",
"QR 	c #1A1613",
"RR 	c #050701",
"SR 	c #2E302D",
"TR 	c #070600",
"UR 	c #060204",
"VR 	c #353837",
"WR 	c #120F0A",
"XR 	c #0D1210",
"YR 	c #343438",
"ZR 	c #15181B",
"`R 	c #040002",
" S 	c #1C1613",
".S 	c #414041",
"+S 	c #3F3C3E",
"@S 	c #414145",
"#S 	c #47494B",
"$S 	c #434645",
"%S 	c #404445",
"&S 	c #3F4140",
"*S 	c #3D4042",
"=S 	c #3D3E41",
"-S 	c #3C3F3F",
";S 	c #343236",
">S 	c #444745",
",S 	c #454448",
"'S 	c #413F44",
")S 	c #444244",
"!S 	c #444645",
"~S 	c #454148",
"{S 	c #484649",
"]S 	c #494A4D",
"^S 	c #4C4C4F",
"/S 	c #383B38",
"(S 	c #393A39",
"_S 	c #3C3D3D",
":S 	c #3F3E3E",
"<S 	c #3E3E3E",
"[S 	c #3E4140",
"}S 	c #414040",
"|S 	c #3A3A3A",
"1S 	c #414140",
"2S 	c #37393A",
"3S 	c #343532",
"4S 	c #16140E",
"5S 	c #211F26",
"6S 	c #2F3230",
"7S 	c #000500",
"8S 	c #171314",
"9S 	c #19181E",
"0S 	c #3C3C3C",
"aS 	c #3A3D3D",
"bS 	c #3E3D41",
"cS 	c #3A3E40",
"dS 	c #474449",
"eS 	c #4B4D4C",
"fS 	c #4F5256",
"gS 	c #545054",
"hS 	c #4B494D",
"iS 	c #514F51",
"jS 	c #505053",
"kS 	c #4A494C",
"lS 	c #454547",
"mS 	c #484749",
"nS 	c #464746",
"oS 	c #464748",
"pS 	c #49494C",
"qS 	c #070B0C",
"rS 	c #323337",
"sS 	c #0C1011",
"tS 	c #171418",
"uS 	c #323331",
"vS 	c #353938",
"wS 	c #18100E",
"xS 	c #1C1712",
"yS 	c #343435",
"zS 	c #2D2B31",
"AS 	c #232421",
"BS 	c #353534",
"CS 	c #120D07",
"DS 	c #454344",
"ES 	c #18110C",
"FS 	c #110F09",
"GS 	c #494A49",
"HS 	c #050600",
"IS 	c #101114",
"JS 	c #3E4144",
"KS 	c #1A1611",
"LS 	c #0F120B",
"MS 	c #1F1D23",
"NS 	c #13140E",
"OS 	c #121517",
"PS 	c #161B1C",
"QS 	c #100E06",
"RS 	c #3D3B3E",
"SS 	c #16130F",
"TS 	c #110C09",
"US 	c #3F4240",
"VS 	c #0C110D",
"WS 	c #343334",
"XS 	c #060A09",
"YS 	c #0C100C",
"ZS 	c #0E1114",
"`S 	c #0A0C06",
" T 	c #18171C",
".T 	c #1B181D",
"+T 	c #36393D",
"@T 	c #131617",
"#T 	c #111215",
"$T 	c #3C4043",
"%T 	c #3D3D42",
"&T 	c #413F41",
"*T 	c #434142",
"=T 	c #474B49",
"-T 	c #4D4E4C",
";T 	c #4C4D4C",
">T 	c #4C4B4E",
",T 	c #464649",
"'T 	c #404141",
")T 	c #1A201C",
"!T 	c #333331",
"~T 	c #070A07",
"{T 	c #1E1B20",
"]T 	c #424647",
"^T 	c #282D2E",
"/T 	c #090D07",
"(T 	c #040205",
"_T 	c #48474A",
":T 	c #141014",
"<T 	c #323330",
"[T 	c #4E5250",
"}T 	c #6D6C6D",
"|T 	c #646364",
"1T 	c #7F7E82",
"2T 	c #747574",
"3T 	c #707072",
"4T 	c #737274",
"5T 	c #6F6F6E",
"6T 	c #757678",
"7T 	c #6E6E6D",
"8T 	c #757477",
"9T 	c #777679",
"0T 	c #6C6E6E",
"aT 	c #797B7D",
"bT 	c #8C888C",
"cT 	c #312F34",
"dT 	c #343134",
"eT 	c #333736",
"fT 	c #110D08",
"gT 	c #18110F",
"hT 	c #2C2A2D",
"iT 	c #141918",
"jT 	c #1A1D19",
"kT 	c #010501",
"lT 	c #37393D",
"mT 	c #030506",
"nT 	c #363635",
"oT 	c #1B1612",
"pT 	c #353836",
"qT 	c #1A161A",
"rT 	c #090E09",
"sT 	c #383C3C",
"tT 	c #24292C",
"uT 	c #100E09",
"vT 	c #191A1F",
"wT 	c #19161B",
"xT 	c #1A2120",
"yT 	c #17110F",
"zT 	c #343839",
"AT 	c #636466",
"BT 	c #616163",
"CT 	c #66696A",
"DT 	c #616667",
"ET 	c #686A6A",
"FT 	c #656769",
"GT 	c #6A6768",
"HT 	c #606162",
"IT 	c #606160",
"JT 	c #606366",
"KT 	c #636165",
"LT 	c #656366",
"MT 	c #5F6261",
"NT 	c #605E63",
"OT 	c #616164",
"PT 	c #626266",
"QT 	c #636265",
"RT 	c #606062",
"ST 	c #5B5C5F",
"TT 	c #727677",
"UT 	c #6F7275",
"VT 	c #68696C",
"WT 	c #676668",
"XT 	c #6D6D6C",
"YT 	c #6B6D6E",
"ZT 	c #67696B",
"`T 	c #6C6D6E",
" U 	c #6A686B",
".U 	c #676968",
"+U 	c #636567",
"@U 	c #68676A",
"#U 	c #66696B",
"$U 	c #646767",
"%U 	c #403C41",
"&U 	c #0A0B0E",
"*U 	c #090D0D",
"=U 	c #0B0F0E",
"-U 	c #0A090C",
";U 	c #070A0B",
">U 	c #08070A",
",U 	c #050709",
"'U 	c #393B3A",
")U 	c #383636",
"!U 	c #3A3F41",
"~U 	c #151A19",
"{U 	c #464347",
"]U 	c #343535",
"^U 	c #14151A",
"/U 	c #0E120C",
"(U 	c #141011",
"_U 	c #16161B",
":U 	c #313033",
"<U 	c #0D0E07",
"[U 	c #191E1B",
"}U 	c #191D19",
"|U 	c #262521",
"1U 	c #110D0A",
"2U 	c #353335",
"3U 	c #0C100B",
"4U 	c #110D09",
"5U 	c #38383A",
"6U 	c #1D191E",
"7U 	c #3E3C3D",
"8U 	c #333734",
"9U 	c #3F3E40",
"0U 	c #191811",
"aU 	c #15161A",
"bU 	c #120F0C",
"cU 	c #333538",
"dU 	c #191518",
"eU 	c #1B1B14",
"fU 	c #131610",
"gU 	c #1E1D23",
"hU 	c #3C3D3C",
"iU 	c #2F2E31",
"jU 	c #110F12",
"kU 	c #1C1718",
"lU 	c #100C0D",
"mU 	c #404140",
"nU 	c #242421",
"oU 	c #100C06",
"pU 	c #313539",
"qU 	c #191517",
"rU 	c #35393C",
"sU 	c #050205",
"tU 	c #16110D",
"uU 	c #292826",
"vU 	c #393B38",
"wU 	c #191614",
"xU 	c #161B18",
"yU 	c #49484C",
"zU 	c #1C181A",
"AU 	c #111514",
"BU 	c #0A0506",
"CU 	c #151A1B",
"DU 	c #1D191A",
"EU 	c #1B1619",
"FU 	c #1D181B",
"GU 	c #181D1A",
"HU 	c #323534",
"IU 	c #1D191B",
"JU 	c #18171F",
"KU 	c #333133",
"LU 	c #3D3F41",
"MU 	c #171213",
"NU 	c #1C1719",
"OU 	c #3B3F40",
"PU 	c #1A1811",
"QU 	c #393D41",
"RU 	c #1F191B",
"SU 	c #221D1A",
"TU 	c #1D1718",
"UU 	c #20181B",
"VU 	c #1D1819",
"WU 	c #20191A",
"XU 	c #1A1616",
"YU 	c #221A20",
"ZU 	c #393B3F",
"`U 	c #171311",
" V 	c #191F1E",
".V 	c #3D3A3E",
"+V 	c #1E1618",
"@V 	c #1D1714",
"#V 	c #191F1C",
"$V 	c #1C1819",
"%V 	c #1D1D1A",
"&V 	c #2A2420",
"*V 	c #221B1A",
"=V 	c #221B1B",
"-V 	c #201A1B",
";V 	c #1E1B19",
">V 	c #1D1B19",
",V 	c #131117",
"'V 	c #221A1C",
")V 	c #251112",
"!V 	c #210606",
"~V 	c #280506",
"{V 	c #1F0E10",
"]V 	c #2A181D",
"^V 	c #1D1A18",
"/V 	c #343235",
"(V 	c #080902",
"_V 	c #3C3C3B",
":V 	c #191313",
"<V 	c #21191B",
"[V 	c #2D201C",
"}V 	c #280504",
"|V 	c #230001",
"1V 	c #200001",
"2V 	c #2C0609",
"3V 	c #321517",
"4V 	c #281D20",
"5V 	c #1C1617",
"6V 	c #130E0B",
"7V 	c #363436",
"8V 	c #222623",
"9V 	c #110C0C",
"0V 	c #1A1311",
"aV 	c #1A1516",
"bV 	c #20181C",
"cV 	c #390606",
"dV 	c #E48B60",
"eV 	c #D79C6F",
"fV 	c #420715",
"gV 	c #34130A",
"hV 	c #251A19",
"iV 	c #231B1C",
"jV 	c #201A19",
"kV 	c #10130B",
"lV 	c #17100D",
"mV 	c #363533",
"nV 	c #1F1B20",
"oV 	c #221D21",
"pV 	c #130E0C",
"qV 	c #251D1C",
"rV 	c #372324",
"sV 	c #3D0204",
"tV 	c #E2916E",
"uV 	c #EABC8E",
"vV 	c #580011",
"wV 	c #301D10",
"xV 	c #251A1D",
"yV 	c #1D1817",
"zV 	c #0F1009",
"AV 	c #130D0C",
"BV 	c #1B1311",
"CV 	c #221D1B",
"DV 	c #231B1D",
"EV 	c #281E1A",
"FV 	c #3F0000",
"GV 	c #F29471",
"HV 	c #F3AA84",
"IV 	c #5C0108",
"JV 	c #3E1919",
"KV 	c #251918",
"LV 	c #1D1516",
"MV 	c #100F12",
"NV 	c #120B0C",
"OV 	c #26181B",
"PV 	c #2B1F1E",
"QV 	c #3D2728",
"RV 	c #420000",
"SV 	c #F28F70",
"TV 	c #EEA67C",
"UV 	c #59000D",
"VV 	c #411B1E",
"WV 	c #26191A",
"XV 	c #1F1A18",
"YV 	c #12100B",
"ZV 	c #120D09",
"`V 	c #1B1312",
" W 	c #180F0F",
".W 	c #22181B",
"+W 	c #211817",
"@W 	c #291B1C",
"#W 	c #2D2120",
"$W 	c #4A0001",
"%W 	c #FA9071",
"&W 	c #EFA177",
"*W 	c #5D0009",
"=W 	c #3E2121",
"-W 	c #26191C",
";W 	c #201A18",
">W 	c #1B1717",
",W 	c #1E1A18",
"'W 	c #141610",
")W 	c #373538",
"!W 	c #3D413F",
"~W 	c #6B6F6E",
"{W 	c #626565",
"]W 	c #6B6D6B",
"^W 	c #646567",
"/W 	c #6B6B6D",
"(W 	c #6B6A6D",
"_W 	c #6C696C",
":W 	c #6D6C6E",
"<W 	c #6F6E70",
"[W 	c #696C6E",
"}W 	c #6F7072",
"|W 	c #6E6E70",
"1W 	c #717274",
"2W 	c #716F72",
"3W 	c #706F71",
"4W 	c #777777",
"5W 	c #787A7B",
"6W 	c #737578",
"7W 	c #7A7D80",
"8W 	c #747879",
"9W 	c #7F8184",
"0W 	c #807F81",
"aW 	c #818486",
"bW 	c #7D8183",
"cW 	c #747476",
"dW 	c #7F8085",
"eW 	c #7F7F80",
"fW 	c #878889",
"gW 	c #818388",
"hW 	c #808184",
"iW 	c #868689",
"jW 	c #7B7D82",
"kW 	c #828285",
"lW 	c #1B161A",
"mW 	c #150E10",
"nW 	c #1B1210",
"oW 	c #241B19",
"pW 	c #2C1E1F",
"qW 	c #402527",
"rW 	c #470001",
"sW 	c #F18F68",
"tW 	c #F09C77",
"uW 	c #5E000B",
"vW 	c #461D20",
"wW 	c #302020",
"xW 	c #1D1818",
"yW 	c #16110B",
"zW 	c #312F30",
"AW 	c #333135",
"BW 	c #1D1312",
"CW 	c #1C1315",
"DW 	c #1F1618",
"EW 	c #271C1A",
"FW 	c #251B1D",
"GW 	c #2B1B1B",
"HW 	c #2E2123",
"IW 	c #4E0000",
"JW 	c #F49975",
"KW 	c #EB9E75",
"LW 	c #650509",
"MW 	c #441D1E",
"NW 	c #2F1D1D",
"OW 	c #261A1A",
"PW 	c #23191B",
"QW 	c #1C171A",
"RW 	c #1C1B17",
"SW 	c #080B0A",
"TW 	c #34363A",
"UW 	c #323033",
"VW 	c #3B3A3A",
"WW 	c #3A3A3B",
"XW 	c #140D0E",
"YW 	c #1A1312",
"ZW 	c #150F0C",
"`W 	c #281B1E",
" X 	c #291718",
".X 	c #432724",
"+X 	c #F38F72",
"@X 	c #E89B71",
"#X 	c #620508",
"$X 	c #412122",
"%X 	c #312222",
"&X 	c #2B1E1F",
"*X 	c #201919",
"=X 	c #302E2E",
"-X 	c #2C322F",
";X 	c #180F0E",
">X 	c #1E1613",
",X 	c #19100F",
"'X 	c #302121",
")X 	c #452522",
"!X 	c #F79273",
"~X 	c #EA9D72",
"{X 	c #5F0607",
"]X 	c #471E1D",
"^X 	c #2F1F20",
"/X 	c #271B1C",
"(X 	c #1F1919",
"_X 	c #444544",
":X 	c #170E0E",
"<X 	c #261A18",
"[X 	c #2F1F1E",
"}X 	c #462727",
"|X 	c #4E0001",
"1X 	c #EF9075",
"2X 	c #EA9D73",
"3X 	c #5E0306",
"4X 	c #48231F",
"5X 	c #2C1A1B",
"6X 	c #1E1D1A",
"7X 	c #1C1612",
"8X 	c #161A1D",
"9X 	c #3E3E41",
"0X 	c #160F0D",
"aX 	c #21181B",
"bX 	c #2F2023",
"cX 	c #2D1D1D",
"dX 	c #452527",
"eX 	c #4F0000",
"fX 	c #EC9578",
"gX 	c #E89E7B",
"hX 	c #3A2020",
"iX 	c #302023",
"jX 	c #2B1C1E",
"kX 	c #261C1C",
"lX 	c #1A130E",
"mX 	c #242320",
"nX 	c #1F1716",
"oX 	c #2E2020",
"pX 	c #412222",
"qX 	c #4F0100",
"rX 	c #EF9579",
"sX 	c #EB9F7B",
"tX 	c #412527",
"uX 	c #2A1B1C",
"vX 	c #251F1D",
"wX 	c #211B1E",
"xX 	c #1A1618",
"yX 	c #1C140F",
"zX 	c #1B1415",
"AX 	c #1A100F",
"BX 	c #452626",
"CX 	c #500002",
"DX 	c #F1967A",
"EX 	c #EC9E7C",
"FX 	c #610005",
"GX 	c #3E221E",
"HX 	c #30201E",
"IX 	c #241B1B",
"JX 	c #21191A",
"KX 	c #323432",
"LX 	c #20191C",
"MX 	c #1C1314",
"NX 	c #17100E",
"OX 	c #221619",
"PX 	c #261B1A",
"QX 	c #302220",
"RX 	c #492828",
"SX 	c #500001",
"TX 	c #EF9676",
"UX 	c #EDA179",
"VX 	c #5F0009",
"WX 	c #412020",
"XX 	c #291D1E",
"YX 	c #414240",
"ZX 	c #1F1613",
"`X 	c #2C1E1E",
" Y 	c #4A2626",
".Y 	c #F19273",
"+Y 	c #ECA67D",
"@Y 	c #590004",
"#Y 	c #441F1A",
"$Y 	c #352023",
"%Y 	c #332323",
"&Y 	c #2A211E",
"*Y 	c #261A1D",
"=Y 	c #1A1617",
"-Y 	c #36393B",
";Y 	c #3B4140",
">Y 	c #0E0808",
",Y 	c #0C0F0A",
"'Y 	c #170F0E",
")Y 	c #1E1510",
"!Y 	c #1E1414",
"~Y 	c #1A1010",
"{Y 	c #291F1D",
"]Y 	c #29201E",
"^Y 	c #332225",
"/Y 	c #472323",
"(Y 	c #4F0202",
"_Y 	c #F09179",
":Y 	c #EBA585",
"<Y 	c #5B0309",
"[Y 	c #431B1F",
"}Y 	c #2A1B1B",
"|Y 	c #241A1B",
"1Y 	c #161419",
"2Y 	c #2D2B2A",
"3Y 	c #221A1E",
"4Y 	c #1B1211",
"5Y 	c #4D2726",
"6Y 	c #550101",
"7Y 	c #EF9172",
"8Y 	c #EEA080",
"9Y 	c #4C2322",
"0Y 	c #312220",
"aY 	c #2D2020",
"bY 	c #1E1B18",
"cY 	c #1A1619",
"dY 	c #130F0C",
"eY 	c #1F181A",
"fY 	c #170E10",
"gY 	c #2A1D1D",
"hY 	c #2F1C1A",
"iY 	c #4F292A",
"jY 	c #500004",
"kY 	c #EE916F",
"lY 	c #EBA283",
"mY 	c #5D0209",
"nY 	c #4C201E",
"oY 	c #352325",
"pY 	c #2C1E20",
"qY 	c #221818",
"rY 	c #241E1C",
"sY 	c #1E1819",
"tY 	c #1E191C",
"uY 	c #3C3D40",
"vY 	c #140B0C",
"wY 	c #1C1210",
"xY 	c #241818",
"yY 	c #281C1A",
"zY 	c #2E1C1D",
"AY 	c #4F2A2A",
"BY 	c #F09070",
"CY 	c #EEA480",
"DY 	c #610105",
"EY 	c #481D1E",
"FY 	c #38373A",
"GY 	c #0A0E08",
"HY 	c #1E1A1F",
"IY 	c #1D1719",
"JY 	c #201413",
"KY 	c #2B221F",
"LY 	c #322126",
"MY 	c #2C1B1C",
"NY 	c #502827",
"OY 	c #540000",
"PY 	c #F69675",
"QY 	c #EEA27F",
"RY 	c #600004",
"SY 	c #471E1E",
"TY 	c #301D1F",
"UY 	c #261C1B",
"VY 	c #151712",
"WY 	c #1D1918",
"XY 	c #18100F",
"YY 	c #211615",
"ZY 	c #241817",
"`Y 	c #322123",
" Z 	c #4D2928",
".Z 	c #540001",
"+Z 	c #F69372",
"@Z 	c #EEA37C",
"#Z 	c #640208",
"$Z 	c #491C20",
"%Z 	c #2D201F",
"&Z 	c #2A1F1E",
"*Z 	c #434242",
"=Z 	c #130A0B",
"-Z 	c #221212",
";Z 	c #1E1212",
">Z 	c #291D1A",
",Z 	c #2E1F1E",
"'Z 	c #2C1C1D",
")Z 	c #2D1B1E",
"!Z 	c #4D0002",
"~Z 	c #F49472",
"{Z 	c #EF9D76",
"]Z 	c #600005",
"^Z 	c #481A1D",
"/Z 	c #372226",
"(Z 	c #2A1B1E",
"_Z 	c #10110A",
":Z 	c #121713",
"<Z 	c #1F1918",
"[Z 	c #231715",
"}Z 	c #25181C",
"|Z 	c #382124",
"1Z 	c #342124",
"2Z 	c #4C2729",
"3Z 	c #F69273",
"4Z 	c #E6A37A",
"5Z 	c #620005",
"6Z 	c #4A201E",
"7Z 	c #332022",
"8Z 	c #2B1C1D",
"9Z 	c #241B1A",
"0Z 	c #1E181B",
"aZ 	c #1B1618",
"bZ 	c #1B1716",
"cZ 	c #37363A",
"dZ 	c #1A1E22",
"eZ 	c #221B19",
"fZ 	c #221715",
"gZ 	c #1D1314",
"hZ 	c #281A1C",
"iZ 	c #322225",
"jZ 	c #2F1D1F",
"kZ 	c #4D2B29",
"lZ 	c #F59473",
"mZ 	c #EAA47D",
"nZ 	c #63000B",
"oZ 	c #4B211E",
"pZ 	c #301F1F",
"qZ 	c #241919",
"rZ 	c #1A171B",
"sZ 	c #040704",
"tZ 	c #3B3C3F",
"uZ 	c #1F1D1A",
"vZ 	c #211412",
"wZ 	c #1A0E0E",
"xZ 	c #2B1B20",
"yZ 	c #322422",
"zZ 	c #341F22",
"AZ 	c #492426",
"BZ 	c #540002",
"CZ 	c #F79577",
"DZ 	c #EEA27A",
"EZ 	c #610108",
"FZ 	c #4A2322",
"GZ 	c #301F23",
"HZ 	c #28211E",
"IZ 	c #271D1F",
"JZ 	c #17140E",
"KZ 	c #170E0D",
"LZ 	c #211212",
"MZ 	c #241615",
"NZ 	c #24171A",
"OZ 	c #2B1D1C",
"PZ 	c #301E20",
"QZ 	c #4F2928",
"RZ 	c #F39576",
"SZ 	c #EC9F7A",
"TZ 	c #610007",
"UZ 	c #481E1D",
"VZ 	c #2D1C1D",
"WZ 	c #2D1D1E",
"XZ 	c #221A1B",
"YZ 	c #0B0E08",
"ZZ 	c #171813",
"`Z 	c #070B05",
" ` 	c #454443",
".` 	c #1D181A",
"+` 	c #180E0F",
"@` 	c #231413",
"#` 	c #261818",
"$` 	c #24191A",
"%` 	c #2D1E1C",
"&` 	c #351F22",
"*` 	c #4C2928",
"=` 	c #EE9572",
"-` 	c #EDA581",
";` 	c #461D1D",
">` 	c #332020",
",` 	c #2F201F",
"'` 	c #211918",
")` 	c #20191B",
"!` 	c #201819",
"~` 	c #111217",
"{` 	c #131216",
"]` 	c #2C312E",
"^` 	c #201C1A",
"/` 	c #190F10",
"(` 	c #221312",
"_` 	c #251816",
":` 	c #24181A",
"<` 	c #2E1E1E",
"[` 	c #2E1D1B",
"}` 	c #382428",
"|` 	c #4E292B",
"1` 	c #ED9675",
"2` 	c #ECA37C",
"3` 	c #620006",
"4` 	c #491E1A",
"5` 	c #301F1D",
"6` 	c #2C191D",
"7` 	c #291D1B",
"8` 	c #221A18",
"9` 	c #1F181B",
"0` 	c #1D191D",
"a` 	c #180E0D",
"b` 	c #201211",
"c` 	c #211311",
"d` 	c #1E1210",
"e` 	c #291B1B",
"f` 	c #4A2629",
"g` 	c #530001",
"h` 	c #EF9570",
"i` 	c #ECA384",
"j` 	c #620207",
"k` 	c #471E1C",
"l` 	c #342021",
"m` 	c #271C1E",
"n` 	c #201818",
"o` 	c #1B1110",
"p` 	c #221511",
"q` 	c #201616",
"r` 	c #201212",
"s` 	c #29171A",
"t` 	c #351E1F",
"u` 	c #4B2123",
"v` 	c #F2946E",
"w` 	c #F3A083",
"x` 	c #5F0006",
"y` 	c #4A1F1F",
"z` 	c #32211D",
"A` 	c #251B1B",
"B` 	c #1C1717",
"C` 	c #1E181A",
"D` 	c #1A1414",
"E` 	c #181519",
"F` 	c #221612",
"G` 	c #2D1E1E",
"H` 	c #2E1C20",
"I` 	c #372424",
"J` 	c #321E1F",
"K` 	c #4B2826",
"L` 	c #FA9177",
"M` 	c #ECA77B",
"N` 	c #680805",
"O` 	c #45211C",
"P` 	c #321D1F",
"Q` 	c #281E1D",
"R` 	c #221A17",
"S` 	c #1C161B",
"T` 	c #070B07",
"U` 	c #313338",
"V` 	c #020602",
"W` 	c #363A38",
"X` 	c #201515",
"Y` 	c #1F1514",
"Z` 	c #201516",
"`` 	c #301C1E",
"  .	c #4F2927",
". .	c #550001",
"+ .	c #F58E7B",
"@ .	c #E6A377",
"# .	c #630104",
"$ .	c #42211A",
"% .	c #362020",
"& .	c #2F1B1D",
"* .	c #2C1D1E",
"= .	c #170E0B",
"- .	c #201511",
"; .	c #211315",
"> .	c #201110",
", .	c #24161B",
"' .	c #362122",
") .	c #31211F",
"! .	c #4D2A29",
"~ .	c #F89177",
"{ .	c #EFA579",
"] .	c #630009",
"^ .	c #441E16",
"/ .	c #352020",
"( .	c #2E1D1C",
"_ .	c #2A1E1F",
": .	c #1F1A19",
"< .	c #2B2D2A",
"[ .	c #171B1E",
"} .	c #0B0708",
"| .	c #050906",
"1 .	c #2B292E",
"2 .	c #1E1719",
"3 .	c #190F0F",
"4 .	c #22130F",
"5 .	c #251919",
"6 .	c #2A1918",
"7 .	c #301D20",
"8 .	c #4E282A",
"9 .	c #F48E75",
"0 .	c #E8A576",
"a .	c #610503",
"b .	c #41261E",
"c .	c #2B1B1F",
"d .	c #251819",
"e .	c #231B18",
"f .	c #1E1519",
"g .	c #27292E",
"h .	c #20191D",
"i .	c #170E0F",
"j .	c #211511",
"k .	c #231917",
"l .	c #271B1D",
"m .	c #29191A",
"n .	c #2D1E1D",
"o .	c #4E2928",
"p .	c #F0926E",
"q .	c #ECA07E",
"r .	c #5F050A",
"s .	c #431917",
"t .	c #2B1D1D",
"u .	c #251D1A",
"v .	c #170D0E",
"w .	c #1F140F",
"x .	c #211514",
"y .	c #271A18",
"z .	c #301F22",
"A .	c #4C2626",
"B .	c #540101",
"C .	c #EFA57D",
"D .	c #60030A",
"E .	c #441A17",
"F .	c #2E1C1B",
"G .	c #2E2D31",
"H .	c #170F0F",
"I .	c #221513",
"J .	c #1F1212",
"K .	c #2F1E20",
"L .	c #2E1E1D",
"M .	c #2F1F1D",
"N .	c #4B2629",
"O .	c #F49674",
"P .	c #EE9F7C",
"Q .	c #610509",
"R .	c #421719",
"S .	c #33211F",
"T .	c #5F6165",
"U .	c #5E5F62",
"V .	c #636366",
"W .	c #616165",
"X .	c #67676B",
"Y .	c #606567",
"Z .	c #67676A",
"` .	c #6A6B6E",
" ..	c #676A6C",
"...	c #666668",
"+..	c #69686B",
"@..	c #66676B",
"#..	c #666768",
"$..	c #626164",
"%..	c #6B696B",
"&..	c #696769",
"*..	c #6B6B6C",
"=..	c #676A6A",
"-..	c #686668",
";..	c #646565",
">..	c #666B69",
",..	c #5C5D62",
"'..	c #626465",
")..	c #646769",
"!..	c #646365",
"~..	c #636665",
"{..	c #6B6C6D",
"]..	c #646665",
"^..	c #68686D",
"/..	c #67696C",
"(..	c #6B6B6F",
"_..	c #6C6C6D",
":..	c #676767",
"<..	c #726E70",
"[..	c #201513",
"}..	c #2A1D1C",
"|..	c #2F1D20",
"1..	c #4D2326",
"2..	c #F3946E",
"3..	c #F09E7E",
"4..	c #600209",
"5..	c #421A17",
"6..	c #2E1F20",
"7..	c #281D1C",
"8..	c #3E3D3F",
"9..	c #1D181D",
"0..	c #170E0C",
"a..	c #221815",
"b..	c #211614",
"c..	c #31201C",
"d..	c #322124",
"e..	c #4D2927",
"f..	c #F89477",
"g..	c #EDA47A",
"h..	c #62030B",
"i..	c #441919",
"j..	c #312023",
"k..	c #2D2B2F",
"l..	c #151217",
"m..	c #3B393C",
"n..	c #0A0507",
"o..	c #1D171A",
"p..	c #1E1918",
"q..	c #180F10",
"r..	c #1E130F",
"s..	c #2F2321",
"t..	c #332122",
"u..	c #4B2326",
"v..	c #F49373",
"w..	c #ECA07A",
"x..	c #610008",
"y..	c #401A16",
"z..	c #342020",
"A..	c #2C1D1F",
"B..	c #16171C",
"C..	c #1B171B",
"D..	c #1B1113",
"E..	c #211313",
"F..	c #311D1F",
"G..	c #342724",
"H..	c #4D2727",
"I..	c #F99273",
"J..	c #E99C78",
"K..	c #62000C",
"L..	c #421917",
"M..	c #2F2123",
"N..	c #16120F",
"O..	c #323636",
"P..	c #444145",
"Q..	c #22201D",
"R..	c #201714",
"S..	c #1C1414",
"T..	c #211719",
"U..	c #2B1E1E",
"V..	c #312424",
"W..	c #492B2A",
"X..	c #4F0001",
"Y..	c #F1926C",
"Z..	c #EBA17B",
"`..	c #650209",
" +.	c #451B19",
".+.	c #21191D",
"++.	c #1B120C",
"@+.	c #482625",
"#+.	c #500000",
"$+.	c #F58F6D",
"%+.	c #EAA278",
"&+.	c #640606",
"*+.	c #46181D",
"=+.	c #2E2120",
"-+.	c #1C1517",
";+.	c #1F130F",
">+.	c #23181B",
",+.	c #291A19",
"'+.	c #331F1F",
")+.	c #4A2828",
"!+.	c #F49174",
"~+.	c #E8A37B",
"{+.	c #5B0403",
"]+.	c #441A1B",
"^+.	c #231E1B",
"/+.	c #211A1E",
"(+.	c #211819",
"_+.	c #20221E",
":+.	c #150B0D",
"<+.	c #170D0B",
"[+.	c #301E1F",
"}+.	c #462627",
"|+.	c #FA9674",
"1+.	c #E99F7B",
"2+.	c #5D0305",
"3+.	c #3E1518",
"4+.	c #1D1313",
"5+.	c #301C1F",
"6+.	c #2F1F1F",
"7+.	c #492629",
"8+.	c #4D0000",
"9+.	c #F29371",
"0+.	c #EAA07A",
"a+.	c #5A0004",
"b+.	c #3E1A1F",
"c+.	c #2D1F1D",
"d+.	c #271E21",
"e+.	c #121417",
"f+.	c #333533",
"g+.	c #1F1712",
"h+.	c #1A0E0D",
"i+.	c #4C2B2C",
"j+.	c #F79073",
"k+.	c #EAA273",
"l+.	c #650407",
"m+.	c #451A1A",
"n+.	c #331F21",
"o+.	c #251A1E",
"p+.	c #191512",
"q+.	c #19110D",
"r+.	c #261B1D",
"s+.	c #331E21",
"t+.	c #2F2725",
"u+.	c #492627",
"v+.	c #F8917A",
"w+.	c #E6A272",
"x+.	c #41171B",
"y+.	c #382525",
"z+.	c #1F1615",
"A+.	c #3F4042",
"B+.	c #0C0E09",
"C+.	c #1D1310",
"D+.	c #1C1310",
"E+.	c #2B1D1F",
"F+.	c #2A191B",
"G+.	c #462428",
"H+.	c #F79478",
"I+.	c #E99D78",
"J+.	c #600006",
"K+.	c #3E1A1D",
"L+.	c #27282E",
"M+.	c #0E0D10",
"N+.	c #1B100E",
"O+.	c #312420",
"P+.	c #462A2C",
"Q+.	c #F39470",
"R+.	c #EC9A78",
"S+.	c #2B1E1C",
"T+.	c #343836",
"U+.	c #1F181D",
"V+.	c #1E1818",
"W+.	c #140E0C",
"X+.	c #1C1411",
"Y+.	c #452A29",
"Z+.	c #F3987B",
"`+.	c #EC9D71",
" @.	c #5B0112",
".@.	c #431A20",
"+@.	c #231818",
"@@.	c #1C1619",
"#@.	c #1E191D",
"$@.	c #140C0E",
"%@.	c #1D1512",
"&@.	c #321F23",
"*@.	c #2A1E23",
"=@.	c #442B28",
"-@.	c #F7997D",
";@.	c #EB9D6E",
">@.	c #55000F",
",@.	c #401A19",
"'@.	c #14141C",
")@.	c #393D3F",
"!@.	c #0E0C0E",
"~@.	c #14171B",
"{@.	c #1B1D23",
"]@.	c #1B1510",
"^@.	c #171010",
"/@.	c #24191B",
"(@.	c #281B1A",
"_@.	c #462A2D",
":@.	c #F99E7D",
"<@.	c #E39460",
"[@.	c #4F010C",
"}@.	c #3D191B",
"|@.	c #333332",
"1@.	c #291C1C",
"2@.	c #21181A",
"3@.	c #291C1B",
"4@.	c #483032",
"5@.	c #410000",
"6@.	c #FDB393",
"7@.	c #E29066",
"8@.	c #490010",
"9@.	c #37181B",
"0@.	c #333236",
"a@.	c #1B1313",
"b@.	c #140D0F",
"c@.	c #2C201E",
"d@.	c #392624",
"e@.	c #4B0E10",
"f@.	c #440207",
"g@.	c #410001",
"h@.	c #4A181B",
"i@.	c #0D110D",
"j@.	c #1B1617",
"k@.	c #140D0C",
"l@.	c #1B1416",
"m@.	c #291B20",
"n@.	c #4D3339",
"o@.	c #4C1B1D",
"p@.	c #3B0C13",
"q@.	c #69454A",
"r@.	c #1F1719",
"s@.	c #1D171C",
"t@.	c #191513",
"u@.	c #221F24",
"v@.	c #2B302D",
"w@.	c #353A38",
"x@.	c #23191C",
"y@.	c #4E4245",
"z@.	c #615156",
"A@.	c #281A19",
"B@.	c #2C2024",
"C@.	c #393A3F",
"D@.	c #221A1F",
"E@.	c #22191D",
"F@.	c #282225",
"G@.	c #241A21",
"H@.	c #1C181C",
"I@.	c #030606",
"J@.	c #34353A",
"K@.	c #170D0D",
"L@.	c #3A393B",
"M@.	c #1F171A",
"N@.	c #1D1B18",
"O@.	c #38393C",
"P@.	c #1A1511",
"Q@.	c #130F0E",
"R@.	c #404045",
"S@.	c #262B2D",
"T@.	c #131419",
"U@.	c #353437",
"V@.	c #101215",
"W@.	c #14181A",
"X@.	c #35363A",
"Y@.	c #1B1A12",
"Z@.	c #0B0608",
"`@.	c #14171C",
" #.	c #1B1F1B",
".#.	c #3F3F3E",
"+#.	c #120D0D",
"@#.	c #171D1A",
"##.	c #141419",
"$#.	c #141813",
"%#.	c #080D0C",
"&#.	c #0D0B0E",
"*#.	c #060205",
"=#.	c #434543",
"-#.	c #6F7375",
";#.	c #828485",
">#.	c #787B78",
",#.	c #7A7E7B",
"'#.	c #727274",
")#.	c #727576",
"!#.	c #737776",
"~#.	c #747475",
"{#.	c #717476",
"]#.	c #757878",
"^#.	c #767675",
"/#.	c #75777B",
"(#.	c #75777A",
"_#.	c #6F7173",
":#.	c #818186",
"<#.	c #828689",
"[#.	c #1B1511",
"}#.	c #08090D",
"|#.	c #020406",
"1#.	c #070508",
"2#.	c #070408",
"3#.	c #06050A",
"4#.	c #050407",
"5#.	c #070308",
"6#.	c #08060A",
"7#.	c #080507",
"8#.	c #191514",
"9#.	c #181C18",
"0#.	c #181510",
"a#.	c #423F42",
"b#.	c #151215",
"c#.	c #3C3A3B",
"d#.	c #17130B",
"e#.	c #110E09",
"f#.	c #000302",
"g#.	c #2D2A2C",
"h#.	c #2F2C2C",
"i#.	c #303431",
"j#.	c #3F4144",
"k#.	c #2D2E33",
"l#.	c #111115",
"m#.	c #181711",
"n#.	c #292D2A",
"o#.	c #121717",
"p#.	c #3A3B40",
"q#.	c #424346",
"r#.	c #3B3A3C",
"s#.	c #2C2A2E",
"t#.	c #312D2F",
"u#.	c #070304",
"v#.	c #121617",
"w#.	c #11100A",
"x#.	c #17161B",
"y#.	c #363435",
"z#.	c #2B2828",
"A#.	c #090303",
"B#.	c #0F1412",
"C#.	c #3C413F",
"D#.	c #2C2B29",
"E#.	c #393B39",
"F#.	c #343539",
"G#.	c #111009",
"H#.	c #18171D",
"I#.	c #15161B",
"J#.	c #2A2925",
"K#.	c #13141A",
"L#.	c #10140E",
"M#.	c #11140D",
"N#.	c #151C1A",
"O#.	c #343736",
"P#.	c #17160F",
"Q#.	c #121016",
"R#.	c #3B3C3B",
"S#.	c #33312F",
"T#.	c #36373A",
"U#.	c #1A1710",
"V#.	c #686869",
"W#.	c #686669",
"X#.	c #6D706E",
"Y#.	c #6F6F71",
"Z#.	c #6B6F6F",
"`#.	c #727472",
" $.	c #747276",
".$.	c #707272",
"+$.	c #767779",
"@$.	c #727574",
"#$.	c #737271",
"$$.	c #767476",
"%$.	c #737678",
"&$.	c #727275",
"*$.	c #6E7174",
"=$.	c #717271",
"-$.	c #7B7B7E",
";$.	c #7B7E7C",
">$.	c #6A6B69",
",$.	c #716F70",
"'$.	c #6F7371",
")$.	c #77777B",
"!$.	c #151317",
"~$.	c #030105",
"{$.	c #3D3E3E",
"]$.	c #474B4A",
"^$.	c #57595B",
"/$.	c #5B5C58",
"($.	c #636467",
"_$.	c #84898B",
":$.	c #848788",
"<$.	c #999899",
"[$.	c #7E7E80",
"}$.	c #424144",
"|$.	c #19161C",
"1$.	c #333233",
"2$.	c #797A7E",
"3$.	c #717778",
"4$.	c #605E61",
"5$.	c #676B6D",
"6$.	c #4E514F",
"7$.	c #181914",
"8$.	c #727578",
"9$.	c #3A3C40",
"0$.	c #37383C",
"a$.	c #393638",
"b$.	c #5D5D5F",
"c$.	c #56595B",
"d$.	c #63656A",
"e$.	c #4A4A4C",
"f$.	c #323737",
"g$.	c #322F32",
"h$.	c #848887",
"i$.	c #0C0A0E",
"j$.	c #1C1D19",
"k$.	c #383C3E",
"l$.	c #21201C",
"m$.	c #171C18",
"n$.	c #7E8184",
"o$.	c #3B3E3C",
"p$.	c #4F4F51",
"q$.	c #7C7F82",
"r$.	c #1A1B21",
"s$.	c #525252",
"t$.	c #312E32",
"u$.	c #0A0F0E",
"v$.	c #16151A",
"w$.	c #323437",
"x$.	c #818284",
"y$.	c #201B20",
"z$.	c #1D1B21",
"A$.	c #39373B",
"B$.	c #868887",
"C$.	c #24201E",
"D$.	c #38363B",
"E$.	c #1A1914",
"F$.	c #201D1A",
"G$.	c #24211E",
"H$.	c #140F0B",
"I$.	c #868788",
"J$.	c #1D181C",
"K$.	c #241D21",
"L$.	c #211A1C",
"M$.	c #1A1B14",
"N$.	c #13130C",
"O$.	c #8B8C91",
"P$.	c #221C1A",
"Q$.	c #231A1D",
"R$.	c #231B1F",
"S$.	c #241D1B",
"T$.	c #635F62",
"U$.	c #1D1C16",
"V$.	c #2C2123",
"W$.	c #281D1E",
"X$.	c #656667",
"Y$.	c #2A2D31",
"Z$.	c #14100A",
"`$.	c #1E1714",
" %.	c #271E1C",
".%.	c #2B231F",
"+%.	c #2D2422",
"@%.	c #322928",
"#%.	c #2E2623",
"$%.	c #2D2424",
"%%.	c #302826",
"&%.	c #302827",
"*%.	c #25211D",
"=%.	c #25201C",
"-%.	c #2C2321",
";%.	c #26201C",
">%.	c #292321",
",%.	c #262420",
"'%.	c #13110B",
")%.	c #1A0D0C",
"!%.	c #1D0C0C",
"~%.	c #25060D",
"{%.	c #250C10",
"]%.	c #230810",
"^%.	c #280D09",
"/%.	c #2B0A0E",
"(%.	c #2F1011",
"_%.	c #290C0A",
":%.	c #260B0B",
"<%.	c #24060A",
"[%.	c #25080A",
"}%.	c #270809",
"|%.	c #2C080B",
"1%.	c #2A090C",
"2%.	c #29080A",
"3%.	c #2D0B0A",
"4%.	c #26050B",
"5%.	c #28060A",
"6%.	c #270507",
"7%.	c #26060C",
"8%.	c #2E0704",
"9%.	c #2C0400",
"0%.	c #2C0202",
"a%.	c #2F0406",
"b%.	c #2D090E",
"c%.	c #2F0A0D",
"d%.	c #270402",
"e%.	c #2A0409",
"f%.	c #29060A",
"g%.	c #2C0A09",
"h%.	c #2B0708",
"i%.	c #210D08",
"j%.	c #21070C",
"k%.	c #1F0406",
"l%.	c #210602",
"m%.	c #280402",
"n%.	c #240001",
"o%.	c #260206",
"p%.	c #270506",
"q%.	c #200300",
"r%.	c #1E0406",
"s%.	c #210506",
"t%.	c #1D0105",
"u%.	c #220404",
"v%.	c #1D0605",
"w%.	c #210505",
"x%.	c #1D0504",
"y%.	c #250606",
"z%.	c #210A07",
"A%.	c #260908",
"B%.	c #23080B",
"C%.	c #240C08",
"D%.	c #1D0B08",
"E%.	c #1E0C09",
"F%.	c #1F0B0A",
"G%.	c #200A0C",
"H%.	c #1C0405",
"I%.	c #170504",
"J%.	c #1C0508",
"K%.	c #060103",
"L%.	c #373936",
"M%.	c #26060B",
"N%.	c #0F0502",
"O%.	c #0B0105",
"P%.	c #200002",
"Q%.	c #1D0003",
"R%.	c #210000",
"S%.	c #230000",
"T%.	c #250302",
"U%.	c #200000",
"V%.	c #280003",
"W%.	c #220001",
"X%.	c #280001",
"Y%.	c #2A0003",
"Z%.	c #280002",
"`%.	c #240004",
" &.	c #250001",
".&.	c #240000",
"+&.	c #260000",
"@&.	c #250002",
"#&.	c #250000",
"$&.	c #270001",
"%&.	c #290000",
"&&.	c #230200",
"*&.	c #240400",
"=&.	c #220000",
"-&.	c #1F0000",
";&.	c #260003",
">&.	c #260001",
",&.	c #290302",
"'&.	c #240003",
")&.	c #220103",
"!&.	c #210100",
"~&.	c #230300",
"{&.	c #220300",
"]&.	c #190000",
"^&.	c #210001",
"/&.	c #1F0003",
"(&.	c #170001",
"_&.	c #0F0003",
":&.	c #220803",
"<&.	c #210403",
"[&.	c #626568",
"}&.	c #232329",
"|&.	c #2D2C30",
"1&.	c #7A7C7C",
"2&.	c #1E0407",
"3&.	c #FFCCBD",
"4&.	c #FBEBB5",
"5&.	c #FFE2BF",
"6&.	c #FFE6B6",
"7&.	c #FCECBD",
"8&.	c #FFE6BB",
"9&.	c #FDEDBD",
"0&.	c #FFEAC0",
"a&.	c #FFECC1",
"b&.	c #FFF0C6",
"c&.	c #FFF0BE",
"d&.	c #FCF3BF",
"e&.	c #FFF2BE",
"f&.	c #FEEEBD",
"g&.	c #FFEFBD",
"h&.	c #FFF3C4",
"i&.	c #FFECBD",
"j&.	c #FFE3B8",
"k&.	c #FFEBB9",
"l&.	c #FDECB9",
"m&.	c #FDEEC2",
"n&.	c #F9EFB9",
"o&.	c #FFF1C0",
"p&.	c #FAEDBB",
"q&.	c #FFEDBE",
"r&.	c #FCECBC",
"s&.	c #FFECBE",
"t&.	c #FFF1C1",
"u&.	c #FEF2C0",
"v&.	c #FFEDC4",
"w&.	c #FFEBC5",
"x&.	c #FFE9C0",
"y&.	c #FFEFC2",
"z&.	c #FFEDC6",
"A&.	c #FFEFC8",
"B&.	c #FFF1C7",
"C&.	c #FFEFC5",
"D&.	c #FFEEC5",
"E&.	c #FFEBC2",
"F&.	c #FFEFBF",
"G&.	c #FFEEBD",
"H&.	c #FDECBD",
"I&.	c #FFEAC2",
"J&.	c #FFEDC1",
"K&.	c #FFEABF",
"L&.	c #FFE9C2",
"M&.	c #FFF3CD",
"N&.	c #FFE9C4",
"O&.	c #FBDFCA",
"P&.	c #261313",
"Q&.	c #707475",
"R&.	c #1F1B21",
"S&.	c #472D2B",
"T&.	c #6D0A03",
"U&.	c #7A0F02",
"V&.	c #6F0803",
"W&.	c #8C140B",
"X&.	c #901513",
"Y&.	c #8D1A0E",
"Z&.	c #921E14",
"`&.	c #922213",
" *.	c #971C13",
".*.	c #981A0F",
"+*.	c #9A1C10",
"@*.	c #991D0F",
"#*.	c #A01D13",
"$*.	c #A01F0F",
"%*.	c #9C1A11",
"&*.	c #9C1B0E",
"**.	c #991B0B",
"=*.	c #991F0B",
"-*.	c #9C2015",
";*.	c #A22318",
">*.	c #A42218",
",*.	c #A92316",
"'*.	c #A6241C",
")*.	c #A8251A",
"!*.	c #A72516",
"~*.	c #AC2B19",
"{*.	c #B52C1D",
"]*.	c #AF2514",
"^*.	c #A42210",
"/*.	c #A82816",
"(*.	c #A42515",
"_*.	c #AC3116",
":*.	c #A82B1E",
"<*.	c #AD2F18",
"[*.	c #AE2F1B",
"}*.	c #AC321A",
"|*.	c #B13523",
"1*.	c #AC301D",
"2*.	c #A92F23",
"3*.	c #A82D19",
"4*.	c #A92E1A",
"5*.	c #AB2B19",
"6*.	c #AB2F20",
"7*.	c #AE3621",
"8*.	c #B23924",
"9*.	c #B13C24",
"0*.	c #B0371F",
"a*.	c #B33B25",
"b*.	c #B03321",
"c*.	c #B1362A",
"d*.	c #B63721",
"e*.	c #BC4027",
"f*.	c #B43922",
"g*.	c #B33C20",
"h*.	c #B23C26",
"i*.	c #8B2314",
"j*.	c #3B0300",
"k*.	c #300916",
"l*.	c #2F2220",
"m*.	c #6D7172",
"n*.	c #2E2B2D",
"o*.	c #393232",
"p*.	c #554548",
"q*.	c #7A6D72",
"r*.	c #71636A",
"s*.	c #685B60",
"t*.	c #725960",
"u*.	c #6E585E",
"v*.	c #725B5F",
"w*.	c #785B62",
"x*.	c #826A6F",
"y*.	c #775D5F",
"z*.	c #826566",
"A*.	c #7E5E63",
"B*.	c #7B5A63",
"C*.	c #7F5E64",
"D*.	c #7B5B61",
"E*.	c #846066",
"F*.	c #7C5E61",
"G*.	c #826065",
"H*.	c #826367",
"I*.	c #816369",
"J*.	c #7F6265",
"K*.	c #775A5C",
"L*.	c #7E5F65",
"M*.	c #7C5B62",
"N*.	c #7C5A60",
"O*.	c #7D595F",
"P*.	c #89666A",
"Q*.	c #7C5D64",
"R*.	c #7D5F63",
"S*.	c #7E6166",
"T*.	c #7D6062",
"U*.	c #806164",
"V*.	c #7A5C5F",
"W*.	c #7A5C61",
"X*.	c #7E5C66",
"Y*.	c #845D66",
"Z*.	c #805C65",
"`*.	c #7A5A63",
" =.	c #7C5C62",
".=.	c #76585D",
"+=.	c #7A5B62",
"@=.	c #7A5D61",
"#=.	c #755258",
"$=.	c #7E5C60",
"%=.	c #7C595F",
"&=.	c #78595C",
"*=.	c #7F595F",
"==.	c #76565C",
"-=.	c #7C5A62",
";=.	c #7F5D61",
">=.	c #7A565D",
",=.	c #724D54",
"'=.	c #714F58",
")=.	c #74515B",
"!=.	c #6A4E52",
"~=.	c #71595C",
"{=.	c #614E51",
"]=.	c #2F2322",
"^=.	c #060507",
"/=.	c #080D0D",
"(=.	c #302D2D",
"_=.	c #717277",
":=.	c #291A1D",
"<=.	c #241A19",
"[=.	c #2B1B1E",
"}=.	c #2C1B20",
"|=.	c #301D22",
"1=.	c #271B17",
"2=.	c #32221F",
"3=.	c #2B1A1A",
"4=.	c #332422",
"5=.	c #2D1A1A",
"6=.	c #2B1C19",
"7=.	c #2C1C1A",
"8=.	c #2B1A1B",
"9=.	c #2B1D1A",
"0=.	c #2D1B1D",
"a=.	c #2C1A1A",
"b=.	c #2C1E1C",
"c=.	c #2C1F1C",
"d=.	c #291C19",
"e=.	c #2B1C1B",
"f=.	c #2D201E",
"g=.	c #2B1E1D",
"h=.	c #2E1F23",
"i=.	c #343232",
"j=.	c #333131",
"k=.	c #707275",
"l=.	c #261B1E",
"m=.	c #2B1E21",
"n=.	c #2B2124",
"o=.	c #2C2227",
"p=.	c #2A2126",
"q=.	c #2F2025",
"r=.	c #282022",
"s=.	c #251D20",
"t=.	c #2D2326",
"u=.	c #2A2226",
"v=.	c #281F24",
"w=.	c #2A2227",
"x=.	c #282421",
"y=.	c #322F2E",
"z=.	c #201C19",
"A=.	c #1D1717",
"B=.	c #22171A",
"C=.	c #261D1C",
"D=.	c #2A1D20",
"E=.	c #2B201F",
"F=.	c #271B1A",
"G=.	c #2B1F1C",
"H=.	c #2A1C1B",
"I=.	c #251C1A",
"J=.	c #2D1D20",
"K=.	c #281E1B",
"L=.	c #251B19",
"M=.	c #251F1C",
"N=.	c #28221E",
"O=.	c #23201C",
"P=.	c #131818",
"Q=.	c #282322",
"R=.	c #241C1B",
"S=.	c #241A1A",
"T=.	c #231D1A",
"U=.	c #2D2628",
"V=.	c #2D2426",
"W=.	c #1C181D",
"X=.	c #1F231F",
"Y=.	c #201F1B",
"Z=.	c #353439",
"`=.	c #0C0507",
" -.	c #272320",
".-.	c #74797A",
"+-.	c #434143",
"@-.	c #6C7172",
"#-.	c #1F1B18",
"$-.	c #20181A",
"%-.	c #201817",
"&-.	c #211B19",
"*-.	c #2A2323",
"=-.	c #818686",
"--.	c #6F7075",
";-.	c #2D2A2B",
">-.	c #555758",
",-.	c #37353A",
"'-.	c #24211D",
")-.	c #201C21",
"!-.	c #0C110E",
"~-.	c #1E1F1B",
"{-.	c #0D0F12",
"]-.	c #363735",
"^-.	c #58595C",
"/-.	c #727179",
"(-.	c #1E1717",
"_-.	c #1C171B",
":-.	c #09080A",
"<-.	c #06080A",
"[-.	c #07060C",
"}-.	c #5D6064",
"|-.	c #191710",
"1-.	c #535354",
"2-.	c #4D5051",
"3-.	c #494A4B",
"4-.	c #47474B",
"5-.	c #454647",
"6-.	c #474A4C",
"7-.	c #4A494A",
"8-.	c #454848",
"9-.	c #454544",
"0-.	c #434546",
"a-.	c #4C4B4C",
"b-.	c #030407",
"c-.	c #060306",
"d-.	c #020205",
"e-.	c #030706",
"f-.	c #7A7C7A",
"g-.	c #181811",
"h-.	c #73757A",
"i-.	c #2E2E32",
"j-.	c #0C0C05",
"k-.	c #020003",
"l-.	c #010104",
"m-.	c #000303",
"n-.	c #0B0B05",
"o-.	c #767878",
"p-.	c #0D0D07",
"q-.	c #292A28",
"r-.	c #6F7574",
"s-.	c #626666",
"t-.	c #15151A",
"u-.	c #272A27",
"v-.	c #181B17",
"w-.	c #090F0E",
"x-.	c #5C5D60",
"y-.	c #343634",
"z-.	c #5D5D60",
"A-.	c #717474",
"B-.	c #120F12",
"C-.	c #3C3C3D",
"D-.	c #626467",
"E-.	c #6E706F",
"F-.	c #59595B",
"G-.	c #3F4044",
"H-.	c #1F1F1B",
"I-.	c #7C7D81",
"J-.	c #4E4D4F",
"K-.	c #2C2F32",
"L-.	c #0E1113",
"M-.	c #575A5C",
"N-.	c #302D30",
"O-.	c #79787A",
"P-.	c #0F1216",
"Q-.	c #0A070A",
"R-.	c #22221F",
"S-.	c #535658",
"T-.	c #707073",
"U-.	c #030307",
"V-.	c #151A17",
"W-.	c #4A4B4A",
"X-.	c #5E5D61",
"Y-.	c #55595C",
"Z-.	c #404246",
"`-.	c #828386",
" ;.	c #0F0D10",
".;.	c #424044",
"+;.	c #5C5F60",
"@;.	c #060803",
"#;.	c #525557",
"$;.	c #606164",
"%;.	c #101515",
"&;.	c #6B6D6D",
"*;.	c #505356",
"=;.	c #3D3B3F",
"-;.	c #7E8283",
";;.	c #5E5F63",
">;.	c #2A2B30",
",;.	c #696D6C",
"';.	c #4F5152",
");.	c #484A4E",
"!;.	c #4B5050",
"~;.	c #484D4D",
"{;.	c #464A4B",
"];.	c #4D504E",
"^;.	c #444343",
"/;.	c #3F4040",
"(;.	c #413F42",
"_;.	c #3D3F3D",
":;.	c #434449",
"<;.	c #38383C",
"[;.	c #33373B",
"};.	c #303034",
"|;.	c #3B3A3E",
"1;.	c #333438",
"2;.	c #323735",
"3;.	c #272A28",
"4;.	c #2E3230",
"5;.	c #818586",
"6;.	c #626566",
"7;.	c #4F5254",
"8;.	c #4D4F50",
"9;.	c #5D5C5D",
"0;.	c #636565",
"a;.	c #636566",
"b;.	c #676A69",
"c;.	c #68696A",
"d;.	c #6A6D6C",
"e;.	c #6C6B6D",
"f;.	c #707276",
"g;.	c #777579",
"h;.	c #686C6D",
"i;.	c #1C2321",
"j;.	c #010502",
"k;.	c #424248",
"l;.	c #7C7B7C",
"m;.	c #060406",
"n;.	c #160F0B",
"o;.	c #47484C",
"p;.	c #76797C",
"q;.	c #646569",
"r;.	c #646869",
"s;.	c #110F13",
"t;.	c #0D0F08",
"u;.	c #5D5F63",
"v;.	c #333432",
"w;.	c #616566",
"x;.	c #464A48",
"y;.	c #595D5D",
"z;.	c #121715",
"A;.	c #5E6065",
"B;.	c #7A797E",
"C;.	c #525556",
"D;.	c #505050",
"E;.	c #505255",
"F;.	c #585A5B",
"G;.	c #5C5F61",
"H;.	c #5F6364",
"I;.	c #5A5C5F",
"J;.	c #56585A",
"K;.	c #5A5E5D",
"L;.	c #585C5D",
"M;.	c #575A5A",
"N;.	c #525554",
"O;.	c #585C5E",
"P;.	c #5E6164",
"Q;.	c #5A5E5E",
"R;.	c #5E5D5F",
"S;.	c #676B6C",
"T;.	c #585B5A",
"U;.	c #56575B",
"V;.	c #636767",
"W;.	c #656567",
"X;.	c #626365",
"Y;.	c #565A5B",
"Z;.	c #4F5154",
"`;.	c #686968",
" >.	c #6E6F74",
".>.	c #717275",
"+>.	c #6C6E70",
"@>.	c #656867",
"#>.	c #6A6E6E",
"$>.	c #5F6264",
"%>.	c #686B6A",
"&>.	c #646669",
"*>.	c #5F6366",
"=>.	c #595F60",
"->.	c #67666A",
";>.	c #6C6F72",
">>.	c #6F7176",
",>.	c #616565",
"'>.	c #5D6060",
")>.	c #6B7070",
"!>.	c #646969",
"~>.	c #696B6D",
"{>.	c #6E6E73",
"]>.	c #5F5F63",
"^>.	c #64686A",
"/>.	c #686B6F",
"(>.	c #6C716F",
"_>.	c #72777A",
":>.	c #73787B",
"<>.	c #787B80",
"[>.	c #6B6F71",
"}>.	c #818585",
"|>.	c #474A47",
"1>.	c #0E1410",
"2>.	c #16150E",
"3>.	c #616061",
"4>.	c #0F1214",
"5>.	c #080C0B",
"6>.	c #5C5C5F",
"7>.	c #706F72",
"8>.	c #696B6E",
"9>.	c #676768",
"0>.	c #666A67",
"a>.	c #676769",
"b>.	c #666969",
"c>.	c #63696A",
"d>.	c #636264",
"e>.	c #615F63",
"f>.	c #5E6060",
"g>.	c #5D5F61",
"h>.	c #626564",
"i>.	c #585B5B",
"j>.	c #5F6263",
"k>.	c #5E5F5F",
"l>.	c #555759",
"m>.	c #4D504F",
"n>.	c #525552",
"o>.	c #080C0D",
"p>.	c #4B4C4F",
"q>.	c #181E1B",
"r>.	c #484B4E",
"s>.	c #4A4D4F",
"t>.	c #333439",
"u>.	c #111517",
"v>.	c #4B4F53",
"w>.	c #7B7E7E",
"x>.	c #6C6D6B",
"y>.	c #131619",
"z>.	c #313136",
"A>.	c #7C7F7F",
"B>.	c #1F211C",
"C>.	c #323736",
"D>.	c #6F7274",
"E>.	c #484B4D",
"F>.	c #5C605F",
"G>.	c #3E4243",
"H>.	c #4D504C",
"I>.	c #535759",
"J>.	c #5E6264",
"K>.	c #46494C",
"L>.	c #15150F",
"M>.	c #494B4D",
"N>.	c #4E5256",
"O>.	c #16100A",
"P>.	c #5B5D60",
"Q>.	c #444344",
"R>.	c #050907",
"S>.	c #464447",
"T>.	c #4E5153",
"U>.	c #3F403E",
"V>.	c #575755",
"W>.	c #505156",
"X>.	c #3B3B3F",
"Y>.	c #4C4D50",
"Z>.	c #52585A",
"`>.	c #3D403D",
" ,.	c #13110C",
".,.	c #46464C",
"+,.	c #585759",
"@,.	c #5C6260",
"#,.	c #101513",
"$,.	c #17110C",
"%,.	c #6C6F6F",
"&,.	c #171B16",
"*,.	c #141916",
"=,.	c #545558",
"-,.	c #424448",
";,.	c #606163",
">,.	c #140F0C",
",,.	c #020104",
"',.	c #65696D",
"),.	c #2C3030",
"!,.	c #8D8F91",
"~,.	c #949797",
"{,.	c #818685",
"],.	c #87888B",
"^,.	c #868A8D",
"/,.	c #7D7D80",
"(,.	c #808486",
"_,.	c #767A79",
":,.	c #7D807F",
"<,.	c #7B7E82",
"[,.	c #7D8082",
"},.	c #72757A",
"|,.	c #010204",
"1,.	c #060A0B",
"2,.	c #07080A",
"3,.	c #030702",
"4,.	c #040807",
"5,.	c #010304",
"6,.	c #040508",
"7,.	c #0B080A",
"8,.	c #000103",
"9,.	c #020506",
"0,.	c #828388",
"a,.	c #777A7C",
"b,.	c #706F73",
"c,.	c #616266",
"d,.	c #7A7C7F",
"e,.	c #6D7170",
"f,.	c #8B8D8F",
"g,.	c #9A9A9B",
"h,.	c #484B49",
"i,.	c #585958",
"j,.	c #0A0C0F",
"k,.	c #070A0C",
"l,.	c #0A070B",
"m,.	c #080B0D",
"n,.	c #0B1010",
"o,.	c #090A0E",
"p,.	c #0D1013",
"q,.	c #121714",
"r,.	c #090E0C",
"s,.	c #040909",
"t,.	c #0B0C10",
"u,.	c #0F1215",
"v,.	c #0A100E",
"w,.	c #060B0A",
"x,.	c #545553",
"y,.	c #45474C",
"z,.	c #6C6C6E",
"A,.	c #59595C",
"B,.	c #282926",
"C,.	c #191F1D",
"D,.	c #6E6F6E",
"E,.	c #4F4D51",
"F,.	c #140E0B",
"G,.	c #3A383A",
"H,.	c #424847",
"I,.	c #585B57",
"J,.	c #111616",
"K,.	c #404442",
"L,.	c #1A201F",
"M,.	c #181D1E",
"N,.	c #2A2A28",
"O,.	c #828385",
"P,.	c #0B0A0E",
"Q,.	c #6E6F6F",
"R,.	c #040105",
"S,.	c #7C7C81",
"T,.	c #4B4F4E",
"U,.	c #666569",
"V,.	c #595B5D",
"W,.	c #10130D",
"X,.	c #191B16",
"Y,.	c #22211C",
"Z,.	c #04070A",
"`,.	c #11130C",
" '.	c #0C0E11",
".'.	c #090B0E",
"+'.	c #101612",
"@'.	c #171C19",
"#'.	c #121716",
"$'.	c #100E13",
"%'.	c #05080A",
"&'.	c #030607",
"*'.	c #140F0A",
"='.	c #151914",
"-'.	c #0E0F13",
";'.	c #131A1A",
">'.	c #5A5B5D",
",'.	c #555558",
"''.	c #525454",
")'.	c #515355",
"!'.	c #4B4F50",
"~'.	c #505250",
"{'.	c #505354",
"]'.	c #585758",
"^'.	c #555757",
"/'.	c #545557",
"('.	c #4F5150",
"_'.	c #535356",
":'.	c #515154",
"<'.	c #565856",
"['.	c #505454",
"}'.	c #555556",
"|'.	c #525459",
"1'.	c #505153",
"2'.	c #515252",
"3'.	c #505252",
"4'.	c #4A4B4E",
"5'.	c #4C4E4D",
"6'.	c #4D4D51",
"7'.	c #4F5054",
"8'.	c #535453",
"9'.	c #434746",
"0'.	c #4C4C4A",
"a'.	c #494748",
"b'.	c #444444",
"c'.	c #434548",
"d'.	c #454444",
"e'.	c #3E4341",
"f'.	c #494947",
"g'.	c #323230",
"h'.	c #333634",
"i'.	c #4B494B",
"j'.	c #49494A",
"k'.	c #4E4C4C",
"l'.	c #4C4C4B",
"m'.	c #50504F",
"n'.	c #515352",
"o'.	c #515254",
"p'.	c #595A5B",
"q'.	c #262622",
"r'.	c #101413",
"s'.	c #111615",
"t'.	c #0D1111",
"u'.	c #0D1012",
"v'.	c #0A0E10",
"w'.	c #0B0C0F",
"x'.	c #09090D",
"y'.	c #090B0D",
"z'.	c #0D0D12",
"A'.	c #0E1214",
"B'.	c #171711",
"C'.	c #181418",
"D'.	c #211E24",
"E'.	c #1C1B21",
"F'.	c #171E1E",
"G'.	c #150F0A",
"H'.	c #0A0902",
"I'.	c #0A0B04",
"J'.	c #130E09",
"K'.	c #0B0A03",
"L'.	c #12160E",
"M'.	c #11110B",
"N'.	c #0F0909",
"O'.	c #090701",
"   .  +  @  #  $  %  &  *  =  -  ;  >  ,  -  '  )  !  ~  {  ]  ^  /  (  _  :  <  [  }  |  1  2  3  4  5  6  7  8  9  0  a  b  c  d  e  f  g  h  i  j  k  l  m  n  o  p  /  q  r  s  t  u  v  w  x  y  z  A  B  ;  C  D  E  F  G  n  H  I  J  K  L  M  N  O  P  Q  R  S  T  U  V  W  X  Y  Z  `   . .. +. @. #. $. %. s  &. *. =. -. ;. >. ,. '. ). !. ~. {. ]. ^. /. (. _. :. <. >  [. =  }. %  |. 1. 2. 3. 4. 5. 6. 7. 8. 9. 0. a. h  b. c. d. e. f. g. h. i. j. k. l. m. n. o. p. q. r. s. t. u. v. w. x. y. z. A. B. C. D. E. F. G. H. I. J. K. L. M. N. O. P. Q. R. S. T. h. U. B  V. W. X. Y. Z. `.  + .+ ++ 8. @+ .. #+ $+ %+ &+ *+ =+ -+ ;+ >+ ,+ '+ )+ !+ ~+ {+ ]+ '  ^+ /+ (+ _+ :+ <+ [+ }+ |+ 1+ 2+ 3+ 4+ 5+ 6+ 7+ 8+ 9+ 0+ a+ b+ c+ q  d+ e+ y  f+ g+ h+ C  i+ j+ k+ l+ m+ n+ o+ p+ q+ r+ b. s+ =  t+ {  u+ v+ w+ 2  x+ y+ z+ A+ B+ C+ D+ E+ F+ G+ H+ :  I+ J+ K+ L+ M+ N+ O+ P+ -+ Q+ R+ S+ T+ :+ U+ V+ 8+ W+ E  C  X+ Y+ Z+ `+  @ .@ e. +@ z+ @@ #@ $@ B+ %@ E. A  &@ *@ =@ d  -@ N+ 5. ;@ >@ ,@ '@ )@ R. l+ !@ r+ ~@ {@ ]@ O. ^@ /@ (@ _@ :@ <@ [@ E  }@ |@ 1@ 2@ 3@ 4@ l+ '. 5@ F+ ]+ 6@ ~@ 7@ 8@ 9@ 0@ a@ b@ c@ d@ D+ e@ f@ g@ h@ i@ k  1@ j@ k@ l@ m@ n@ o@ p@ q@ r@ s@ t@ u@ v@ w@ x@ y@ z@ A@ B@ C@ D@ E@ F@ G@ H@ 7. I@ J@ ,. K@ L@ M@ |@ N@ O@ P@ Q@ R@ S@ >+ A  T@ U@ V@ W@ h@ X@ Y@ Z@ `@  # .# +# @# ## $# %# ]  a+ .+ &# *# =# -# @# ;# ># *. ,# '# )# !# ~# `@ {# ]# ^# /# %  (# _# :# ,@ <# [# F  }# |# 1# 2# 3# 4# J. 5# (  x  6# 7# 8# 9# 0# a# Y@ '+ b# c# d# e# w@ f# g# /. h# K  i# j# X@ k# l# m# n# L+ o# p# q# r# s# t# u# v# ^# w# ~  x# y# z# <# A# B# C# ",
"D# E# F# G# H# I# H# J# K# L# M# N# O# N# P# Q# R# S# T# U# V# W# X# Y# Z# `#  $ .$ +$ @$ #$ $$ %$ &$ *$ =$ -$ ;$ >$ ,$ +$ *$ '$ @$ )$ !$ ~$ V# {$ ]$ J# J# ^$ /$ ($ $$ _$ :$ ($ <$ [$ }$ |$ 1$ 2$ 3$ 4$ @$ 5$ 6$ }$ 7$ 8$ 9$ 0$ a$ b$ c$ d$ T# S# e$ f$ K# ~$ {$ g$ h$ i$ j$ k$ l$ m$ @$ n$ o$ p$ q$ r$ s$ r$ t$ u$ v$ U# w$ x$ y$ z$ A$ Z# B$ C$ 2$ D$ E$ F$ G$ H$ I$ J$ K$ L$ M$ H$ N$ O$ P$ *$ Q$ R$ }$ S$ T$ U$ ^$ ^$ H$ V$ W$ M$ R# G# X$ ]$ Y$ Z$ `$  % .% +% @% #% $% %% $$ C$ _$ &% *% %% =% -% ;% >% ,% '% r$ )% !% ~% {% ]% ^% /% (% _% :% <% [% }% |% 1% ^$ 2% 3% V$ 4% 5% 6% 7% 8% 9% 0% a% ($ b% c% d% e% f% g% @% h% -% i% H$ j% k% T# O# ]$ l% m% n% o% p% H$ 6% q% r% s% n$ t% u% v% w% x% y% n% ]% ^$ z% A% B% 9$ T$ a% <$ C% D% E% m% F% G% l$ ^$ H% I% J% U# _$ K% L% M% N% O% S# U# >$ X# P% Q% R% S% T% U% V% J% %$ W% X% Y% ,$ Z% `% ]$  & .& +& @& #& $&  % U# a% %& && *& =& -& Y# X$ ;& F$ >& ,& q$  & {% '& )& !& ~& R$ _$ {& ]& +$ F# ;& ^& ~% |% /& L# 3$ (& X$ _& U# :& ~$ <& [& X% }& A% |& 1& 2& 3& P% ~% J# 4& 5& G# 6& @$ N$ .& 7& 8& 9& ;& +$ 0& a& b& c& <$ d& H$ e& f& <$ l$ g& h& Y$ i& j& J# k& l& #& m& -& n& L$ #$ o& p& 2% &% q& r& s& F# t& u& [% v& @& .% E$ X$ j& X$ 7& w& x& Q$ b% y& _& z& E$ A& U% B& C& t& D& ~% X# E& J# F& }$ s% _$ G& $& X$ R# X#  & H& ]% &$ I& J& K& >& U$ ~$ 4& L& X# L# M& R$ N& O& 9& +%  $ {% +$ _$ P& U$ Q& R& 2% $$ 5% >$ S& T& U& 1$ N# 7& ;$ _$ V& ($ h$ W& g& X& 5% Y& Z& ^$ `&  * `# .* W% ,& G# +* @* +$ !% )% #* r$ <$ $* c% W& j& M& %* L# R# #$ -$ D% &* ** =* [% _$ -* j& -& 4% ;* 5$ b% Q& F$ X# >* ,* '* ",
")* !* ~* {* ]* ^* /* (* _* :* <* [* ]* ]* }* |* 1* 2* 3* 4* 5* 4* 6* 7* 8* 9* 0* a* b* c* d* e* f* g* h* i* j* -% k* l* 1* m* n* o* p* q* r* s* t* h* u* v* w* x* y* 3* z* A* B* (* C* t* D* E* F* G* H* I* _* J* g* h% :* K* L* M* k* N* O* P* Q* R* Q* w* |* S* F* T* U* V* W* X* Y* M* Z* `*  = 9* l* V* Q* 5* .= += @= x* #= 3* $= O* %= &= *= :* B* == -= ;= >= ,= '= )= a* != ~= {= ]= M* Q* Q* ^= /= :* N* (= _= A* u* := <= <= [= T* }= (= :* |= 1= 2= 3= h% 4= 3= 5= 6= 7= 8= B* 7= 9= 0= a= b= c= @= d= e= f= <= /= x* g= h= := e* ]* i= j= k= I* l= (= U* (= m= n= o= d= l* /= R* M* ^= p= I* (= o= q= r= I* s= t= t= u= v= w= x= y= z= A= B= z= /= /= x* C= D= C= d= [= E= f= t* (* [= O* F= z= G= H= I= (* J= K= L= M= 8= N= O= P= Q= &= R= _* <= C= f= S= Q* T= ]* A* M* U* U* v* U= P= G* z= j= V= W= d= == X= <* 7= E= ^= e= Q= (= q= ^= Y= P* j= ]* Z= 3= &= `=  - D* )=  - 0= .- e= b* +- @- #- $- P* %- @- &- *- Q* I= P= =- f= C= E* [= -- O= ;- *= }= `= >- `= C= ,- G= '- b* <* b* z= )- !* !- A= I* ~- {- ]- t= n= O* ^- /- f= (- x* H= )- _- z= :- 7= :- <- c* )= w= R= W= P= [- }- M* |- == 1- ]= ^= 2- 5* 3- C= 4- w= 2= G= 5- n* ]= d= 6- 7- 8- 9- [- 0- :* a- %= `= &= 3= G= s* b- 9- :* c- := {* 4= c- :* b* W= &= h% C=  - d- I* e- b= 4- f- '- g- C= h- i- E* j- k- $- (=  = x* S* Q* h% C= V* '= D* Z* 0* B* P* l- d* @= m- z= n- x* V* x* ]* V* (* h* Z* |* I* J* 5= d= u= K* w% o- f= @= p- f= C= o* ]* q- r- M* :* p= s- ]* t- u- v- u= V* e= <* {* q* t* K= K* h* k* A= B* :- @= 4= 3- M* w- V* x- f= S= /= M* y- w= Y* f= 5* {* z- n- @= A- B- -% C- D- E- ",
"F- 0- G- m= M* 1* I* Y= C= H- h% $= t* y= H- I- R* E* m= b= J- K- K* L- M- g= h% j* 5= N- O- z= q= O= P- f= 0* ^= $- n= n* V= Q- <= ]- }- _* := o* R- b* 3= 7= s* ;= ~- r- 4- k* <= a* 5* == 7= o= q= S- o= Q* _* V= <= B* o* D* 6- M- R- a* R- j= (= T- I* u- U- D* x* V- 5* W- E* u= o= I* H= C= D* s* == B* M* o* K* O* &= }= P* X- w= ]= I* :- Y- m- Z- B* P* B* e= `- H=  ; .; s* +; ]= f= <- )- c= @; %= 5* %= #; 5* $; [= %; 5* O= P= D* &; *; &= n= Q* >= '- =; v* d= f= P* z* O= D* -; R- ;; [- A- P- J* >; C= ,; A* c= <= 5= u* D* `= e= A* V= Z- S= q= =- '; 8= ^= M* ]* n= /= i= f= /- }= :- b= [= *= ~- ^- b* n= *- ;- ); Q= v- >= 4= 1= :- e= o= B* C= !; :* :* q= <= R= 3= 6- #; ~; ]- ;- {; C= ]; [= 8= }- ^; /; [= (; F= U= _; 8- :; t= <; n= [; ;- [- 8= Q- }; /; 8- j= V= |; 1; $= 2; F* ]- H= ;= 3; 4; )- z= C= W= 5; ~- b- $; ^= :* V= R* t= u= 6; f= O= 3* o* <= @; ]; o* 6- N= e= !; 7; 8; #= 9; 0; B* N= {- A* 3= P- j= :* ]- A- 6; 7; @; ^= |; ]* j- t= p= V= F= V= a; r- /= f= :; E= o* &=  ; b; 8- i= == 7; 5; B* 3; @- b* &= P* !* :; c; *= c= Q= d; A- 7= t= e; e= f; +- ^= l= (= '- g; h; :- -= B* r= ^= b- B* D* /= == i; $= &= [; -- 4- w= j; t= q= U- k; T- x* ,; l* 8= B* )- d* ^= .; ^= l; T- j; m; K* n; `* :; C= &= G-  - *= @- B* G- &= 7= N* o; ;- p; ~- >; ~- _* _* l- U- q; '- C= r; 1= n= s; )= @= :* 5= 7; 5* #= t; u; v; 5* <= b= w; 8= a* 8- x; T= j; ;= y; J= z; o; B* A; B; C; 8= q= o= l; D; a= s= Q- <= E; F; R- e; 5; c;  - B; 8= n* G;  - H; 7= 3* e; B* B* O=  - d= f= I; 1* V= I- B; ,; J; D* h= n; &= /= F= r; >; ]- K; A* A- (= =- L; M; ",
"N; a= G- /= n- %- :* c- I* 3= :* 5* )= u* 5= 5= u= O; <= P; Q; R; >$ S; S; T; T; T; T; S; S; T; S; T; S; S; U; V; W; S; X; S; Y; T; S; S; S; Z; S; T; Z; Z; `;  > S; .> Y; +> +> S; T; @> S; S; S; #> $> S; `; %> T; S; S; V; Z; S; `; T; &> *> T; T; S; U; => T; S; S; -> Z; S; ;> S; $> >> ,> '> )> ~* !> @= :- 7= Y- u= <* P- F= :- P* @- 9- G; ]= ^= ^; '- o* O= (* C= 5* V= f= ~> [= 5* 8= b= H= }= &= i= :- t= D* &= h% 8= W= E* #= l= f; 7= =- {> W= H= Q= d= ]> z= 8= h= :* P= j; Q* j= Q= 8= $; Q* >= 8- /= b= ^> V= e= /> (> /> ]- ]- @; E*  - x* ~- :; _> x* <* K* Q* V= /= 8= 8- e= ~- B* /= :- 8- ^= H=  - :* :* C= q= b* 5; N= A* (= j= :- x* >- ;- ;; 2* P= e= :> M* b= B* C= Z- D* == o= `= -- <> I= :- j;  ; ,- e= [= !; [=  ;  ; ]- ]= d= (* i; D* [> &= :- <= ]* [= q= 9; <= }> z= Z- &= ;- ]- J* K* @; C= l* n* _- R- @; ]> |> P=  - `= ,; E* B* u= H= ^= 1> [= t= I- F* ^= 2> [= B; _> q= 3> }; P= U= <- 4> Q* ^= :; /= f= Z- P= A* 9= l= y= ]- P* 3> == @; Z= t= w= e= Z- B; B* |> `= @; ]= l= 8- B* 3= i= A* n= B* @- G= ^= D* @; b= t= Q= &= 0= M* >= W= >= G= 5> 8= P= ^= I* &= e= s* 1> u=  ; e; ]* 6- S= b* H= @; [- Q- P* 6> N* P= Q* a* P= 7> N* U= r= b= ]- P= I* i= R- 5* 8> <= 8> 5* P- P= 9> P= 5* <= e= ^= :* @; $; o= I* [- ]- n= ^-  ; 8= 0> a> b> c> d> ,> S; Z; S; S; S; S; S; T; S; T; S; S; S; S; S; S; S; U; %> S; S; S; S; S; S;  > S; S; S; .> S; S; S; S; S; S; S; e> S; S; f> g> h> Y; S; S; S; i> S; S; V; S; S; S; S; S; j> X; S; S; T; S; T; S; S; .> k> Z; .> k> j> l> m> '= _* n> o> 3= i= w= Q= 8= ]- {; D* V= /= d= [= 6; p> 7> k* :- q> r> ",
"s> t> u> {* == {* 1* v> <* N* q- [= #; `= K* _* I* w> A& x> U* _& y> z> A> B> C> D> E> F> G> $  H> I> J> K> L> M> N> O> P> Q> R> S> T> U> V> W> X> 4@ Y> Z> `>  , ., +, @, #, $, %, &, *, =, -, ;,  , Y@ >, ,, ', ), !, G> ~, {, ], ^, /, `> (, _, :, <, [, }, |, 1, 2, 3, 4, 5, 6, m@ 7, 8, 9, 0, -- a, b, .$ c, a* a- l; :- d, 6- <= 3> M* e, == @; F= ~- B* P= e= 8> U= j= `= Q= <* ^= B* b* f, K* V= i= g, b* G= b= Z-  ; C= :*  ; :* 3* R= ^= A* j= :; I* 9= B* ]= P- G= k* %- 7; $; b* I- D* d* 8- 9= ]* == P* 3= == D* I= 8= 1>  ; b= 3> B* f= b* o= h, H= l= Q* q- 5* i, :- U= B*  ; == r= f- [= U= ]- 8- ~- :; ^; :* -= B* t= V= V= 8- B* Q* }; 1> n= ~- F* :- G* 8- == == j, k, -- /= V= a; C= V= }; )- D* <= }> B* (* u= i; J; J* h= G* &= i, !; r= 3> l, <= [= q= 3* m, 8- @; :- I- @; =- b= n, V= I* %= o, E; 8= P= d= e= @; :- P= $; 5; -- I= p, a* q, [= !; j, F* 3* f, A* <> 8= 8= d, l= 7> [= 7> l= >- U= i= b= A* P* A* 5= C= D* c= ,;  ; r, /= a= :; :* e= O= &= @= u= 8- }; ]> @; w> $; s, d* C= I* 8= :* Z= }- :* !; I= y; t, 6- <= ]> ~- u= 1> ]- @; P* Q= P* I= G= f- :- ]*  ; @; P= ^= V= ^= ]- R* &= @= :- [= u, ~- N= .= /= C= f= B* *= /= G= 0* q= /- :- 7= H= C= I* o* ]>  - P= 7= I= W= c= P= /= r= ]- I* 2* ]; H= H= 1> !; @; U= == D* Q= [= :- v, w, ~* x, y, z, A, (@ B, C, D, E, F, G, H, I, J, K, L, M, I@ N, O, P, Q, ;@ R, S, ;# T, U, &# V, |@ j+ z+ W, X, Y, Z, `,  ' M> .' +' @' #' $' %' &' *' =' -' ;' s# `@ >' ,' '' )' !' ~' {' ,' ]' ^' /' )' (' _' :' <' [' }' |' 1' 2' 3' 4' 5' a% w- 6' $&  - 2* ;; t* 2* }- w- <> v* ;; Q* 7' 8- R* |* D* 8' 9' ",
"0' a' d= A- e= D* K; := 7= ]= P* 7= q= _* 2= d= b' c' d' f% e' f' ($ `* L* g' h= -; h' i' 6- :> j' k' l' m' l= n' n* [= /> o' _* 5; >; ;= )- p' g, f; q' b- q; w= ~- R- r' b* V= -; s' H; t' p- u' R= L- n= v' j, 4> w' 5* p= g- ]* I= A* D* x' n* 5* R= 7; ]; y' z' 3> A' B' == Q- 6- !* ~; 1* =% C' D' E' F' G' n* 5> F; i;  ; ,- ;; H' )= h% 5* ~- D* ~- t= 8- b= {; D* j= z= $; 5= u; 1> I= V= z' 8= 5* B* %= W= ]- 8= K= /= *= z* =- B* I* 0; f- P= Q* D* ]* u* C= z= B* .- d= (= `= 7= 8- u= e= @; l* /= f= D= V= I* G* @; t= G= Z- 8= #; 1* P- j= I' H= :- ;; w> J' w% T- f= j= Q= 7> 3= I*  ; b* /; K= h= a* 6- 5= <= '- '; N= |> u= ~- h= ~- ;- Z= $; ^; ]- Z- V= 4= A- '- /= ]> ;; ^; L* f= :- .; o= )- P- @; >= C= P* [= n= R- x* G; U= b= e= A- >- A* $- ^= d= ;- K' z= 8- 8- Z- F* {= }; 8= B* 6> ^= x* n- <= I* 0; Z= o* _* w= O= [= q= $; r; L' N= q, :- ]- C= 8- F* e= 0; g- 2- I* y; <= y; U= ;- 8= P= M' -- f= V= G= V= C= I* Z- n= 1> $; U= F; Q* :; I* d= m-  ; :- 8- N' _* A*  ; O' K= P' /= 3= ]- B* D; L* l= 3* 5= f= Q= 8- 7= _> m- G= b- Q' .; 3= 8= H= H= D* I* b= [= >= D* 7=  ; V= 1> 8- B; R' 7> 8- o* S' e= f= 8= &= ]= t= 5; ~- -= `= u= 7> [= j= f= Q= 3* G= i* o= O= == n- ~- 3* T' U' g- 6- <> B* r= [- I* #= W= 8= G= V' 1> :* W' R= X' Y' Z' `' :*  ) T$ S* @= .) P= F; +) 1- o* <- w; u' F* J= R- Z- <= u; [= z= 8= @) #) >= :- $) m- j= o= b* %) 1> &) <- *) b* =) /= Z- r= -) y' q* d, 1>  ; R' I= ;) >) o, ,) [= c- ^; q* i; [> ') )) g- 8= 0; y; 2; !) r= ~) )) _> A; 3- S- Q= N- U% {) ]) ^) /) () Y- <- >; C= h= g- D* == [= q= B* w% }= <* f= _) :) ",
"<) >* (= ^= ]* m, H' h* M* C= }= }=  = [= M* <> &* [) l& }) |) p- 8- 3= ,; h, ^= 1) 7> p, h' R' G= f- 2) :> 3) <> 7> o' 4) 5) 1) g- N= o, {- g- 6) 7) !; :- 5) q, U= 6> h, T= 8) p- >= 6> 4> 9) ]* h' 0) a) ~- w' b) :> [= c)  ; 0; V= W' <= h= p, n- 8) t, @- -- D; n= q* d) ^= e) f) i; i' o' 6- g) W$ v% h) i) g- z= 0* l= p, h, (= b= @= [- w= E= )) &= P* H= P* j) B* $; j= !; G* G- 5* o* 4> 8= P* F= n= #; d= -- Z- 8- C= N* N= B* O= :* 8> f= >= C= 1> G= V= x* b= H= :; `= ;; e= :* e= }> 1* == ]; k) b* 9- r= F; :- {* /= ;= T- &= *; &= *= ^= b* 0) }= K= )- _= 3= l) P- 8= A- @; N* f= W= V= m) ^- t, G= y; P= A- l= }= /; O= <* 8- I* j= P- :; >- =; f- u= n) ^= o* y; ~- e= == 3* 8- 5; ]* 7> P= 5; P* 6; &= 0* f= A* N= m- o) 8= <* @; R* <* ;; ^- i* h= /= d, Z- p) q) b* i= N= r= D* M* z= 8= >- 0; :* Z- H= j- :; r) I* C= c= p, &= /=  ; [= F* 6- o* {* I= <= s) Q* N' @; ]- <- #= :- c= ;; w= c; |> D* b* @; #; P= n- R- 0= H= ~- k* r= b* V= r= 9* W= (* P= t) w* 3* H= u) /= g- P= G= >- :- :* V= [= :* l= B* b* n= k= H= 5= 8- ~- ^= ~- [= ]* W= B* [- K= 8- v) -= <= ]- ]- j= P= :- h= /; @= C= <= O= 8= i; F* >- }- N* x* ^= w) C= x) >- K* b= <> 9; D* /= :- }= P* w= C= 3> I= O' ]> V= <= >- L' H= ^= P= O* D* [= q) [= !; m- }= f= u= $; b= ^= Q= y) w% Q; z) $= V= G; i= G= k) 5* @; !> e= e= e= F* r= 1- L- A) }; {- W= w> _> i- B) 7; >- k, C) ,) D; _> V= 3) P- ^- i; W' +- q= n= 8= >- *= b= 3* :* d= D) b* <= ,- c= <= 4> 5) /= i= E) h= L- (* Z- .= r= f- F) Q= 2= 3) i' G) |> <- >- F= b* w; H) I) J) K) L) s' G= l* s' P= v* Q* (= i= K* <= M) B* x' N) O) ",
"0' P) 5= %= u* D* x* H- 1- Q) V= )- u- s- 0; R) S) {$ T) U) &= w' 1> :- /= 8= V- o* 8) r= `= d= @= V) 7> .- U= 8-  - j, !; r= c; 6- <- 3= Z- g= 5; J; I* h= [= Z- W) @; t) == A* X) P* ,- o* 8= A* $; }; U= D* <= L' Z- !; L' W= A- e= Y) ]- E= c= ]> r; i, _* j= b* j= y; 2* ~- ~- A* I= ]* Z- z= Z) `)  ! .! +! @! u) 8- (= U= [- f= A* u* #! r) 8- <= D* P= _* t= b= )= $! {- 8= %! 7= 0) 6- >= C= .- i= == B* <* 2* ]* N* @; [= b* f= p> k= e= N* ^= m- F; b= q- 2= &= <; t= M* :* <> I* A* r; j= ^= j= G= 9= [- _> [= D* Q= 5= /- Z= f- :- b* }> h% :- M' 7= o= >- Z- F* I* z= 8- I* R= ]* == ~- f= R= ;= &! <= P= t= P= i- *! r= j= <= P= ~- J; B* t= ^= ;- Q* s- H- _* =! !; K= [> $; 9- f* Q* $; *= u= K* Z- R- /= x* b= t) J= 6; F= H= 2* == V= Y) *= r= d= P= b* Z= /= (* -! 8= 8= c- >- ]- f= G= /= ]- ;- [; [= n= O= 5) |> Y) G= Q= 7= o' b* z= ;; R= b* :- W= ^= j= V= h= ]- }; H= 7> G= H= k)  ; O' ;- 3= !; :- '- ]; b* ;! D*  ; V= V= [= ^= *= F= e= 4= @= #; O* B* ]= b= /= >! >- _= b* X= j= /= [= d= ^=  ; B* !; f= 8= (; j= V= V= y; 8- b= e= <* T' 8- H= Z- ]= }; N* P= :- 7> (* 4- <= r= f=  ; ,! _* ;; K= '! x* -= :-  - `= D* p- n* G= {; R- o' u= >- V= a* Y) v* e= 1= m- f= w=  ; e= C=  ; )! L' {- f- <> Q= [- t= O= 1= G* R= 5> 3> F* D* [- a= ') !! L% ~! {! S- r= G* 5* <- {; 0> >= A- ]! ^> Z- ~- ^! H= G* I* b= U= /! /- E= `= -- (! _! :* :! 8= :; 5= |; q; <> 8- -= u= @; A* ]> J= ^= A* F* ]- Q= 7> {; V= #; >= k= 6= U= z= 7= 6- 4- F= z= [; _> ~- 9; 7= 8- 8- U= G* 1* i; [= h% 1- d, }; P= <! O' [! S% 7* S; }! i= '- m- <* n* z* == <* N= d= Q= -% |! 1! ",
"2! w) 3! u* I* k) l= A- Q* w= 4! D* 2= w' 5! 6! 7! 8! C= d*  ; x* j= I= P* V= l= ]- V= g- ,) ~- e= h' $; '- b* )- 9! r) ,- @- 0! ^= 7= @; 5= d= {- H= ;;  ; i= 0* x; b- }; 7= 5* 0> 8= i; Z- [- b= ,; 3; #= F* t= a! (* 3= 8- 1> >- 8- I* J' t= <= b* ;- <- 8- H= b! Y- j, B; 5; C= h= 4- 4) A* <= c! >$ d! [$ e! P' x= B* ]; E* f! r; &= 6- t= g; K* [- b= b- 8= G* #; j= O= g- 8= -- _* 8- %-  ; 9; 6; 1- 7= s- [= [> &= 2* (= @; V= g! {* 2= 5; e= w- 7= b= C= P* -= >- @- g, b* z= 3* L* 4= :; *= ]= u= b= ;= 5* f; 0; b= >= Z= Q' .= )) b= B* 4- G; `= 4> '- H= h! *= h% b= [; Y) 9; O= +- A* g= f; 5* L* V= i! y; /= !; R- 5; 8= <= z* B; 2- 7= C= t, @; 3= u= j! 8- ^- ^- >- 3= 9; [= 5; ^= v) 1> V)  ; L- R- k! c= t= 6; t= ,! I= '; n; [= ]- R- {- 3; v- l! r; [= t* E= ;; 7> -- &= ^- B* ,- V= 8= r= n= V= b= P= Q- v* M* 7> t* <= H' 5) n- [= <- :* Q= t= Z- n= h= P* <= c= ]* L' d, y= }= d, $! ;= `* [= p, _> A* m! 7= r; e= #= j-  ; Q* f= P) 8= 8> <= J; i= 9; P= 2= h= b* :* 1= <- b- H= [= @- 3> (* A* -= W= F= 8- [- *= 8> A= 8- y; M* R* ^= 3= P= ^= :- 7= L' e= V= b= :- Z- P= 8= V= )) == ;= @- :- &= O= W= P* 5; j, `= R= n! <- 5= :; <= ]> P= !; p- 7) p,  ; 7> c- >= )= t= O= t= o! A* (= 1> n= [; .; 3= u= >; p! @; q! *; u= 3; G; q= 8) 7= r! Q= $! s! t! u! p% v! 3= G* ^= k* :- [= a* A* [> F* e= S= M* >= U= 6- >- &= #= C) w= (= G; J= w= c- 0= 8= Z= ,- }! ^; 1= ^= :; 8= 5* .- b; 1> w! x! #= j, q! H; t> V= 9- f= P= 9; 7) *) /= t= 1> == f, s) y! Z= m! W= l= 8= E; /= j- ]- 7> &= 8- [= m- }> {- 4; 7* z! A! }* >> B! G= `= :; 5* k) d* D= I- 0* C= N* C! D! ",
"E! g- G* W= F! H- u= (= 8= K* R* L* G! H! A* Y# I! b; d* n- H; i; e= -- :- 4> 9; :; }- ^= <= }= Z- &= `= r= R- e= h' ]> U= B* 4> n= ,; I- ]- G* .- l= c= P= 7= n, K= R= }= <> 8- n= /; P* J! o= 7= (* F* i, z' ;= }= 8- (= >= ^; O= b- O' k= 3* <= e= U= q) z= f= 7= ^; (= == k* b* 8- @; 0; a- H* K! L! )> M! N! O! P! Q! R! l' P! )) Y- S! T! U! V' V! l, l, h' r) P! I= R! W! @; k, 5; X! '! i, o' X! M' r' v' Y! |- Z! b' `!  ~ .~ +~ @~ #~ $~ W! i; X! %~ @) k, l' i' f) ,- E) &~ *~ 6> *) i= i) M' =~ -~ u' ;~ >~ ,~ '~ )~ 1= !~ ~~ =) P! {~ .~ ]~ ^~ /~ (~ n' _~ :~ Y- l' /~ -~ <~ ,~ [~ }~ h, |~ d) |) j, 6> 1~ @) u' l, 2~ r) 3~ 4~ 5~ Y' 6~ Q! <~ 7~ 8~ 9~ Q! 0~ 0> a~ b~ c~ d~ e~ f~ b' 6~ 6> g~ 6) o, ,- j' ^~ a~ |> h~ <~ !; i) P! 5~ ^~ U! 6> *~ u' E) i~ j~ k~ l~ *~ a~ m~ n~ o~ p~ /~ 5~ s' d, q~ t' l' s= h' r~ }! 1~ I; M' s~ b' 4~ @; <! =~ n, d, t~ u~ v~ w~ x~ /~ y~ z~ '~ P! A~ B~ C~ D~ &) L- W! l, r' U! l' u~ p! l' b' S! E~ G! B; &) 0> 6> F~ m' <~ G~ ~~ W! j' f) 5> '~ 5~ !; @) 0; H~ I~ 1) O! >~ J~ K~ _! 1) o' 6~ E~ ;~ L~ 0; r~ M~ N~ O~ h, P~ Q~ a~ 4> k, R~ Z= S~ h' 1) T~ U~ &) s= R! G~ E) P~ 4~ V~ T! W~ 0> X~ r= @) .~ 6> Q!  ~ Y~ Z~ 6> 1) `~ h' O~ 2- o' h, 2) i! 6)  { @) }> .{ E~ |> S! r) n~ h, q, j' /> u; &~ X' s' +{ !~ }! j~ @{ #{ ${ %{ &{ *{ c= 8- N= (; R- ]- C= {> 5; g- E* 5; 7= F* 8- q; b= ]> b; 8> @- 4> ={ -{ s* *{ R! -- -- L' n* [= <> d, Q= P= <= ,; 5= <= G* [= 4= Q* D* ]> ;{ n' g; H=  ; L' 0! z* *= _- d, 1> l= 8- @; 1= ]- ,; D* u* H- 8- #= e; 7= H; Q- y; ~- :- z= a* D= ;% >{ 9% '= Y; ,{ $= '{ 7> ){ (= f= == v* Q' h% 8' !{ ",
"~{ G; ;) ~; k* u* I* {{ g- 7= <= h' ]{ r* ^{ /{ ({ _{ e= W' f= .= O' I= t> :; 5) >= ]> 1= ;; H= f, I* r= P= @; G* :{ <{ 0- u= 5* [{ }{ c; l* }* n; .= ;- 6* 4* |* r* (= d; V= 7= ;- I* )= g, u; M* _- g, 3~ J= b= |{ y' 1{ >* 1* c* 2{ h= c; p- 2{ 3{ 4{ 5{ 5; 6{ 7{ p- 8{ .) 8- I= s* U- 9{ G- ^) ]& J$ ^) 0{ S; a{ S; b{ Z; S; T; Z; S; S; S; S; S; S; S; S; S; S; V;  > S;  > .> S; S; S; S; Z; Z; V; `; S; S; W; T; U; S; S; S; Z; S; S; S; S; S; S; Z; S; S; Z; c{ .> S;  > S; S; d{ .> `; e{ f{ a{ Z; S; `; T; W; Z; Z; S; S;  > S; Z; Z; S; S; S; `; S; S; S; S; S; S; S; `; S; V; S; S; S; S; S; `; c{ Z; S; g{ S; S; S; S; S; S; S; Z; S; S;  > S;  > S; S; Z;  > S; `; T; S; S; S; S; S; S; S; `; S; g{ S; Z; h{ S; S; S; S; Z;  > S; Z; S; S; S; Z; Z; S; V; S; `; S; S; Z; S; i{ `; V; S; S; S; >> S; S; Z; j{ U; S; V; Z; k{ S; U; Z; S; S; S; Z;  > S; S; S; S; S; S; S; V; l{ g{ m{ S; Z; V; >> S; S; S; S; n{ S; ]{ S; S; >> Z; S; Z;  > Z; e{ Z; S; V; S; S; S; Z; m{ Z;  > d{ S; Z; S; T; `; S; S; Z; S; S; V; S; k{ S; S; Z; Z; Z; S; S; S; S; Z; o{ S;  > S; Z; k{ S; `; S; Z; k{ .> S; Z; S; S;  > `; Z; S; S; `; S; S; S; S; S; S; S;  > a{ c{ Z; c{ S; S; S; S; S; S; S; S;  > S; S; S; S;  > S; g{ S; p{ q{ Z; S; S; U; k{ S; S; S; c{  > k{ q{ >> S; r{ s{ t{ W$ S- 8= j= r* :* U- u{ r- v{ F; w{ [{ G- @= Y= w% T- O= Q- m* U- m* x{ 9* y{ f* t- y{ z{ H= A{ [= d* v% 4* z= S) B{ }{ w, C{ D{ y{ W- E{  - 7' q* .= c* Q- F{ G- 2; H; 3> G{ H{ d) :- B* ~- b* 1= /> I= H= 7> B* c= U= V= W= >= Q= (* o*  ; {> B* 1> I{ J{ K{ h* >> K! N* H= b* |* I* /= 5= (* U* P; L{ ",
"M{ F; N{ s* P= D* K= 7{ M* K* O{ P{ Q{ E& R{ S{ t* 8- d) -{ B* 8- L= b* p, S' q) b* $; 7> e= <- I= g- k* V* |> -; S; T{ U{ C& V{ W{ X{ )% Y{ /& Z{ `{  ] .] () +] @] #] $] %] G& &] D$ y$ +$ 4$ W% 4$ *] =] -] ;] >] ,] H& H& H& '] /& 7& /& )] &] !] ~] {] ]] =] ^] () X{ /] (] _] :] <] .! [] o$ m= n& L% }] (! |] ~! 1] 2] 3] i% w% -% 7* `* 4] 5] 7' 6] j* += 7] D{ )! u* U* [{ k* ^* o- 8] 5* z* 9] k* l* k* M= u* x- S* '= i% B{ 6* 0] v* m= a] :* u* |= J- -% v* {* D- '{ b] a] C* '= u* {! c] G- i% Y* p) d] w% e] f] J- g] 1* R* h] i] 0- j] |* v> h] 2* w{ $- j] -% -% v% o> 6* k] j] l] m] x> n] ~; x- w% u* j] o] {{ p] %= :% P; 3! 9* Q; Q; 0* N- q] 6! E* j] 7' 7' u* r] h% 0] i% s] w{ b] B- Y* -% t] v) h% u] ,* 4* v] C{ v% |* ^* S* C{ 6* V* :% A$ {* w] O- G- -% 1* o] m* x] ~! y] += f* 4! w, y{ z] A] w% B] C] -% %! a] D] H- E] [{ F] g] u= G] 1* 8] B] d] S* H] /) I] |* v> 0* S) J] B* C{ T- K* K] O* H- u* )! (! D- r] ~* S* L] M] w% t* @% '= ,* j] E* u* N] v> '= M- 6* w% 1* {{ K* 8] r* (! h* O] P] J] ~* ]* Q] t* '= l* 4* o] := R] v% N- w% Y* 5] S] Y* T] I* x- D- e= L] .= ,* S' w, '= 9] 6* s* E; c* _* )! V* t* V* _* K* S* 4* G- m= Y* G- 0- E* U] V] P] S' W] ,= X] )= Y] U* Z] 1* ]* 1* d* @= := u= t* 0- 1* Y= `] != e* 6*  ^ )! v* G; Z{ s$ .^ +^ @^ #^ $^ %^ &^ *^ *^ #& =^ v$ -^ L! ;^ J) >^ >^ ,^ '^ &] Z{ =^ k& -$ .* )^ =^ !^ ~^ @] j% }] {^ ]^ ^^ /^ D' (^ _^ .! {^ B# :^ .* <^ [^ }^ |^ 1^ N& /] 2^ 3^ 4^ 5^ 4^ 6^ 7^ 8^ S; -; P* G; m= j, h* %- 7= 3* ;= }; 9^ @; l- g; H- |> B* z' V* 0^ !; N* }! a^ b^ ^) c^ [~ l= -% 7= z= k) b- 3- h% d^ e^ ",
"f^ q* v= [; w* `= ~; 7= z= f) H! g, V% g^ h^ R= *= I= j= i^ z' A- @) k~ v~ k, S~ %- x* +) R- n,  ; j^ C= s) z= D] v% C= k^ v) q- [* l^ m^ n^ o^ (* p^ j- |{ z* h; J* N* 4; 5] f= 9* A- q^ g= a; %= l* i= 4; C* N* }= r^ t] 6!  = s^ {{ H- p) t^ y% V] o] 6! _* d= D* A* ]* N* O= <; v* i* K* d= Y* Q* P; %; u^ v^ d^ U] w^ 7* ~* x^ y^ I] y] z^ 2{ ~- A^ d* /* /) B- 5] L* d* Y= -% w^ B^ C^ /* a, |* D^ -% G- S' C* E^ F^ A- J] }= B* 9* n- G^ {! `= D^ m^ I- o] H- += H^ V* 1* ~! 7* v> I^ 3= 1* C{ S* D{ U* 6* 8] n- 5] Q' B- J^ I{ -% a] K^ 6* E' t^ L^ u* M^ N^ w{ |{ O^ x^ y{ 4] 7* _% B] |* B{  ! w% 3! f] u$ c> E{ e% B] B{ h* w{ Y* B{ o> g] J- j$ 5] w^ /) d^ `% t^ P^ Q^ w^ P^ @% R^ o% S^ J^ k^ j* -% q^ V* i% A$ P^ T^ :% y] U^ 3] V^ R^ 3! u* w* b] o] B{ B{ W^ @% X^ B] u! B] Y^ _) j] Z^ `^ `^  / ./ R^ 1] +/ @/ #/ E' d! 3] $/ %/ &/ */ =/ -/ t% ${ c] V] s$ /* ;/ (& l] ,% x^ >/ E' #/ +% :% #/ Q; >/ C^ q^ `^ ,/ '/ n% )/  / q^ Y* W^ 5] !/ `% ~/ )> `% {/ ;% ]/ `^ ^/ // x% a, (/ Z^ #^ I{ u% t! _/  / :/ '% </ e% 0% =% [/ l% h] e% }/ #& |/ 1/ /% 1& @/ Q% n% 6% 2/ ]/ 3/ Z$ p$ 4/ 5/ 6/ D% 7/ l% 9% 1& `% 8/ g] 9/ ;% n% (& f% 0/ U% a/ /) b/ n^ |] H$ i] K^ -& :% 8' c/ S% >/ d/ e/ D% >% I{ t! f/ 4/ O% g/ 8' 4/ @/ c% L^ O% h/ i/ U% j/ k/ l/ O% {% :$ #/ o] w* b* A- m/ O* p> F^ 0* L* I- V* 5= n/ i= z* q; ./ K* P* o/ Q' O* ;% t] v* N- p/ W) Q) J^ {* k* w* J^ v* <; 0* J* q/ C* 3* v) D^ r/ 2* s/ u* t/ h% f= D* 3= %; X= O= ]* C= b] _= .= t$ `= 3= @; :* Z- c) D= e= G- ^= 1) i^ o~ u/ U! G= P- v/ W' d, i' G; d* o' w/ <% o> x/ y/ /= b; _= H= j* 3= P* P; z/ ",
"A/ 3{ T* -{ [= B* e= 5] U! B/ Y* C/ D/ ./ n, @; J' b- ^= H= 1) ;^ ]{ Z; S; T; S; '& S! Y- j= E/ K= s- K; <; 7> F/ G/ H/  & I/ G# J/ [& K/ L/ M/ N/ 7& O/ %* G% e$ _$ V& P/ Q/ *$ R/ O& S/ T/ ;$ R$ ,$ L# {$ c' U/ J% V/ W/ |& X/ Y/ *> [% V/ G% ;& Z/ `/  ( y$ <& R# .( M& ,& G# +( R& U# 9% ;% L= 7{ @( #( *> $( %( &( *( =( -( O> ;( >( ,( '( L@ Y@ K> G> )( !( ~( +' {( ]( ^( S> /( (( _( I> :( <( D@ [( }( j  @# |( 1( 2( 3( 4( 5( ,@ )( W> 9@ 6( 7( 8( 9( .' Y@ :, B@ 0( a( b( 0@ c( d( e( +@ f( s. g( F, h( 2( i( j( E  s# 0+ p  k( l( m( n( m( 9@ o( p( q( r( s( &' t( u( v( w( x( y( |( z( A( `. B( C( '@ B, K> D( E( F( A+ G( H( I( J( K( L( M( /' N( O( F( P( g^ Q( R( S( T( U( V( (@ W( X( O> I> Y( Z( `( @#  _ -@ A( |' ._ +_ j# I> @_ #_ P> $_ %_ &_ *_ =_ -_ Q( ;_ >_ ;_ ,_ '_ )_ !_ ~_ {_ E, ]_ ^_ /_ /@ (_ 8, __ :_ <_ [_ }_ |_ 1_ 2_ 3_ 4_ 5_ 6_ 7_ N( 8_ 9_ 0_ a_ b_ c_ d_ e_ f_ g_ h_ i_ j_ 3' k_ 3, l_ m_ n_ o_ p_ q_ c_ r_ %_ s_ t_ u_ |@ v_ w_ x_ 9_ y_ b_ &( z_ A_ B_ N( C_ D_ E_ F_ A_ G_ H_ L@ I_ J_ K_ L_ M_ N_ O_ P_ Q_ R_ S_ p_ T_ U_ V_ W_ X_ E( T_ Y_ Z_ `_  : .: b_ +: @: #: $: %: &: *: =: -: ;: >: d@ ,: ': ): !: ~: {: ]: ^: /: +@ (: _: (@ <# :: W> <: [: =, [_ }: |: H_ 1: O> j# 2: W( 9_ /( 0( A+ 3: 4: 5: 6: 7: F( 8: V_ <_ k( 9: 0: a: $$ b: c: Y$ ~% S# b% ($ b% d: q% E$ q% e: -* f: X$  ! :$ _$ V% g: z% h: Y/ i: _$ t& V& J% O/ j: X% x& k: .] 8$ O# X/ ~$ l: m: H/ n: o: p: [% q: ;& r: M& s: t: u: v: |$ w: x: y: X/ z: S$ E{ 5= /= b* -- 2) D* H= U= @; A: o) B: S; S; S; S; C: e= D: E: Y- 8- z' l= /- 6> F: G: 8] H: I: F* ^= L= D* @; w* >/ J: ",
"K: g, k) $- 7; ^= Q' L: M: H- 3$ N: &/ B) y' 9= }- !; O: P:  > Q: R: S: T: U: V: W: Z; ]/ J' G= ~- I- !; x* 5* u) O* X: >- 4> u= R; A* #; &= O! ^= Y:  ; s- }= m- J* e= -% Q- G! V= b* 8= '! <; q^ {* u! L% q/ E* n= U= <= 2= q) += n* B; r= Z: q) 7* a* o* y% <; p^ `: u* y' i= j; (*  < _% .< +< @< #< D* 1] |- $< %< h^ U^ 2& $< x% *% d^ &< {! C% *< D% w{ =% $* %/ u% =< _% W^ =& s$ c$ 6/ -< ;% S% P^ d: t! d: ;< @% >< K) y] ,< '< =% )< !< @/ -/ s$ ~< I] Y^ =& {< ){ $% n% n& t% 4/ @/ 3] m, #/ 5* b; m, ;% U* W^ S^ @/ U^ v* ]<  ! _/ g] @% @/ y% -% += y] !< c> `% ^< /< |] !< y] c> x^ (< d^ 4/ J] #/ w^ W^ x% 6! _< 6' B] += $- ~* A^ 5] B] /) :< w= ^< << @% p] `^ %! s$ *; g] w^ p) g] B{ &/ &/ v^ x% [< 6* 8] p) v% 7* }< @% 5] C* << <; `* |< N* u* >< w^ u* l! H- l* _* '= E] 6* += w- Q' 2] 1< 2< 3< n- 5= $- O= ~> V* |< j] O= 0* 4< d* v) v- E* 7* U* J* ){ 5< N* B* |* a] .= z^ <; S' Y* a] J] n] 1* S^ P^ 7* 7; V* G^ w% U= v) 7) P- ^= 5] 7= [= ]* P' 7' M* 6< <; {* n] [* f= R* S' ]* I- F^ r- 3= 5] 6* q- 7< q- K* 8< %! 7= << B* O- c> 9< O= p) 0< u> 6* H- *! v^ t! S* C{ (* &= a< %! {{ 4< H- m, 5= h% += n- 0* 3! v) s$ 1* =! 6* b< w% 8] |* Q* N* Q* S' w* S^ =- {* 6! %! w% ]* U] N- c< d< 1* ;; l* 0! d= V= m, 3] `* 5] 5] o- /; ,% ~< N^ N- d: m, += e< f< F= u- W^ I{ ;< N- {{ m= g< ./ h< y% 5] k) d= I* n, }> ,- I* `- x* i< j< 0= R' Y- m~ k< l< m< n< .~ o< f~ p< q< r< s< t< u< v< w< x< y< z< +! A< B< C< D< E< 1' F< G< @< H< g; U- /> j; 0~ ,- a* e= 3= I< J< Z; K< L< M< S& !^ 3^ N< O< )~ 7> :* P= Q* P< d= f, Q< R< h* S< J' V= Y) ]- R* `* P; T< ",
"N; 7> %- :* [= V* U< x/ z{ `# y( V< H; ;{ 0; t= ]> )) S& q{ W< X< L# 5^ Y< Z< B# f$ 4$ `< L# 0^ l, 8- }; 8> e= d= d= n= ;- N= A* G= <= )- 8> e= ~- [= D; :- ;; Z-  [ h= P= V= r= $; C= h' j= A* >-  ; -- V= }= 8- j* &; *= p, 3* ]= <= |- 4> #- 0= !; Y) )- B' _;  - 8= l' u= s' {; Z- #; ]- L- p, .[ [$ w% P; W' :* == +[ 7= n* L* _- q= [= 3* [=  ; V= :-  ; Q= n, d, H= 0) q, (= @[ V= b= ]- -= -{ 4= ^- #[ !; D* 0! P* i= $[ q) 2= N* I* F) :- &= 0) P= %[ N* t= [= == t* }> H= 8> i= /= [- O= /= e= :* }= &= R* <; J= :; i, &[ ;= 9; 3* 1> U= h= e= ;= x= d= F* `= 9! (= h' @; d, :; O' a; f; 8= $; V= P- V= ;= M= P= 4- 9* l' E* 0* 1> {* +) h;  ; W= %= z= == [- %- ~- b* D* i' b* [= ]= O= <* :* 3* -= m- /= *[ L* {= K= 2= h= j) I* N* F* n= -- #= D* Z- o= `= /= #; e= 8> <= ^= :* l= z= [= 8- '! I* >=  ; j= _* 8= e= ^= 8= n- k= U= %[ 8= B* :- <* >- C= N{ <= )) b; a~ /; p, S- =[  - j= P' U= [= P= ;; >- &= '- L' H= V= A* x* r= w= b= D= 6; I* 9; [= 9- 6- /> w> >= (! 7=  ; 3* ]> e= 8= f= ~- #; P= !; $; n] [= j- -[ t; d, 1> ]* R* P= b= p> ^= [= w= z= ^= I* N- [= A= M) ]- !; !* A* h= [= w= m- ]= q; ;- d= W' 3* [= W= :* N= @; R* :; *{ o* 5* v* :* )- c= Q= g, d= t=  ; 5* K' <> i; $= q, 7= ^= `= H= V= j= b* 9- R- E* ~- 8> 7= 8- P' (= ~- `* V= A* e% ]- g] 0- /; u) ,- u) P- W= >; ;[ c; C= A- 9; n- B* /; b= B* B* [= b* P* [= 3{ 5; ~- 2* ]= 7{ $= G- ~- s* 9! /= R= ~- /= j= /; [= g- J= o* n= v* :; V= h= B* M' R= 5; h=  ; t; Y) %) G; G; [- /= H; 1> s' H= 5) P~ S; {] >[ ,[ E$ '[ Z{ J) M! >$ )[ S; 7= Z- v; R' W= t> #; V' ![ d% F] ~[ W! v^ I* 3* v% d^ !{ ",
"'* R- B* w% Q- =~ {[ q* l$ ][ @% r! ^[ 6; O* )- F* /[ ([ _[ :[ ~< <[ l] [[ u; }[ |[ [^ 1[ 7^ W] x* 0) H= |> <; _> == A- :- ^- l* 2[ P- o' $; ,! ]- 5= &= G= >* _> E; h, [= E* E* ~- p= :- G= r= q= D* H= ^= n* _= l= u) /= ^- .= <; I* t* <; 3; T' ]> P= ={ C= /= e= B* :; #; #; f= 6- /=  - 0= v) (; a$  < b$ *~ j= j= I* F! 3[ u= t) 6; B; a- m^ G* :- d= 4[ z* f= 0! [= 9- ;; I* C= /= t= H' I- u= Z- ^= 5[ d= V= 8> L= j= :; j= E= #= %[ ]= )) P= &= g; Q- 3; 1> 3> j! }- z* ~- `= 8> e= i' 9* r= P- >; t= d= C)  ; q) C= ^- K* ^= _> .- 6[ 8- '- i= 2* W= y' ~- l! u) W= Q* j; F* I= b* &= k*  ; <= 7) n= h% ]- V= j) H* f, j; 4> %- i^ =- ,! 7> ]- ]> :* 4> ,! :; F* :; Q' >- f= c= e= 7[ &= q= )) w> ,; [> '- 8[ S' n= f= 9; x= /; t/ ]> {> h= d; f- 9[ #- [; r) 3= `= 3= O= '- == H= j; ~- $; ^= 0[ >= :- q! C) &= ,! @; f; o* ]- i= D* &= (- k= U= }; *{  ; }= A- 3; a[ &; <- R= }- 5* ]- t, x= I* G* ]= W' F* e= R! ~- b[ m) -{ >- 3> C= [- ^= w= }= j; <= y; &= -{ [= Z~ b- q= s' 3> d< #= w= h= 8= #= j) I= V= == P* Z- '- o= G= N{ q= 7) k= G= A* 2* u= 8] 5= 3* /= P= w* _= c[ x- :* 1> G= d[ i= t= j* c= P- $; Q' t= ]= D* <* f= !* s* ^= (= P= ^= L' r; [= ^= <= f= v= ^= e[ ~- &= f[ 0! =- j= ^= m, u= g[ v/ /= S^ g! e= j= &= l= <* 9[ ^; ]- 9; 7= h[ 9; x* <% %{ i[ ./ t= p- V= _= Q* (= ]- P* j[ K* )- q- 2= Q= (* 8- k[ G= _= l[ >= Q* [= L- m- 3] A- x* I* b- A* P* Z- j- N* l= -{ `= W= [= V= 9- c= 0= F= G= z' ~- I= h= G= q= [= P= ]- C=  ; H' <= 4- :* ^- 0! :- B- m[ S; n[ o[ 4$ 8^ p= K' `! p[ Z* w& q[ S& Z; i; r[  - K= N= [= s[ 1> C< 2! l! Y; s= *; ]* u* J- t[ ",
"u[ }{ G- ]* G! g{ |- v[ w[ x[ $! ^! b* '- [= b= h' Z; b^ y[ z[ n% A[ B[ C[ t$ .& 0* D[ E[ >$ S; )~ j) O' !; g, .; e= s- q) /= h'  ; t= 3= [= f! n=  ; H= [- v/ i; F* F[ G* :* ^= Q* l= B* D* 8= V= F* f= e= P* y= == G[ h= *) 5; 3; J* H[ R' [- P< A* c= 3* $; >! I[ L' G= 5= 9; :* J[ 3> P* h; [* g* =^ B{ K[ L[ M[ N[ 3* :- :; A* ]= (* k) R* 3{ f= d= O[ ,; %= f= `= >= .- 2= 8- H= h; D= #; _> f= N* Z= 7; P[ D* b- 2- I[  ; :; (= Q[ I= t, -- R[ h-  ; b- 4= J* ^= <- C= :- K= q= 5[ k) 9- G= o= K* -{ 6> e= )) r; /; w= 2- z* L= }; e= {; _- }! (! T* }= P= 7[ ]- e= 1> o= C) F= P= T* 6[ (= >= N= <- q= &= 8- 4> == J; ={ k= 8= f= 5= F= >= d= w> f! V= x^ S[ >= c= T[ ^= C) $; C= e= .; ;- :* *= C= T* :; ~- .; z* 8- O= ^; :- 3= H= }; 3* R= i= ]* b- z= 2= D= 3*  ; r; f= P= %- b= U[ w* *= &= V* f- @; P< <; {> ^- 3> j; 8= <; n= ;! #= [= L' h[ @- F= V[ c= ;{ Y- 3= d, ^= '- 4> 7) z* :* q) W= ~- #; u= ]> l[ P- ^= I* e= O= D* (~ ]- I= <- [= }- w! v) f; *; b- $; Q[ /= -{ ,! <- ]> *= K* F= >= 9; W[ F= ;[ #; ]= [; %= y' t= ^= -- C= f; N= '- K* c; 9* P= X[ #; #- x* D* ]- A* v* =- ]= Y[ O* (> P' f- i= 4; (~ Y) L' w> L= E= N- A= S= u* _* $- _* q) d= e= @- B* (= ]* C= <- l= 5> }! >; Q= n, 4>  ; Z[ [- P= 8> H= S' h; 5) a; #= s) e= r= '- [= ;[ l= f= M$ L! `[ 0$  } #; .} F* H' .- h< p! V= r= C= 2= e= _= t= c= f- I- d= ;) +} O* V= m^ @} *; 6! F= := V* `- f= Q- #} @; Z- /= M' ;- #; f=  ; 7> 3* ~- b= %= ^- 8= $} b; @; r= }; Q* ^= M* H= K= D* 8= D= _> 8- @~ %} l& O% &} *} C{ $* U^ /) =} ;$ -} !^ a$ ;*  > d~ X! ^= :* 4> j= n= ;} >} ,} a] '} )} .- :* :% !} ",
"~} E* D* 0* {& )! {} {( G$ x= ]} w= (; :- ^= b[ ^} /} (} K' W% 6/ 2] ^/  ! 1/ @/ _} r~ N- *& /} '[ i^ R= }> M* ]> H- n= U= H= L* `- J* f- V= == P* H= /- j, :} 1> a- 7) @= (; 1> 8= t= #; [{ _- C= [= 7= ;= x= e= <} [} G; 6- '= h% ]; }} x] |} w, Y] k; 1} 2} o] 3} ~; 4} .^ 5} 6' T^ 6} 2} z] (} q{ 7} 8} 9} 0} a} b} y[ (] 5^ (] c} N/ d} H& e} h& f} g} g} b} h} 5^ 4^ 5& i} j} k} l} Y{ i} m} b} w& 5^ n} o} {[ B/ b} p} q} r} /] f} s} t} u} %} C: 5^ B/ N/ v} w} b} :[ x} y} 7} z} A} |^ B} C} D} E} (] d} F} y[ `{ G} H} }^ I} |^ {] J} K} L} M} N} O} %} O} M} P} B} Q} b} R} 5^ S} T} U} V} y} B} W} X} +$ Y} Z} f} `} W}  | h} r} e} .| h} %} +| 5^ @| e} i} G} Y} #| 0} u} q} $| 0} %| H} X{ &| ,] 5^ G} i} *| G} C} V} V} S} .| =| -| V} d} N# Y} K} c} y[ u} ;| .| =| =] >| L} (] ,| I} '| S} +| .| v} w} 0} K< )| h} !| I} S} 4^ P} Z} L} .| e} ~| V} f} u} w} '] i} b} {| D} )| B} ]| M} *| ^| A} W} |^ )| /| ^| &| V: (| v} ,] w& h& A} M} B} _| :| w} %} <| f} w& [| u} S} Z' }| || 1| 2| Z' /] 3| G} $| 4| %} >] ,] I} >| (] S} /] r} b} h} 5| d> '| 6| S} <^ c} D} 7| r} /& G} 8| #] e} p} 9| B: |^ 3| g} u} !] ^| p} 0| x} #] (] a|  ] I} b| h} t} Q} x} y} c| ,| d| L} I} e| f| `# B} #] .| )] q} S} ]| g| .| r} 7| y[ Z' h| f} x} Y{ h& i| j| K} X{ W% k| b> l| m| .! n| 0] e- != j] o| p|  ! w% T^ h* )! S] q| d* r| s| P] t| u| v| s| m* (! ]; 7> <- z* 7= m- p> $; f; B* ]- |> C= F* :- @; )) 8= ]> P- ~- M* z~ U= H= y% b= l= w| $; 9- b* I= t= a; N= 8- z= :; Y' x| i$ j& y| .$ x% :% ~; E' L% ${ n& P! z| *& :[ E{ *; y! '- <; c; >* 8- A| B| y% }* C| f, B- D| !{ ",
"E| u] f= P% F| l$ G| H| R= G= D*  ; B* /= I| q~ q{ S% J| E' 1] I{ G] 3] x% t! #/ C# -* @. K| T% S; X~ f) e= P= :- ~- :- 8= %= ~; I* >- A* M* f= ;= d, ]> [= 4- O' :* b* 2= 5= -- *= /= >= G= V= Y) A* M* f= 7= h, 0{ L| M| N| O| P| T} Q| R| S| T| U| V| W| X| Y| Z| `| Z|  1 .1 X| +1 @1 L) #1 Q} M} $1 %1 &1 Y| *1 R} =1 -1 !| .1 ;1 >1 ,1 '1 )1 !1 >1 ~1 {1 !1 ]1 ]1 ~1 ^1 Q} /1 (1 _1 (1 :1 <1 [1 Y| }1 |1 11 <1 ^1 21 31 41 51 61 71 41 &1 71 (1 81 91 &1 41 01 a1 k} b1 c1 d1 Y| /| e1 [1 01 f1 ~1 a1 g1 (1 h1 i1 41 }1 j1 k1 l1 m1 l1 n1 o1 p1 q1 r1 a1 s1 i1 [1 81 e1 t1 i1 f1 u1 (1 v1 81 w1 |1 x1 y1 [1 (1 /1 Y| '1 v1 41 l1 '1 k1 Y| z1 71 81 A1 01 '1 B1 C1 e1 M| D1 E1 a1 p1 c1 Y| 31 F1 &1 l1 41 81 u1 G1 n1 r1 H1 o1 /1 [1 41 I1 k} r1 01 81 J1 u1 K1 r1 51 L1 K1 K1 B1 01 M1 l1 01 I1 I1 N1 O1 P1 Q1 11 R1 k1 S1 31 21 01 K1 t1 l1 r1 |1 T1 K1 u1 71 U1 V1 r1 [1 j1 l1 n1 81 71 P1 v1 01 41 41 p1 Y| ^1 ~1 *1 W1 v1 X1 (1 #1 Y1 Z1 `1  2 Y| ]1 .2 +2 21 @2 #2 41  2 |1 $2 Z1 %2 i1 _1 [1 &2 !1 |1 *2 %2 Y| =2 31 [1 $2 ;1 Z1 =1 M| @2 21 *2 M1 i1 i1 -2 `1 11 t1 o1 !1 o1 z1 Z1 ;2 Y| 31 q1 >2 Z1 31 ,2 [1 41 '2 |1 )2 '1 &1 %2 !2 ~2 o1 a1 -2 l1 c1 {2 t1 v1 ]2 &1 +2 H1 K1 i1 Z1 21 z1 21 ^2 41 X1 01 a1 M1 `1 -2 31 |1 !1 Z1 v1 /2 {1 -1 {1 f1 (2 _2 /1 x1 :2 <2 [2 .2 s} 71 [1 }2 |2 d1 12 22 f| 32 42 12 52 *2 S| T} 32 62 52 52 72 82 22 92 02 a2 b2 c2 2- e= 7[ d2 T- u= n= e2 7> 7= j= i' F! 7> 8- d, 2= m= ]= j- t* y; _> Z- ~- &= x* b- @; 8= z= e= n= }- 0* #= U* f2 p% g2 3- S^ h2 x^ o> O= g] m^ x^ m% i2 3^ b^ R| H; e= ,-  - <> h; 5* C= j2 k2 F' b$ N^ s^ K) l2 ",
"~} m2 B- n2 N; o2 m[ B) q= G= i= f= H= j= a* z* j% p% /} p2 x> q2 !< g] 1/ `^ %/ r2 /) s* r{ O% !] s2 /> 8- i= I= z' Q= I* == V= >! (= b= N= V= [= P= &= 8= B* &= (= t2 8- S= o; G= q= [- 1> [= C= B- t= (= u2 v2 42 o} w2 K< }| [| :| .| e} W} h} 6| x2 S} ~1 Q} c| y2 z2 }| h} e} A2 y2 B2 b| S} %1 5^ 8^ b2 o: %1 m} C2 D2 E2 F2 J< x/ G2 H2 H2 I2 H! s! J2 K2 #{ L2 L2 M2 N2 O2 P2 Q2 R2 M: S2 #{ S2 M: =* L2 T2 Q2 U2 O2 H2 J2 V2 M: #{ W2 S2 %1 o: L2 Q2 X2 M2 Y2 S2 Z2 `2 D2  3 P{ @> D2 `2 Z2  3 F2 T2 x/ F2 x/ .3 +3 U2 #{ k> F2 +3  1 x| F2 Q: @3 #3 @3 F2 k> Z2 @> @> e{ H! h{ M: $3 @> U2 U2 M: ]{ %3 @> &3 *3 M: M: #{ =3 Q: S2 $3 -3 ;3 P{ j{ `2 L2 Q: >3 +3 Z2 S2 ,3 D2 #{ '3 )3 S2 5! D2 !! M: M: x| '3 Y2 s! x| !3 ~3 7^ U2 Y2 {3 ~[ Q: F2 P{ F2 L2 ]3 D2 ^3 H: 7^ b2 M: 7^ t: x| H2 x| M: +3 ,> /3 (3 _3 :3 5! 6^ <3 M2 Q: `2 _3 [3 Q2 g> O2 L) 5! 7^ }3 '} +3 O2 }3 ^3 |3 %1 13 9} 23 :3 ]3 +3 L) 7^ ([ C| x| M2 H: 33 ,3 7^ 7^ 9} 43 J2 C| P{ K2 H2 53 Z2 63 L2 +3 M: 53 s! H: 73 83 Q: O2 x/ x/ ]3 #{ U2 ;3 Q: D2 M: ~3 H: 93 +3 '} H: 43 9} M: %1 #{ Q2 *3 q: S2 7^ 43 @> 53 53 t: b2 !! 03 [3 R) '3 7^ '3 -| S2 a3 '3 53 V2 9} _3 b3 c3 +3 s! B2 S2 7^ 73 H2 d3 D2 ^3 Q: ,3 %1 Q2 x| L) P{  3 b2 W: 83 !! L) =* '3 e3 g2 B2 ;3 g2 9} Q2 f3 7^ 0| W: y2 :[ s1 g3 41 B} .2 y[ c} f} 5& h3 6| h3 r} i3 V: j3 _| k3 M} ^| h} 7} '| m} }2 j3 l3 d1 s} <1 R| C* h, 5= <= P* D= w* >= e; A) 7; e= Q- ^= h' *= 3= `- }> V= !; 2* C= V= == h= #; {* (* j,  - N' Z= :* z* /- .] 0< m3 4* i$ N- e2 q^ a] l* v- w* w* x^ F; n3 o3 `; K! _* :; Z= >= >; t= f) 4> r< i3 8' j] Q' p| p3 ",
"q3 O; <; #] r3 s3 E* p! b* 2; t= N* C= g- 8= i= .^ g/ n* S% 2} t3 6% L^ 1] =< [/ n% @% n% u3 v3 w3 h= 5= :> -- )) ;; N= h= #= _* 3; N' w> $; f= b* N* :- d= I* e= :* ]= f= >= $; 1>  ; ~- [= {* ]- z= J; m~ x3 /1 }| z2 y3 Y{ z3 !! A3 F2 F2 B3 f{ /3 /3 O2 43 h> #{ D2 C3 e{ D3 b{ a{ N| N< *3 y2 Z' W: /3 Y< F2 b{ ;3 .3 %1 O2 Q2 D3 73 @1 #{ /3 H2 H: s! H2 O2 @1 )3 E3 43 ;3 Y2 L) E3 L2 L2 D2 F3 %1 e3 D2 x| F3 G3 F3 s! H2 %1 7^ ;3 #{ H2 #{ T| D2 ;3 L) /3 [3 s! E3 12 V| %1 %1 Z|  1 x| D2 *3 C| D2 H2 a3 H3 G3 I3 a3 H2 ;3 ;3 J3 {3 G3 Q2 L) E3 J2 H3 ;3 S2 K3 ([ C2  1 L3 Q: %1 *3 -3 M3 +3 x| J3 D2  1 A2 N3 ,3 {3 H2 H! L3 O3 %1 9} 73 D2 (3 (3 %1 a3 O2 P3 73 Q: O| G3 O2 a3 Q3 R3 D2 C3 63 H2 I2 ;3 S2 +1 P3 G3 x| A2 C3 M: S3 T3 L3 ;3 U3 (2 C3 H3 Q2 V3 W3 L) D3 H3 ([ X3 H3 O| H3 V| F3 Y3 S2 +1 %1 T| C3 l{ W2 Q2 F3  1 63 H2 M| W2 Y3 73 K| W2 M: Z3 H2 `< H2 G3 x| V3 S3 V3 L2 C2 F2 D3 x| J3 `3 L2 Q: Q3 (3 S2 53 J3 S3 V| F3 L2  4 #1 V| *3 x| M3 G3 Y3 {[ O2 L2 M3 V| B2 ;3 P{ C2 ;3 $3 K3 x| C3 @> 32 .4 V| f| -3 #3 /3 5! +4 /3 L3 a3 ;3 D3 I2 ~[ ;3 V| -3 73 92 X3 Z| O| (3 G3 L2 L3  1 I2 D3 `2 x| U2 H3 G3 E3 *3 ;3 U2 J2 E3 R3 O2 `2 /3 b2 %1 C3 C3 C3 43 Y3 C3 Q: D3 F2 R3 /3 63 /3 N< C3 /3 (3 W2 ;3 /3 L2 L3 S| Y< J2 z: C3 Q: H! x| $3 43 n{ S< N} x| @4 V2 73 c^ S< a{ Y< O< #3 b{ c^ e{ ]{ /3 (3 W2 -3 *3 M3 b3 73 E3 H3 /3 o} 7} `} O} #4 l{ #; H= [; L' f- ]* >- }; &= [= <= :; #- <* F= l= j; /= P* v* }; E; 7= b* l= V= @; v) h=  = V= H= <; @; :; $4 J- g/ %4 .(  / *< o- w% 7* o> n> Y= d^ w% X{ r3 ,& &4 R= b* e= n= w> l= H= ]; b= {} *4 v% K* K) =4 ",
"M^ 9! e2 3| j% -4 T* L- r) V* j- }; z= ]> w* m^ U^ @/ <- k3 ;4 -% 1/ B[ F' -/ Q; L% 2< <; >4 ,= L& ,4 I* F* >- Q= :- -= :* R= p= F* t= e= H= 3* 4) I* %= e= h= I= i= C= O' '- <= U) C= 1= n' '- G= 6- s) '4 ~1 V} >| )4 L) D3 Q2 Q2 C2 o} !4 ^3 V2 G/ H: A3 ~4 B} [| S} ^3 B} e| o} {4 >| l| i3 <^ 5& b{ {4 ]4 a} ^3 H/ {[ x3 x3 ^4 /4 (4 3| _4 :4 >| i3 N/ <4 [4 [4 3| >] (4 }4 h} d> |4 [4 +$ 14 E} J/ 3| 4| N/ h} i3 24 >| 34 44 54 g} }4 y[ [4 H# '] 64 !4 3| H# 3| 74 H# N/ J/ /4 S} :4 +$ !] 74 w& 3^ 84 V# x3 94 &} c' '] r% J/ 04 }4 <^ 0$ d> x2 g} a4 3^ b4 e} H# c4 :4 3| :4 h} :4 :[ H# '] Y{ L} y3 d4 '] V& y3 64 Z' x2 e4 m} f4 e} k3 3^ x2 34 g} <4 `} 4^ x2 r{ 84 x2 g} J/ 14 :[ E} r% g4 ^| V} N/ 3| 64 $4 34 3^ h4 +$ i3 z2 A} d> v} 5& '] 3^ i3 V} x2 `} i3 i4 j4 z2 Z' 94 V} 3^ r% y3 Z' k4 g} '] A} h& >] N/ l| Z' w& @4 N/ g4 :4 >] 3^ k3 N& l4 c' i3 V} x2 g} '| 3^ 34 m4 i3 3| }4 g} [| `} x3 h} h& $4 z2 |4 `} 3^ S} 3^ H# '| v} H# y[ u} e| |4 h} '] 5^ A} z2 n4 a4 Y$ E} x2 /] '] 34 N/ d| '| l| h4 i4 4^ V: <| g} 64 i3 d| z2 D} o4 c} }4 >| i3 V} ;| 34 f4 0$ p4 w& q4 g} e4 C: 34 s} x3 G/ r4 4^ :| d| B/ 84 e| h} >] ~4 h} '] |4 m4 u} J/ [| w& h} s4 h} E} E} }| S} C: g} m4 t4 C: C: H# z| 4^ z2 g} 34 j3 z2 `} z| 4^ u4 `} -| w& 14 {[ {3 H: (3 [3 @> v4 w4 I} y3 x4 :4 y4 x3 i3 74 d> 84 :4 84 c} x2 J2 D2 C3 #3 F2  1 |3 O3 92 [| N/ e} P} Q} l{ g' z4 I* `- R- >= q) w= ;; A- :- 5= E; <= b* ;; ]- i= ;; I* r= 8= m- q! ]- b= >= l* >; i^ 8) 3* x! ;! r{ G] g/ A4 /& d< |] |{ B4 .= S^ v) (* w% e) C4 =} '^ D4 D* [=  ; @- 8= == =) n= e= E4 F4 G4 h% f& H4 ",
"0' z= 7* >^ M< I4 ;; }! X! m^ Q* <= x* %- $- J4 W$ u! K4 %/ // I{ L4 7'  ! n% t! @/ d^ M4 B/ J- N4 O4 8) Z- ;- :* ^= 4= *) 8> E= V= 1> H= Q' <; b= P4 ]> A* ^= ^- G* 3> Q4 x* R4 Z= x* y= ;; x* &= @~ b| {1 ^| s4 @] }2 W3 M: S4 7| c| C: T4 x: N} H: x| 4^ &] U4 p} X{  $ X{ M# d> )] ]] V4 &] x2 .! }| E} W4 (] 74 D} H} H# c} B& X4 p} Z' 4& y[ +| [4 |$ Y4 4$ Z' <^  $ ]$ /& ,] T& 0$ <^ -] b4 Y{ >] W% #] <^ Z4 X{ 2^ ]$ N& H& ,] 5& 1| D$ $] `4 5& g} 54 <^ y[ B&  5 0$ Y{ F# .5 +5 Y4 .$ B& B& Z{ 4$ W% B& X4 @5 Y{ #5 @4 N& =] |$ Y4  $ /& 7& Q& /& Q& y[ _4 Y4 =] W% B& 7& d> =] y[ <^ U: .5 Q& )4 W% $5 k& X{ )4 5&  5 y[ :4 8^ L} Y4 <^ y[ Y4 /& H& }^ !] !] <^ .5 <^ Y4 B% c} /& .$  5 7& 4$ Y4 =]  5 %5 Z{ +| #] /& Y4 Z{  $ D$ ;$ %5 Q&  5 Q& .$ .5 +5 &] N# H& ]] H& V4 M# B: Q& .5 k& [^ &5 *5 Z{ ;$ G& .5 Z{ () k& g& Y# =5 3$ U: v4 4$ .$ !& )^ Q& G& H& `# !& -$ y) -5 7& `# k& '[ G& ;5 [4 G% b4 `# +] N& >5 b4 ,5  $ T& '5 5^ d| -$ )5 v& 2^ B% b4 -] X{ =] 0$ /& Y4 X{  $ 1[ G& [& V& X{  $ D$ @5 X{ 4$ v} b4 Q& V& W%  $ W% .5 Y4 !5 D$ )5 v} @$ y[ g& y) s4 B& R: Q& &5 y[ ~5  $ )4 7& @5 )4 Q& W% N& &] <& 1| b4 &5 >] X{ {5 /& <^ N& `# <^ @5 H&  $ ]5 N& %5 W% ^5 .5 R: y[ ]5 Q& N& () H& g3 .$ N& E} @4 X{ +| Y{ D} .| y[ @4 N& 54 N& d> 54 V: H# U2 @4 }| }2 L& /5 3$ )] 7& Z{ >$ .5 (5 {^ _5 .$ :5 Z' H2 B/ V2 o} G/ #1 S2 !4 Z| e3 W2 (] f} >] <5 e} m| M~ '- N= P- b= B* >= :- :; )) }; 5* P* <= 6- z* 1> == 9; :- P* c= I= e= f= 9! P* 4> l* b* ]> <= C{ 6* F] [5 *~ T$ }5 c< t] g]  < 6* s$ N] 6* ]; c} d^ |5 15 8= >; P- t) i; ^[ i^ #= b- !& 25 <* >< V] 35 ",
"45 u= C{ g& O) 55 <= f= 3= e= A* H= r= f= (= 65 H# `% 75 85 95 _/ !< 05 W^ q2 =& @% ~% G{ `# /) a5 b5 7> [- 0^ F= i^ d= Q= 6; t= d= U= j; [= ./ `= ^= o* P= 8= S* G= v- :} j; <> 3> `= h, ]= _> q~ a5 c5 u} h} -$ ,3 0} s} O} V} 34 a} 23 !! d5 u4 #4 Q} o} V: Z{ E4 @$ e5 v4 !^ K$ ~] ~^ V$ M! H& f5 e4 N& C| b4 c} y[ B% Q& y[ {| () X{ .5 k& ]% k& .$  5  5 .$ -] k& Q& *] 1[ <^ &] )% g5 ~5 ~5 v4 7& _5 .$ :$ %] )^ &] g5 ]& F& (} )% h5 )^ /5 @$  5 7& j% .$ @$ {^ g& @] )% !& f$ M! .5 ^$ Q# J# '[ .$ () ;] i5 j5 :$ k5 G% 3$ i5 1[ =] =] A& :5 '[ Q# 2% '[ '[ {^ l5 !& S& .& :$ Z{ )% Y# 3$ m5 Z{ !& *5 S& .& (5 n5 .& o5 @& C| 0$ H& v} _5 )% i[ (5 *] -$ p5 {^ q5 g& !& '^ z} () (5 /& y) () (5 |[ P# r5 g& .& !& &* s5 >$ |% E$ '[ V4 t5 :$ @$ Z{ :$ -$ u5 X{ q5 *5 %] V4 v5 g& r5 }$ )] (5 _^ &* '[ !& j% y) :$ w5 (5 s{ E$ X$ )% (5 =^ :^ [$ s{ %] .5 q5 v& s{ >$ Z{ &$ !& k& S& &] |[ 3$ )^ )^ !^ 2| x5 g& %] &* .& g& .$ {^ y5 u& Y{ <^ Q2 3% Z{ '^ L# v& :$ Z{ @] .$ k& )^ :$ :$ !& %] :^ >$ G& j5 z5 *5 (5 7& g5 &* f5 L# -$ .! !^ L4 A5 q% &* )^ h5 z} )% q5 )^ .$ j5 j% Y# B5 z} &* n$ [$ )^ k& -$ ;] C5 -$ &] {} !& !& !& )^ 7& .$ '[ &* *5 ]$ _^ -$ k& -$ g& R$ ]% Z{ &] D5 )] :^ g& P# !5 S& E5 g& u5 )^ g5 X{ F5 _5 D$ *5 &] .$ g$ +] =] &* N& /& y) H# i3 ,] ~4 V} *^ q5 J) $$ K# d% Q# 4% Z$ V$ G5 M! w& %} H5 S} 5^ C: o} 0} I5 -| ~4 B/ J5 K5 p} L} L5 j3 M5 N5 O5 *= K* 7= ;- E; w) d= c= P= 8= 6> :- _* P= 3* V= 8= 8- ]- a; G; W= V= j=  ; e= q= Z- -{ ;= G* o< C! c2  ( P5 o3 Q5 N^ -/ R5 /) -% w* 75 S5 T5 U5 {[ J' >= a* ^; p, >= `- ~- z~ e= ;* V5 q^ w% Q; W5 ",
"X5 x* w* F& (} Y5 [= Z5 ]> Y) P* j, k* `= 8= N* `5 |{ V] h& B< n: |{ B{ /) v%  6 N/ .6 (} +6 N- t> I' k, ]=  ; /= _- >= <* B* *{ G* C= k* Q* '- f- A* ~- %= y* -= R= %- 8= r= $; ~- ^- .- H= h, @6 '| 6| S} :5 V} [| M} S} '|  > #6 Q2 Q2 H2 || x3 S} h} `4 d> >^ W$ $6 3% %6 /^ i$ .^ ,[ $^ b^ F} K{ Z' |$ @> @4 X{ &] `# () Z{ 7& T: Z{ m5 _$ )% D$ _^ !^ &6 d% .& *6 [$ Q# *] *] f$ E5 S& !& a$ *5 s{ 0% Q# =6 *5 L& .5 >$ E$ P# V$ k& L& 0% A! f$ _^ @$ (5 ~] M$ A! -6 )% ;6 d% h5 X# >$ ($ @& 5% '[ '^ Q# 9% L& 0% 9% S& >$ X$ >6 Q# ,6 1[ a$ {% 4% K[ -$ $$ J# T# Q# !^ 1$ .& n$ l& f$ L& K# ;* h$ .& b$ ^^ o[ A& *6 f$ '6 n[ e3 4$ :5 (5 *5 M< m5 >^ n5 S& E[ 1$ *6 P# 2% S& 3$ -^ g& '^ d% d% E$ E$ i[ )% -& r$ E[ '6 Y# )% [$ >^ {% d% @& )6 [$ T% X$ I$ (5 '^ S& V$ !6 /^ 2% '[ [$ b% <$ {% 5% $* ~6 7$ b$ l$ E$ $* Z$ )% i: .! P# q% (} {6 !6 S& o3 X# %% /} a$ '[ V$ #* 3% ~] ]6 V$ !^ D& a$ *5 d% &* !& J# A5 V$ L4 E$ >$ b> i5 7& f5 ]5  5 N& 1| b% 2% f$ A[ ^6 ^$ j% !& P# i5 0% E[ s{ a$ Q# X$ >$ >$ W$ n$ )] !^ v5 L& [^ W$ >$ .& z} >6 n[ @* /6 *$ S& !^ s{ !& )% Q# )% )% )^ ($ A! -$ K$ n$ /} {6 -* -$ (} 1[ -$ E[ j% q% )% K# '[ >$ )% !& Q# _^ E$ >$ (6 Z{ W$ A5 /^ S& X$ j% ~^ !^ E$ a$ I$ &* $$ L& b> )% '[ L4 Z{ .& -$ )] G& *] j% _6 ]& *] @$ )% &] 0| 0$ s4 R) C[ :6 /% <6 $* L$ [6 6% g$ W$ -& L$ k3 <^ }6 W: Q2 !! U2 B3 D2 g{ |6 4^ k3 16 !! g5 (4 26 <5 #2 L| 36 G= ^- V= :; l- l* b= d= K= P* P= d, 46 Q= l= `= 8> ;; :* 8= W= 3* 8- d= i= d= P* b* 7{ ^- 56 %* u! E% 66 76 8^ t] d^ 6! p) {% F$ 86  > /* x- 96 5= &= 5) y; ^= B* P= <- 8- Q* L& 06 y] $% !< a6 ",
"b6 u= 4/ j% c6 d6 ,- u2 t= ^; V= }= F= G- k[ 1> B< e6 '= != d| S, f6 l$ g6  & h6 1# j3 !% |] v} i6 _* O' K' @- 1> I* #; N= 4) V= 4> 5) /= H= ;- i; ]> /= e= P= 7> 1* w% @; .- C= 8= 2- w= j6 /& 0} y} '] _5 34 S} k3 5^ T4 V; k6 c| V: :[ C} y[ g} :4 )5 {] y) [^ L^ l6 D% #& p$ r$ ^) =} ^) e% >6 $^ m6 Q& n6 !& 1[ m6 .$ ]& *5 L# ~] @* >$ A5 a$ )% '[ o6 a$ L< -^ ;* ~] >^ (5 0% ($ c$ $* V$ Q# b% ]^ 7% P# p6 q6 D' X# W$ r6 A[ n[ $$ b$ L$ >^ 4% f$ l& s6 Z$ _^ ^^ |% .^ $* t6 [$ b^ u6 [$ i$ ]^ .^ b^ $^ W$ >$ ]^ ~^ v6 f$ >^ w6 ^^ x6 <% K$ $& Y# .^ ~^ E$ n& 6% f$ d% $^ y6 K4 S& i$ s{ n& i$ @& *^ f% ~^ $* Z$ Z$ o[ !< z6 5! {^ )^ A! */ A6 #< B6 ^% ^) C6 o$ #< =} D6 E6 o[ .^ F6 +% J) o$ ^^ G6 H6 n& I6 <% =} .^ f& E6 o[ S% o3 b^ *^ J6 %^ ^^ f2 K6 P: j$ ^^ 0/ b^ J) L6 0< K6 1] P: :% D6 Z^ F' d^ h) $& 0/ D6 d! _/ M6 M6 N6 N^ A6 O6 j$ S% &^ E% L6 o[ z6 P6 Q6 ^% R6 j$ b^ a> ,/ %{ S6 )> D6 Z^ T6 %{ E% )> .^ o3 U6 S# V6 Y4 y[ Y# -$ z% Z{ 4% Q# W6 A! )> z} >$ >^ X6 i$ T# A5 L$ M$ .& E$ >$ Z$ Y& Z$ a$ W$ E$ (5 7$ >^ t6 Z# !% t$ 3% /^ t% >^ Y6 [$ P# (6 b^ P% E$ )% d% e& n& K# '[ K# b$ @& ^^ n[ n[ J) c& >$ r6 J) [$ 3% v$ P% K# a$ !% >$ Z6 [^ ^^ X< [$ Q# T% ^^ Y6 1[ E$ *6 /^ a$ 5% E$ `6 ;6 d% i$ >^ ~^  7 P# d% q% S& L& K[ A[ >$ ($ }] g& F} H: Q& B& V} !< B# S% |< 3% /% d^ o$ p$ 1] $^ X# B& U$ k3 .7 ^| R: Y$ 3^ N/ Z' }| a{ V2 I} R} `< +7 /] @7 t} e1 32 .[ 3* 1> _= f= #7 W= A- }> H= P= B* I= d, )= P- p) Q* K* e= H= w= <* z= b* )) B- F= I* y' N* $7 ]/ k*  % S' e( %7 C: &7 1) *7 =7 k{ T] S' w& -7 O' $- {; 7; [- O= i= )) N{ 8> :$ ;7 j* m, %{ 9' ",
">7 t* ,7 V# (} '7 d= L* ]= P* ^= N= )7 6- e= Q* ,7 !7 ~7 ~< d] U; O# {7 ]7 ;~ h> ,3 =} |] N^ ^7 -% X= .= i= @- [= |- g, n= A* G= .= e= *= :- L' == A* b* P= 5* f= &= S^ l' @- i; 1> z4 i^ /7 <1 v1 t} T: -| 4^ V} r% W: c^ h} y[  5 y) '[  5 U$  5 c} H& b4  $ s{ 3! (7 $< 8' $* h) !< <% b^ %! )> L] )4 <^ C3 n$ E$ j% .$ !^ P# W$ B# ^$ '[ K$ `$ M! >^ @& .! i$ L& Y6 =^ $* g& 6% A[ F' `$ K$ Q# $& $* !% >^ H$ B# /^ L& E$ $^ ^^ n& d% 7% -& o3 '^ K$ K$ S# b$ )> $< ,[ s{ E$ Q% l& P% o3 /^ 0{ `6 q% (< ,[ <% d% ^$ _7 ^^ :7 Q# `$ >^ $* ,[ 4% 0/ b^ T% )> a> >[ Q% ^) <7 /^ 0/ <% O% n& 5$ [$ t% `6 ,/ q% E6 Q# $^ U% (& w3 *& b= X2 [7 v4 &] j} W{ }7 -$ |7 +| 4$ v4 _^ 17 ^] M< 27 v4 )[ :^ @] :5 g3 S& s{ G5 ;] =^ 2| 37 :^ 47 k5 U: g3 $$ !6 :^ 2% v4 :5 j% :$ :5 v5 _5 57 v& 67 |7 !& :5 S& [^ ~5 77 u5 1| M! 87 97 1[ G5 .5 |7 !&  ] ;6 q5 ]& [^ 07 47  ] _5 7& :^ ~5 _5 a7 :$ X{ `# :5 R$ W% b7 %5 }6 () c7 *5 X{ ~5 l} |[ &] }6 v5 () >^ '} d7 s{ e7 w3 !% L$ b^ ;* {% P# -& Q# f7 B# L& @& S% Y# #< !% 5$ .^ !% v6 @& K[ ^^ P# P% g7 =} 0% I$ K$ h7 P% P% }] g7 v6 .& .! ~^ F' 7/ <% D% $^ !% 7/ Q% o[ -* F' 7/ v6 P% 7% b^ $* /} $& @& '^ ,[ /^ 9% $$ d% b$ i$ n[ B[ ,[ -* o[ (< b$ E$ d% -& 6% J) X< i7 $^ ($ ~^ K# K$ r$ 0/ $& a$ i$ K$ Z& 4% 2% !6 '6 P# f$ g2 j7 k7 v} d! h] :% F' c> 8' o3 u%  6 I{ K{ >^ W< y[ B/ /^ )^ Q&  $ () |$ <^ H& V} T; /1 S} 13 R} b4 l| )[ P} '| Z; 8~ G= ;= *= [- P*  ; Q= }; C{ I= l= K= &= 7>  ; >- 8- =! I= V= H= :* f= H= 8= V= i' P* }; V* s2 K* 5* $& &> l7 m7 n7 o7 x/ 04 o| x% v, W, p7 P= #; P= !; V= h= 5* {* u= [= q7 D6 ~< L% y{ r7 ",
"s7 1* 2] <& A! t7 V= u= }; ]* ^= ]- 8= N= @= i^ 9; l% u7 >> v% ,= t3 $6 #* I$ v7 %/ /) ^$ w7 46 Z: <> ~- d) 8- )) ^= 8- ]> `= )) 3= z* ]- i; n= o- I* 8> W= o= v) ~- P= 0! r= 0^ D* *) d5 ~1 ,| x7 Y# {[ A2 3^ d> 23 y: 5& {^ z} -$ ^6 X# A& {% X6 _4 1[  5 |^ y7 2} @/ @^ y] -% j] g/  ! E6 @% r$ T] %5 1[ S2 W$ (} /} z} [$ /} 7/ '^ L& S& '6 4% Z$ Q% 0/ -* i$ b^ 2/ 7% $^ 6% =} $* >^ l& $* 5% '6 7/ $* =^ $< >^ !/ L$ ^^ A6 @& g7 2& $^ 7/ Q% l& r$ g7 ${ w3 S% o3 A6 w3 '6 K{ 6% /% l% f% F' 7/ H$ +% >6 /% $< e$ S% E% O% W^ /} i$ g/ O% .! F' o[ D% _7 0/ z7 n% W^ .! _% N^ ${ /% ${ m% 7/ h) d^ n% /% H$ ^% n% :< R< w3 /[ %* A7 J& S; S; S; S; S; `; T; >> d{ S; S; S; Z; S; V; S; T; S; S; Y; S; `; T; S; S; S; `; S; S; S; S; `; T; S; g{ S; S; S; Z; S; $> `; S; k{ S; S; S; S; S; k{ S; S; S; S; S; `; S; S; S; S; S; S; T; S; S; >> S; Z; S; S; S; T; S; Z; S; S; k{ S; T; Z; `; S; S; `; T; S; T; `; V; `; S; B7 S; S; S;  > m{ S; c' C7 Z# $* $6 >^ ^/ r$ v$ ^^ $< 6% r$ >[ 5$ A[ b^ b% H$ /% b^ b^ $* Q% $^ r$ E6 @& $& >^ -& D% #& O%  6 T% ^^ >$ S% H$ S& o3 $^ F' 3% Z& $* b$ d^ D7 H$ ${ ^) )> =} `% 8' n[  7 $^ 0% r6 <% <6 5% p$ $* p7 F'  6 $* r$ t% p$ 5% 0% d% >^ $* (< T%  6 @& >[ B[ b^ ^^ B[ B# k/ @& A6 w3 {6 b^ Q% [$ >$ /^ >^ ~^ W$ ^^ =} =^ ^3 r5 *] D} += E7 c> @% L% s$ !< t! h/ u%  ! c> E} G& _5 F7 Y4 U: 1| =^ i[ m5 %5 y[ :4 d{ G7 Z' ~4 Z| b7 X{ )5 %| H7 l{ I: >- Q- R- R= >= D* Q= s) [= G- C= '= !; }= _> t= e= 9* V= 8- b* I* }= U= P* 1* ^= G; &= I7 )~ &/ P* z' E* 57 J7 a] X* B] C{ #> K7 M$ w) K= [= F* ;{ G= &= g- q= L7 C* M$ M7 w{ 0* t! N7 ",
"O7 s* &/ g& v5 R; D* /> /= d, q, o= P7 3* -= [- O[ 9; <$ a_ Q7 d| 9* 8< @^ {! Z] Q& Q& R7 S7 <- N= C= J* _* F) 8= 6- B* h= ;- ~- (= q; P= D* 8= =; R= D* b* q) :- 3= y= K* Q= f= r= e} T7 d} @| (5 0| l3 3| 94 b2 !3 ]$ 3$ :$ !5 U7 K$ Z$ V$ /% A2 W$ (5 >$ *] m- Q^ 3! !< 4] D^ C[ -% Z^ x% L% 1/ 9{ )[ !& e3 $^ *^ $^ S& i$ Z$ B# '[ >[ i$ ,[ 7/ H$ Z^ w3 K# $* r3 !< 0% P% g7 g7 $< !< r$ >^ 0/ =} Z^ F' $^  ! ^) /% @& u% Z^ +%  6 K$ N^ g/ g/ |] %< p$ A6 ,[ '% p$ d! )> 7/ '% g7 j$ .^ f/ O% 4/ t% S% N^ ,[ =& .^ r$ F'  ! F' <% b^ h) F% O% 1/ -* #& F' U% _% =} =& $^ :< V7 d^ f/ 6/ H$ !< w3 8' w^ @( `% :% $< M^ j$ z6 @/ d^ $$ G] W7 X7 Y7 Z7 `7  8 .8 +8 @8 #8 $8 %8 &8 *8 B< =8 -8 ;8 >8 ,8 '8 )8 !8 ~8 {8 ]8 ^8 /8 (8 _8 :8 <8 [8 }8 |8 18 @8 28 @8 {8 38  8 48 ,8 58 68 78 Y7 88 B< 98 08 %8 a8 b8 Y7 c8 d8 '8 e8 f8 g8 h8 i8 j8 k8 l8 m8 n8 o8 p8 p8 _8 Z7 q8 r8 l8 s8 t8 u8 v8 ]7 w8 x8 y8 ]7 z8 A8 f8 b8 B8 C8 D8 E8 F8 >8 G8 H8 :- .] a, =& t% t% (& t! %^ U^ e% ^) 5$ +% @% A6 ^) #& 6/ @& +% p$ K{ %^ ^) .& O% o[ K$ .^ D% %/ $* d^ (% <7 /% c& :% t% ${ r$ 7/ *^ @/ !< Z^ O% ^) n& L% d: !< K{ |] I8 o3 <% o3 r$ E% E% P# n& a> ${ @/ Z^ 7/ )> (% 6% )> =} )> q[ T% A6 C[ Z^ ^% !< F' 8' E6 %< /% 7/ P: #< 1] h) S6 r$ r$ c$ 5% $^ i$ w3 ^^ E$ P# *& E$ _| J) 17 >5 w{ W^ y] #/ u! |* 2} J8 %/ x^ 8' B; '3 2% !& S} @& U$ K8 F7 j% U: -$ :^ :5 64 `; >] u} ~2 #4 ,| L8 M8 L} N8 V; O8 L* R! k) v* :- o= @= z* ,- &= P= 8- I* R= 8- G= /; 6> )) K* :- d= V= ^- *=  ; j= 9; r; T[ P8 Q8 1/ _= ~> R8 M* C{ S8 T8 U8 h$ Q* Q= (= S^ 4> >= .- 8- >= 9- I* 7> d/ o$ V8 '= E7 A! ",
"W8 w, @[ ]$ s{ D4 >= A* t= b* j* `- H= Y) 5* 2- [= O* [= y] h^ X8 Y8 Z8 f7 ,= `8  9 .9 9* E; >= A* >= 5* 5= g- +9 P= P* t= /; @; $; i= /= b; E* x* :; r= h= _= S* Z- W= V= (* ]> N} I1 A} c4 W% k3 N} y2 r} J2 7^ Y4 @$ @$ 7$ P# >^ ]^ c$ 2& ~$ :4 '[ G5 D2 @9 w{ w% _< S^ `^ x> B{ |{ ^/ Y* w- N^ a] +| v5 e3 0% a$ B# T% =^ Q% L$ >^ $* i$ ~6 #9 Q% 6/ !< %% t! ${ <% +% r3 n% A6 `^ H$ ${ :< !< *^ w^ o$ =} O% B# C# w3 p$ Z^ !< _% e& 1/ @/ Z^ r6 G] D% )> U^ $9 W^ L^ u% e& )> k/ z7 |{ (< F' =& d^ ^) o3 B] o3 e2 g/ _% N^ _% ${ 3% L% O% |] A6 h] d^ H6 %/ $< >/ B{ :% q[ ${ L^ :% o3 =& 8' k/ >/ ,% %< t! *< >% _% -/ %9 @% &9 l] #/ |< U^ u! 6! E' a[ j] 4* += g= i* v- {* p) B{ T- t^ m= *9 O* x^ u* 6* {! u* 0* =9 {* h% J] v* D* D] `= S* (* A- m= $- ]* x* h* _< =- {* $- [{ w% N* |* Y= N- <* <* <; U* 9* V* q- w* ]* v> _* j] 0* N- #/ h% t^ {* ){ w* N- L* w* D- 9* h% m, /) d= <; o- d* A- f= %- 3* <; S' @[ R* 0* |* 3] E' += x^ 2] B{ 3! 2} #/ I{ -9 D% -/ <%  ! k/ 0< a/ 5$ t% 3! 3! 7/ O% ^) i% )> O% x% o$ (& @/ A6 p$ 5$ x% }/ A6 g/ +% w^ ;9 _% =& 4/ w3 L% o% &/ n& r$ =< @/ @% 0/ g/ g/ o3 j$ h] m% A6 A6 S% =< +% l/ *^ @/ >9 /) ,9 -* N^ !< p$ '9 W^ ^% O% U^ Z^ A6 (< S% |< j$ S% Z^ +% '% g/ @& 4/ N^ L% F- Z^ 7] C[ *^ m% k/ V6 ;9 L$ (< -9 (} g2 L4 )^ G& b; l* {! 6* )9 j$ w% t! I{ @/ !9 d^  ~ D2 $$ 0% ~9 J8 B# a$ $$ {9 1[ :$ *5 #] <^  > 7} r} ]9 #1 ^9 Y{ L5 W} N8 Z; /9 I* == (9 m- 3* [= _* .- V= i, /= V= f= 8> d= 8> @= e= n= @- |> b; V= I* [= P= Q* F* 5; _9 :9 b@ *} J) <9 [9 0_ }9 .* [= Y- P* &; ]* !; d, H= W' c; x* <- 7; |9 Z& C6 q| k^ ~! 19 ",
"29 l* n] :$ (} 39 H- S= `- P= <> ]* ~- F= <= 9* I* Q= l= Z- ]; ;- C% i7 49 W/ 8% 4/ 8= ]- ^= :- i, #= O* G= x* q= 6- d= ^= V= W= 9* 3* >- t= ]= P- P= $- D* F= C= t= ]= :* 6) E} ]9 59 v} h3 +] c| Z' h3 69 Q2 W% ]& >$ B# /% [$ w3 m% $& (5 5^ L< A5 04 79 )> b] %! $% h% u* 7* m] i* j] J* @% d) k7 )[ U: v: >$ ^^ L% ;* /% $* T% (& 89 Q% .^  ! H$ =} g7 B4 H$ }5 =& 6/ !< <% .^ =& B] 1/ 05 '% =< 99 ^/ 7/ q2 d^ #/ E% F' ~< $9 h]  ! K) }/ L% a> J-  < %/ w3 N^ W^ )> ^) p$ C[ %/ <% 09 /} 0< _% h] x^ ./ B{ ,= 1& J- y] h] >/ 1/ D% (< >/ x% @/ &/ 1/ !< X^ F' h] @/ @% W^  ! @% h] c> w^ _% <% P; q2 x^ 2} p| :% H] ;% w^ z7 y% ;% I{ W^ /) w^ |< B] 5] a9 `^ E' y] v^ -% :% 6! U] t- B{ x% w^ X* q^ |< 2} p] 5] ./ j] i% N{ =< =9 %! 5] 3] ~* w% x^ v> w* K* v% z7 i% u* U^ o] y] y% ./ B{ 3] i% n] ~< b] x^ B] u! j$ b9 `% a] v^ C[ q^ K) B{ E' c9 E' K^ %! G- z7 d9 k^ {{ P* R5 2< 8] e9 w* A$ a] G4 P^ 1/ 0* m, s$ `* m/ T] w- _% i% t! W^ +% |] 2] y% @% c> x^ h/ ]< 8/ 2/ D% t$ z7 s$ `% W^ f9 4/ _% L% (& _% _/ E% b^ 2/ z7 K) h] d^ 5$  ! <7 ~! t! N^ 8/ 8/ L% @% O% U^ :% y{ += a] J] |< N- l] v% Q; |* 5] S' K) w- U^ b] B] {! w^ 1] T] w% o] O- ^* 6* v% I] x- Y* ,= l] v> v> M) u! j] 6*  ^ N] x> v) 6* o] V8 i% L; Q6 p| ,/ [] =< h] $^ n& E$ #< +% }] g9 %} =^ k& h9 )) {* f* A= |* x- m^ y] C{ 1* K* |{ p7 #( C: /} /} b2 i9 D' d% d% ]% /% '[ s% g& ;5 a{ y} h} M} _2 =^ <^ p} :| j9 m| T8 -- G- A- 2* F* U= o= l= k9 e= [- 2* 5; O=  ; 9;  ; ]; f= :; `= Z- V= #= b* :- W= <= l9 $; ^* ~% n] m9 n9 y] h' 8- L* |> b* l= V= t, S= 1> A- w= ]; P4 B* C{ !< o9 7* |*  ! p9 ",
"q9 x* i% j5 r9 s9 :* j, 2* 8- m- G= K= >! R= b= @; u= ;[ f- /= Z- a* {{ :* 9^ H'  ; ]* <; f= r= o= }= }= e= K; :- V= Q= I* 0- _- F*  ; I* e= t9 a* !; 1= d, 8- J^ r= B* a~ 5& u9 Y% >] L5 W% k} r} t} Q2 h| k& ^$ %] v9 >^ 6% 7/ Z& $^ ;6 n: >^ 3% w9 x9 ;9 x> 6* B{ y= O= 7' B] -% ;% u* N- 3* q4 y9 +| N& j4 *& ^% %% +% 5$ t! -& K# `% 8' |< :% o% W^ ;/ 2} *< %/ z9 d! x% h] H$ a, B] x% U^ 4/ ]/ ;% 2] 7* 2} 4] _7 L^ 4/ {! L% g] (& %! A$ Q^ 1/ g] =< 2} ^) D6 3! S% #/ {! >/ p$ o% 0/ P^ D% @/ {! J- h] x% E6 P^ C[ S% 05 Q^ |] P; ^) @/ L^ c> :% A9 )> P^ d^ @/ I{ r^ p^ #/  ! f/ x% 3] I{ /) v) 3! 1/ R^ B{ E' ~>  < P^ q^ ,% += g] N^ x^ |{ t! +9 %! y] y% =< x^ ,= Q; a, U^ f= {{ b] O= P^ D^ &/ l* L] '/ 7' -% '= Q' a] t- n] (* {* E] 3] [* O* (* y% {! B9 {{ 9* |< 5] |* <; p] d= J^ (* 0* k^ B] f/ U^ v> {* w% C9 3! z{ S^ ~> T^ w* -% N- D9 '= N* A$ v- E9 B] << *! H- R5 t^ t] y] :% l] += P; I{ N* 9< y% q^ F9 o^ j] &/ >9 G9 a9 w- 7* 9* w{ {{ O% 3] %! t! !< U^ i% |] g] u% D% :% H9 t] o3 )> S%  ! a, |] >/ s$ S) t! U^ #/ f/ B] ;9 y] )> 4/ // @/ P; A$ R^ ./ J^ I9 `;  > S; V; S; S; Z; `; S; S; S;  > `; q{ >>  >  > q{ T; S; `; S; S; S; S; O< c{ S; V; S; B7 S; c{ k{ S; q{  >  > V; S; a{ Z; V; +> n{ S; V; b{ f{ b{ c{ e{ h} =} $9 J9 A6 Q6 K9 '% @] L9 M9 #2 ~1 C) N9 >% '= s$ $- o* @= _% u= >% )! )9 O9 P9 <$ 2/ R) 6/ Q9 >6 Q# !6 d% Q& :^ g3 x2 c{ D} G} P} *2 A& %5 i} f} e1 L| R9 j) 7; &= f= V= ]> 5= h= f= {> 7= ^= 8= [= b* <= f= >- K* J[ D* n* 1* B* !; c= q= 8= <= S9 @; ^[ @~ b= -= n= f= @) O* i^ P= 2- s- ~; 7> M- V= }; j, )) 9- (< T9 t* m/ {! U9 ",
"V9 2* 1/ >$ S& w< u- >- }- $; Z- H- 2- p! I= 6- <= 3= e- V= ;; 6- ]* Z= e; o= b- '- l* F= H- /= t, V= /= $- ]- 1> Z- P* f= h% 7{ b= F= D* /; 8= B; =- N= q= F* n' ]> T! Z' y9 ^| 54 <^ &* R} k} >| #{ 7| &$ '[ >$ V$ <% *^ <%  ! 9% @& B2 A[ t6 9} 7. 6% ./ m^ -% S) m= /; a] f= E* '= J!  [ 0} W9 {] U: n{ q[ S% /% t% B] o3 d% h] X9 L% |{ 0< ${ |] S) B{ %/ 6' t$ R5 N^ =< {{ @% P; h] >/ x% =< G6 w{ m/ {! (& K) L^ B] t! =< ${ 6* |] S% m% @% p| g/ q2 =% c> B{ _/ _% q] U% 6/ @% (< |< ;% 2} H$ {* y] `^ [/ (! b] o> h] N^ L% @^ w^ S% w^ e2 !< p) 2} K* C{ &/ {{ P; 3! i% y] B- 5] l] ;/ 6* w{ ,= x^ i% q^ q2 8/ t! x% i% w- |* C{ u* i% j] q^ H* O] i% ./ i% v- A- H- ;% i* ,% P; {{ x% |* u* x* e2 @= {* j] (* m= '= 1* 9* <* n- N* v^ h% @= C{ += m, A$ S) c< V* o> p) f* w- ,= p) u* x^ Y* |* 8] H- w* P* 3] 4* S) E* e= y] x^ S' H- v* U* V7 {* u* m^ K* e2 7' I{ |* {{ D* N- 5] ~< ~> E' v> l* y% $- B{ B{ {! 3] L] m^ g] ~< _= Q^ {! w^ y] += C{ i% 7] u> @^ += Y^ Y9 g] q^ B] U^ y] @% z9 w^ 1/ h] |* J8 y% E' o> ~< N^ F' i% t! =& (/ B[ ;% N^ t! g] D% B] 8< Q^ // a{ y[ *5 (} ~^ s{ 0% B# )% Z9 7$ ($ 5% j% j% .& i5 W$ L& }] E$ J) a$ `9 {6 W$ /^ /^ ^$ Q# d% S& V$ '^ '[ S& '[ {^ Q# ,^ [$  0 |% L& ]6 {6 *6 {^ @$ g& 3$ !& .* =] :4 N< p4 %! $< O% N^ i$ )/ q{ (} .0 +0 @0 #0 j] *= 9{ m^ m3 (* 6* ,% N- S* d* $9 $0 V: t6 B# K| o$ /^ b^ '[ ]^ Q# $$ .$ 2% @5 b{ %0 A} /1 ~2 =^ j7 ,| &0 8| q{ q~ 8- D; <= >= Q* 5; {! P! 0* 4> 3- ]> D* ]> ~- @; h= =- $; _= ]> :- -- 3* V* .) (; ]= Q= $; `- E= /- _> V= 8- Q= ;= 7> .; *0 s- ]= _- 9^ @= {* A* I* h% j$ =0 q/ ^< p| -0 ",
"q3 -[ |< !& A! ;0 O* y= G= U= {* /= i; W{ b$ =~ C= :* c- L= >= 7> ;= t) [= a* :* 5* v) %! >0 [= :- &= :* (= _- q= /= :- C= B* b* ]; 5* B* b* h= b* z* ,0 }! <= v* '0 (3 u} f} b4 y[ F} s} e| i3 L2 a} W% s{ !^ /^ X6 -* >^ g/ t- B# 0| f$ 3% C4  , -* *= C= D; ,= w* V* /= B* C{ x* u* 6- 4^ 81 .7 )0 `; S& U% Q% i$ L^ B# `% 1/ 4/ -/ x^ O% t3 1/ ~! d^ g/ 4/ ,= Y^ #/ #9 B{ B{ B{ |] {{ e2 f/ C^ %/ V* |* y% ;% 2} >9 L% g] ,= #/ %/ :% |{ ,= %! y] d^ h] U^ $- |] |{ w^ W^ w^ 6' u* d^ U^ |* x^ C^ h] {! I{ )< d^ Q^ z7 {{ 7* B{ m^ 1/ S) 5] p) i* H- P; x^  < i% (* 6* ;% w% b] 6* w% E' 6* Q; k^ ]* B{ 5] 2* g] o> B] w{ {! y% 5] 9* 1/ S^ D^ o- p] y% 2< 5] y] {{ I{ q^ 1; n] -% w% h% 9* K* [{ {* `= y] 1* 0* j* Q' I* b= &= @= v- K* g= O= V= {! `* S' J- N* {* ]* <* j* x- K* m^ z* S' {* V* N* ,= /; `* [= 1* )- G- d= i% V* 4! 6* N9 |* l* V* *! Y* n- 1* E* ,% +[ !0 v> 7= q^ w* v> K* V7 f! :* $- << |< u* l* y% |< a, w% E* |< v* x^ w^ p) h% E* %! -% /) s$ `* x% x^ =< E' y% 8] _% W^ i% U^ {{ m/ ~0 P* z7 S^ 7' C[ a, ~< D^ :% N- w% o> a9 &/ |* S% :% ,= J] B# @1 E$ D' A5 (5 N& r% |4 g2 {0 a5 U2 Q: U2 $> .> X2 S; T; B3 ~[ p{ ]0 ,> Y2 U2 ^0 43 ,3 /0 @> E2 Y; Y; g> X2 v: Y2 X2 J2 z: (0 /0 N< B3 c^ x/ N< _0 G/ :0 t: 84 F} v6 2%  5 C: C2 =< <0 w3 _% K[ c| ;3 1| [0 #4 U} t= /* y- B{ w* K* l* H- O= O* J] J* C% }0 Z' 3% i$ Q: p| f2 /% (} $^ '[ >$ g$ .5 24 L| |0 D} _| ,1 G5 %5 10 20 r} 30 t' Y: 7= 5= b=  ; l= w= K= K* I* ^- W= [- t= ,! K= T* z= M* f* C= f= m^ b= 9* A- @; 4> #; `- K*  - }- 1> 8= >= ~- 4- %) 7> M) h, r= L* j; ;; @; |> z* ^% 40 {* 50 60 70 ",
"q9 |} :% Q& 80 j8 B* {; C= x= <> $; Q2 D' ^) Z; W= ~- O* := ]- $} 5= 7) >= $- '- e= 8= '- 8= 0* M- 0; *= A- <= d= i= r; I= w= m^ 8= d= F= /; _> e[ [- V= r= )) 0^ N} 90 .| c} Z' :$ C2 j3 x2 C3 J/ 2% j% ~^ ~^ V$ Q# E$ ^) y] X6 B} v5 +% t: 00 0% w% (! ]* )! (= m, `= 9* <; (= F! 4> a0 %| A} () p{ +5 .( p$ (& $^ :% (< $& %% U^ >/ 6' :< (< @/ :% d: 1/ f/ J- 5] 0/ U^ 4] @/ 7] {{ `% O* w% L% S' H- L% 5] ~! i% Z^ @/ x^ s$ w* B{ ~< 6* b] 8' |< =& T] j$ 5] 1] :% $% (< {{ B] m] c> ${ U^ %{ P^ >% I{ i% V7 I{ @/ {{ @% @^ B] ./ q^ B] [{ -% |{ 3! w* Q* `= m- |* 2] a] u* w* P^ q^ %= u* w* I{ O= A= 5] {* K* w% (! p> ,= m^ D* v) 7' 3] B- m, w* x^ /* }= S9 5] C{ += 4* B- P* E* x* .} :* p) D* V* l* g= `= 8] &; ~; G- _* _* O= E* )- O= u* {* H- `= a] ~; H- +; E* p) x* l* i% Y) b0 v- <; H- @= j= s- )= 1* <; <; _* G- <* _* :* ~* <; *; 0- =9 o* c< w% S' G- h% v* k* Q- x^ 1* U* N* w% += {{ ~< 5] -% Q^ N* O= w% v^ 6! i% a, v- Q* A^ (! S9 3! << |* Q- l* '= H- {* :% ,* i% %! p) }/ {! S' w% E9 !< #/ N- =& H- L^ =< U^ L% J- v) +9 ,% J] ~< 8' @% {{ >< M! 73 A[ #$ V$ L] c0 d0 79 e0 f0 ;. g0 h0 i0 j0 k0 l0 m0 F8 n0 @< o0 p0 q0 r0 Q, 79 s0 t0 u0 v0 w0 x0 y0 z0 A0 '  B0 C0 g0 D0 E0 J. F0 d0 G0 H0 I0 J0 K0 L0 M0 B0 N0 O0 @/ Q# M! )] L5 Q: S^ |] /% D% l& {[ -3 P0 y9 >2 Q0  - I- B- i= K= 3= P* u* H- N* [= c< 5$ R0 S0 o[ ^^ 73 %{ J) K# T0 *& (6 >^ &* () O# Z; U0 W} S} V0 F7 Z{ $1 V: y9 W0  ~ C= C= J= ~- A* i, _* x* 2* e= [= K* 1> B* `- [= Q* *! `= #; [= h, &= W= b- :* n= >= D* Q= /= ^- K* i- e= @; 8- m- !! K4 S; X0 e- z* !0 d* t> d< q[ Y0 ~! 2* 6' w5 ",
"Z0 s; 3] :$ _^ `0 `= Q= 4- 5= ~; o; S; h% C* V; o) ]* i' i' V= F* C= V= <= :* &= d= [= P= ]= 8> _- 1= N= ^= f= 4= V* [= Q* D* F= q= P* [= 9- f= d= l* l' q- T' 5^  a |^ p} _4 -$ A2 A} H} 73 q: 5& 2% %] 4% 6% !6 *^ m% 2& b, a0 -* J) P9 .a 3% /; l* m^ u* x% B* a] == I{ (* 3] s' `} ~| s4 c7 p{ >| .& n% ^% C[ 7/ 4/ 8/ _/ A6 L% A6 g] S% t! g/ P^ a, x^ 2} Q^ B] %! I{ +a B] 3] Q; O= @% q^ j] p) /) B] @a ./ x^ w% e2 H- $- n] g] N- 6* #% S^ ~! =! B{ 3] x^ o> B] N^ %! $% C{ 7* U] 7* ./ {{ ./ K* I{ =& N- B] 5] %! +9 P^ << m= 7' 9* %! K* t] U^ U] O* N- B] n- x^ <* v* #a @/ u* q^ I' t- 3] N- B] 1* A- E* V= 3] m^ C{ += ;; 46 R5 |* t^ =- [{ K* z* m, 8] n- z* D] 2< *= )- U* N* 0= b= 2* @- _* 0* $a Q- %a q= 3= #= {; U- V= ); u= f= B) v- u= b* Y) I* i^ b= 2* s* .) t= :* x* 9- G; V= d= m2 )! B* o- 4- r; ~; 9- ^; @= E* d, A* Z= C= x* l; r; &a F{ 6; ;- -= ^- L- &= ]= 5= 4- <* J* 3= V* m- w* x^ :* w- p) }= ./ $- @/ D* w- :; U^ l* C{ 1* {* Q* q^ {{ B] {* B] z* K* (! o- {{ %! 5] K* h2 C{ 1< w- y% s- x% B] 3] p) 7* 5] ./ m^ ,= |* w3 4/ ~< c< T% S2 M! (} -& *a 8$ W# 6* x^ w% J- B{ 6* g/ w^ 6! F9 C[ H- 1/ -% {{ I{ Y9 2} q^ p] h] m^ B^ 2] w^ c9 s$ j$ D- f/ =a ^* _/ X^ {* i] N9 T] ,= 6! u* v^ `% z7 (% {{ l/ ~/ 3% -a  ; .& 6% r5 3^ 06 `% F- w3 @& j% J/ @1 ;a @| Y} k} -- s^ C= $- a] p) y= d= Q' H* [= O= |] >a ,a H$ X<  > N] '[ o3 n& o3 Q# s{ ~] :^ 24 c^ c7 b| +0 V0 {] 'a ^| )a H7 +1 [~ 6< ~- Y) <; <* u= [= 8= ~- a* B* A^ 5= ]- 3= }; D* B* :* }= y% g- W= e= 6> h= <= @; ~- 5; A* _> n= I* U= (* S# D; U^ !& O4 7> [- O* _{ t= /= ^) !a g* -% w% ~a ",
"{a *! Q* Q# [$ ]a T- L' i= f= c) ^a S; X* Q* c{ '- x* O= 5* k) f= @; ;= D* G= 8= B' P= B* a* u= :- (* P- O= /; )= <- C= l= .; _- :* 8= Q= B* *= t= >= s- M~ K< /a t} (a +| S& 16 y2 _a :a b2 Y# &$ }] <a 6% '^ b$ *^ j] j/ H2 .^ '^ =$ [a }a m= B- O* u* w= x^ 1> 9* m^ (* q^ s= #] |a 1a 2a 3a s4 %] P% O% z7 P%  ! %/ r2 d! |< $< @% w{ $9 i] N* K* @= K* u* K* t* _* Z* ]* 5* t= [{ b= P= j= u- M* r) R= ~- L- f= y' 3{ O; r= [= 8= s* :* r; R4 d= B* H= '{ {* Q= u= F* V* `* G- {* n* (= &= i; @; h% E; j* F! w^ += {* ./ o> << 1< += x^ @% += D^ k* {* ~< z* J^ o- 7= >= d= 1> }; B* $; O= [{ Q- q/ C= b; 3* y] w- (= g= n- m^ R* {{ C* O- x^ p) %! ./ U* J* i% u* R* G; v* N* z= {* f= x* 4a 0) d= i* V= e= x* s- v% A) x* ;- M= [- _* F{ >= u= h= :* R- )= := m2 |- E* A= ^- [= M= 7= z= M= == t* z= h= 5a U- 6a A' 7a l* r- A* d= R- r- u= :* :* r- '- 9* F{ 1- s- 5* b= -=  ; s* *; ]* 5; ]* h% 8a w% n- <* v- S^ S^ ]* C* J^ J- w- 9* C{ D* ^< _* O* m, A= w- 7* q^ G- +[ I* += H- 2= P; a9 x^ S^ Y^ U^ y] P* H- f/ |{ C* m^ E^ y] A$ C* {* 9a 3! t- 6* m, =< L2 <a v6 2/ R; 0a B{ 0< |* S^ B] y] ${ x^  / 5] ;% ^* |] x> |< 5] U^ s$ B- p7 S^ e2 N- H- v) 6! y% :% aa n] k^ m] %< o- %9 {{ 7' P^ 7* C{ 7* >/ a, 6* 6* 0< @% ;% a, b] ba 1/ >^ <> (5 Q# ca U| q/  ! (7 b^ q% .$ Q2 x| da k} ea O3 =; _< Q* _< {* 5] c< a] R8 V= (= (* fa ga ha ia ja C3 |< U% .! L& $^ '6 Z{ :5 >$ 64 S; ka u} s} |2 r} g3 )| la 20 m| 9~ ma :- 1> Y) 8= u= G= ]= d, }= 5= J; x) h, m- @- i' D* U= z* Z- s- <> .; i= t= <* <; ,; ]; /= f= 7> 8= i- '% %- `% P# Y5 L* 8= b* na Q* {; $< oa d* %{ m3 pa ",
"qa M* q2 Z{ E$ ra h= 3= A* I* F* L~ S;  ; 1* Y< ]= d= @; l' W= y' 3= $- l* V= m= P= B- Q= a* b* l= 3* h= w> r= u= m^ /= Q* 8= Y* f= O= P* %= x* #7 0- sa 4^ ta x7 1a |$ !6 || }| S} a{ V} !& b% B# d% 5$ /^ r6 j$ F' ^$ d3 r$ *% ~7 b  *% b= <; s* 0* z= @= 3= :* O[ K= M- w~ D} ua 20 2| c{ n2 2% /^ n& $^ >^ `% P; '% d! x^ ;% (< $% ./ 7' E} p{ p{ a{ b{ k{ c{ V; S; V; S; Z; Z; V;  > S; c{ f{ Z; S; S; f{ c{ Z; S; c{ S; .> c{ `; o{ V; S< >> Y<  > S; k{ V; Z; S; S;  > c{ c{ `; S;  > c{ S; S;  > Z; S; N< m4 J] t] U^ $- t- <; 5] V8 += D* N- {{ 9* Q' v* %= F* /; U] S) i% 5] p) o> K) 1* 0* C{ B] |] m^ J* b; |* {= {{ m= Q' v> m^ g= }= p> (* i% *9 ;) <* <; a] T] x- r; O= i* k* A* l* 5* u= /= y' q' == .= A' 7=  ; F; r~ 1- 6- va G; w, 8= o* B; s- 3= ,- wa 3{ ~! )- _* _; G- >; := P= <; 6a f; xa ~- R- m2 [{ 8= y' r* l; R- ya m2 xa 8= B* ]; O] b* y' M= 5a Y= za m2 x= s* ]* %= 0- {* s- Y= 1* v- 4< w- Aa $% z* B- c< H- 5] ;) $- C* /; v* {* K* (* w* <; E* -% J^ h% 7' i% 0* B] 5] (* _% T] -% H- x^ /) n] O= ;% W^ q^ v^ {* b] |* >0 B- C9 Ba c{ i$ Ca i$ z] B- 3] B{ @% S^ -% G4 x% @^ |] 2} U^ w% 8< :< B{ f/ `^ l] 8] 2} 2} B] ${ d^ z7 Da Q^ r2 j] S% W^ _% C- Ea A$ i% =< 7' $< +% i% L% ~< B] {{ J- P^ a, 8< x% E% p] 3! C[ #/ %] !^ 2% )4 Fa h/ =} ${ r6 !^ .5 Ga 43 Ha 20 W9 `| ^- )= 8> N* `* A= [{ i% ]= [= p) K* +% h0 V} r3 0% J< m^ @& 06 g7 g7 0% '[ 3$ Q# Y4 f{ V: D} ,1 d1 #5 Y# 2| v} Ia S3 Ja f; #- J; :- x! k* S= %= 0! l' Q4 ]> 7> Q= I* 4- )) i! ^= := K* G= 1; 7> (= )) 8) p> d= <- O' D* _* H= T% '- ./ $* Ka u- 7> @; <- f, l= ${ n| %= t] o] e^ ",
"q3 d* _< D$ :^ La R* .; a* R= w) I= q{ F! ~* 6^ H= <* x* #; K= I= K= H- m- e= 4< >= N' b* <> 9* :* e= 8= D* ]* i* <* ^= ]> b* 7= ;[ ]* G= q= !; L= q~ %} u1 W} L} W% .5 c| s} c} >> z2 /5 a$ r5 d% :$ $^ r$  6 b] }] Ma _[ ;9 Na X, 2/ -% -- z- A* h% (* i% m^ r; Q* )- r) #5 Oa h3 )] c{ Y{ '[ +% n& >^ 3% #< Ca Pa ./ #/ l] `^ P^ Q* M: N< Z{ )% K$ B# n[ s{ d% /^ ^$ !6 >$ -$ |% V4 '^ Q# }] V$ 17 n[ d% i$ 3% J) I$ K$ 7$ K$ M! 7$ !^ E$ ~^ M! r9 V$ #* :$ A& !^ !% Q% W$ 5% ;6 n[ ^^ a$ ^$ W$ q% +^ f$ A& b$ Qa %1 z= z* x^ 0* C* |* q^ ){ w- 3] h% ]* 0* *= R* :* C= q^ u* e= Ra `* 7= D* x* =- 1* n- K^ b= L* 5= N* p) D* i= (* O= /= I- C{ 9* 0* i* K* d= 1* 6! p) &= q- -% m2 Sa Ta Ua 5a Va Wa == Xa Ya Za `a A4  b .b +b @b 7- #b $b %b &b *b 7a =b -b ;b >b ,b 'b %b )b !b ~b {b ]b &b ^b /b (b _b :b <b ~b [b }b |b -b 1b 2b 3b 4b B' ,b 5b $! 6b 7b E/ 8b 9b 0b ab bb cb =[ db %b eb ~- fb M= 7{ i] _* v* N* 8] q- c< {* C= n- z= B* S' K* u= d< J! *= {* L* D^ |* v) {{ y] h% *= T] j] w* w% t= =- x^ I- 0* ./ s$ 5] C* ]= $9 ]* 7* B] u> )9 (* 9* #3 W$ a$ r$ i$ gb hb S^ y% ./ a- |* C- |* h% += m- B{ {! |* y% N- x^ 3[ m^ q] j] U^ 7' 3] p) ;% `^ 8] 0* u* E' m^ u* A$ I* @/ g] [{ (! 1/ 1/ o- m] B] H- G4 h] ,= 7'  ! g] B{ 6* U^ 1/ S* #) ~5 V$ ib %= %9 P; F' n& 6% 7$ -] x3 G3 jb kb ua lb &- M= -{ V= T] W= m= '= V= o* 1* 2* b& mb m4 j/ Z$ d{ M) i$ =} $^ i$ %] ~^ s{ @6 W% `; p} 44 %} Y| B} U: ,| ^| ~| f| [} C= )) %- 5* ;- 8- 0* t= V= w- <= 0; [= I* _- 2= b* C= M' F= K= 1> E* W~ (= j- u;  ; R= <* 5] S= b* n% o; t! >% 15 ,* -{ o= [- 8= w% 1/ J7 h% ]* nb ob ",
"V5 R- 3] @5 [^ pb K; 9- 1> K* V) J= S; k) R- 9} y; ;= I- 2=  ; <* }= t= e= 0* &= f= R* O* H= )= 1* U= e= :; o= C= k* f= ^= q) b= A* 7= b= Y) f= t; Y2 qb y} A} L} +| B} k3 /a f{ E} &% -$ W$ ^$ A! =} i$ r$ y% K$ || ,[ b^ W% ># rb .= d= b* :* 0] += 5* V* O= q/ I; ^= _$ .0 W} sb `; #] A& '6 $$ '% j$ p2 Q# 3! A6 U^ Q; C! B] j] S; N# r6 Y& =& -< D6 L% d! a, !< E% l% S% )>  ! N6 +% ^) Ea A6 *^ _% Z^ (< G6 D6 [] e& B6 #< D6 _% x% g/ 6' ${ >/ ^) +% d! N^ h] 6' ^) 0< =& 8' Q; (% ^) C! :% ~/ :% _% E% !% 4% y[ F2 7[ m= =! I- i% J^ m^ t/ 46 [* m/ =- $- v* 3[ u* C{ O* 9= {* v* (* P* 0* z* e* `* J^ h% 0* A- 2* 2* C{ M= #0 w| B{ D* A= `* H- :* 4- I- 0* .- w= m2 ]* tb ub vb wb xb ~{ yb zb Ab Bb Cb Db Eb Fb Gb Hb Ib Jb Kb Lb Mb Nb Ob Pb Qb Kb Rb Sb Tb Ub Vb Wb Xb Yb Zb `b  c .c +c @c #c $c %c &c &c *c =c -c ;c >c ,c 'c )c !c ~c {c ]c ^c /c (c _c :c <c Qb [c }c |c 1c 2c 3c 4c 5c 6c Q- A= d= 2= [{ d= a- <; A- <* w* (* j= Q* F! I- (* n- j] d= Q) Q* A- q^ $- H= G4 w* L* Q' <; K*  = &/ G- :% v- n- i% B] 0* m^ w* h% v^ K) ~* y% e- Z; ;6 (} `$ 7c 8c ./ n] y] {! i% y% m- e2 q^ T] i% -% J^ a] w* 46 =! ~< m, $- v) x- x^ L* 3! {{ n- B{ 6! u* x^ <* #/ f* p) y% `* d= u* z= @% !< {{ y% C- a] o] w^ $% Q' B{ w* 7* q^ u> 5] B{ P* Q2 C/ 2^ ~- {! )> g/ 25 J6 80 b% #] Q: 43 9c 0c ac d1 bc D* Q- b0 O= Q- [{ f= s- x* f= 9a [/ {  t& u6 ^/ >> j* r6 i$ P# w3 ;6 S& M! v4 N/ f{ /5 h3 cc b1 dc )] ec x7 1a fc gc G* I= {- o' 5] >- %- 0= j= b= :; O= )- o= n, C= ;- !; Z= 8- 2) X- 6- s= ]> b= 2* 3* :;  ; l' <; g] X! u* ]/ hc a* U* 0) ,) )= a* p$ ic w{ J* E6 jc ",
"kc u- $- (5 !6 lc z' z= |* |* x; 1) `; N- |= mc *; ~; =; <* i; g; R- w% u= e= A- f= h* O* S- C= 8= O= ;- >= i= P= 4> j; (= j= )= d= *= J; &= nc oc I1 D} >|  $ f} || S} 1a S; (4 q% pc #* j% b% Q% o[ r$ %! qc _| A6 P: ~$ e@ [/ w* -% 6* a9 l* 9! M) )- |> %= .} a* j| rc sc tc Y< D} f$ r6 )< 7/ 6% &9 $% w] t% x% )< S9 R5 I] V; a$ 4% b^ Y% ;$ uc z8 vc w7 v. wc I   ) xc yc zc Ac M0 Bc F/ F8 Cc Dc F8 Ec vc Fc Gc Hc Ic Jc Kc Lc Mc Nc |8 yc D< Oc Pc Qc Rc Sc Tc 28 Uc Vc Wc Xc Yc 28 48 @. h8 Zc `c o: `6 r$ '6 2| B/ :- B- 5= y] |* _= H- (! 7* v* c= i% '= S9 L* u* E* ]= B* P= D^ f= O* |< O* (* {* R= C* q= j* I- Q* H- == u= A- >< G- {* z* F* R* d= D* j) N{ s* -;  d .d +d @d #d $d %d &d *d =d -d ;d >d ,d 'd )d !d ~d {d ]d ^d /d (d _d :d <d [d }d |d 1d 2d 3d 4d 5d 6d 7d 8d 9d &d 0d ad bd cd dd ed fd gd hd id jd kd ld &d md nd od pd qd rd sd td ud vd wd xd yd zd Ad Bd Cd Dd Ed Fd Gd Hd n; >; l* 5* += C{ 3* [; 5] (= Y= g= `* [= m^ 1* q- x^ d[ 9* [* c< d= a; 4/ q= C* w- v) (* O= V* u* <* O* %! L* U] K* w- L% y- D* 0- h% $; g{ (} Id F' ~$ Jd Kd q^ R* o] <; x^ J- x^ j) 0* j* c< 6] S^ x^ t* L* |* q^ E' t* x^ << -% |* R5 }5 y% C{ U* 1* w% 1* w- ~< C{ j] v- j] p) B] q^ m^ '= @^ N* C* {! D* |] w^ /* |* ./ 1/ m] ./ a, ;; >> |% ]| Ld j$ j$ S% F' )& n& /} K$ }^ k3 N< Md 91 20 .1 P! u* _* (! N- [= :* C= m= C= w* 0* Nd Od V& 7% A[ a{ t* L^ %% $^ b$ -$ L4 >$ E[ <^ S; )[ Pd e} Qd p} }$ Rd ]9 90 h9 Sd $; -= *; ~- <= a* Z- h[ V= 2= d; `= V= I- h% ]- 6- ]* =! B* W= P- 7; (= d= /= b= b* o* B* == t! o= S* -* Td O= w% d* t, [= v* B] Ud %= S^ L% Vd ",
"Wd )! 0< I% (5 J4 %= B* b* v) 7> Xd S; {* M* J2 }= V= &= 1> ]- b= h% Z- J* 8- z= 8- G= ]> C= c= G= Z= J[ U* O* R* *; m, _* ]- U* ]* b* C= Yd 23 #| W} `} U: Y{ l3 4^ V: a{ Zd Y# *6 [$ E$ b^ =} `$  ! 1/ 2% W: $* _7 `2 #@ )& w% v) #0 $- 7{ 5] == 1> {* )=  ; `d  ]  e x7 .e p{ ]5 .$ ,[ $^ *^ #& `% _/ g7 x% 3/ y% S* w] J) N< +% K[ >$ R- +e 5$ @e #e Y$ 8& V# .] j: J% P9 M& $e %e C$ T/  & P& K/ ,$ &e j& '& 4^ q& O# ,a `/ +$ @5 Z/ [% O# +*  ( v, *e J% {^ T/ O/ $4 8& `# Zd =e u: Y$ w& 8& -e G% l: *; ;e P# p$ >6 q4 Q& `= $- q/ _< 8] S^ C* z* :; |9 G= C= a[ 8] ./ S^ 0* V= f= L* K* @= v* m= _= D^ z* v* ,= W= w% :; c* Q* .; Z] H- {* b* O* *; Q= r* ]* O= >e ]= ,e 'e )e !e ~e {e ]e ^e /e (e _e :e <e [e }e |e 1e 2e 3e 4e 5e 6e 7e 8e 9e 0e ae be ce 7e de ee fe ge he ie je ke ae le me ne oe pe qe re se te ue ve we xe ye ze Ae Be Ce De Ee Fe Ge He Ie Je Ke Le Me Ne Oe Pe Qe Re Se Te Ue Ve k' ]= 7{ ]= ]= l* M* a; n* %; k* j) }= M* 5] +9 :* l* C= N* +; B* w- I- U= :% =- m= <; /) $- >< F; u! D^ '/ B] J^ h% 3] C* u* R- q= }; M: (5 3% d% k% We q$ w- D^ a] N- -% G- v) K* K* s$ m] J^ w- D^ 7* E* d= 9* Q' a] v) U^ t] (* c/ += w% /* (* y% C{ S^ += {{ }= C* v^ 6* 5] v* i% s$ $- p) :% l] x^ ./ `* E* C{ <; A- 6' J] N- }5 :% M- k{ G5  5 Xe :% N^ Z^ $9 _% 2/ <$ a$ Z9 /& `} >> da ta Ye Ze *) (* ]* %= Q' U* 9* 7=  ; N- 8= <* t! `e 64 (< /% c{ !0 h^ d% M! l% '[ $$ $$ k& 0$ V; b7 x7 w} s} W< s{ ,| p} Qd 12 M4 5) 2) e= 8- L' 7> #= $; I- Q= D* q) [= t, K* :- I* h% @= 5= $; 6> ~- C= `- I* <= ;; e= G; |{ j, -% _7 Td q) s, 9^ r; 2* /= 0< P: `^ x% %{  f ",
".f o= J8 7& _^ +f p= %- V= F= M* V' S; H[ x* @f D* V= <= 9* [= B* :* <= G= :- B* 8= 5* [= T- Y- I* m- t= r= :* Q* m! j) C= !; 3* +[ <= #f :[ $f r} s4 {] 5^ e3 Z' %f V; i4 U$ d% }] *& >^ L& '6 ;^ ${ k& y2 /% T% T& &f V& v* A- `= 5* l* (* r! e= H' A= c= 5> `# [0 f} V4 c^ +| %] P% 5$ E6 d! :< h] W^ C! g/ t-  ! v> n% :a +% p$ *5 g8 *f K* #/ m^ f] 5] #/ a] @% b] 5] w- 6! S^ N- += :* <; g] O= J^ p] m^ ./ 7' m/ U] N- += w- 0* 3] 5] m/ -% += p] |{ 3] l] D^ 1* c< B{ x^ v^ q^ $- B- n- u* _= |* z9 {* H' +% :$ 4% J) B/ U^ $- =! =f A* 3] v* h% H- 5* `= 5] V* H- << D* K* P* n; w= d= a* R* 1* 9* U* 3* v* &= 1* 3* p) C= m^ [{ {* E] ]= 3* E* *= 1* a] Y= _* [{ -f ;f >f ,f 'f )f !f ~f {f ]f ^f /f (f _f :f <f [f }f |f 1f 2f 3f 4f 5f 6f 7f 8f 9f 0f af bf cf df ef ff gf hf if jf kf lf mf nf of pf qf rf sf tf uf vf af wf xf yf zf Af Bf Cf Df Ef Ff Gf Hf If Jf Kf Lf Mf Nf Of Pf Qf Rf Sf Tf &a k; Uf G* ,- (* l* G- _* p) N{ E* H' /* A* i% 2* V* q^ _= #% m- &; <; N- E* i% i% 5] (* C- 1* O= m- O= `* S9 e2 c< |* c< Vf I- ^* s) %1 W% !% 5$ [/ Xc Wf m^ u* z- ./ {{ 7' S' =! -% C{ U^ q^ v^ G- p) S^ P* x* z7 {! += :* w= G- V* a, w* C{ x^ :< E* C* M* R- m/ D* :* K* 9* ;% 9* P^ 5] <; >< Xf C- x^ h% e2 ./ N- += B{ U* p) ./ {{ w% l= U; >^ ~5 Yf c] 2} g7 L% Z^ 0/ `% Z$ K$ /^ g& D} S< Zf m1 `f &3 O! 1* -= z* I- 2* f= P* a* &= v; H- /<  g r{ ,/ F' Z; p- b$ Q# W$ .g f$ :$ I$ Z{ |^ a{ L8 f} X} |1 C} ~^ p} @7 ka ;3 8~ {; !; C= A* c; i= N= (* s* /; D* {* i' q= P- )- 5* _= P= Q- ]* j; ,- #; ^= 3- H- q= t= ;4 c* S^ Q% Zc O= K* s- ^= D* R* _% +g q/ @% t3 @g ",
"#g s- w% $g P# ;0 Q* ^= u= %g == b- S; i= Y* d5 9*  ; _= `- w) ]= $; ]- ~- f= h' -{ V= 3> 5] B* f= ^= o= G* i- <; 0; w> ,; %- j= >= Q! oc kb v} %0 n$ #e {[ e} j} T; L9 Y{ I$ 5% X6 E$ 3% >^ c> h] {9 0| &g /% i4 {' *g 3= <; -{ `* %= A- ]* J; z* :- R8 j= =g r1 D} |7 V; <& Z{ 6% w3 `$ H9 ;< ${ f/ L% U^ g% _% C{ ^) >3 i$ -g '^ Ic rb /) B{ |* N- %! i* += U^ =! m, {* B] J* K* m^ H- 5] =- 7' A- N- w- '= p) ^= N* 7* S' C{ u* T] S' h% d= m^ <* H* S' t] ,= W^ A= m- |< ;% 8< B{ w% )9 1* Y* C* W) w- B{ a] m< ]5 V$ {9 W$ J3 ~0 :; i* ^= H= P* K* ]- U* :* /; *; 3= {* z* /; D=  ; ~- F= P* n- ]* -{ v) A- i= [* D* m^ x* Q* x* O= d= R= w* ;g O* Y= ^= u= [- ]= s[ F{ >g ,g 'g )g !g !g ~g {g ]g ^g /g (g _g :g :g <g [g <g }g |g [g :g (g [g 1g :g :g _g ^g /g ^g :g 2g ^g 3g 3g [g 3g 4g ]g 3g 2g 5g 6g |g <g 7g 8g 9g 0g ag bg [g cg /g ag (g dg 1g [g ag eg 3g 5g fg [g 1g [g :g gg hg ig jg kg lg v> w' 0= )- ;- q- z- x* _* }- q- 0- >- F^ d= D* 2* i* a; (* v* v* |9 /; p) /* '= C{ V= -% E* /; v* v) v* i= m, o] E* 5] {* i% /* Z- p} v} Q% n[ 5$ y/ [/ d* m^ 0* +[ u* x^ J- << m^ C{ B] $- B- K* 46 +[ p/ += m^ ,= @% 0* ./ P^ B] 5* u* 5= /* w^ P^ R* 7* 6! I' L* m^ q^ k* d= Y* 3* 1* d< S^ -{ g] *= |< 5] 2* Q^ 0* U^ O* b] %! E' v* B{ F* _3 A! {| ]~ D% ){ y] >9 _% Z^ 1/ W$ <] ^^ )] 2^ z2 f{ mg ng og pg qg l! b; b; w= F* 3> N* >* H- {* N* M% rg -| v6 <% S; %- $^ O% E$ /} @& v6 P# ]& [4 `; @7 sg ^| 16 tg '^ /& d} ug &3 s' @; n- g[ (= G= E* G= k* g- _= 5* <* -- d, 6- [= l* }; j) }= q= d= F* m- <= ~- O= D* `% vg w^ r5 z) l! h% l* P* 7= ~; <% B# p) /) j$ p9 ",
"wg `= &/ rb ~] xg u= ^= d= u= 5* j, S; K* @= %1 M* 3> o* 3* ]* B* A* _= e= /= u* q- Q* G- I* v- '- R- f= W= o* *= 7; S= 1> _- @; K' I} b1 t} *| Z{ i3 || V} C} V; J/ X# {} )^ %] Y& 5% <% 6/ $% ;6 b2 )> 0/ Zd yg f% P* /; Q* zg *; x- K* (* 5* A- [- V= Ag Bg &| Cg ~[ ec 7& ^^ S# b$ f/ /% (& Dg 8/ %/ ~< U5 v> p% 02 @& n& &* vc [& {{ I{ N9 7* B] 7* C{ h) a, x% a9 /* x^ y] v* z{ y% 5= v* u* w* '= S^ m, m= Eg A* g] C{ Fg 9* V7 v* {! m^ J] 7* m^ t- N- g] 6] .} %! <; 6* c< h% 3> m^ u* w- q^ {! 0* ;% u* 4/ Gg '} b$ '^ t5 p{ V= b- ]* +9 E* j] @= 0* C= Q' '/ 5] V* I* %- m- `= ]* I*  = A- l* 6! E* `* (= 0* E' v* F^ 3* w* S= a- E] v- B* Y= E* *= 2* P= H= b= $a U[ Hg Ig Jg Kg Lg Mg Ng Og Pg Qg Rg Sg Tg Ug Vg Wg Xg Yg Zg `g  h .h +h @h #h $h %h &h *h =h -h ;h >h ,h 'h )h !h ~h {h ]h ^h /h (h _h :h <h [h }h |h 1h {h 2h 3h 4h 5h 6h 7h 8h 9h 0h ah bh ch dh eh fh gh hh ih jh kh lh mh ;- eb X= 9= <= nh u= *; 5] t* (; |* *; l* <; 3* 1* A- Q* J* C= a[ A- w- D^ u*  = F; 3* 5] {* ./ a, f= [{ .} u* C* a] C{ $- S* y% l* @& k6 d/ Q% (< o^ 1) W* w* z* m/ b] y{ r! K* C{ x% p) 9* v* h% [* 7' .} @% (* N- C{ -% H- <= u* C= 9* 1* C{ }= {* m^ 8] C* 2< N- K* K* u* h% 0* |{ C= C* v) /* z7 C* l] y% |9 m- V7 W) h% I- q^ j] oh '= |] _- Z; !^ g3 ph r$ %{ c> T^ t! ;% H$ 0{ l& b^ Z& |[ N& 3| n{ qh j9 rh 02 m~ <* h% A* w- _* E* b] O= 9* x* q- &/ sh %e (< v6 V; 3{ K$ ^^ o[ m% @& th 7/ uh ,] q{ ~| 7} Q1 z2 <1 vh 27 D} l3 R3 wh S^ r= :- e= *=  ; E* !; == {* r= f= '- b* F* 4- 1* x* :* P= )- (= U= @; K= 9> 0* B] l! (* `6 xh ;; ,- E; H' q) %! O% yh /* @/ ~< !} ",
"o9 U* E' V$ ;6 zh /; Ah G- C= K= Bh S; v- @= $3 _- A- /= z* P= t= t= :* 8= Q* }; E] <* ;; e= 6- =; C= K* 9* O' 0) n=  ; D* G= Ch 59 cc f} $1 L# z2 V} }| +5  > )| m5 P# ~] E$ V6 [$ %^ H$ w{ g& !3 A[ e& =e j  L^ e; D* b= A^ P= G= m= `= t] C{ Q* P= .| a1 L5 i} 7^ (] y[ y6 ,[ q% K[ !< L^ #9 g] 3! B] I{ <; =< C| t% /% Dh Eh /& f* Fh 1< B{ |{ H- 5] 6* c< 3] p) {{ C{ Y* 2] w^ |* A- 1* S^ w% @= J* O[ P* D^ |* m^ K* b] Q' 0* C* x^ m- L] Gh Q) ]* P* N- B{ t] v> 0* y] u* 6! {! H- |* :* Q* `= v) K) $- a] y% &^ Hh G/ n& .! Y# M: 3) Ih $- J* P* &= /; 3* zg *; b= j) <*  = V= v- a- k= 5= x^ 1* d= i% d= ^= x* D* =! [= i* $= ]= }= _* Z5 o- K* E* Q' e= f= f= s* Jh Kh Lh Mh Nh Oh Ph Qh Rh Sh Th Uh Vh Wh Xh Yh Zh `h  i .i +i @i #i $i %i &i *i =i -i ;i >i ,i 'i )i !i ~i {i ]i ^i /i (i _i :i <i [i }i |i 1i 2i 3i 4i 5i 6i 7i 8i 9i 0i ai bi <i ci di ei fi gi hi ii ji ki li mi ni oi pi qi ri O; B* U- a] K* S= n- L* 8= i; $- V= J^ (* v- q^ {* 5= d= m^ {* S^ 2* q= F! ]* [* d= <; 0* ;) Q' 7' P= I* v) <* S^ 1* ]* si D= o^ K< <$ ^^ Q% ti ui 7* S^ o- H- u* '= N- j) {! w* |9 m, N- h% g] ]* |* `* h% m^ 8] -% u* A^ 8= 5* m^ N- A- y% t] 2] o> i% m^ n] W) S^ D* {* K= *= Q* j) -% j] d= C= V* 8] 7* 0* B* _= F* J^ R* /; S^ l] H* y] ]; e{ j% _5 +! p7 d^ b] L%  / w^ H$ S% ,/  6 .! 3% $$ 0$ R: S; vi wi xi X3 yi l- 9- k* 5* (* K* (! z4 <; :* S* =! 3  x3 ^% 7/ Z; >= @& A! @& 0/ .& $^ E$ $5 T& S; B: sg y4 s} d1 Q% C} j| T7 /1 zi ,; K= Ai %= P= w= d= e= v/ _- {- B* ]- H= d= :* i! (= `= i; &= }> d* <= 3- /; (< o) 0< S% Bi U= i= '- b* <* $- p% 06 w- |* 6' qh ",
"X5 _*  < j% .& Ci H- <<  - e= I* V' S; 5* i* 5| _* :- Q* d= s*  ; A- A* P* {* 8= 1> 5* N* /; e= 8= _= w% 9= l* 3) 3= ;[ W= G~ C: cc 26 Di Ei U} '| E} sc S; =] 7& '^ d% >^ g& B[ $^ T% q^ C} A} +% $^ e| Fi X# u= ]* A- Q* d= m^ f= C= S^ V= 9= h, Gi qb i} L5 M} K| `& b^ $* $* Z^ L% c> ./ ]/ C[ =< Y^ m^ E% ,> $* H$ S# Hi *e C{ |* C{ a] m, m- += B] g= H* C{ 5] ]* w^ {{ x^ n] y] 5] y] |* D* m, k* O* C{ A- N* #! (* x^ V* 5] (= S^ C* v* w* O* B{ A^ w^ ~< w- 3! K* :* -% B] h% K* 7* )= V* J^ d= m/ H- I' 0* ^< ;9 Ii S& /^ 3% dc v} c= 0* [- m- b] j] t] K* E' z* P* 8= j- A- ^= k) C= *= H- 0* q= 8= Q* 8- d= <; h; l* )= Q* += ~- 3= n- O= C= <; h% m2 ^= U= 7= _{ q* Ji Ki Li Mi Ni Oi Pi Qi Ri Si Ti Ui Vi Wi Xi Yi Zi `i  j  b .j +j @j #j $j %j 8a &j *j =j -j ;j >j ,j 'j )j !j ~j {j ,j ]j ^j /j Si (j _j :j 0b <j [j }j |j 1j 2j (j 3j 4j 5j 6j 7j 8j 9j 0j aj bj *j cj dj Mi 4j ej fj $! G; s- k* '- _* G- D* 5a i* 9; [= -= P= z* ]- 6! -% `= V* N* _> S9 `= @- R= 7[ D* 5] P= w- <* C= $- :* ~> <; u= /= 5] $- H- :; x- @f /} (< +% t& Jd q^ 9* 0* E' P* += V7 += += I* 6* 1* d= <; m^ 0* f= ~> [; -{ <* m= p> :* i% 1* v- x^ .= (! _= N- 5] /* p) P* D{ |< =- h% 2* =- b] l* w- B- C= h% u* p) j] x% ]* I{ P* F* Q* v) )= K* 6* I{ H[ 1= S; ]^ r5 gj t% w{ a, x% =< L% g] r$ p$ u% d% /} P# r6 <^ y[ Z; hj j9 ij jj =) n- z= A= /= _= :- P* k, v- J* V* &g kj 84 Y& i$ S3 -! [/ !< $^ 3% `$ d% P% E$ /& Z; ec C} x} ]9 t} !% 4$ ^| y9 l{ [} B* :; P* (* @; `= >= I- j= w* i* N* /= #; <* f= `= R- /; @= P* t= Y- 8> +[ M^ lj m/ 3% mj Y= ~- 8- H' G- I* ^) K{ l* B{ x> nj ",
"oj ]* m^ I/ pj qj b= c= Q* }- z= ,4 S; w- Y* +3 M= K* 7> a* 8- Q' B* ]* #7 K; ;; e= M* z= H= == H= 1* Q* Z= -% A* z= b* rj A} q1 w} e4 v4 M& |5 j3 c} V; 7& %] k& _^ s{ b% `$ $* %% '% j3  $ T% k/ C& I) d% -% ;g 1; H= V* z* ]* %= ]- N* W' t, ~5 f1 20 &| B} v: B% b^ L& b^ 8' p2 (< 4/ x^ |{ 7] w* u! sj @> Q% G$ r$ tj ~% w% ;% S9 :* Q' E' G4 I- $- -% 8] <; b; %; B- |* S^ 0* x^ g= :; V* $- l* h; }= @= x* o> _= O* f= p> 3* w* $- u* y] `* x^ 1* Q* 8] m, v* b] w% v* t- ./ w* {* ]= m^ (* _= /; S9 @= }= v) N* (* W^ S' >^ }] *& +3 |< g; K= Y* ]- c= :; <> F= #; :- b- 3> t= 3= D= L- )) @; :; e= i= P= 2= {; S= j; ^= q= 8= &= c= ^- 1= !; #; ^; :- :- d= b- P) y' uj vj wj xj yj zj Aj Bj Cj Dj Ej (j Fj 7j Gj Hj Ij Jj Kj Lj Ej 3j Mj Nj Oj Pj Qj  b Rj >g Sj Tj Uj Vj Wj (j Xj Yj Jj Zj `j ^j Fj  k .k +k @k #k $k db %k 9b &k *k =k -k (j bj ;k >k ,k 'k aj *j )k !k ~k ej {k vj %j ]k ^k /k nh 6b u; F= >; -= 9; <> V= ]- &= Z- 7> ^= (k #; l= 0! n' y= Z- 4> V= e, >- d= V= >- O= G= [= _k g- F= m= c= :k c= e= S= q- >; F2 W$ Q% 7/ J# <k l& |* E* P* ]* h% `* -% O* `* ./ ]= K* .- <; h% i% n- K* w* [k a] 1* m- 1* += (* D* l* =! (* P* I' N- p] v^ $- =- z9 H* L* %; (! ]- %; j) P* [= B] d* /* m^ y] B{ n] 0) m- (* T- /* P* 6- C{ v^ F; c{ Q# P# }k @% 7* 7' >% g] |{ L] @/ =} ^% +% %^ _[ s{ ca $] N/ S; |k ac 1k jj 2k .;  ; %- K* 5* I* q= P- :* h* f/ Q^ 3k >] p7 D% S; ,k b$ Z^ $< T% /% X6 W$ f5 c} B3 [2 w} y} j1 L) 57 b4 .7 I1 L| 4k J* 8- `= b- {; <- .= ]- h= h* ]* l' :; O[ f= *{ 2* L* Z- e= n* /* ~- j* `% 4- x^ 4% 5k [- 8- w% &= 1* ]= )> 6k '{ 7k .^ 8k ",
"29 4- 7] :$ =^ 9k h% &= 3> e= 5= }; S; ,= x* 7^ A* @; ]* ;) 8= >= M* ,) b] `* _{ O* B* :* D* V= a* 8= 8- f= @- J[ >- 0k S} e1 h} e4 ~^ @f O} $| L} f{ >] -$ i$ ]6 E$ b% i$ p6 E% %{ {3 47 A[ J) ha s# ak u= E* A* g- _= 9; 7= A* C= M- |* R! J} bk ck L5 1^ dk 1[ i$ E$ A6 E% @& ,< U^ h] ~< /% #/ [* u6 e{ i$ ]6 Q9 t~ ^$ B{ y% S* x^ w% 5] <; B- E* (* 8/ m- Q' ~> P* 2} U^ x^ i% h% 6! H- v) |* ]* <; m, <* := @% V* Gh u* <* v* N- h% x^ q- H- }= ek e2 @^ *= $- 9* 5= fk m- i% O* <* {{ N- w% %! B- n] 0* O* t- ./ h% =9 v' r{ %% E$ r6 L3 H: 04 G/ C: ^3 %1 e3 q: }| 4| s! B/ G/ y2 53 s! G/ N} '3 m} J/ -| k3 /4 23 o} x3 64 m} 7^ }| E} {[ M} d1 m} K< I} }4 b} ~2 90 xi gk hk ik jk kk u9 lk mk nk ok pk ;a qk rk a| sk nk %| tk uk vk Bg mg M8 wk xk mk pk yk zk xi zk Ha Ak Bk Ck Dk Ek .2 rc Fk Gk tk Hk Ik 90 Jk $f ik Kk Lk $f Mk Nk U0 xi |5 rc Ok M8 ug U0 Pk U1 Qk D} a|  ] Rk rk q} Ck Sk d1 $| B/ R) 84 m} B2 7| %} Tk '3 y2 J/ b} Y% U{ 94 7| C: =$ >] U{ v} Uk E} '4 14 '| h& Y% y2 {[ V} '| {] y[ N/ 64 3| D} !& x| *] <% @& D& Vk Wk 9< R* K* << 3! H- v* c< t] m/ h% 2* O* w- S^ O= 7' z* B] v* 3* {* .= Q' w* u* W) B] R- S^ %! }= N- g= k* w% B- A- {* `* Q) '= B* =- h% z* [k p] e[ f= J! w- /) 8] (* += w% ]* a9 O= 2} w^ H- 5* J' Z; i5 '^ Xk '% :% Y^ F' v^ s$ f9 `% v$ 6/ ^^ -/ +^ 7/ K# q7 d> u} q{ Vd Yk Zk `k l~ l= u= /; d= t= 3* t= J; 5] :* 5a 1/  l .l ,[ S% c{ H; o$ g7 |/ w3 3% ^^ #* :$ 24 S; t} /a B} 8| a3 *& .| A} q1 S< +l :* C= /= 1= !0 2= D* 9> V= c= 5* I* E* 0; B* 8) R* ;{ &= h% |> !; /= @% 7= N- /^ @l k* x* B* M= N* w% C[ [] 7* |= |< #l ",
"0' H- `^ .5 K[ Xk _* b= w% X* $- @) k{ G- != `2 g= :; $l C= 5= ~- ]- o; 1* W' 5= o* G= #= r= ^= S- ]- c= (* 8= `* 0; M} b1 V: V: )] '4 e} x3 v} c^ D$ y) /^ n[ $* n$ #& s{ r$ v> *3 Y{ %l r$ Y$ X+ *% ;; B; D* P* <* >- q^ r= e2 K* ~; #= &l j1 Z} h} ^| S2 )^ Q9 L& '% ,[ %/ ^) r$ p] a, L% z7 i% b^ J< ]6 7/ g7 *l U# :% B] =l w% |] P* `* N- 1< =- w* S9 3] y% h% += M] m- m- x% |* z* h% v* m- ^= P* <* `= D* P* }= _= {* m- ~; -l w% m, v* $- e2 {* d= 0* v* 2* O[ x> +[ (* w- j) Q' -% `* v) d= 7* {* n- )! (= l* B-  = J^ `7 w9 L$ b$ $$ Y{ ;l ;5 >l ,l [4 /& c} :4 B& '] ,] d> y[ <^ >] 0$ !] /] V& /&  $ d4 A} N& Ei p} l| d> 3| C} 04 E} >] D} y[ 64 (] G} (] f} .| 10 {] |5 'l 20 W9 l3 )l !l )l rh s1 u9 ~l $f y9 sg y9 I1 #| @| ng 'l qb U0 s1 Pd P} 20 {l sg #| ]l ^l j| qb ~l Hk /l (l _l u9 wk :l 61 <l [l ^l |5 ea ua 'l ug }l )l j| |l d} /l 1l 90 2l (l j| ]9 %| ]l Di H} 3l 4l 5l Y} V} B} b} /] |5 D} z2 :4 i4 d> y[ !] y[ s4 Y{ :4 N& l| A} 84 D} N& |$ $1 y[ B& B: !] >] D}  $ 0$ )[ Y{ Y$ c} /] d> f} /] :4 24 T# l& b% P; F= << 2= O= J! t] d< m- m, C- 1* |* `* _* w- ^* += w= v* V7 w= 5= w- Q* =! C* (* y* [; v) t] d= t2 P* 5] B- w% :% m^ S^ d= ;% e2 ek ]* z* <; /* m^ O* z* m] I- 2* N- %= ^= K* `= F* w% v* k= S9 w- e2  = H= U; X6 >$ A| `^ /* h% m] 3! J* _/ B{ E' @/ 6l !< ]6 n& d% W$ L< Y4 )5  > 7l 8l 9l L| R[ N* b* B* U* :* Q= Q* ~- q^ <; L* 3! /# 9} @/ O% x/ #; */ F' b^ J$ !% b^ V$ u5 (] Z; D} L} k6 k} >1 J) b4 .| cc P| +~ S^ s* }= e= 3= t= '- a- A- k* Q= m^ V= b= Q* ;; x* Z- g- M- 2* l* x^ 0l v* 0% al  - t= w% %= 2- h% #^ oa <* 3] }5 bl ",
"A/ P* '% ]% A! cl P= D* K* C= 5* *~ S; o- T- w& 5= ]- 1* C= /= n- _= <= G= `= D* 6- ]; w> b* P= -- 5; q= ;= C= Yf G/ L} t} M8 v4 84 0} S} sc dl H& %] Q# V$ M! '6 W$ $* 0/ 6! Q: v4 (} D% r{ el B5 .} )- A* ^= K* 5= m- i= 9* T- w* _! L} u1 Kk +5 k} Q: 1$ d% T% 0/ f9 L% h] ^) 2} =& 5] g] r/ /^ x| c& J6 U% ~~ 5$ j] t- i* o% z* 5] u* j* S^ v) o- H= {{ C{ m^ i% d= 3] P* 0* /; -% +[ '= E* O* {* D* 2* g= ^= |* x^ <; w* v) =- $- $- =! e2 5] z* V= |* w% 9a y% u* g= 0* a] v* x* A* D* /; q^ 0* z* w* K* A- |* _* {* _= t* u* fl 4$ q7 ^^ i$ }] a$ M$ ;* '6 {% k$ s{ ($ Q# Q# 0% W$ Z$ {% >$ f$ E$ *% _] #* ;6 {% /} d% d% b> L$ i$ A& J) z% P# $$ u5 |% d% a$ r5 3% K$ 2% f$ gl |[ Z{ W{ 37 1[ g5 )% t5 jk M9 hl r5 tc :5 A& .& %6 u5 u5 L! s% il jl K$ $5 $$ kl |[ {9 <] }] f5 kl q5 ll +7 ml s{ F7 :5 !6 W6 u5 `[ ,6 nl S& .! @] >$ ol }] pl v5 !& L! r5 v5 |[ !6 ~^ 2% ;* $$ A! =^ `) ~6 d% `$ J) >$ {% '^ Y# ]& !& 1[ ~^ ,6 '[ A& !^ j% :5 )^ u5 V$ {} n$ Q# v& :^ {^ A5 :$ -$ :] ^6 s6 Q# '[ 1[ j% n$ %] A& :$ 0% (5 ^$ 5% P# ql q% -| rl ,; *= v* -{ m, v) w% %! y% _= 2= ^= 5= c< :* U] h% R* C* A- 0* f= 3* j- D* *= J* r; S= 8> Q* Q' /; V* C= 3] ~> |* i% /; w% 8* V* {{ B- }= w% ]* 5= d= w% u* h% /* D^ {{ $- <; O* j) `* w% :% p] h% f= Z= `; B# {9 sl (/ (! %! B] @[ n] 5] B{ x% a, g] F' ^) 0{ o3 .^ ^^ !^ 4$ `4 V; tl ul vl wl O5 z4 u= a; 7> b= P= V* _* ]= 5] g= ]/ xl _0 yl 6/ @1 zl 0/ `% k/ J$ d% >^ d% #* |$ >> rk W} S} X} y} M9 x7 0} (l C3 q~ q) Y) u= }= 0; ]> t= I* <= S9 t= ^= P* B* ]* .= y' <> /= D= f= 3! ;= |< !% Zc ]= P* e= P* q- u* b$ Al v% V* ${ Fk ",
"Bl r* 1/ F& -$ e! U* p) C{ b; Z= Cl S; <; Y* 4^ f= W= ]- 2= C= J; b* 1= -- j) A* i= g- A* @= 7' e- P- 1> Dl El Q} H7 d} ,] )] 14 j3 <5 d} S; v} n$ :5 K$ V6 A[ Z$ Fl @& H6 `2 y) p$ */ V{ Gl Hl $; K* V* 8= (* =; j= G= O= `= w= |) 8| ea .|  ] s} H: 2% b^ %% 7/ 0% $* >^ '% =< L% ~< ./ P* .5 M: 4% B# b^ 6> ;9 B{ v^ j] u* S^ 2} P* |* t- :* w] S^ 3] h% y% S^ m^ w* V* t* N- p) V* H[ ;; <; $- ^= <; 0* ]- f= *9 a] $- <; z* 5] 5= )- w% %! m^ n] /; u* i= (* 1* =! I* a- J* {* a- _* Q' S= p> D= d= &= b* %; v^ m, <* 8> Q* t= <^ M! K$ 4% F' 2$ 2% j& x$ D$ C/ ~] )^ Il K$ Jl =^ A& _^ >$ ;] X$ $$ #* A& m5 _^ X$ Z$ ]& ,^ >$ &* >$ &* {^ }^ .* {^ ]& &] T$ |% S& Y# Q# K$ E$ *6 *5 E[ j& %] A& +$ `{ Kl y[  5 3$ Ll &{ }7 Z{ R# L< F} ,^ r5 Ml a$ W$ f5 R$ F& =] }] .* ~^ #* )% )% .& g& V4 1| }7 v& ()  ] g5 k& () )] v4 nl :^ j7 .5 M# `{ B& i} Q& @$ *$ '[ &$ &] y$ &$ r5 j% v& X{ .& u5 X# B[ Nl |% $$ ^^ R$ 5& +] b4 %& L# O# k& 4$ Z{ k& R$ G& c} `# D$ (| &] R$ F# 47 @$ Ol g& 95 R$ 4& )] :$ X{ |$ Pl /& _& j% F& -$ ,5 /^ b^ 4% '3 I* I* :* R8 9= O= Ql (* J* S^ M) k) m^ S^ v* Q* =- [= 2* t= <; n- m^ B- <* j* ]* ~> e= e= ,= P* ]- Q' w* t] ;; S^ v* u* m^ 0* d9 V* J^ t] g= V7 v* |* |* v* w* 2* O= F* u* 6! =- p) S^ B- m^ W= _* 2* 9[ Rl  > =^ 2% Sl 4/ P^ s- p^ x^ P* m^ B{ %! #/ N- :% g/ ^) S% ^) >^ J7 }] H& +$ Z; Tl ng Ul wl Vl G= d= &= [{ B* 3* d= i= u* .; V* Wl Xl 8^ e7 g7 G2 n* h/ <% 8' $* K# '6 !& &{ B% S< sc V: y2 (1 u} f5 Pd D} P}  1 Vl -{ z* [= '= h= n= 5= 2* :- ;; P= /= S= I* N* 8= _* 46 [- m= -< M* += Z& Yl [- n= K* <* .- t2 t! .^ 3< `% t3 Zl ",
"`l E* O* n$ !6  m ~- P* F^ z= o= .m S; {* I* Y% '= w= S' x* <* B* l* w'  ; 8= }= x* l* 0* 8= V= :* V= #; +m 23 .0 ~1 20 f5 {[ j3 s} v} >> /& Y# q% s{ !% K% b^ r$ e& h) #6 1[ %% /^ ]5 @m #& V= :* E* {* ^= @= g< I* B{ R= x* O:  4 [0 #m @7 $| [| @$ 0% 7/ f2 D7 </ /% h] /) H$ #/ 5] u* *5 $m P# n& L^ 8- i/ v* {! @^ x^ F* 8] ]* E* {{ <* a] N- J! ;) *; $- d< V* p) %! u* S^ m^ (* {{ (* v-  = v* 5= 0* j] x^ <; {* %= << o> I* l* }= $- p) w- -% 9* w% <* y% U* q^ z7 v) D= P* (* c< p) q- V* P* K* D^ A- }= V* `= w* k) V= _= C2 d% ~] U# e! yg %m &m *m Q. =m -m p( ;m Z( j@ }) /( j_ +@ g_ >m $  ,m 'm R{ )m u7 Q. !m ~m P( g_ {m ]m ^m /m (m _m 1. :m <m <m [m :$ $$ @& ja e5 e0 h( .# }m :, |m :( B+ <# 1m 2m :@ 3m 4m 5m 6m u_ 7m 8m >m Q( [_ ]m 8m O> |m 9m (@ 0m am bm n@ S> cm dm em fm gm (( hm im jm km lm C@ X( mm 2, nm om pm 3, qm rm 6: u_ *( r_ sm tm um <_ ~_ vm ;m S( =m wm y@ >> I$ .& S# H& ^: xm ym zm Am _m #_ G( Bm S> c_ r_ Cm Dm mm 3: Z( Em ;_ Fm E, d@ G> Gm Hm j_ $  Im [m um Jm Km Lm Mm _@ 3# Nm Om O/ A[ L< j% w} ^= `* 5] *= _* `= R* ]* K* u* B* [= C* c< ~> 0* M* h% (! B* Q' ]* D* +[ <; A* F^ B* A* v) f- 9< w- n- n- 1* (* 1* {* =! *9 (* '= 2] 5] U] m^ x* -% *= D* [{ |* v^ H- :* A- D* h% += 1* 9* w% K; D^ ]* #) Z; $& =^ Pm g] v* u= N- n- n] 3] K* ;% 2} d^ B] i] U^ :% &/ 7/ `$ 5$ !% B& D} S; 87 Ye ac m| Qm 9; ~> <* 0; =; u* (* <; <* n] -[ l% Rm [| o$ =} D3 <* i$ A6 ,/ X< '6 l& }] !& 95  > Sm ,| M} O} w} g& &| Z' I1 S| Y~ ,0 C= e; `= :* S= /= ]* B- )) }= z= O* >- 9; :; i- u* <; U^ b* << 2% Tm C= M= [= ]= l, f/ ^) >[ B- %! d! Um ",
"Vm E* 6* .& ;6 Pm ^= .; f= A- u- &) S; <* t* !! O* ]- 5= I* ,; ]= b* ^= V= 9* Y* ]> m- A- -- K* S^ l= Wm H: N8 y} Pd v5 '| D} O} )| m{ ^5 .& () i$ 0% o3 P# b$ E$ d^ Xm g& Q% p$ X2 L> 3% 2* m^ i- %; (* {* G- `= B] )) @- R[ -3 qb t} #5 e| O} #] r$ <% =} $^ p2 +% 4/ U^ =< ~< x^ m^ k& L) (5 /} v$ Q7 ]/ |{ o> Ym w% {* P* y] I* {* a] 5] Zm i= ]* S' {* `m P* H- P* n] D^ A* |* A- Q* w^ R* t/ v* J^ l) W= A* D* E* _= <* P* K; C9 F^ &= O[ H- <* t] h; x^ S' /; 46 f= a9 O= <* J* &= K* <* @[ d= (* w= &= P= B* n- w% 1* L= I2 V$ 0% ^^ :5 Q= R5 g/ @% m] x^ 5] U^ B- j* `* j* i= X= y* }= t2 b; 4! P* ]* H= K* _= b* m^ D^ A- l* O= :* 1- _= `* A- J[ y% m/ i% e2  n N/ /^ d% o3 <7 ;; K* m^ Gh v- N* ;g A* k) O= <; 0* g= u= l* p) @^ }= S* K* H- p) d* w% P^ G9 i% [; _= V* o-  / l] a[ d] 7' p^ w% 0* `* .n g< C{ /; K* i% u* z7 N- S- _= s^ /< +n E' t! m, 3] B] %; J^ {{ 6! h; ^< z* @n :% .^ '6 /^ 8^ #n w6 N* $n m- I- n] b* J* %n i* *{ 3* d= 3! V7 |* W) a- &n Y^ v- D^ m, (* {{ |* /; e2 B- M) l* o- v* {* a[ 5] B] *g 38 M& S# Z$ E} /% 8- y% d= ]* d= I- i= S' C* R* %! <; J] L' V= Y* q) P* D* I* w= }= :; t= w* D* >= f= J* C* 3* P* g! P* D* L* _* u* v) {* <; w- q^ R8 V* ]* {* t] w* o- C{ 0* 9* %! ^= ]* <= j) += B- m- C* x^ 0* t= z' `; Z6 A& *n u% u* 1* C* J^ m^ 9a 3! t- ~< O= w^ 4/ u! L% |< L6 D% d% J) )6 ]5 d> S; =n -n ;n m| f) I* `= 1* A= '- <; ]* 1> w% f) }= w3 >n 4| g/ q[ b{ /= </ M! =} =} ^^ J) g& g& ]5 V; W< E} S} ~1 W} :^ E} 4l /1 R} ,n V= <= ]- /; G* K* S* D* g; z4 e= g- [= /; k* :* j, ]> u% Q{ |{ s6 *n V= #; g- j= 0- S* '% :6 (! M% x% .e ",
"A/ G; Y* S& 'n pb U= F= I* O= l= r) S; 5] 5] (3 I- b* P= i^ B* ]= F* ~- n= Q' P= 7) 8= D* K; q= z= Q4 || !l E} h} G5 '4 u} `} E} l{ L} {^ j% M$ f$ $& @& o$ A& x% /3 67 t% F' '} 4. 4% R= L* b= @- b= %= {* `= D* f= y= '~ M3 90 x7 >5 Z| ,3 )5 S& i$ r$ G$ r$ g7 1/ X^ !% 8/ u$ s* !& {[ K$ p$ %^ (; `6 v^ |< a, 0* O= {{ p) S9 2* C{ v* z* N- C* `* /; u= v) K* 9* K* S^ u* p> $- q^ 9* O* (* I* =- j- ]* b* H- H= w* 5* Y* ]* I* e2 S9 a] e2 h; J[ 46 3* x* 46 J^ t] <* `* I* C* L* ~- J* K* :* {* &= 5= d= O' u* <; 9* `- U^ S} '[ A[ 23 B0 c% A- *= J* K* 1* D^ w= (* H- +[ _= K* K* `* i= e= :* F) _= [* &= F= :- {- 5= D* &= F* ~- U= q= N* n- c< &=  ; c= u* f=  < 8- B# $& $& i4 l! 9= i= ]* }= <* H= ;) ]= s- 8- ]* L* P* k) H' C= N* x* p) m= <* ]* h% O* D* R* += k) &= m- q- o* O= O* d< F* O* 0* A- ]- H[ `* v- :* i= K* p= &= 7{ m= E* z= a* *= <; u* j- Q* ]* v* F! P' %- C= 3= )n c^ u6 s{ {6 (; ,< V= == 0* m^ S' 0* =! _* `= I- v* A- w* I* P= ]* w= Q{ (! h% P* :* %; c= F! a; 2* c< 9; h% v* w% q^ O= A- q^ j= d* !n ~n (} d% B# @> }= j) d= }= h% ]* D^ p> n] d* =- w= *= Q' v* O* `* 9* /= D^ o- g- i% f! A- P* r; ]- v* A- r; 1* D^ m= K* k) +[ _= q^ N- r* Y* v- m^ 8= g< a- P= B- `= O* _= =- 0* H' 3* h% |{ N* I- x* ]* E* B{ l* C= c^ /^ W$ {n P^ C{ <; {* C{ C{ J^ {! +[ 9* ]n e2 |] a9 ;% S% y] _/ 3% *^ >^ Q# @6 64 V; ^n (l /n (n k, w= [= :* Q- P= ]* l* <* ]= y] K* J9 >n g6 t% o$ `2 /= r$ V6 $& <a m5 hl $$ ,^ b4  > L5 h} X} |1 w} _n  ] D} y} *1 :n h% ]= q- U= a- V= 7= e[  ; D= /= C= V* 8= :- ^= _* <n == |{ .& q< )- n- @= u= U* w* &/ [] [n J^ N^ O) ",
"E! U- :% .& b^ pb Q* b= S- Q* U* x= S; a* m- $3 /- A- i= 7{ h% B* N* P= F* I* v) ]- k* @; -- /= ,) %} P} 8| i} u5 B/ N8 Z' b} Z; w$  5 -$ j% 0% A! !% W$ |/ %/ Y2 -] /% `$ %} }n 6' a* i* I* {* 3* v* H* C= x* :; L* e[ b2 90 %0 |n !! o} V4 P% P% Y& ${ %% r$ ;9 ${ `% %{ #% 9* y$ 84 B# </ ^/ g- }< l] Y^ |* m, `^ w% 1* 3! v) u* u* c< p) w* 0* J* [= |9 $- @[ _= N* A- 5] D^ R* {* H' l* O* i% j; L= d= Q* :- v* P* d= O= R8 G* l* g] /; A- Q) /= Q* 8] 0* i= w* ;) p/ A- =! Q' L* P* P* s^ H- (* b* _= w% j) m- l* P* '- +> .& 2% ]< u* ./ A- p) S9 c= t= 3[ C= g< h* v- h% j) 7; ]- :* <; z^ v* n- N* M* k) 5= i* ^= [; f= F= J; 3* J* A- A- @; Q' e= A- 0* &= z= 5= f~ /4 2% L& @$ 04 <- <; 2= 8- [{ _* :* g= `* A- ]= w* 5] V= 1* O* ab W= _* v) (* k* %- B* n- f= _= ^= O= <* G* ^= v) g- /; 5] .} )- G* E* :* :* A- &= S^ m^ F= '; =! f= m^ s- N* (* j) I* := 2* P* 5] w* Q* x= I- Z= 1n @] c& B#  3 15 9* S9 i% {* /; w* v- x^ K= u= 8> J[ :; J* 5= D= K; 2* 0* U] b; +; }= 5* R* j) H= I* Q* e2 x* 0* `= +[ C* K* a] >< H- /= @; B$ 7/ :5 3$ .] !; 6; d9 N* [= &= ~> }= t- }= 8> C= (= 2= {* a; D* R5 D* e* z* j- q= <; i= O= '= A) ]= 2* 5= _* B* s- 3* i* == C= ^= v* P* f- ^= :- 0* 3* f= F^ w- v^ w* V* K* ]* P* {{ }= A- <* m^ P^ 46 P= << 4> W; <] #* 2n v^ 7* Y^ B] {* G4 o- x^ 1* m^ 8] L% |* y% 6* s$ O% c$ ~< q[ 0/ J) /} @4 v} c{ 3n Q1 4n 32 5n 5= d= N* u= B* `= D* (* !0 4- j] {* 6n !! m% f7 p{ :- l% F' Q9 o[ ~^ $$ (} n$ (] f{ L} r} 6| 7n o} I$ 8n d} cc  1 Ch q= t= }= =! V= '- 8- (* A* ]* M* n= f= 1= :* t= 2] R4 += A! 9n ~- r; ]* u= 8= *9 b^ K4 |< B] ;9 0n ",
"Vm an I{ W$ `) :~ z* A* /= 5= (= A* `; N- K= a{ P* _* ]* <> {{ q- U= K* t= H= [= V= $; e= t= i^ h} y9 W} 54 z} M: g} Y% t} b{ i4 &* 1[ L& Q% -& bn s{ $^ v> `; .* @& p7 j: cn [/ E* J^ G- A* q= h% H- b; l* n* K* @; Z| <1 .| |7 b2 `} 95 T% b^ q% i5 r$ ^% r$ d! U^ S^ 7]  = )% m} K[ i$ Z^ U* /) S) C* v> V* i] -% A= ./ U] I* C- Q' P* w- ]= J^ `* N* _* a] j= l* Q) b] v) 0* P* _* 9> m, N* 3* F= /; v- *{ K* n- S^ Q* <; b; *; |* P= t] w* d= ^= a[ 8] i= `* o- Q* C= /; d= ]= Y^ ^= <* |* {* r* (* p/ P= S9 (* /; @- s{ <^ `6 K% k> c8 =9 w= D* C* <; m, G= 6< C= P* j) 5= 2= dn ]= w) :* i= 2* ]= D* R5 8> i= #; 8= I- l= %; ]> [- P= %; ]* 0* G= v- @- 5= n- v> N* F% .m M! W$ 7$ (4 en N= ]* j) 8> *= s- K; d* <* v* v) $- {* g= m- C= K* {- w% [{ K; f= P= 3* O= ]* -{ 2= i% `= q= j= B- V= B* D* W= 3= e= h; h% /; |* 3* {* J* O= >< n- f= k) :* w* I- A* [- m= <* d= v- q= <; G* k= %3 q% (} j& fn r^ *{ b* m- m= *= >< }= 2* w= g! m^ e= V= =; /= j) ^= F= `= n- _* d= <* {* R* I- D* P* {* ]= /; ]* n- :* j* w- m^ ^= Q) ,= ]< gn hn @& d% W: 7* O= _= r; G= K* O= j- (= A- F! }= P= N* 4= w* E* |; w- 4= :- w- h% G= Q' #= *= w= C= b] l* :* :* w* D* w% 9! w= 7' o- w* v> J[ z= {- v* D* K* L* A- m= V= j= C= f= `= in jn m= a[ z* A- }= D= 4) +> ^^ W$ kn D^ '= @[ (* {* v* :* Y* (* H- R5 a- x^ N^ q] x% Z^ t! ^) r$ m5 7/ a> M! 4^ $1 V; ln Ul mn R| ra S9 i* s- K* [= <* A* }= `* 5* I- z{ nn :[ )> S% c^ 0- -* d! (& n& b> O% L< _5 `# Z; N# u} 8| r} Z| r6 ,| f} I1 #1 6> /- b; i= _= 0^ 1* C= h[ }= 2- C) B* v* s- <* A$ m= m3 @$ on :* [= Q- 9= Q' k) pn ^% j] s$ C[ qn ",
"rn a] `^ s6 >$ T~ l= M* u= <* Q- <* S; ./ ek 23 S^ L- P- q= V= ]= W) e= $- a- [= =! V= /= H= /5 6| 20 C} _^ L) M} E} hn c^ E5 >$ z} V$ 2% 0% .& 6% q%  ! /3 v5 /% $^ sn $@ ]< h* E* l* P= '= 8- ]* M* /; k) .= h! `3 u9 tn W< 02 d| 7& L& 0/ a> 0% F' ^^ b^ =} g] g] y% v) Y# Tk n& n&  ! n] un $- 5] 6* -% P* O* w^ w- A- m^ {! o> h% -{ $- {; 3! }= Q' Q' ;) h< /; vn B{ C= ]= d< i% m, m^ v> m= =! A- R* j- @- 5= P* (* f! ^= ^= e2 m= a- P- $- _= b* r= v) w= K* P* e= V* b] 0* (* {* t9 q/ <* H= {> h[ }= v) P* 2* R= b{ >$ S& <$ wn U% f; |* =f J* R* e= xn d= v) $- i= C{ _= (= <; m= ^= B* 5] 0* 3* O= =- F* [- /; b= J* I- q^ k= 8> {- }= z* z* 7= z' k) .- %- P= v* yn '4 Z9 >$ f$ S< ,- $; W= *= R* ]* e= v* 5* d= O= m^ w% c< ~- R= (= &= f; %- <= m^ 0* H- P* -{ :* N- V= k) x^ [= g= m- N* i* [k d= Q* K* 3* f= 8> R* x* o- 7= G* j- }= <; 2= &= B- :* 0* }= V* I* <; $- G* ;; ;& t5 $$ V6 2/ t= f! zn G* N* 0* s, e= P* _= j- A= A* =- P* G* t] P* {= $- V= z* v) 3] D* p] =- l* w* I- @% C{ L* 3* :* }= ;; b* m/ 0* K; P- (= <% _* 0/ $$ T: S2 [- D^ I- a- <; v) $- V= v) %= .= 5] K; }= =- G= P* m^ [; O* <; k* /; += d= K* S^ S^ m- Q' _* *= ]= v* q/ 2* J[ S^ (* w= x^ O= :- t= g= I- m- F* I* 1* O= 4= ]- <* i= d= H- V* A- R- )- Q* E* 2) V; J) j5 An 2} M- Z- 8] q- j] `= {* {* E* |* w% A- B{ D^ Bn #% d^ g/ 6% )> w3 M6 0% v& =] +| f{ Cn #| Dn q{ <! I* |] .= I* K= o= x* [= m= x* A- y] B< M: t! $^ O< == h/ <% P% G6 w3 `9 E$ {^ X{ q{ j| H} B} <1 L) ,6 A} t} b1 51 |> C) (* :; _= G= P* z= E* En j=  - V= }; W= N- .= ,% [$ f~ U= [= }- g= ]* p> Z6 Fn B- G4 h/  f ",
"`l !> a9 .& *& Gn v) W= B* {* Ih :- S; u* d* B/ <* :- w% h* <* B* Q- N* &= -= /= 8- B* <- g5 e1 j3 C} u5 W: cc 64 V: D3 )4 g& *] 0% W$ 3% K$ +6 w3 r2 F2 :5 )> .% Hn U+ '% h% D* N{ j- ^= J[ <; N* C= m, h; 6> In Jn Ol Cg O2 T{ .$ $* K$ o$ B[ +6 7/ F' %< a, w* M^ w* >^ b2 b^ Z& `6 L% P* q- $- 9* p^ 6* W) <; (! D* 5] N- w- ]* (* S^ h% J^ V7 P= ;; G- 2* U] G= =; v* 0* E* 6* u= V* $- n- [; /; 5] :* <* P* H- _= 5= z* <; V= v) P- R* w= L* d= O= :* ]> <; m^ Kn x* e= )) B* D* A* D* e= A= 3* 5= w= 8= ]= L* (- (] () P% !% h> '7 B* w= N* j) r; e= A- B* =9 P= ]* *= H- f= 3* 3* C= 3= (* /; e= D* h% b= D* <; 2* _= ,; q= j= v* P= -{ `= 3= ]* d= x^ +[ L* A- j- 1> k^ Ln ]& [$ K[ o} {% #7 ]= S' 8= u= ~; J! g- A- O* 9* X* R* D* i= (= r; D= 5= e= :- [= n- O= &= e= j) `= q= I= G= Y* L= .- t= (= ]- ]* d= D* ^= R* A- 8= {* <* f= 7= 2* q' #- (* -{ Mn P= @= <; s* D* D* {= x* 63 '^ 0% Hn Nn vn H- }= `* :* %! 9* S9 @- C= /= 3* A= a- a- z* Q* <; t/ I- i* j; 0* v* v) <* 9* I- }= ]= 0* b] i= v) 1* _= w* 0* C{ O* {{ 9< On *= Hi 9} M! k$ S} @/ 6= C{ F* B* Q* <* H- l* D* v* I- f= K* a] P* =- W) `* :* z= K; }= D* P= D^ h% C= q- 3] A- :* J^ }= <* P* *= =; Q' Q* %[ <= E= e= O* &= $- %= <; v) k) %= 5= #; =! v* 7= n] N* V= t* I* N* X) T; }] .& *8 6! w% 9= C= E{ s* m, v) V* {{ 0* b] A- E' e2 S* y% B4 L% g/ 1/ >^ |/ K$ K4 X$ i| !] V; Pn ~l H1 pg Q~ (* ]* V= E* Q' t= A- r~ v* +[ P= B- Qn t: >/ .^ >> W* w^ <6 B[ o3 i$ B# J7  5 Q& c{ &l w} k3 Rn y2 A! Kk x7 Sn .| h- #= L* U= a- @; K* <= 3> o= K* }> {* G* R* t= @% M! z< m- K* j] c= F* B= s$ p6 x> L% $9 Tn ",
"5} >* p^ |% b> Un A- (* C= 1> Q* |- S; :- D* ;| @= v) S9 K* *= D* e= d= 5* (* F* v) k9 .$ ,1 h3 y} ^6 M: k3 >| D} x/ 2^ -$ g& >$ !% i$ .& b^ W$ v> %1 )] c% b^ y: Vn l% /= /; P* R* +; }= [; S^ F* W= ,0 ,- A2 j| b4 ,| W3 Z'  $ b% W$ S% J7 ${ [$ ^^ D% x% x% a9 2} b% ;3 P% .^ ~< 4% _= U* 2} J* U* N- %! ./ J^ p) n- .- v) 7* F! e2 {* ek I- C* w* M* a; B- &= h% [; -% u* h% d= m^ a- I- e= _= J^ n- += A- P* 0) A- v) z* N* ~- '= [* P* m- .= m^ b; b- [= [= t/ D* *; w* =! m- 9* 3= -% q= |* 1> R* N= l= [= `= ^! ,3 W$ Z$ {^ Wn |] |* `* .} ^= %[ q= K= 3* u* z* B* ]* e= _= [; <* Xn D* G- G* :* V) z= w= (* &= O= z* [; <; 5= h% j= E* D* d= *= b= 0! l[ /= [= W= +[ ]* ({ Yn d% G$ )% Zn F= n= ]- (* q= .- ^= 8> :- f= /; ]* d= Q) f= f= )- <; i= K* :- K* j; >- ^= (= u= B* ^= N* ]* >= ]- '- B*  ; ]- R* T* R* ^= :; q= _= w= (* :; 2* D* d< k) o= v* K; d= u* u* v) Z- /= ;[ B3 `n Z$ n& b~ w- L* =! O* 3= 46 F= K* :* w- I- G= (* I* I- C= m^ {* e* V[ A- S= &= j) D= 1*  o S9 z* v) 3* D= ^= u* a; Y* u* 1* 9* R* C- V* _* 9* }= |] .o .& 0% a$ ;3 b- |* (= _* G* xn C= C= R* [; _* <* q= v) *= |; Q* l* <* B- := l= q^ w= K* +[ F! Q* Q* Q) K= A- =! -{ i* &= {- E* i= >- R* D* F* <* d= O= b* V= A- [; *= :; .; v) <* (* _* +o t* I- @= g= i) U; d% i5 15 #/ a] f= +[ Q- &/ v- Q= k^ m^ K* 1* m^ @= t! m/ v^ g]  / >/ B] `% v7 )> b$ 2% ,^ h} w& V; @o )a k1 a2 h' h* v* C= b= j= y; ]- u* A- B* P* O- D< 5^ @/ b^ Z2 {* g/ )> p$ /% )/ ($ $& )^ .5 j{ &| x7 e} 0} ;3 kl #o j9 I1 0} )} 8- K= v) D= 9* <; H= }= r; P- == 5] A- }* U^ 5% $o t= Q* H= f= U* G* h) %o g] 2] P; O) ",
"&o [{ @% Q# ,6 9k J; 8- G* p) )) [= S; J- ~* *o $= 9; q- $; I* P= /= 8- n* :* k* H~ Zd k} j4 j4 (} L) _| Z' C} g{ Y4 !& q5 s{ ^^ $* Z$ $* o[ 7' #{ Q# H$ d^ Hn =o U% ]= {* D^ /; G; |* #; h% l* Q* j= &) `< &0 Z' 1a !! >] ~^ !^ /^ r6 -* q[ 8' w3 @/ /) L% 7] N- $$ || q% $* Z^ b% ^= 5] D^ N* y] =9 *9 I- <* S) N- J^ H- ./ v) w- C* N- [* `= Z- 5] {- d= R* [; C{ S' Q' V* V* (* h% f! ]- +[ m- h; v* d= o/ 9> #% [- e= ]- u= 3* 9* K* v* Q* {* v) :; u* u* i* <; j- k) m, <; <; G= _= }- 8- :* 8= e= 2* P= H= V* `2 M! X6 -o 6% |* P* i= %; )) O= {* S9 0*  ; (* v* @= i* R* ]> B* ]- 3* m! K; C= Q= v* |* |* z* _= i= H= ^= ]* s^ d= ]- ~- e= 5* I- Q= 3* .; F= ]= j- $- S^ B] ;o i3 a$ E$ )4 Y4 (~ 3= d= G= q= b- ~> C* :* j) V= f= G* z* i= A- &= Q* >= 9= V= P* D* P* ]- *= I- [; 8* D* z= [= (* w= z* z* {* f= P* w= /= A- 0) A- (* 3> E* I* q= O= D* i* ]= q= b* d9 6; G* @- O% 6| d% p$ ]0 >o A) 8* d= == *= C* [= C* g< f= R* p> q= (= 3* >= v- i= K* R* O= 3* +[ S' w= {* +[ j) [; p> D= a* {* f= (= 6- 8] e= ;g F! z* N= A$ (* 9* ~> I; r{ *& L& g& !6 #7 O= B- P^ g= P* `* n] z* N- h% u* K* j) 9* N* =- P= P* <; u* Y* 3* {* +[ v- i= S^ ^= D* /= 2* N* H= A- P* K* ^; G= w= :- t= 4= ^= a- P* Q* :- <* P* D* -{ ,! R= S] {{ Dl B- :* N* w% 2- S; v6 Nl n< =! ,o t] C= 7' F) 8- H- d= $- F= v* C= j) += H- L% B{ u! 1/ 6' E6 =& >[ $^ *& F' $* >] %} n{ 'o )o l1 30 !o 2= z= 4! l* x^ G= *= K* {* (* >< -% ~o {o ,/ f2 G3 Z* !/ $^ p| Z$ Q% '[ B[ )^ 95  > Sm W} U} :| O| ]o )a b1 ~1 y} 1) A- B* 7= :; 0* f= ~- R* :* g, (! 46 != A- V4 ^o <* B* ;; ]- B= A- /o `$ Y= W^ d! (o ",
"`l .= 3! S& j% <! I* ^= /- S- H* _o S; N* 4* d| k) m- u* q- Y* B* 1* (= E* _* b* '6 &0 0} Z} _5 {3 t4 A} 4^ /3 =] g& 7$ :$ >$ D' $^ A[ 2& {! Q: _5 e% I6 X2 :o w3 }= 2* l* {* {* ]* Q* M* C* 4{ C= i! Y3 !l L} @7 G/ }| @$ `6 Q% F' d% +% !< =< B4 m% s$ Z^ x^ ~5 0| r$ v6 +% P% Q= |* D^ -% u* u= _% N- |* |* C{ K* z* x^ S^ $- h% J! a* $- 5] 6- p] =! x* b; -{ B- a; (= R* v* K= 46 >; _= d= C= 0* (* 1> S^ {* z* S^ t= <o R- ^= a- $- h% /; z* 1* c= /= d= m- (* %[ z* }= 2= k) ]* &= E= t= =- [; b) 8- l* C= >9 l3 Q# ~^ d3 [o k* P4 v) D^ jn d= v) <; '- K* 5= U^ i% w= w= z* W= i= H= 1> 7) D= P= i= J* `= A- k= e= -= _* D* K= F= 6- 0! n/ k) <* /= :- &= :* G* 2= w= (* @; += h; i$ 5% [$ ;3 H- 2= O' :- q= `= i- t- D* @; t= N- 8= ,! b; f= P* w* 5= q- i= t9 /= ^= l= [- 3* /; $- a* 8> ^; 7> t= }o ]- B* *= &= z= B* F= <> [= m- l= b; 8- R* w* t= 2* O= ^= 2* w* n- x[ }! $3 i$ B# >$ |o 5] K; {= {- z4 Q= *= P* ,; f- Q' &= e= q= l= q= x* O* I* V= R* p) %= R* -{ R* 3* 2= P* ]* O* C= 5* Q* B* (= %! 1* y% (= 46 (* k) k= d= V= R* 8/ /8 5& 1o ^^ C3 '= c= ]= 9[ d= S- V= 5] k) [* B* ]* 4! z* ^= 3* J* &= /= v) ]* u= m- 0* q= Q' f= Q* 8> P* D= 2* O* b- |; A- i= I* m- 2= Q* j= P= h% x* j- q= m^ t/ l* &= i= G= D* t/ ]* o- F* x[ 8= 5] ^- N< @& Q# 2o v* b] h; V* n- $; u> V* k^ =! h* 6! j) |* B{ -% v> b] x% w^ 2} 3o 0< ^% -* w3 i: .$ ($ D} -|  > 4o 5o N1 L| I< 7[ A= H- l* <* (! != M* '- 9> := C] ]+ m} F' p7 R3 N*  ! A! C6 .^ i$ {% i$ Y# j5 Z; p} 6o >| #2 12 L$ e} e} j3 _| {> {; :* U* m^ }= D* o= [= }= t* =- M- C* -$ 7o '- G* B* }= F* h% r$ 0{ Q* ;% /%  f ",
"`l M) }5 P# i5 8o z= P= f*  ; J* M- S; *= n* 3| R- I- /= -{ n= b* ^= r! #; _! W% =1 C: 4$ f5 69 u} G} ~4 S< L9 (5 }] f$ ^$ (< >9 H$ b^ I{ ,3 `9 !% 8' w: )' *f J* (= 5= _* &= E* q= C= l* p) %- 0; O} Pd 90 47 }2 || +( $$ .& r$ b$ ^^ @& q[ p7 h] ~< B] D^ /^ U2 X< F' /% <$ /= 7* += ,= }5 O* 0* d= 7* G- V* 5] N* m^ u* H- 0* q- <; }= P* B* B* v- i= <= n- _* d= [= A* }= {* P* e= {- ]* &= ]* E* H= .} D* 9* E* 3* i* f= i= s^ :; i% /* G= 3* #- 5* %[ K* <; ~> 3= q^ b* <* {* 3* z* 3* 9* q= &= k) t= Y- @; j{ ;* '^ #& .~ K^ ]* 5* 5= z* d= u* ]* }= <; [; n] N= <; 2* 3* n- f= P* <= x* K* [= B- A* (* H= a* H= m^ i= 3* W= E; z* <; >= :- h= V= *= G= _= V* E* Q* 9= 2= D* w* O4 Y; K$ V$ &] C3 9o 7; >= ;; e= Q* <> 8- D* q= *= z= f= V= r; }= D* I* C= 7= 5= e= 5= &= 0* D* N* q= l* _= 3* e= :- t) K* 3* j) 0* t) 3* <= j- +n E* 3= K* D* K* 8= b- 3* h%  ; v) A- Q* e= /& 1| Z9 K$ -& z*  = ]- O* C) =! (= #a B* /= &= u= F! ;) e= =; M* 0o -{ :; w= /= N* := /= I{ == ^= h% R* /; ,o v) G- O* {* b* F* ]* f= v* &= =! |= J* U* y= $- 6* ]/ O% /% 6% >$ !! ^- _= /; a* @[ #- h% 9= 3* i= v) K; B- 4= w* q= `= `* z* A= /* Y) 5= I- ]* ]* 0* r; k* d= (= C= m- (* }= R* n- D* '- 1> v* f= ]- ]* B* m- x* I- v) F= O= d* 5= m, `= ]* B* *= D* ]* 8{ m{ i$ y6 2o v^ (! I- D* x' P* C- f= J^ $- %; m- `* K* B- A- :* =- B{ J^ @/ $9 /% d! 7/ Q6 4% #& s{ g& 5& B} Z; ao Bg 51 R| &[ O* d* A- &= t, 5* m= G= O= [= G= bo co mc =} D7 N< J] m% ,[ T% b^ X6 3% *& v4 .5 S3 .| L5 @| O} !! ;] .| y} ]9 .^ c= D* <; Q* >= ;; f= P* ]- ;= C{ w, ,% /& k8 f= 1> 3{ ]- C= R- +% `[ 9* t^ j$ p9 ",
"2! s| ./ -* do I4 t= _* ~- D= P= w' S; v* Q- Ma x^ :* >; w= %! (* 9; ^= eo /] b1 0} sc 7$ 5! K< W} S} ]{ b4 fo L$ r6 Y6 p6 E% 6% ($ #/ H! ~^ o3 7/ go ho Q% 5] {* f= _* 9* a* H= P= B* f= z{ Z- s} =1 @| io F3 ;| O# R# J) w3 3% o3 ^) c% g/ {{ g] ~< F^ !% *3 Y& 6% %{ #$ [- b] t] 2} x^ x% ${ v% D^ x^ y] o* f= B{ E* |{ 1* S^ e2 u* q^ v* V* I- ]- {* w* |; /= 8> 9* w* &= K* x* _* u* v* D= &= 0* +[ (= ]* N* |* I- a- :; z* A- p) (* a; _= I* B* l* P* A- ]* N- v* j- <* M* j) [= ]- F* O' ]* .; e= }= r[ :^ ]% 2/ !6 h| 65 ,% l= ]* ^= jo H- I* C= :* &= H- j- D* N{ (* b= l) q= w= 4= *; 7= D= &= b- n* P= t) z= D* e= ^= ko }= 2= l= R* ;g 8> P* 2* t= q= H' b= P* P* j- P* 1* y% lo ll f% Z$ [| S' ]- p, H= G= l= R! :* @- q= =! S[ w= .- P* j) B* a- &= :; 3> b* ^= <; _= L= G* Q* P= v) c- ^= j) W= e= C= F) E= 9; k)  ; $- D* Q= 0* mo H= ]* ^= l= &= m- }; e= S* no !; H! w6 d% *> oo N- }= P= }= w* :* po 8= {* _- a; u* I- a- f= /= :; c= v* G= C= 3* #; F! i= %- A* S* 1* Z- v* :- %- v- f- p) 2* Q* ]* P* 9* 2* }= v* j) )! C= vn D* (* qo L2 $$ q% S}  ^ 9[ (! :* m^ <; (* D* D* Y* s* S^ >= (= v) _= ]- ]* q= E* [= 5= n- A- l* :* += 2* V* K* d* i= 0* 3* '- e= 8> H- -- F= w= u= P= S= 2* >= f= &= ]- '- S= P= w- e2 8> O* 7' S' 0* *; t; S; D' W$ r~ Q) q^ G* ]> |] m, B{ =- p) y] U] x^ 9* S^ V* i% L% y] w% 1/ =< .^ L% b^ $< %{ w3 8} ^^ E$ K$ c} Y$ S; ro L1 so X3 h' b* >; ]* 5* d= Q* ;; {* G= A= :* L^ to %1 p% uo /3 l] @% X6 K$ `$ /^ P# E$ Z# /& b{ /a .| b1 s} C2 E4 t} Z} ,1 Y0 [- )- ,; [- {- Q= ~> C= -% F* f* vo W$ q< a* 8= P= s- /= I- d% >^ {{  ! )> vi ",
"O7 t* L% T# M9 fl K= Y) M) C= z* 3~ S; =! d* d| D* ^= h* n= f= m^ ^= k= [$ ea ^| d> +7 `< C: b} V: q{ Q& -$ L4 d% '^ #* 9% $^ #< 2} G2 #* *^ <7 x, wo si i* _* &= $- .} C= N* $- ^= G- 3* xo tg j| W} {] C3 a} .5 /^ 7/ o3 r$ `$ 6/ *& S% H6 h] B] Fg X6 .3 o3 Q% %/  % =) L* q2 ,= N* i% /) 0* 5] (* P* 0* 8* n- n] =! (= *= Q* I* i% C= 5= 0* [* _= B* =! e= H= %= ]* (= <* 5= H= Q- :; q= g! k) A- P= =; ^= A- D* /; x* v) ^= ab ]= e= I* _= O* d= D* =! |* h% R5 m, v) =- 8- n- p> t= :* z* 3> P* w= D* '-  1 @& ^{ .5 yo q^ I- l* }= O= 8] Y^ b- }= 3* +[ S9 P- H' /; K* ^= e= 5* E* <> F= h, D= P- O' B* %[ k* G- C= x* }= )- O* ]- w* >- |9 R= F* :* }- P= p> 3* W) (= y] N* $- zg :; go d% X# j% H: 6) f= 8> O= t) ,! :; z* e= f= D* z* q, 8= C= <* ~> /; 4* ]= W= W' D* 8- q= ]= k* q= @- F! P= '- Q' V= b* A= t= G= 0! O* C= b* >- :* ^= f= :* ^= :; &= 0* d= c- ;) h, `< 1[ ;* K% ,~ l% W= d= /= C= 2* m- F= 2= *= 8= 3* t= q= d= >= @- n* a- 3; h% R* E= ;{ h% += }= %- t/ }= {> <; 3* <; F^ N* /= v* }= `= P* w* x^ k) v) A- &= v) m, w= $- ;9 xo '6 >^ M! S2 >= z- e= 8> d= a; q=  = ]* << K* F* m, += N* a; :* _* x[ /; ]- n- *= w- O* ~; O= P- e= K* _* /; D* N* M* v* :* j) `= B* x* k) v= O* 5= ~; V* A* l= ]* [= u* (* E* C= /* N- D* ]* a~ g{ zo )6 j~ >< l* =! P] :* q= J- q^ l* V* O* m- 9* v* V7 q] 3] B{ f/ @/ x% =< _/ H- m% d! F' <% J) (< :^ /^ V# V} q{ rc ij Ao Bo Co C= ;- n- A- I- 0* Do Jh I* A- ]= }= Eo (3 N) $* M: D- !< $^ E$ 0/ !% 3% !% 7$ +] S; [2 s4 44 c| B2 f5 %0 x7 16 /}  o Z= e= J; != D* 1= I* J* h% Gh r% Fo b* i* j- ]- (* O* #& vb C* I{ h] 9' ",
"~{ Q- g] >$ {6 Go [= 1* K* m- V= a~ S; A$ t* z: q= /- 5* 9* L* ^= i; &% || A} +| ~5 H2 %} W} M} @> 1[ {^ $$ s6 $& q% (< Q9 6% ,= @> n$ $^ t3 ,> Ho 4% d* w= '- += q) e= E* .= B* I* '- l' m}  2 ~| v} /3 h} 0$ Io $$ !% 0/ *% ${ E% #< E% g] F' %! )^ #{ %% A[ Z^ :$ 1) i% {! P; N- N- S^ q^ =- u* N* <* K* 5= (* R* L' ]* 0* ]* &= O* m, }= `= a- ^= O= w- 7= [= L* /= no m- K* =! n* v) C= 8- 3* /> 5= e= l= x* E* Q* K* c= v) P= /; <; <* (= i= D* (* J* (* m^ a* _= (= f- i* H- B* q= A- l* R* -{ A- B* x3 $$ $^ w3 c' <- t* 9[ O' e= 2= }= G= O= ^= ]* v- D* j- l= I- q= P= Q' :* g- -{ ~> P* B* m, z* f= ]* q= 2* ]* *= |* P* -{ l= b- t= g= $; k) 8> <* G= <* `= /= D* (* 9* h< z* S9 Jo <^ ,[ 0% Ko d! [> L* >- =! @; e= O' 5= G= &= t= G* P= j- A- V= b- ^= ]= :* 5= `= G* c= *= ^= ]- 3* w= z4 i= 3= F= %- i= W= f, A- <> b= 6[ :; :* q= e= F* e= P= F! t) _= 0; z4 {* || ^$ i$ :3 Lo t/ C= ]* |; O' ]- `* :* 2= 3; b; k* g- *= H' C= a- j= ^= 4= D* H= /; j) c= D* 9< {* D* I- N= A- {-  ; d= l* i= 2* i= :* h% q^ Q* F* ]* 8= }= H- w% =! m^ /; Mo ~[ $$ 3% 3| No _= _= a- z* R* `= m- j- [= 5* D* R* k) V= Q* <* m^ _* C* )= _= :* W= m^ S9 /; &= }= i= <* e= d= w* y] :* }= /= b- B* [; :* *; F* /= G= i* ]- F* F* D* i= Q' <* P= v* k= +- |* &4 .> n& !% Oo E* F= m^ x% >< Q' @/ t- `= 7* m^ q^ Q* N* {{ $- S^ i% ./ I{ 3! |* B{ @% ${ 8' ${ 0{ .% A[ Q% [$ ,6 F} r} f{ rk >2 91 jj Po w* Q* Q* P= @= ^- 5] A- O* ;- w) u* Qo b2 g/ ^^ _| C] E% K$ K[ w3 ^^ S# >$ y$ H& Z; sc v} B} 41 o} )] D} M} &1 a] B* 4; ^= m- x* c< C= u= a] '< P# Ro e= l* == == m- k* %% J) (! =< h] 70 ",
"A/ s- &/ b^ X6 Y! R- En u= M) $- K' S; 0* =- C3 I* H- v* A- e= =- _/ +4 f} y[ k& #1 ^| `4 a3 -| /& @] >$ ^^ ^^ B# (} ,/ (< S) `; &] 7/ ^)  > So b^ |9 q- G- L* -; D^ q= [; a* C=  ; 7> ;3 To t} k7 #3 d| B& :$ W$ p$ ,[ 7/ 2/ 0< -% Uo =< g/ += 06 E2 >^ @& (& b^ g, g= W^ v* x% l] *= w% 0* *! S^ P* m- A- f= h% F* g= *= I- E* +[ w- i= K; *; w* B; ~> ]* R* w* I* I* d= >- (= V= (* q= F! =! K* t2 `= (= 2= :; D* Z5 v* (= n] J* ]* 8= x* |; n- =- }= 3* f= d= N- 3= @- |* w= `= ^= J* &= m= O= g! g- (! L2 K$ .& 14 Vo J* i* w= f= w= F* k) k) L* f= 5* m^ _= [- D= (* B] e= 5= 3* B* /; z4 $; ^= <= ^= G= :; *= &= 7= a; F= Q' W= Wo (= A- 8- G* W= B9 }= k= u* 4= r= A* C= I- j) D= @- Xo }5 <a >^ X$ e{ Yo G* 0! v* 6- P* ]> 5= 8= 8= [; P= D= B* 3= 7; D* @- 3= N* N* /= ]- i= 4= 2= K* l= R* E= 8> V= b- d= [= ~- ]= #7 V= G= A* c= 4= =! ]> [- N* :- v* ]* *= O* 5- e{ ml 4% /} Zo 3! 9= 2= O= h= b= c= /; 8- ]* P= ]> ]* (= 8> -{  ; (= F= _k J[ D* <- z* f= w> A- 3= G* 2= ]= 2- H' <; &= h% C= :* g= }- 2* q= R* B* n- W) V* {* zn D* &= C= R- 3] `o .$ b% W$ D2 0) 2= V* R* x* (! 5= i= =! V= _= *= u> 8= }= +[ :* w= 3* F! &= v* :* g= +[ l) .- W= 0* ]- <* I- z* A- {* !; ]* *= B* h; }= m- a- d2 _* <; K* H= <= 1* V= j; h% ./ v* {* L* q= Z= +> v6 n$  p K* ,= .} $- /; h% A- _* d= w* 8] o= A^ Q' w- p) '= V] v> ]* 5] a] W^ 8] 8< y] {{ U^ `$ O% F' q% 0% i5 G& }| Z; .p N1 +p L| o~ z= P* Dl ~< f= .= m- K* C* q= m^ 5* nn #e E6 X< O} @p >/ g7 .& $^ K$ Q# A! )^ R$ V; B: t} N8 ]1 Y{ b| !] .| Z| D7 I- 0* k* f= P= K= F= N] I{ !& #p 0) == K* ^= C= 5* ^% $p w% d^ %p &p ",
"*p u= N- kl q5 Oo 0- y= B* P* b* h= S; z^ r* %1 k* j; }; U* 5* u' S< #] N& V& A} ]9 >| -3 23 g4 -$ {9 ^^ :$ f2 $* K$ $& T] +> .& )& (< '> 7( i7 f= (* d= u= '- -% 3= 5* r= `* w= (~ =p rh )a jb Y3 y2 B% G& .! Q% w3 U^ p2 c> E% J- -p 8/ @% ia j{ s{ r6 J) j& 1) 8' a] q^ <* a, v* B] %! 0* u= $- C= v) R* @; ^= h* }= ^= W= P* ;) ^= z* C= P- 3* S- )) i% <* }= 3= V* f= k) q= y= ]> A- p> D* f= l* W= T* u= h[ (= -{ #- -{ e= c= f= A- w| v* x* 3= Y* d= P* I{ #7 {* R* ]* =- W= 5= :- R* [; E= i= c= ;p P# {% K# h% C^ V* F* N' 3* q= i= N* <= H[ _= q= }= 3* P* q) 0= A- 7= [= >= b= t= V= ]- d= 8= B* +- -= }= f! z= I- A- O= m^ (= U= (* |; 9- *= R* d= B* e= f= ]* q= o* C= f= 3* t/ 3* >p 8^ X< ($ b4 e5 ,p Y) ^= <* %= l[ e= (= z' q- -- k= (= A- 5= 3* F* G= V= V* 3* }= 3* j- <; a- H= [= 5) l[ O' k= /= 8> <= 3* ]- <> :- i= G= t) U= t9 :; *= P* &= W= ]- *; 'n C} L$ $& `& 'p t) x* +[ (= g- d= G* 5= c= O' W= s/ D= F* w* =- y= 0* %[ W' l= F* O= d= F= W= C= x* Y) ]> _k [= x= i= ,! b= K* l= z* )p :- 1* d= e= q- :- [- <* p> E* <; O= h% <* v- D& B# K# !^ C: }= m- 3* H' *= /= ]* 4! v* H= v* k) -[ O[ G= /= f= H= v) `= S^ D* *= :* k) w= >< J* *= _* v* w% f= C* g! H= k= D* :; ^= d= v= z* (* &= ]* w= 8- B* {* m, !p B* {* h% e= m^ M' Z; X6 0% ~p v^ 9* S' C{ 1* B* -% g< s$ @= z^ d= i* C{ I^ p) x^ l* K* |] w- u* {{ u> y] %{ L% =< `% w3 `$ $* 2% A! /^ W% 5|  > {p r1 ]p ^p V! ~> t- C{ r; Q* I* `= u= b= 5* :- ^= /p d| <% -* k3 m% (< r$ r$ $& b% '6 Q# )% %5 b{ #5 L} A} (p L< ~$ v} .7 9} .= t, A* 8= 2*  ; C* S' {{ .* _p n* x* ^= 9- w= K* =< u6 M% D-  ! :p ",
"q3 h* t] ~^ Q% Y! t* [- Q* 0* a; ,4 `; m^ <* O2 h= K= == I* k* O~ ,2 :[ C} z} N| r} C2 %} V} X# a$ u5 S& .( Z$ U% h^ K^ p{ -$ </ T% H! yg A$ S] (= F* v- =- m= $- I* 1* 7' {- n= R3 rh Z} _5 %1 4^ T& i$ E$ K$ >$ ~% i$ H9 *^ B{ Q; C= w- 5% J3 Z$ 3% `$ $$ @; u= ./ P^ ;% {{ x^ w^ M* w* D* =! (* w* S- /; .= G- A- A- G- j- z= I* g- <= e= O= t= +[ >= Q* k[ |* J* 9[ L= =- i= *= }= }- .= D= W= C= W= G= P* :* N* N* r; f= O= t= 5= :; D= 3* j- d= P* 3* e2 ]- w* I- a- N* 2= d= x* _= l= G* 8>  o P; i| d& {% j{ <p m, U^ 3* h% {* F= F* b* W= 8= ^= 8> F* v) l= `* f= h; P= 3* (= `= q) 0* q) &= j- v* 5= v- ]* [- <= [p n' [- w= O= ]- 3; }= P- M* K= <* b* R* h% A- 3* C* f- }= m! n] ^; |] X! d% M$ Q# G2 l= [- }- t/ O= V= #- #= 1* d= B* P= &= 8= W= a[ <> <> D* :; #= V= G; i, w* }p ]- m- 7> P= t/ P- (= $; i= b[ 2= ]> `- <= F) q- Q* 8> t= -{ P= 8> L= Q= _- Y< K# J) ]5 |p  = u) U= J* G= D* '- l= E= F* %[ 5= P* O' f- O= W= e= k) ^= [- (* B- W= :; 5* ;; G= 2= :; 1* _k E= ]- 5* ]* ]- 2= *9 v- [= v* m- w* D* q= A- :- N* p> J[ I* <* N- O* #% 1p Z< E$ W$ 23 '= Q* l* z4 m- ]* _* D* &= V= v* P* d[ &= 0* K* >- z* A- 8> `* H= S^ j) ;) W= I* N* 3* m- z- D* v) x^ W= /; ^= z= }= == w* S- w% ]- C= G= 8- A- 6; P* x* _* E* t- P= o* A= $; b{ ^^ |% 2p {* (! f= 46 {* {{ A- u* q^ w) i% (* v^ 5* m/ {* -% O* q^ /) y] :% B] /* f] q] }/ :% g/ Z^ K{ S% $* <6 7$ }] $5 e4 U; 3p so ^l ^p 4p z= H= x* d* :* A- d= w^ -= 5* O= {! 5p 4^ J7 $^ 3^ 6' a9 *& /^ =} A! a$ ^$ -$ H} Y2 .| W} @| =* () C5 )| r} 4$ ;[ u* s- o= F* h% S] d9 X$ 6p P* u= R- #= F* C{ [/ 7p i% 5] L] 8p ",
"9p )-  < )% [$ Xk K* 2= 3= ~! l* .m L| =! R8 k3 <* @= ]- S= v! o] 77 W% j5 K# M: 0| y2 W% )] f$ f$ W$ i$ hl n& *& @= b{ A5 Y& (< T; @# E[ ~> I* B* 0* d= '- q= 8- v) j= $- !; S< 0p c} v4 ap v} V& p$ ^^ %l .^ <% r$ =% S% !<  ! S* w* ^^ bp !6 7$ '% >$ 0; @^ c] v) 8] H- -% a, 0* %! J* f= I- c< /= u* :* v) +[ zg ]- k) *= =! a- _k g- T* 6< R* ]- >= (* {{ }- I- 2* [= 8- [= |; H- P* 3* i= A* 3* A* }= P- f; s* -- }= S= (* -{ <; v* m- D* ]- m- &= *= :* D* f- :; D* R* G= a- $; >- $- V= '- I= O2 Q% Io L& z) C! &= t2 %= w= J* v) v* l* @= q) c= k) 0* R* J* Q* =; d= w* F= G* &= >= v* Q= I- /= ]- J* A- ~- B* /= t= A- k) #7 B* H- 2* m- }! m= x* 7= d= :- 5) e= i= (= f= b; a; (! r; cp dp /0 M$ >6 pc W: 6) <* t= 8= Q* `* `- -- P- [= '- O= :* -{ Z- F* :; D* 2= /= 3) #= F* 7; W= B* 3* 9! /; 1> &= v) ,; '- -{ f- f- d= i= =! ]* I- h=  = W= z* 0* &= Z= L# S& f$ A! E* ep B* G* k) )= '- e= P* <; i- '- F* 5; F* R* z* E= (= i= g! &= C= 4; <= G= f= =- n- n- 8> b* fp G* k) l= q= i= H= m^ G* D= P* #! n- K= s* K* &= j- h% h% C= i= y' v* j- m- ;< h' (} K% '[ g2 [= 5= %[ :* p] %[ w* /; C= 0* O= z* v* ]= (* d= v* F* w- :* w* 2* D* x^ d= w-  = l* :* S^ J^ _= Q* P- o* ~- f= N- n* C= (* A- W= P= I* C= P= V* gp ^= $- l* hp +[ }= 1; ^~ V; K9 :$ ip fk H- 3! {* n- |* J- 8* m= -% j= <* p) |* m- $- y] /* {* x^ 5] I- |<  ! |< B{ g7 ^) Q^ O% A9 n& b^ 0% b^ K$ $* X{ g} c{ jp kp N1 lp q~ 9; 4= -- O= .= M- i= x* h% )- Q* i* @. 8^ [5 $& L} (7 b^ <% @& B# $$ &* =^ @$ $4 O} X{ ^| -3 '^ y) b4 V} U; mp <* R= 5* d= ]= m^ >/ g& Zc K; 5; e= w= j* b= [] np $- @^ )> op ",
"pp r- z7 rb Z9 f6 A- d= N* (= Q= Y-  > m, 3* W3 1* x* B* :* &= 6/ v5 m5 G5 p6 {3 d} Q2 =^ >$ ;6 b^ T% b^ H$ q[ ~! Y< b> .! <6 qp S( 3% := a] 8= I* _* s*  ; x* <* F) q= rp G3 'l u} ec S3 S} #] W$ !6 .! b^ $^ ${ L% '% l% N^ g/ 5] K$ a3 i$ 7/ 6/ N4 s' z] y% m= {* n- o* (* m] q= p] &= @% O[ u* J^ `= =! (= }= E9 v* V= '- 7= v* ]- 8> 8> 3* n= >= 0* ]= t] 8- +[ 8> n- ]= q= n- 8> m, *- F* C= P* v* :;  = w= Ah <; ^= n- P= 9- `= *= L= O= P* L= [= A* L= E* S9 v* $- F= N= o- 1* R* D* 4= F= -$ .$ Q# !^ S; sp G* ]* i* =! 0* v* q= A= D* D* 3> f= 8= /; (* u* P- d= A= ~; P= /= d= P= e= (* 8> :* n- W= H= 2= :; f= ^= p) @- *= E* Q' z* <- Z- R* s* 3* @; |; H= l= ^= P= @- W' W= F= A- q= V7 ~n !6 J$ }] L2 '= [- P- 2= tp f= @; <- *= f- ~- P- I* j- up jn ;) T* q= 8- 4= A- b* t= V= _= F= F= >- =; G* D* }= t/ Y) V= 9[ q) A- U= h; b* s, ^= F= n/ D* &= N- i3 0% M! O< vp R* x* ]- I- }= +- C= C= 4; v= ab $; f= j- e= L' ]= B* l= C= 5) i= *= `= :* i= <- 5= f= *= L= ]- h; }- [- F! f= e= 4= ~> -{ &= 2= V= .- B* q- G* k) I- W= B* {* C= N= J^ g< v- wp '} J$ Q# Y4 :$ f- m^ &= `= S= 3* C{ -{ J* N- N- v* D* H- D* +[ y= O= A^ N* {; )- u* Q* m^ $- N* q- i* :* i% u= w= a; G; G= /; %= E' m= ^= 5] w* e= [= F= u= 5* v) t/ z= S' 9> P= 5] |) .> xp $$ yp 9* H- s- 3! R* =! .} U] K* 6* m^ (* <; l* 3! u* {{ |* u> y] += t] ){ v> c> @^ p] x% n% J- #& L% $< `$ d% P# S# `)  5 :4 V; zp 4n kp Ap t; 3* V* K* n= B* [= A* K= 4! G- I* y% J. k4 S% %^ k3 8] J7 6' +6 J) i$ [$ S& )5 c^ >5 )5 q4 b^ W< #] ec n{ Bp 9> L* o! I* 4= (! %! G& =8 E* #; :* Z- 7* m- C[ $p x^ 6! %< Cp ",
"Wd F; =! W$ ~] &4 t* $; C= N* K* k, S; i% v> 69 /; r; {- P= 8[ <{ J) }] L! =} W3 %5 B/ M! &6 A& W$ i$ $& S% T] :a )] d/ )> ]{ u7 0% Q' 3= x^ 7= m, Y) C{ v* B* o* e= P[  > /1 y} #5 h9 K< 7& 6% )% b^ 7/ 5$ O% <% ${ D% !< x% q^ D% x/ r6 a$  6 J# Dp 6! f/ /* g= V* U^ S^ += b; h* %! a- Q* u* u* :* ]= :- h% O= M* [; L' v- f= 3*  ; ]* K= 2* v* Ep ^= l* b; Fp h% 4; B* v* U^ R* 8> R* $; P- (= W= S= *= V= P* b- :* 1* f= b- I' M* 5=  = 2* Q* 4; [= c= ]* #- .- j- d= 3* K* I* R* Q* v* A- }; c^ q% /^ G& Gp >/ 0! e= l= A- =- k) :* %[ z* z* a; 2= i* P= R* h% l) m^ $- _= j- C= w= z4 C= {- z* 9; ]- 6- .} P* m- j- d= *= }= $- :* F* j- 5= 3* D= 9* &- G= #- }= 8> G= 0* t) N* A- (* C= 3* [* k) Zd j% V$ ^6  1 %g :- :; D= a; e= A* w= ]> &= {* t= <* -{ b! *= @- C= u= G* 8> %- ]- '- @- L* 3= &= d= 8- /= E= N* (* W= D* F= >- F= m- _- ]- 8= 5= i, &= 6> g> q5 Q% $$ Hp n] A- ]* b0 G= G* :- C= f= 8> b* 1* e= H' O' H= /; b= _= i= 4) d= >= (= 3) O' f= r; 3* 2= ]- ^= $= N* j! q= l= ]> 3* 8> O= e= ]-  ; V= ]- 0* 1* <= I* ={ _* D* G- <* D= A- J* p] O% Ip =^ j% (} W3 8= '/ 8- K* q= P= w! Y) [* m- e= P* (* I* 0) <* T* 2= A- _* Q' V= K* k) [- q/ Q' C= L= /; e= y% y= F= d= ]> b- H= A- ]- *= n- e= /= }= z* 2* <* b] ^= 8- O= #- v* -{ &[ Z; [^ S& Jp w- O* ~! :% o- k* *= A- m/ 5] += <; ]* @= o- p) w% S9 B{ I* 6*  < u* ^< 5] o- P^ C{ Gh g/ _/ O% O% @/ (& 3% d% @& f$ k& w& V; Kp Lp Lp Mp k< w* R* w= 1- '- /= 9* 8] K* O* 1* V* Np H: |] D% V} w% 2} *^ Q% w3 $& ;] @] H! v& )5 L2 4/ 57 #] s5 c{ [~ Y) b* ;{ N* o- k* =& '& Op /= z* @; /= (= 2* r$ .^ @= |* %/ 35 ",
"Ud Pp w^ b^ *] Qp /- f= C= Q= P* n= S; p) -% '4 k) *; j6 w- }= G] 'n ~^ $^ f& O2 47 ,l ^^ {% '6 g7 K$ d% j] S; !6 </ j$ Rp Sp 3% %= M* 2* k* S] D^ :* [= t= :* Tp Q= d{ q1 D} N# 43 y2 N& L& d% g7 7/ r$ %/ C[ f/ P; 6/ 1/ b] 6% N< W$ @& !< [% Up S^ Vp K) j* E* Y^ v% Wp q^ @% u* 46 i% E9 @= i% <= (* +[ Xp O= m= S' R= C= m^ $- O* (* (! c= m^ -% v) ]=  o )= G* #! ]- P* 2* a; 0* ]* (* :; j; :* [= &= /= ]* q) *= A* u* z* &= Q* == ,; q= f= -- V= 5= D* .; O* 4= p= b- I- P* e= == 8= $} M& L< Yp @& {$ Ah {* <; L* I* -{ S9 3* W) #7 w- B* ^= &- D= D* m- {* v) ]- b= P= C= Q* n- 7; j; }- j- @; q= K; K* f= (* [= f= 8> &= G= d= .- b- 1> :; 0; ^= 0* F= f- H= m- S[ {* ]- 2= :; K; d= %; C{ Q' Zp (4 d% ;6 ;& m% 2= x* [; K; f= K* &= G= f= (= N* 3* 8= S* V= b; C= T* ]- -- K* j- {* f- >- ]> ~- b; f, I* A- K* 3= t] S= V= G* }- 5= ]- j) K* 5= mo _k )& x} >$ X6 ;| o' W= (* P* #! Q* [= 8= >- `- ^= f= a- D* O* :* P* E= 8= G= v* O' r; H= F! [= -{ 3* F) &= :* K= G* 5= :- K* e= I* d= P* b= (= O= :- j- @- S' _- 3* 0* i= j) A- m- ]- i= 8= q= C9 H- (* #- {^ Z$ {% _^ 5^ W~ Jh D* v- 0*  = J* P= *= G- O* 8] V* q= 0* z* v* m- v) R* d= {* (* d= {* <; e= :* ]* J^ J[ ]= t;  ; 8- A- P= I- g] v* :* P* w- ]* H- S' m= `= <= v) [= b; g= D* j6 b{ qc $$ x< q2 i* z* (! S* (* c< H- y% ,= C{ 7* %; y% g= (* 8< $- {{ @% l] {* S^ w^ #/ w* ]/ N^ _% ~< j$ U^ ${ <% 6% ^^ /% A[ `n :^ t{ w& l{ `p  q .q +q _> G= {* {; /= += u* #; A- G; N9 P* x^ @q ;| Dg p$ h| r* t! f2 *& K[ {9 B# e{ _5 )^ 23  ! `[ #q /^ c^ G~ V= ); s- M* i* Z] s$  5 yp 9* 8= K* Q= M* `* )/ ,6 N- 7* x% vi ",
"$q q* L^ Z{ K# e! 3* == V= [= _- V' `; W- t* (] l* G= 5] C= b; -% 80 L$ J) E6 T2 _5 :4 {9 <a b$ i$ 5$ j] S; v6 7/ /% B3  # V% K* Y) B* h% 8- X^ /= j] t] t- B- U~ D3 p1 ,| Cg |6 N/ R: 3% q% n& A[ g7 ${ =} u% U^ |] 4/ p] ~^ 43 P# L& $^ '5 5~ Q* ;% 7* ;% a, F! B- `* I* 9* K; (* z* m- m- K* w* k= *= (* X* C{ y] <* e= t= 0* R- 3* P* D* 4= i= P= q= <; z* 3* $- v* D* w= G- (* 4= j) 5= S^ R* D= W= :; J! e= m= 2* (* _= V= [- ]* ^= W= P= v* 8> }= z* d= q^ (* 7= d= S9 3= D* /; R* ^= h% R} D' X< d| %q &q D= jo $- F= .- A* z=  ; f! ]- (* *= =; C) F* 3* z* V= k* 8> R* I* z4 K; J* ]- &= j- 8= ]* 9* h[ q) b; V= ^= C= 2* G= D* 5= &= i, -- H= q) D* ]- F* [= D^ f= L= i= G= j- .} *q &= V= W= R* {* `$ .& '^ 43 <> 3* L' K* H' }= P4 N= H= 3* :; *; B] 5) S- W= i= r= z* (= L= N= S= B* b- f-  ; V= P- 0* c= $; G= }= F= V= G= }- C= f= P* z= 8= x! P= c{ ,[ W$ 0$ s8 3] S^ %[ m- v^ f- G= I* d= p= 8> E* M* ]- f= C= {= N= t/ =f [= q) 5= w= F= l= L' F= F= Q' *= I- F= G* z* P- t= P- v* j- :* b; #= t= m! k) D* R* 8- &= [= z* k) u* `= v) C= =- n- D^ U* N- B0 $4 /^ E$ i3 K) =q ^= s- 2= (* ^= P= w= @; m/ V* `= 2* h; I- d= N* |*  = v* O* z* h; P* Q* f= ]* m- (* V* P* R* F= ^= D* :* _* <* $- v) 9* D* S- L= *= u= i= b- A- :* l* ]* z* -q V; E$ 0% gj f= t- p) m^ w* x^ i* A- v) (! =9 i% 3] |{ a] +9 y% d* w- D^ V* }/ r! m^ z7 `^ x^ 1< :% N9 <% L^ P^ r$ B[ J6 K{ @& 4% 5$ E$ L! l| Z; ;q so so Bo >q 8= p) W= h* z= =- (= -% P= '/ `= %! ,q N/ _/ *^ b2 z= e& '[ P# E$ M9 X2 %] z} M: t] @& 4% W$ x/ K! A* 2= D* c* D* m- w^ Y{ 'q _* )q C= 5; @= 3* p$ r9 C* ,= r2 !q ",
"~q A= |{ L& {q ]q f= n- G* f= d, 1) S; {{ m= y2 N* w> @; 8- ^= /) ]o t% `$ ,= Q3 >$ @$ D7 X< $^ i$ |< `; ^% +% B{ U2 ,+ 7/ s$ d= S* ]* P* H- 2* e* |* z= c< d, S| ~2 ,| ^q ,> :| $5 :5 q% $$ ($ w3 =& Z^ F' :% f/ ;/ =9 $^ &3 /^ $^ H$ C& /q _* 8' @% C{ c< %! q^ O= ]* K; I- _= N* H- %= e2 g< 0= D* /= <* += m^ 7' #- C* H' @[ $- Q* ^= S- 2- P= =; =! a- R* 9- O= 3* ;) A- c< v* I- z* /= :* K* V= }= n- P* C= P* N* n- =! %= 5= m= q= ]= c= Q= k= /= m- $- <; |* P* D* [{ w= :- d2 A- V' N< ~^ w6 b$ q~ k^ j= b* *! A- [=  = <; H= 0* (* 3= :* w- 0= `* t] w= Y) S= v* z* A- '- u= &= =- A^ <- $; k) c= /- D* H- j) L' P= &= H= 8= >- F* f= e= <> $; q) W= }= 3* c= I= _* (* ]- 1* C= ;; ;) ^= {* 1* v* Ln T2 {} $$ @5 g& q! =q k) w= m- 3; k= w= D* '- K= A- A- ;{ O= t= F* B* q- :* V= P= b* (q s, i= 8= j= D* 3= i= h[ =- d= ]- I= v) }= l= /; b= 3* P< ;| Q# y6 @& Z^ v) b- 5= D= vn B9 }= F= `* P- 0* q= 9[ W= '- G* :* k) P= }= i= b= q= _= Q* >- `= 1* :; :* [; 6; z= Q* 3* c= 3* B* }= 8> [= d= K* :- e= %; v* C= F= H= }= )) H- }= f= <; Q' ]* k9 G= 7= r/ :% _q 7* :q Z$ ~^ S< 5~ *= f= R* -{ K= }= V= |; }= [- $- F! /; 2* $- s- A- I* /= A- f= `= 5= 9* F! 5* ^= j) =! s- B* ^= H= f; ]= v) C{ 8] b* c= :* K* w* C= 0* 3= D* u* |* d= ;g ]* <q `; (5 No [q b] 6* t* 2} =- y% 5] 9* S9 d* m- K* O= u* 9> q- 5] h* <* h% E' 7] q^ w^ 5] u* << &/ a, Z^ 6* >% m% F' L^ `% 1/ 0{ `$ L$ %l @& Z{ :[ Z; }q |q 1q 2q }! |; E* o- p= w- *; (* Q* 3* v) B* a] 3q C4 6' 0/ @1 ~! !< S% F' p% o5 H: s{ -1 @= 6% e$ !^ j> on i= o* Z- _= v* Z] d! -$ 4q >= l* U= r; G= 5] (% !6 C{ =< 89 0n ",
"kc q- %9 ($ ~^ 5q <* y= E* _{ 8= 6q S; {* P* Q: ~* << ]; z= Z* r2 7q p2 F' C! H: !6 G6 Ol l/ {{  6 `; C[ _% Z^ U2 H@ ^$ p) V* k* Y) V* z* D* n- 8> b* V7 ;~ 8q %| s4 2| Rp U{ () f$ %] Q% 6% _/ (< c% %! |] f/ {{ s$ 5$ x/ 0% _[ `% S8 Y! a[ 9q y% B{ |* P^ -% g= Y^ O* I' C= i% {* 3* v* v^ ,o %= P* I* q^ [= ^= 5= %- I* m= P* += B* 3= N* h; K* d= m^ I- z* H- /; z= ;) k= J[ J[ i= :* u* <; &= A- A- [- e= k) 5= e= O= 2= 6- C= ;; @= =- =- c= k= b* C= A= A- O* A- /; r* ;; D* 5* f- S% i3 M$ M! 0q aq f= c= D* _= d2 5= *= P* O* O* /= k! a- '- @[ P- (= -= h% )q E* A* 5= .} B* 1* w* :; G* w= 8= |; *= A^ bq +[ ]* 0* $; 4= C= d= R* D* $; <- f- d= w* v) a- :; %[ R* =! f= K* %; k) d= o* /; t= >- C* cq a$ S# !6 %1 l= h[ :; I* R* ^=  ; m- z4 #- :* 9* P- l) g- 8> %- 7= $; V= T[ =! +[ ]> .- b= {> C= 5] H= d, F= ]- ]* P* 3= >= $; H= %[ h% =; K= C2 q% T% k> dq }= g- #%  o p> >- ]> G= i= m^ P- L= D= `= 8- _= w- D= 8= *; D* }= i= P* ]- d= J; 7> /; K* B- _= p> ]- o* I* G* G9 ]* A- >- Q= [= 3* f- |; P- f= v) S* l[ `* m! K* K* 1* w* Q* A- d= (* k) N* m^ eq Zn q% 7$ @] k5 R* F! 1* A- R* 7[ q^ [- 8- P= f= P* {* ;; k) :* A- O* ]* w= s, ]* z* P* <* K* B- +[ G= *= o= O= (= P* K* u= e= w= H- V* /= &= +- g= V= k) K* t] K* f= O= -{ 6> L| `[ $$ d7 o- S* K= =9 A- P^ d= 2* 5] %! 9* u% := B{ K^ ,* << f] _= g] S' e2 w^ @^ B{ @% d= E' x% {{ =l {{ [] 0< t! L% n% B6 0% Q% )/ 7% 4% z} w& S; ;q |q fq (n 0[ ,o >- E* <; b- *; /; `= <; _* P* 2* gq e} ;4 0{ +3 *% H- /} Q# p6 X# '^ L3 w% q[ Wf .^ i{ S! q- q- i; 5] j= o* $9 7$ `7 $- 6b -= w= e= 1/ `% hq j] b/ _/ iq ",
"jq 4a }/ J# q5 yp b* (* $n ]- 5= Y- S; N* h% (3 v) C= Q= 8= (* 7' kq c$ >[ L7 ]3 +% #& !/ F2 a{ B3 ^) Z^ ~! lq !7 K[ _* ~; B- 5* W) u- {{ a* z= d= a- M' S< )a x7 mq S< #2 ]$ >$ A! !6 $& o3 `% l] :% =< @/ K) S^ K$ A2 s{ -& H$ i4 K~ G4 @^ 7k {* w- {! 7* (! h* |* &/ d< K* w* i% h% U] :* J- K* m- :; c< `^ _= C= `= i= ^= +[ B* &= (* i= ]= =; H- $- :*  ; h% 0* C= I= _= R* S' D^ 9* %! x* ]- p> K* S' &= B* d= _* u= v* :* q- m- H= 0* 3* e= P* &= >= x; e= d= )= B* z* /= ]* L* }; O2 '^ L& /] nq C9 n] ]* `* w- F* =! [= w* =! _* 8> v* m= D* v) f= b* J^ (* P= <* :- C= D= vn G* A- .; '- }= f= 3= n- v- `= 3* 8> f= g; g- (* p> i= d= 0! S- >= :; i, e= [* f= ^= *= 7; 2* &= i= z* K* L= R* l= e= 3* oq s: #$ f$ 1[ S4 pq e= }= 7) ]= %- Q* (= qq 5* _= ]= j- j- B* f= P= G= :- A- b= G= G=  ;  ; F* H= c= P= >- P* ]- 2= I- .; s* @- A- W= F= ]> H: K$ i$ |[ rq -< Q' z* J[ C= y% f= w= B- l= U' {* ]= G= &= k) n- P- _= G= f- e= z= i^ :- 3> J* %= D* e= F! P* $; E=  ; ]* 3= e= ]- :; t= [* r= e= f= H= g= D* ]- 7; v* W) `= P- :* i= C- S^ v* _= %= S^ A* i% b= ,< sq G5 >^ $$ `<  - z* a* )= n- A* =- j; 4- Q' ^= x* Q) 1* z* 9* ~> [- {* (* v) O= l* A- d= N* O= c< E* ]* K; A* s- %- _= A- B* u= -% w= <* v* F! 8= }= U* m^ r; x^ q= V* V* i! Y; i$ v5 s< w* =- V* a, w% w* C= m, O[ i* {* w% i* m^ V* I{ '= h] w- %- q^ m^ K* {! 3] g] x% L* tq a, ^) a, p) J- '% %/ <% ~< 0< #< O% W$ @& '^ k& 34 S; uq vq wq xq Z: P* t- [- D* ]* 8* l* K* |* ]* _= U* yq N/ d^ B] F' c{ l{ t: *^ _% #& c{ >= 1/ w3 o$ c^ zq a* l= )! Q* 1* |= >9 n2 `c P= [; $- z= a* ]* (< v6 w* $9 1] vi ",
"N; M* a, |% ^^ .[ x- F= j- ^= e= h' .> x% k* G/ m= l* /= o= n= 6* 8} Y& ^^ d% r$ d! K$ /% ;9 -/ '%  ! $< E2 Aq +( r* r* w* -{ %= m, {* ]= m- S) 2* I: m| 81 A} U:  3 >] @5 Q9 a$ l& 5% t6 ^) ^/ L% 3! a, N- 5] Z^ a{ ~^ 3% p7 c' W! _< ./ 2< 8] 3! C= 5] S^ :* [* V7 {* y] S^ K* v) Y^ N* e2 5] :* :* d< N* `* Bq P= #= N* G= 0* ]- }- 9= R* Z= =; 3= /; k) j- 5= h% l= w! p) P* h; ]* f= (* N* i= q= '- H' D= f- <= h; &= 7* [= z= j- P* K= A- -- Q' `= P- }= D= I- I- {; u* ^= n- 1> h& j5 $$ Q% Cq f- x* 0) K* z4 4= J* v) R* a] h; C{ S^ :* w% b- /= %= (= &= L= i= [= D* (= <; d= jo S- 1> B* W= 9* P- W= d= =; =! e= 4= W= _= :- D* :- P= I-  ; ]= H= W= }= ]- O=  ; (* 5= _= v- 3* 5* >- N* (= M* P= S- Xf Dq r5 >^ W$ L) x* #7 [= #= #- z= d= *= H= V= Eq %[ e= 3* I* P* '- :* =! V= (* }= f- *= '- (= ^= <> i= U= W= 2= :- i= t, q, :- #; >= j- |/ x4 B# A[ 6^ X: H- H' 4= W= P* C= a] t9 H= K* t] P*  ; W= q= &= V= b* w= ;; k) b; m, 5= 0* a* ]- N* G= D* H= D= P- f= 5; /; ^; H- R- v* A- q, &= 5= W= A- #- 7* C= (= 5= ;; %- H= x* I* }= {; ;; $- +[ 8> E* C* I* /= eo i4 n% Fl :5 m} f- f= A- Q' (* m- [- v) A- w- D^ s- 2* t= {* C= .- a- D^ Q* q^ 1* {* d= j- =- D* Q* *= D* 3* 3* H= :- [; (* Q* *9 K= m^ a; K* :* v) w* K* g< d= _= /= (* 2) g{ K[ ~^ d6 p> K* m= t] 1* B* 2* $- g= ~; w) 7' 6* $9 %- {{ i* w- w- h% _= 5] [{ 8] p) _< 5] L% x* @% w- @% y] Z^ t! ;/ ^/ k/ Fq A6 N^ @& y6 >[ K9 Q& &| .> #l Gq Hq 30 1> 2= A* (* @% d= _= z{ m^ M- ]* k* *! Iq I/ m] .( Jq J; U* /) ^) r3 B% p) y] t% .  mc Kq s- _= }= i= /; {{ }/ l} Lq F* j= M- e* C] Q* B# Mq {{ M% H6 u5 ",
"A/ E* l% ~] /^ Bi Q* x* ^= }= n* o' S; S' 6* #{ (= ^= t= F* l) w% P: #& e/ Z^ Nq c^ B[ i] += g< t* L& U# G> &$ 1* a* 4! {* :* F= V* E* %- ]* 8= i; C3 81 #| j} P{ 4| :[ )% 0% K$ $* o3 3% i$ a9 A6 `% I{ @% r$ e{ 3% d% .^ lq t7 j] w^ x^ @% d9 %! m] w* C9 ]* 2] H- w- C{ U] 0* )- ^= y] :* g= w* `*  = Q' N- ;) }= d= I* v- v) _= a, F= W) ,= ]= }= x^ C= i= _= %= i^ O= -{ P= 3* b; I' 0* *= G- =; _= 5= V= _= C= q= :- K* f= 2= P* Q' :- <; V= }= ]- i* G* 4; s* B* ]* #- w* 2* !p !! |% $$ Oq c0 w* _= {* R* )= *= N* }= @- ;) d= z* A* w* <; r= i% #- i= z* K; B* I- R* q= w% [= 8> C= m- 2= 2* P* P= m- a; {* S= B* f= Q= k) q= O* `= f= ~- D* #- ^= Pq G* (* q= <* x* D* F* C= D= i= f= ^= D* =! G* /; K* ~> Qq @& q% () V} e= ^= &= 6[ b[ V= P* i= F= =; 5= h% O' W= P* :- =- |; s- |; &= :- #- O* H= E* V=  ; H= ^; }= b; W= 3= Z- 2* Q= S= !; V; P# P% s4 Rq z7 G* q) 0) V= N- D* ]- +- L= c= 0* e= ]- ;; j) Q' P= ^= }= f= #= =- P- )- e= ]* p) W= :* {- @= P- H' Q- 9- q= Z- h% #= 5= f! J; }= q^ f= K* [= 3* ]* <* P= I* A- 3- *= *= h% H- P* i% 3* w% 3* `^ K* 5= f- Sq i4 Z$ ;* u} >% W) 2= `* ]> -{ :* C* d= C* f= w* :- v* d= K* *= /; d= D* *= O= S9 3* p) K* D* A- }= &= :- 7; &= Q= m^ (* O= $- m2 J; :; ,0 N* w= u= A* S= C= (* I* C= g, Z; 5% M! Tq w- b; 0* :* P* A^ *= 9* {* S* N* x% C{ i% 5] 9* f/ g= Uq n* ./ Y* 6! 5] {* |* S* ;g o- += i% {{ w^ D^ &/ 1/ j$ `$ )>  ! ~! <] r$ $^ W$ =^ ,^ >] q{ .p Gq Vq Wq X' Xq /; *= d= w% %; w% [= J* o- d* @% Yq P& D% 6* y] :% w{ G4 /] Qc T% %^ t% g7 mc A< B* 2= |; (* g! h* w^ U# Bp 5* j= [= {* t= B9 8} M! {* l] E6 Zq ",
"`q Q- O% I$ /^ j~ %! [; z9 *= k* =) S; N- d] F2 I* r= f= :* U^ o>  r '6 0{ Z^ 8< w> .r La +r @r #r $r 6> y] 9! 0* /= l* i% q= V* u= C= v* E* )) a{ >2 $1 u^ ~[ s} $1 0% ~] '^ ^^ 5$ i$ t! $^ z7 C{ /) h< B[ G2 ca )/ %r &r Y5 i% p) t* o- V* A^ H- D^ <* d= u* S^ w- 9* V7 p) ]- B* w% O* }= 46 E* o- H= 2= /; J^ C= j, A- 3* :* k) P- p) b= *r I* m, =r J! _> j) t] h[ j- G[ `= 0* 8> ^= W) <; v) `= 5= F= c< P= /; :; P= m, b- R* P= f= S= S' 1> _= l* Y) @; -{ c= s, ^= ]* ={ -= 9} z% s{ @& E* q^ h% w= 8> L= P* C= `* w= i= G* k* 5= <* 2* D* *= 5= [; h% H' F* h; d= d= /= ^= }= ^= &= ]- `= H= H= j= F^ h; e= k= G= O= %g K* }o ^= C= P* H= W= 3= ]- b; V= 8> X= F* R* {* w=  ; '- a* {* =; J* &= w= 0* Q' 8> -r o: L$ E$ s4 @$ '; #- t) S[ e= P- S= A- eo )) ]> c= 8- :; c= l= po #7 ;r j) +- l= ,! P4 #; 2* :; .- >r ]> ;! g; -{ J^ B* >! ,r &$ 'r 2% (} )r q= /; i= $- i= O' H' *; [; z* G* F*  ; &- V= P* ]> _= ]= J* *= 5[ c= D^ &= 3* 5= R* `= <* #= >= _= P* R* G= b; d= |; R* [= D* d= u= *= 8> ^= zn l) Q* J[ D= D* h% G* &= A- i- }= v) a- v* a; |; O* I* C= s, $- !r ~r Ea b% W{ n{ 3; `= S- A- ]* u= {= e= g! `* v* q= s, <* C* K* c= z^ b* x* _* v) +[ v* N* _= M) D* 5= -{ f= Q* [= D* (* *= 5= A= 3* M* v* u* %= v* f= I- =- C= N* 7= i; c^ /^ W$ xg v> 2< 9= -% %; N- [{ ){ 1* v* x* <* -% a] i* m= v^ h% 6* p] p/ w% D^ B{ w- :* x^ y% t* %! J- N- #/ _/ J- y] U^ Q; S6 <% <% `% E% o[ -* 3% A& 1| E} L| ;q {r ]r Bo ^r B{ V* F* O= <* V* C= <= Q) f= b] ^* G' /r ]/ ,$ (r x& #; _r :r $-  ! 6/ g7 #6 Y5 R- z= x* 8= =q k* B] Y{ <r M* != b* )- V* d9 +6 (} Fa [r ^% ob ",
"6k )= g] rb }] Tq (= n- u* Q* (= R= S; C{ m- M: [= W= v* x* &= i% 25 $* +% +% t- @% .& v: v, }r .] L% 9* O= /* x* y] C{ }= <* v* D^ ]* =- P! 92 X} 1a L5 O2 M} >5 J# W$ w3 -* w3 r$ *^ S% K$ f/ 7] g] ^% n{ i$ |7 *^ 9} Y7 _% @% 3] {* h% E* 5]  < *; i% 3] V* {* m- :* |* (! N- D* @= *= V7 D^ a- /= S9 O= 0)  ; %= &= K* /= D^ }= `= R* N* i% ]* *= D* Q' (= l* ]/ %l K$ 7/ (& r$ $^ |r #& <% o3 /% _/ *^ /% $* H$ !< _7 )> F' K9 O% F'  ! B{ }/ j$ @% o% ^) /% *^ $& !% E% '% Y# x2 )% >$ n{ b8 S^ <; #- R* Q' n- c= P= z* j) (* (= <; 8> :; N' R* <* *= *= v) I- j) x* 0* =; H= S- C{ A- t= W= y' H= :; 8> I* D* D* 5= (* 2= H= '- I* v* :; z' i= H= N= #- H= ]- =q s, u= $- #; ,; z* K; 5* 5* i= 3* 3* z^ O[ 1= 1r 2r u5 *6 0% {[ j% >^ Q% {} k&  % Y# &$ [% 0$ }$ g& 5& =5 .5 g5 a% z} X# V4 Y{ 7& 1[ 1| M# }$ X# ]%  5 _4 v& c} &$ .* #q D$ (5 W3 W$ 7% *> 3r U* 4r H= B* <- h% B* +[ B* 46 |; a- G* P= <; ~> )} e= w* <* /; u= -{ 3= ^= @- J! P= D^ <= f= <* P- E= *= @; &= :; W= t= ^= I* 3* /; 4; }= ]= _* ]* b; w% j- y= i= z* I* O[ j- :* b; c= O' -{ }= 3= -{ ^= m- N* %! #8 :3 H$ b% N# >[ H= d= F; (* A- <* v* c= q- (* C{ 8= *= J* :* _= e2 ]= A- R* +[ *= B* _= A* L* D* t= A* /; :- q= h% ]* e= a; M= =; v* |; e= |{ O= (* `= L* 4= <; x* E) Z; y6 L< Xk 5] q- C{ }= S' 0* S' h% q- S* 1* ,= 5] b] 6! 1/ _* t* w- += p) )! J- a] P^ B{ U* i% H- U^ {{ K^ K^ S' 2] -% @% q^ t! >/ D' g7 /% 7/ $* X6 d% L$ =] J/ /3 5r Ye |q (n k' w* I* K* o= Y) (! h% q= H- M) 5* G- P# 6r ./ v$ G# %$ _% n* 3! |< r$ 7r V; :~ ]= e= 8> m^ O[ #0 |{ Y{ Zc H= P* K* 9* M) }= d% 8r >% S^ `^ Vd ",
"Ud r* U^ >$ I$ d7 g, O= q= l* :; 2) `; -% v* ]{ <= P= 1> [= C^ i% X6 c% (< 1/ x{ i%  = 1* [= W= l* u$ (* n= k* w- 0- 0* a* b* O* 5] V* n' b{ 31 ~| +| 73 C: H& '[ {6 [/ A[ B# [] @& r$ Q^ )> !/ 5] K$ 43 B# :$ t% `2 >p 6/ t* l] N- <; << p) w- E9 /* i* N- C* s^ Q' z7 w- n] _* H- x^ c< _* )- k) C{ 2< D= d< [= J! j) O= x* K* }= (* $- /= 8- .- S9 t] @= ^3 h9 7^ L) 7^ g2 +3 !! <| a} Q2 J2 L3 L) M: m} F3 a} W2 b2 Q2 L2 s! %1 a3 %1 S2 a} {3 Q2 *3 A2 W2 *o !4 =* N} W: ;p (p :5 5% q% i' m/ `= %[ 5= w= z* 3* }= -{ *= Q* P= <* _* a- ^- I* z* K* :; H' _= O' `* v* i= h% }= :* 0* _* b* _= &= D* :; W' c= e= f= N= P= 8- D* 3* 5= G= B* a- P- t= a* i= %g #=  ; e= :* D* i= G= f= &= :- P= 5= 6= {! D= D= 1* u* l< T3 >^  7 .5 {[ J5 '3 c| C: !4 }| || Z' <4 `} V} 04 {& ^3 J5 $4 m} v} {& x3 t4 S} >] V} g} 3| N} 4^ 4^ 84 x3 y2 84 k3 5| E} :$ uh 9r &4  / G* 3* D= 8- L' i= :; O' i= H= f= h% D= /= <- 0= /- 8- 5= H= i= G= }= }= ]- v= q= :- n- I* w! T* p> 5= l; 3* f= *= 3= ]* c= R* g! a* 3* C= A- I* *= V= P* C= (* b* /= P* v* a- d= B; i= ]- 2* ~- P- 8> D* }= h% '= U] @~ !^ hl i5 5! 8> i= P* S9 0r &= D* Q' :* 8- 46 f= N* f= 2* j= x* 5= i= &= d= A* P* 5= $- t- 8= :; ]- G; 1> ar z* O* ^= J* t* K* &= Q* 8- m- b] O- N* H* I- [= (* ~~ V; 57 v6 %~ B] x- X] w^ `* 3* /; D* {{ j= w% l* n- br w- u* f] O- -% {! 8] |< 2] ./ c< w^ @% S* u* 5] C{ V] u* k^ L% x> /) I{  ! d^ (& =< W^ $^ E$ #& ^^ W$ y6 =] 3^ c{ cr Bg m1 lp T! l= 7= j] K* $- `= t] .= _* C* z* S^ Y= s* l* ,= Kn a] 5] k^ L% Z^ ${ B3 Zc 0= _* :* {* <; N] +9 .$ t< q) (= L= l* 8= w% {6 b> 1* m/ A6 Tn ",
"dr Q* O% .& (} er q/ :; 1- >= k* p! S; U* z{ L2 B* A* Q= &= O* `' `[ $& S% w% ^* C{ d^ B* H- 5a t- _= z* A$ B* 0* .- :* O= h% C* v* 4> W0 ~1 c} L5 -| y: n5 '[ .& 7/ i$ @/ 7/ w^ )< y] W^ ${ fr :% a{ E$ d% B6 83 gr w- B] :< E* w* 6l g<  = `* m^ N- J[ H* I{ v) p) M% H- |* {* 0* w% f= :- V7 ]* C= m, d= 2] 0* ]> << v) (* L= 8= C= f= ~> )- R* F! :* u} V} t6 >^ !% i5 !6 (} d% L& Q# V$ !% [$ 3% ,6 J) '^ b% b> b$ V% $$ s{ n[ J) 7& '[ M! 3% 0% j% S& s{ d% b> a$ '^ s{ )^ =^ P# I$ |4 j, R* s^ u> q) j- B* R* R= B* v* <; =; ,; d= +[ R* d= w= A- v* f= J* w* v- @= j) I* D* f- P= v* T* f= [* (* #; 5= -{ W= 4= &= V= ~- a; J' A- k) m^ a* f= '- 9- j; ]- l= f! H= #- E= C= m^ b- m- P* G* i= /= {* N* }= d= z* w- &8 (] >$ {^ L! -$ v4 o6 h$ )% W$ 7% M! K$ b% K[ l& P% {% t% c& :7 Q# E$ ^^ )% V$ |% :$ ($ $$ !6 {6 ^$ '[ v5 A5 j% ca E$ $$ X6 =^ |$ +r d* 2= Z- Q* R* *= L= 3] f= N* w- E' &= ]> P* s) '- 8- m/ P= 9[ =; U= J* ^= (* (* j- P- f- v* Q' d= << &= ^= I- >= j- ~- h% .} z* :* V= Q* m^ 7) g- :- A* v* ,= v* `- :; ]> e= 0* ^= #7 2* w= (* 3* _= E* t* u* H= ,! &! C3 hr v$ S& ir %9 (= ~- :; jr l* v- (= d= 9* d= (* *= {{ <; K* *; t* B* }= I* t= g< N- w* O= q- >= 1= A- [- R- K* {* 9* =; 5] ]* w* v* 8* R8 V7 v- m= <; z- {* B* ^- S; (6 /^ `c C{ p) <; V* u* H- o- ]* f] S' K- u> v> U^ 9* w- A$ w% {{ 6* J^ 5] kr 9* v) w- ,= x^ <; C{ S' ,= 6! '= N- P] S% ~! j$ 2}  ! lr _/ h/ S% @& $* o3 I$ z} `# 84 S; mr nr  q or n= P* @% d= /= A- s* $- 0* <; `= O= 4* l* 6* C{ K* ,= x% c> y] D% !< U; Ci <= 5= p, ^= =- }* Q^ 95 2n f* P= j= h= /= j- Q% b> q^ (! f& pr ",
"rn d* =& @$ 57 u' m= H= ]* e= x- ,4 S; S^ p) )3 H= ]- 3* <* <* :% o$ p$ A6 h] q[ N* '= *; 2* I{ ~> I; q^ q= qr Q= B* E* <* 8= a- U~ V; g| 'r b4 7^ ]3 n2 '[ 9% $& $& @/ S# ${ e% %/ 1] @% c> ^) >> $$ i$ 5$ rr sr U^ z^ p) @[ Y* 5] N- }= |* |* {* +[ {* n- m^ m^ += E= ^= P* I- O[ z* -[ D^ u* <* =! w- m- }= (* 3) m^ P* D^ d< w* k) K* 5] P= H- |; += l3 K% 8} E$ >6 J# ]& ($ y$ Z' ;& T& n} N/ I/ [% O# V{ C& ~$ G% Y$ `4 L# q& 24 tr N& /] Y$ H# N& 95 _4 V# .] O# >] T& T& X$ 2% '^ .$ x3 ]> #} ]* a- (* P* ur 9* @= k) 9! w* b- A^ 8- p) (= E] %- 2= O' 3* v) g! f= '/ )) /= i= m- '- <- w* }= m- -{ 8> *= C= G* @; H= C= G= f- `= -{ k) g! D* #= ]- J[ D* d= 8- [=  = p) d= 8= g! (* 3* D* q= v* u* d= d= j- A- B* %1 1$ 7$ *g vr {$ y$ 95 `4 N/ G# J| %& 3^ .] !] wr 5& +] !] D$ ,$ U/ 4^ U{ +$ V# `& xr F# B% @5 +] yr .] /] W% ]5 V& @4 Q9 ($ 9% Y$ v& p! ]- |; }= n/ /= F* (= _= F= B* z~ O= j= S= P* :} 6> E= P* F! v) k= 4= (* m, @= *; R* [; [= C= d= d= `* 3= &= >= P* H' F* }- F* += e= Q' Q* K* :- zr w= 2= e= f- Q= 7) e= S= (* A- 3* :; 0* ]= D* :- n* ^= t/ v) t= w3 V: +^ q% `; Ip L* *; w* d* q= ;; 6- vn {* 1* `= 2* Y^ S9 D* J* 5] =! P* z* 5* C{ D= ]* +[ [* 3= |> j, f-  ; I- P* H- ]* m^ #! l* 1* A- i* k* x* K* E* O* P* y] (= ,- +> r9 m5 ]q G9 1* v> E* (* '= {* u* Ar H- 3] U* d* B{ c< y] 2* J- y] {{ t^ '= u* L] 7* $- d9 %! p) 1/ m, C{ 0* =< q^ 8' o> @% B{ f/ <% =} g/ ^% l/ (< ^% t% .^ >$ ^6 @7 Br  > Cr Dr Er Fr W~ =! v* I* l* t] v- u* <; '- h* d= |* h* U^ {* u* <* x% A$ l] x> +> A| l* $; O= e= P* 7{ C- %] Gr Hr K* j- j) h% _= +% I$ g* ,= (7 !q ",
"0' )! B{ `# _] Ir b* B* V= u= 5; 6> k{ ]* e2 ~[ z* P= O= ^= e= ,= ml $^ h] // 7' w% |* E* (* (* 8= d* M- |* l= h% S^ k= i% i* T! V; &0 L5 %0 -3 W: L# v5 K$ w3 W$ D% 7/ A6 W^ O% F' g/ P^ (< V; d% ^^ _[ s: l8 '% |* o- y% g= =- |* V7 -% 0* 9* m^ u* d= =! 1* F* y] 6! n] U- -% N* U] N* P* %- ~>  ; <; k* R* P* P- 2* J[ 5= [= q= b; _= t9 +[ e= == c^ '6 7% -& $- Jr :( Kr F( Gm Lr -_ c( Mr Nr 8, %_ 4: Or Pr :( Qr Rr Sr Tr Ur b_ 0: Vr Wr A_ j( $_ Xr Yr Zr `r Ur  s qm Nr .s H# .! M$ +s n> H= A= 7[ @- w* '- D* <* %- m, e= /= C= q= H' C= B* f= &= P* P* C* G* Xn d[ w= A- {- 2= [- G* /; 3* e= :; /- q- Q* n* G= P= f= f= j- {; d= H- z* -{ l= =- i= :; [= -{ e= /; m- F= D* 8- d= H' #- (* 2* 3* Q' v) _- :; ~< S} r5 E$ @s nm #s $s E> %s &s *s Vr ^: 2: 3' i_ ^: 8, =s Dm -s ;s Bm >s ,s em Wr <_ 's Tr -s )s g( !s ~s 's Nr -_ N( {s Q! L& Y& .& Zn >* +- _= b= 3* xn 5= D* %= k) }= ~> +- &= Ym '- =- h, @- #= ]- P* Q' B* v* l[ A^ (* {* ^= {* m- /= L' J* O= H= >; m- ^= ]- _= 5] :- /; _k 3* 2* p= e= u* }= C= P* b; 0= z= I- e= P= &= j= =- H= 0* p> ]* h% I* |; ]> b{ @& b% J) ]s 3/ s* d= h% )! }= %= d< vn 3* m^ I- _= j= <; }= u= A- =- W) G= [; C{ P* g- c= x= b] `- [; :* 8- r) l* ^= :* V* <* g= <* <; 9* H- q- e2 I- V* Q* ]- i% 1= b{ #& !6 ^s D{ w% v* O= H- -% A= ]* 4! A= o- k) p) =9 {{ += C{ O- f] u$ [{ 2} o- o] ~* d= 2] )! S9 {! s$ 1* << =! C{ C* kr -% w^ |] 6/ 2} /) @/ N^ |] 6/ '^ K$ Q9 Q# S& L# l| +> 9' ac )l wl /s `* A- 8] J; -% [= a] {! I* %! S* != |* 5] (* ]* N9 y^ y% ${ L2 Y5 R- [= F= U- a[ M- *9 G& )8 0* A- Y* `= v* B* Q# >^ D- L] )> 7l ",
"qa V* z9 ~^ ,6 d~ 8- F= @; P* ]- 56  >  < h* H! t= I* N* z* t= R^ X6 _[ L% l] =& U* A- {* w) 2} }p t* m] g= -% K* h% I* K* l~ l{ ~2 r} ~5 S| -| X{ {9 >^ [$ <% 0/ bn `%  ! L% t! _% 3! t! V; {% 4% K9 (s A0 G] 6* /* S* C{ Q' (! @% y% N- [k m, E* {* l* 9* N* (* A- |* |9 x^ Q* G= Q' N* *= v* C= 3= N* S9 i= [* _= ]* &= p> Q* ]- P* (* f= f= '- >^ /& 7/ ^^ 5| ^~ m3 }= Zm V* f= *; 5= m2 ]* s- v- D^ <; D* A) _* B* ]* == K* @; 1* /= b= ;; <; I; p) (; 8> R- L= :- /; 5= V7 E* u$ Z$ =^ `9 +> E) a* =- k) f= l= ^= `= [- +- 8> f= Q* :* d= H= v- i= K* |; v* 8> K= ^= Q* ^= '- I* v) @- F= f= >=  ; ]> 5= e= h[ <- ~- A* >= %g i; (= z4 L= ]= l= _s 9; e= c= }= i* C= {- h; Q= W= c[ A- A- =; b* w- i= ^= ]- K= v= >> <$ U7 1[ (8 :s 1* :* q= j; .- ]= j; _= S= .= u= b- P= n= &; t* [= b= R! B- b; 8- /= K* B* <s n) 9- b* 7> >= _* C= >; <- G~ lq i$ G5 F& #1 m! g; 2* t/ ]= {- a; I* [- [= 8[ G= z* -{ j- q= f= 1* *= =; :- N' A- P* a; T* f= 0* %- v) -{ Q* += Q* (- [- ~- z4 #; 8= {- H- 2= &= e= I* b* u= [; [s l= /; 8> G= ,) G= 3* d= :* m= D= #7 K; +- f= b; /= l[ sa I/ Z{ q6 ]^ v, V' K= k) J! 5* :; K* O* T* =; w* G= I* &= :* p= d= 8] u* d= h; h% @- =; l= K* C= K* }! ]> P= <= ^; ]* B* (* W) d= -{ /; b] N* H- K* += p) l* m= O= ]* A- H= x/ @& Ll }s y] i* {* |s <* 9> H- r* B* w- S) |* O= J] l] -% S^ w* v* t! 3! 1s b] 8] C{ 6* A= t- K* ./ a] n] <; o> C] t! m, /) h] += 8/ :% 5} 8/ >% B6 D% )> j$ $* >^ #^ L! .5 s4 Z; 2s ua Ul lp ,- _= a; V* C= := w* 0* I* |* w% o> w% x^ E* %- p> U% 7* [] B3 cl G= `- C= +[ -% H- B] X{ 3s ]- z- #- z= P= j- L& 4s |= +a F' r> ",
"5s 6* 7* d% %^ 6s Y* [; V= A- w= Q! g{ 3] D- k3 Xn ,! 3* l* d= `% :5 H$ S% K$ ${ 6* 3* >0 u* A* 9* u= w- S^ f= q- (= <* ,~ l{ 7s ,| W< %1 e| y$ ]& @$ W$ 0% J6 .^ `$ >/ ~< J- B] o> %/ f{ A5 !% *^ 8s J0 l% 6* >% d= N- &/ x% 5* E' <; v% v- {* |* v) D* <* ~- i% J* F= w* h% w* m^ C* g<  = t= $- O* %! C* hb h; }= u* O= D* 5= C= H= C{ O' v) z' R3 (} $$ ,& 9s a, J* 9* e= w- F= w% P* D* o* l= O= L* f- ]- e, G= :; ]- :- B] }= k) G= :* 9= d= *= D= i= ]- f- P= A- R* u= n- a;  8 G/ f$ /^ X{ E$ F= a* j- (* I* A* K= 5= K* ;{ #= *= 0* f= &= `* [* F= |; >= P= a[ ]= H= K* q= &= ;) ^= 2* N* P* m^ ^= `= j; <= K* ]- [= P* v- 2= ^= i= 3* N* 3* K* d= }- b- _k c= Z- r; 3= Z- 3* F* B* I* =- d= %= ]- &= H= N= +$ g3 Q# K# Z% a~ d= +[ 8> D* _= G= `= <* 2* Q* d= N* D* z* 3* f= 3= P* `= r= (= A- .; 3* w= i= 3* `= 2* D* w* a* C= e= _= 3! |] 0s Y{ Z$ 4% h| [{ H= $; a; z* (= [= ]* Q= {* as q^ cp 6[ D* e= D* G= ]- P* h[ C= :- (* v* q= P= Q) D= $; &= u* !; 8> w= H= Z= A- 6; V= %[ 0* d= *= d= 1* z= m- _= I* 0* f= `= $-  ; m^ '/ *= C= &= $; t/ F= 3* C= ^= *= d= !; S3 q% w3 G& Gc << B- `* %= 5] (= q- 0* $- O* w* A- b= 3* w% ]- 0= N- z= A- )- {* N= V= `= ]= 8> *= b= 7> _* C= O' &; 2* 0* P= h% j- n- s- 3* 9* b* E* l* C{ O= s- ]* s* T! B3 _] B# fl C{ y{ w- p) y] C{ S* := q] x- =- S' += u* I] S' =9 s* v> 6! 9* {{ S* s$ g= 6! h% w% A= |* v^ 1* m^ 2} += v% << B] c<  ! %{ L% ~< `% d^ L% +% v$ r$ c$ A[ i5 L< 2% G% 64 q{ bs Yk cs lp w> <; i% 9* :* x^ /* c= b/ 5] t* |< {{ N* /) 2] y% x^ <% ~[ Qp z* E* `= I* @[ i% 6/ _4 Y5 B- %; m= Xn P* #} M! =^ 4* 6! E6 35 ",
"2! f* N- j% hl O5 P= A- +[ 8= :* ds Y; %; 1* g2 P* B* b* <= Q' ^) J7 ${ <% J- y] l/ o> 5] H- +o << u* M) t- %! Y) A- es V; <1 s4 C} M: m} @$ n$ P% !^ $* </ /% m% !< =< L% z7 3] >/ c^ 3% Z$ b^ g2 fs E6 %! 9* 5] 1* |< (! =- h] $- v* S^ %! 6* <* <; G= w- f= /* I- w* M* qq V] A- *= P- %[ w- C* a9 D* *; z* u> 3* f= P= $- :* <* o= H- V* Z-  | :5 J) J) H$ #a <* N* I- C= ;) F! Q* l* n/ m^ A- z4 :* q= F* w* @- F= 5= =; f= ~- ,; e= u* <*  ; <* P* ]* z* R* C= N* w= ]- I* q= '< d~ o[ -* Q# x| x= /; S^ m- 5= [- Q* 4= z* D* {* K* -{ `= G= %! O= H' a- }= v* u* p) *= *{ i= gs R* F= 8> =; v* $- w= /= 5* F* 3* [= -{ _= P= W= 9* 5* `= I= j= W' i= 5= ;{ u= *= c= B* M* N* N* Z- _= }= w= D* n- v) D* T* R* J3 E$ q% U{ hs ,7 _* 6- l! C= I* P* b= `- b= Q* f= B- ^= a] `= e= B* .) ^= B* a- P* 3> P* i= N* :* q) {* K; ]- v* [* }= w* }= a- L* t% J) S# _^ J2 ); j; d= D= s* v* $- e2 ]* e= W= `= j- v) e= i= I- I' ]* is :- @; D* C= P* I- 2= ^= U= C= i= D* q= 3= i= Q= ]- y= E* B* 3* ;) v) z* R* p> x* (* :* D* A- (* <= F= i= s- :* V= >= e= H= d* ^= N* {= d= )) Q: 5% $$ a> E* $< `* =- R* (= -{ }= *; (* K* G* js w% I- 9* *= -{ I- _* _= F; P= A- f= f= ]* )) e= /= ^= f= K* <- r; _* `= A- n- N* K* 1* m- A= %; -{ =! S9 F! A$ A= N* l* c; S< i$ kl ks N* V* l* i* 8] D* V* H- p) S' K* t^ p) m/ C{ t* u> s- *; )! |* J] e] v% &q ./ B{ '= P^ a] o- 5] b] @% P^ I{ B{ y] b] 3!  / w^ ,= x% s$ b^ }/  ! s$ x% G$ *^ =^ >^ >$ v4 w&  > ls )l ms ns c) Q' ]- d= V* 5= s$ B- i% $- /; 1] l* Z^ {* p^ =< !a a5 3s O= V= o= C* G* 8* ./ @5 d7 `= d= :* _= ^= k) '[ A! C{ 8/ F- os ",
"s> d* U^ .& b> O~ R8 9= N* 2* e= 2) O< $- d9 %3 w) h* G* /= q= w3 p6 3% )% $9 -% i% |* y{ S) b] w= <; -% N- Y* B= ps Z; -1 .7 m6 73 Qa %* M! $^ i$ .^ #& (< F' /% U^ 0{ =< t] ^) V; i5 v$ K# qs rs ss Y*  ! B] q^ m= C{ o> P* 2< h] J^ <; -% U^ %! ]* /; |* 0) {* K; 9* K* [; z* q^ :; =! |* A- r= 2= U] -- W) <; w* :* $- V) O= %; x* :; z* k= L2 %l [$ g> ts `= p^ .} f= m2 a] d= {* |* <= C= 8> L* b; /; P- ^= J* +[ F* 3* A- K* us 8- H= 4= :* j) 3* S^ vs E* +[ <; ,% B* q= x* d= on O< ^^ Z$ :5 0$ 36 D* 4; z4 S9 /; v^ :- f= h% 9* <* s- I* z* _= }= L* N* M* S9 d= P* C= d= C= 9* A* n- v* b- f= F* K* ^= 0* v- u= Z- 0* L* W) n- ^= {* V= <; R- +- <* Q= k) s- (* 4= 3* D* b* G* vn .; << j- P= $- L' ={ 7^ L< !^ ]6 0- Q) /; R= q= -= F* B* D* 4= 9* Q* (= ,o F= f= :* Q* b! -{ w- J; <- F= z* <;  ; ^= C= r; k) I* C{ (* ^= n- $- F= :* |* >= '8 W4 _^ f$ 5^ %^ f- 8> <; Q* G* J[ B9 F! :- Q* =! *= w* H= 3= 5= 4= *= &= >= i= C= I- b; J* C= *= b- ]= +[ g< z= =- H= W= [= k! -{ a; l* l= 5= _= v* ]* 3* )- Q* I* f= ^= i= K; P- w= C= P* (* J* ;; K* a* ^= t= D* Q* c| >6 W$ X2 ws :* l* U- W) $- v* n- P* }= *= 0) A- B* &= l= j= I* H' {* j] M* ]* K* N* 3= <> 7; s- z* G- 8= K* F* K* ^= := T- C{ 7= q* (* C= q- 7) 1* 1* b* c< q= ]* z= [= b= mc (} `[ xs W^ {{ {* S* 2* C{ D{ *! E] 9* q- += 6! N] E^ w- 4< X^ N* P; R- ./ b] S' 2] >< y% 1* i* p) D{ Y* 8] u* 7' C# y] {{ A$ N^ v^ a, (7 x- {{ %! !< |] l/ n& E% -^ b^ 8} {% v5 .* y2 V; vi [l ~l ys zs  ; <* p] '- /) x% {* (! E' t- 8] @% ,% g] x% Ea q: Zc D* l* f= C{ %; 1* a, H# As /; D^ D* Z- :* A- s6 b> 6* Bs np L{ ",
"N; Cs 9q >^ X< Pm p) P= [= 3* v) l, U2 D^ Ds $| $- 1> K* ~- }- -& .! -* x% a9 >% >< e2 :* @= J! A= (* B- A^ (* ^> q{ 7} ~| b4 @1 C:  $ A[ >^ W$ i$ F' V6 7% Da 5$ $- (< J^ O% S; '^ n[ c% `2 08 8/ u! |* k^ V* x% P* B] y] y% D^ |* S^ |* 5] {* $- v) z4 Q^ (* u= q= ;) Y* O* /* := _= 3= `= )= t- +[ ]- =! <* f= i= -{ /= &= 2= {* 4- _* f, X2 $$ $$ i$ Es R5 Fs g- ;) k) D* w* =- P* _= a- *= +[ >= i= t= 2* G= d= '- t/ I- 0* :- d= A* p) H= $- K* F* O= z4 /= i= 5= }> K* V* e= ^= J^ Gs Y4 P# )^ C: u= b[ F! L= '- &= d= 4= I- |* w* q= D^ K; Q* .- A- F= j) .- Q' D* P* }= ^= D* *; Q' l= /; C= x* D* |* G= e= [= S= }= F* 3* ~> G* j, v) O' q= 5* b; R* 0) 5= Q= q= J^ f= 5= 3* Ah 8> f= `= +[ Q' b; i= $- F3 W$ L& Hs Ec (* q) }= I- -{ -{ J* G* w* ]> H= b; L= P* >- /; j- <* 7= j- V= A- P* <= B* f= S= v) w= v* _* O= (= z* _= E* o- d= b* (! '% v~ ^^ P# =^ a{ l' A* W= t= p> ]= ]- e=  ; B* q= W= <- 8> :; v* n- [= 8= #; a- l* D* 3* Q) #= t= 8> 3* v- +[ h% :; ]> t= p> q= C= ]* w* V= '- s* =; K* (= 2* 0*  = C= [= D* K; i= 3* k) ]- +; P- =; #7 `* H- jo &! G2 B# Z$ $* s9 M% O* S= v* 2* a- S^ v* H- A* P* }= =- N* 3] m- ]* P* :* G= $- j- `= _= *; K* D^ `* K* 3* K; I* `* C= h% <* *; 1* ]* 6* l* [= [= N* F! q= A- _* ,o N* b= ~; )! j, E2 E$ %6 Is m/ (! B* 5] i* :* e= q- p) f] C{ )! 0- a] O- i% v> u= B] x* <; j= b] h] f] u! C{ S9 w* z{ /) C* b] H- h] q^ _9 |< U] y] a, x% 1/ y] |] x% ;9 *< @/  ! n& r$ $& .& b% i$ Q# F} E} B7 hk |q Hq Wq ;- (* A- q^ E* S9 -/ x^ ,* m= $- m^ {* {! ,% P; '3 Js C= <* j= n] h; s; 6* d| J~ 0* G* i= :- @= R* 4$ Ks h* S^ `$ 37 ",
"Ls a] S% W$ /5 Ms m^ J* '- ]= 7; o'  > O- O* ]0 h% A- )= Q* H= L$ $p ;< |] =& |< `% R* S9 7* H' {* A- <; ]* J= K5 ~2 Z} .| S2 #4 .$ Q# M! m5 _7 ${ w3 h/ Ca L^  ! <% O- G4 Z; E$ i5 `$ '> Ns !< << /) t- R5 {! 6! g] $- @= l* f] S' 9*  < m^ H- v* b] B- *= v) u* .- (* h% h% `= k) i* += n] ]= 3* V= h% p/ P* n- (= f= @= d= N* ^= '- 0; ~< r} /^ i$ +s S~ /; B* t^ 8- u= w* w= E* *; .} 3* ;{ a- k) D* 3= e= d= m- T* f= a[ e= |* 5= R* 3* :; =- 0* u= w* $- P* *= v* $- 9* m^ I' &= Q* K* !< #& P# S& (3 ^~ w* 5= 0! v* o- f= C= C{ v* q- v) w* v) `* ^= N* 9* F^ W= J[ 8= ^= :* k* 8> +[ K* D* D^ :* D^ L= S9 b= 4- C= f= q= >- A- q= e= .} v* D* ]= 4= q= _* G= :* k= H' P= 8- q) 2= <; -{ f= O= V= L- I[ x/ V6 )$ {% _8 M$ U- U] &= V= ^= A- d= [= ]- O* w* }= ]* }= B* D* _= G* w* d= k) :* j= 2= :* k) :* ^= m- == t= @= t= $- jn E* a; [* <; :* e= O: 75 S# Z$ z} E} Os ~- t9 =- D* D= i= A- 3* }= D= f= 5* *; j* (= 2= e= 3* j- F= :; N* S= A- %[ H= `= G= f= 5* {; 2= _- d= f= `= ]* (* D*  = F* =! j) 9* c< U^ H= $- b* i= .} $; &= O= A- V= d= x* f= S= D= _k '% d> k$ 06 mc Ps E* }= K* G= 1* x* z^ E* r; /= m, ]* C* <* b= =- ]* 7' t] w* :* g= `* O= ]* C= }= (= H- I* I* I* 3= V= I* R= x* B* V* Q* A- l* z= A- N* :* D* A- $! 5; m= f= 2* j, p{ u5 K$ -} V* S) Qs -[ v- ,= Rs =9 S* |< s- p) C{ /) 8] ;g $- u* e] L] 6* q- {{ << {{ B{ _< 2] E' 6* )! u= 8* $9 5] >/ v- v% si (7 R% v% += ^) z- $- B] m] @% G] T% t% O% Ss @/ (} ~^ o6 @$ 74 f{ Ts Gk Us Vs o= $- M- f= 0* h* D^ w- O* {* J- V7 @^ 1/ x% N} ^o *= q) ]= H- ek  ^ I^ _4 2o d* }= 8= e= Ws P< y3 2% E{ $- ^% Xs ",
"2! 9{ |] d% c} ($ r= I' [= z* z* k, Z; =- U* c^ _> I* @; c= m~ H# 8n :[ (] s4 /& R& d} ib j% +5 W% L} N& {$ Ze o1 20  | L) [| () V% P% {% 5% .^ O% $< 5] <* @% a> 2} R5 c{ Q# @& [/ ]0 6@ H9 r! g] V7 (* 5] O* P* L* ;% 5] 5] v) H- N- {* Y^ w- E' H- &= =- s- :- o> b0 w* Q' p) S9 {* 0* j- B{ <; C= P* w* (* [- /= A* q- _* A- d= <; wh `; !% _[ E5 Ys =! z= := 0* K* A= $- P* u* i% _= P* ]* i= 0= l= n- e= k) <* m, k) e= O= D* ]* 5] v* F! (* /= i= ]n &= Bq 0* `= ]* (* J[ <; [* S9 <* Zs ;| !% ($ h} G4 *{ P* e= &- [= %! B* (* 5= I* m, {* }= $- w* 2* L* C= i= o* q/ F* -{ J* ]* :* d= P* f- _= A- 7= &= Q* B* Q* N* P- D= d= O' C= L* m^ k) b; f= ]- i^ 8> b; C{ +[ V= F! W) >r |; i= E* [= /- J* d% ,| Z$ Q% s: V' @- 2* e= <* f- &= S- 0) @- z* {- *= ]* i= q- B* v) *= B* ]= C= w- 8> q= e= e= 2= 9; (= V=  = E* k) 5= 3* (!  = q= C* ]* w% 5= +a !8 k5 *f 5% L) k* !; |; 2= C= .; A- (* F! |; t, _= H- d= B* w= G* ]- i- a; K* j) d= 2* >= Q' k) ]= O= D* C= 3* v- h= P* -{ &= p! D* N* #! w* {* D* G= =- ]- v* P* _* '- b* ]* A- D= G* }; ]- t* h% C= `= 7> h> V$ $$ Q& q8 6l #! f= J! z* K* <- i% (= d= w* 0* 0* m^ N- h% 5] V* (* p> 5] g= 0* 8] }= z* {* {* 1= :- B* A* b= <; e= [; 4- P* <* {! ^= A) h% d* D* u* b= ]* [{ v* [{ K* u= 9= -- Z; ,6 `s  t <; j] N{ X] `] 7= 4< 8] _* v* 1* 6! o> K* V* {{ Y= .t `* {* 2] J] ){ +/ {{ 6* |{ i% << w% 6* 6* |* += B{ 4/ 6* <* k/ ~; @/ E' |] w^ [{ E% S^ |] @% F' :% +% Z$ *^ [/ @& y6 X6 ]& y) g4 k{ +t u9 P1 @t a0 Y{ 2^ !% :5 )5 ]| #t Uk :4 @6 >5 4$ k3 S; $t #- 0* ]* {= |* %t >% wr ~n z= 0* D^ z4 P*  ~ T3 V$ p| j$ )> op ",
"A/ 0- ,% a$ @7 8| Q: [* S' 0- &t G! g2 c* L7 w} n> c* 7{ 4< z} L3 ea  | u4 *t *1 -1 _2 ~2 }| b} 1a ~1 #2 )2 y9 0} +| L2 =e ]& Y0 w6 v5 7$ $^ i$ ^^ Z^ S% a, ,= h] '= V; M! ^$ @& h> =t K$ t- += |* |{ p) C{ p) << n] u* a- C* a, V* }5 q^ <* z- w% 2= D* q- K* P* q= <; Q* w* x^ h% h% 3* {* *= ar n- <* D* y] w= G= `* m^  ; L* <* Z- 7/ Pd f$ >^ n$ O* E* r; I- _- v) ]* 7= }= M* F* m, i= f= B- w= m^ C= (* S^ n- 8= 8> )- 0* 5= d= C= m- <- -t f= i= |; k* J[ N- 5= /* z= V* $- == {* 8> ]< O! 3% n& .! #3 i^ f= j) C= D* 2= W) t2 q= Q) e= l* e= }= z= k* A- t/ r;  ; n- I* D* D= d= E* k) e= <= D* #7 I* }= f- 3= H= &= f= [= i= e= m- I- K* `* R- [= F* 8- Q' ^= :- 3= >= g! ~; $n f- 3; 3* T* 6< l' c{ L$ K$ ]$ ;t Fg H- $- `= (* f= d= V= 8= C= [= P* ]= 8[ _* m- [- Q' C= W= 5= ^= w* <=  = I* L* j* l= ;{ &= 8= F! 8- `= P* }= C= =- C= O' B* ;; D= r= Zd >t [$ :5 G/ A~ /; D* Q' 9- k* P= D* J[ O' F) O* {- /; 5* 2* m, _= 2= 8= 7[ ]= :; [= .} 3* C= /= :; >- T* F= 8- .- F! Q* ]- 5] i* w- ]* z* w* p> w= j) ^= 9* 0= /= :* 5* $; K* c= j- ]* h% e= J[ u= >] () b% ,[ )^ H= f= u* c= [; I* 4= {* f= C* H' w* L* N* I* l* <o w* p/ =! w% V7 =- 1* r; ]* 2* b= m- C{ 8; t= 1* o= _= H= )= )= E* <* P* O= `* {* p) S^ f; b= := @; _* 2* s- :* %- 7> a{ ml ,t 't S* U* h* 4< l* p) r- -% )t z= D] i* =9 A* 1* += m= m- N] a] =9 |< D] t* ~! %! 2} @/ S* U* 9* v* S] 7' Z^ 7* /) !< i] ,= a] g7 J- @% 8* 2} h] {{ @/ O% @/ f/ <% 6% W& *^ u6 G$ S& E$ 1| >| c{ {l kb 0} P} cc k} l3 %| #4 k} k6 '| m} m} W} |7 b4 1| c{ ^) q/ c2 U= ;* 6- 1/ {} !t 3{ x* r* A= r5 N< _5 b4 u! y% j$ .e ",
"~t ^* J! R# *] %5 d> {3 S3 S< b{ c{ D} A} y[ -| T| O| #3 {t B2 y2 (] i} S3 x4 N} /4 M: ;p x3 }| e| u} 44 j3 x2 G} h9 @f n2 K# w3 e$ E$ (6 h] s{ Z^ =< p$ j$ Fg t^ `; kl A& $* ~3 I0 z$ 7* ,= h] {! 6! 7* ,7 p7 Q' a] p) B] c< p] B] /* H] D^ m^ D^ !p 8] (* v) I- D* N* O= t* C= C* D^ h% (* D* J* [= p) 5= &= w= I* r! P* K* ./ A- h' V; th 8} J| ]t w) U* A- S^ K) S^ D* `* w* 5] {{ }= u* R* x! ]* C= P* j= 0* e= A- t) f= 1* d= <* z* w* N* (= 8- =; u* b* (* x* <; =! z* g< %= L* w= j] `= Ii Q: '^ Q# !] w3 4; K= 3* n- &= I* t= 5= f- `= e= =- :; C* P* xn L* d= f= P* @; h% 5= D= m- f= <= =! P* I* R* f= D* 2= f= W= j) (* C= D* z* t) 8> }= O* ]- $- #= -{ {* '- #; E* K; 7) 7) d= )- i= C= t= c|  5 Fq f2 x{ Q) P* j] <= (= a; P- }= (* A* i= :- F* S9 H' _* J* _= q^ ^= @; f= d= F! I* k) S- d= 4= f= b; C= e= 8= (* <* d= C= f= :* D* t! b= E* /; F! ^t u} P# Q# c| -% X[ .- b; c= p> R* $- O* k* Eq P* W= &= F* >= z* &= d= a- ^= Q' == 3= O' ^= S= D* 5* i% z* -{ F* (* N- 0* E* 5= A- 8] h% A- p> b* ]= /= K* g= *; t= S= /; (! j) 7> I= D* <= ]= us H= J2 *& q% V2 vc 5]  ; q= f= N* $- A* f= v* f= ]= a[ $; x* p/ x^ 5= d= x* Y^ v) :* <= D= /; &= H= ]* p) I* B* ]* E* G= )- m= `* -= h% k* 6* P* :* @= E* N* )= )! i* R4 0r +; R= V= (* ,~ :a B# /t (t C* O= s| x- S* S* y= H- `] S' f* &q O= U* }* '= [{ 4* >% i* v% h* G- R5 S' r2 ,= 7* &q ./ C] 6* -% j$ v> h% w^ q^ B{ B] /) |{ ~< 2} .} `^ B] h% x^ ;4 h] 7/ P^ (< !/ (< (< n& E$ >$ k&  $ <^ k{ r} N} h} 5^ c| c| %} _| {[ q4 23 <| g} Rn B& g3 U: [0 +0 `3 +1 N< 69 Qd c| k& 7} b{ K5 _t P| O3 ~5 z} O2 f= I^ )> (o ",
"Bl ~; Fg 1* k{ 47 T: X{ D} (] L} >| i} .5 Y4 /] s4 N/ r} g4 Z' y[ B& }$ !! N< a{ O< (3 #3 N< F2 e3 W: K| H: G3 b{ E} !& d% =^ E$ s{ =& V$ i$ )> 7/ /) n& (& S' S; *6 F& L$ :t <t B[ p] S^ 8' << c< [t 7* += =! A- %! 5] D* {{ N- ]* q^ O* K^ n- ]* 5] ,; r; N* (= $; v* Y* _* J^ v) H- S' O= h; <; P* C* <; S= /= <* U] %! O= {* h[ E} u5 $$ G$ g, )& 3] 0* A- S^ (= 4= =- $- a- (* 1* }= m- *= 0* d= K* [; D* P- f= _* G= D* G* F* <; :* D* V[ m, r; C* F* e= `= v* I- :* 5] 0* #7 0; j) l= I- }t %8 M! K$ j% (3 !; d= N* &= l= n- R* H' k) =- D* w- /= }= n- `* _= I- ]- O* O= w- m^ m- P* '- L= S9 a* C= :* &= 8> p> /= f= @[ /; `* v* $- `* +[ C* V7 2= z* 5= L= j- /= H= O= }= j) (* D* f= e= D* M* F3 !% .& Y; @r P= ]- (* Y- <* 1* A- [- D* /- P* v) %[ a- m- -{ w* d= J* }= ^= A- w= I- O= ;) P* j; e2 B* '- P= `= 3* i= (* P= P* I* A* :* '/ i= 3* vn g; C^ #- #< v$ v5 ]{ J~ &= 2= c= += C= N* C= F* z* Xn z* 9* :* f= 3* @; G* h% ]= 2* 5= %! e= <; Q' w= +[ h% ]* A* 8> %! >= &= V= (* v* w% n- }= m^ ]* I- v* _= C= 4= 8= `= ~- I= F* }; D* /; +[ ^= H= |t |[ _[ >^ j= m] *; w* P* n- t= f= b= 2= ^= L* t= A- P* i% `* H- /; n- I' z= d= 9* V* N* I' b* q^ B; w= K* %; p> t= D= C= i= <; b* x* _* ^= ]* u= E* i* m2 <; s- `= E' B* d* 8] 5< d= ya c{ I$ v$ v' f] d* `= p) v- v> `= <; 6* 3> o- `] e] M= *! q- w% <; i= W- C] U* x- a] ,= p) m^ K) ~r >% I- `] u! C{ h] i] c] m/ {{ += E' t! E' s$ 2] N^ m, {{ Xo i% X^ %{ (< 0< u% (& u% c% b^ .! ^^ )] Q& p} Y< J2 L) x| L2 C2 F3 1t U2 R3 s! F2 N< }| sc W6 P# =] &] )4 T& W% y[ () &] N# ~] =] 95 y[ dc sc s4 B3 t* ]/ E' ${ 2t ",
"0' 3t h] w* q= M^ =p B} J/ 14 }| >4 L) @5 D5 ug 23 m} !3 {& X{ A& x2 p} C3 3^ N} +$ U} %} }4 i3 S} s} 4^ )5 V{ G& V$ -$ 6% S# i$ '6 ^^ e& 8' T% [5 `% R^ u=  > )] 4t S# H: 5t $$ -% p/ b] %! Ep e2 m^ (* _% R* w- (! [; (= {* _= |* O= x^ w% %= 5] F* t/ f- i= q= P= }= O* h% N* }= h% m^ J* I- 5= N- h; z* w= }/ N- A* A* F! 2- #- h9 K$ _] C4 -r l* 6t %; Q' i* 9* z* R* h; P* _= u= A- /; :* P* e= z* (* =- a- /; 7= <; H= =! u= $; v) O' ]= O= Q* z* J* G= v) z* }= `= B* N- m= Y^ Q* D* 4- i= r- |$ y6 ;] k& {] (> D* F* f= d= 3] a- $= 3* 3* z* D* H- V* n- /= f= w% a; q) Q* Q* `* ,o d= Q= V= x* *= Q* Q* 0) _= G= t] 5= u* O* ^= R* g! $- v* {- _= 2= jn (= n- d= O[ '- <* h% l* q= V[ 7t q~ T2 g9 d% A& 8t 9t =- I- U^ 2= C= v* z= b* e= H= ^= B- }= A* k) A- =- D^ j) ^! I* D* w% {; j= ]* Y* d* /= 3* K* A* -{ B* ^= =! i= ]* _= f= |* E* 5= q= H- P= i= r8 C4 M! X$ (] A6 eo 2* y= d= &= <; ,o E* v- T* u= h, f= c= D= =; P= D= /; }= 2= -{ f! C= G= D* V= _= z* J[ b* F* 9* ]* r; P* n- q^ :; `= -= i= h; m= H- 8> '- 8> 8> G* ]* ]- 5= q= 6- J= 0r ~> )1 P# _7 0t ~n != <* H' [* p) D* u= B* h% _= :* (* L* (* V* P* u* P= a- b] O* *; R- A- Ar A* q- O= =- J*  ; m= o* a] /= f= n- 1* 9- o- 6* C{ }= _* o- 7* q- 5a ]* R- _* g= A= Y* &= ,* 6{ a{ at >^ y| ,= G- 1* q- R- =/ (* Ta 8] t* +; D- ~r ^* e* =/ Fh =9 +/ ^* Aa bt E] .} $- 3] d< -= /) v> T] J- w% &q 89 /) K^ o] 7* $- w* |< O% x^ w^ u* P; a] y] x% !< B{ 8< N^ s$ 2] x{ t% L^ %% '^ b$ 0% !6 w5 _4 )4 `# ]5 Z' .| y[ d> ;& 1^ g4 V2 S2 %3 N& p} 25 !! ;3 '] u} ,5 /] C5 Y4 H: C| ^3 `2 D2 M} W$ u! z7 <; B- ct `p ",
"f^ .= '= -[ s* ~! ~! q] $* >/ N^ /; `; !| c} 64 a, J- %{ 6/ u3  4 c} :^ V: %5 s4 k3 Y4 () =] g$ )5 @$ F5 '[ f$ W$ Q# d% <6 c% B# ^^ ^^ 0% =& K{  ! &/ x* V; )] s{ -o !3 dt U# B] H- w^ 9= O* 3[ I{ w* =- -% t- t- C{ += A- z* 1* ./ 2< O* J* i% m^ Q* A- P- L* q= d< f= f= b; {- <* Y* #/ k) $- x* K= d= ]* I* H- s, c< O= e= i= 9} v4 .& {% 36 d& 5] 4* A- Q* %! K* s- I* 3* U= q^ /; N* }= {* }= v* d= 3> R* d= C{ t, t= G= H= m- %! ]* O* {* j- et (= =- m= C= ^= N* /= 4= K* a; {* j- :; K* a] g= Uc V} V$ ;* D3 r; f= D* 9= q- C= ]* H- ;! e2 A- j) 6< R* I* t/ _= C= #= '= f= b; e2 `= <; 2= &= k) :* (= m- D* *; J* <* v* <; d= I- {* [; 5] v* O* F= (= H= H' _= e= P* S= ft j- 0= #- #7 -{ B[ ^q f$ :$ P{ gt A* F= R- 5= P- B* >= a- X= a* H= >= -[ 3* b; 0* a- }= d= e= 6< :- w= M* .- P* ]= z= j* D^ r= m- d= +[ G* z* H= O= N* i= +[ ~- }= d= E* f= G= +[ v* Ch *& V% +7 J< H= P= K* &= w= a*  = (= d= <- I* v- b- ,0 K* P* 3* P* *= K* d= W) `* f- 3= 2= e= P= v* 3* <* 5* i= Q) d= `* 2* V* j) m= J* O* *= P* R* 5= d= F; S9 L* *= :- d= !; e= |* u' ]{ +7 i$ |% u8 Q^ '- (* t= 9= x* i= N* G= g- N* _* P* ;g ]* _* Q* C= O= {* %= v) ^= d= z=  = ./ x- ht B* [* r= =! f= #} ^= -= K* ;- m^ B9 0* m- =9 9* B* q' n- _* v> Y= G{ it l] )= O- `= o' /3 B# 0% jt C- *; f* Y= )- l* e* +; U- _* T= t* v> {{ := 7* V* 0- b] ~! K] O= kt o] lt :% u= t- V* v> Ds z7 J- 89 #/ Y* m3  < c] G- t! f/ B{ Z^ I* ${ << B] '= :% j$ 8] 7* ~< y% h] 7% 6% F% o3 <% )> H$ [/ %6 z} /^ J# G5 X$ L& v5 3$  5 X$ Q& N/ <^ `; >5 mt l/ F& a] @/ 7/ =- G5 U: k{ r= %/ h] =} O^ ~! x% nt i% w% 1] ^) !} ",
"f^ s* '= 7* H- s$ %! K) :% @^ P; ==  > g/ z6 c% .^ L% 6* c%  ~ Y< %5 $p O} :$ .$ () Q& {^ j% ;6 .& q5 S& j% P# b$ l& ]^ ,/ i$ B[ x% J6 H$ b$ a, a, b] a{ g& 1$ =^ 53 ot e: y] B] [r I{ {{ 5] `* U] 5] ,= p) ,= S^ J* e2 Y) n- i% 9* _* B- 5] |* j) i= ^= {{ C= 0* K; d= /= A- 0) O* g] O* m] H- |9 9* =! v) {* {* B* D* ]* k) (! A3 5% (6 8s A< I* <; 9* s* e2 }= [s l* m- l* G4 0* a- D* $- q) m- =; I- (= (* 2= &= A- 1* m^ d* K* I* d= m^ z* P* 8> C= N- e= ]= w* ^= 5] }= z* F* <* D* [s s- P* *= q^ ,% %^ ($ L4 pt z' 8> b* 5= i= 9< h% v) z4 K* z* L= 0* D* R* T* d= ]* A- }= V7 {= 8= u* 7= 3* J* R= K; z* *= H- O* I' F^ j) 0* 2* }= V7 K= h% d= 8] z* -{ K* F= l= V= S^ K* '- ^= z* B* p- c{ K$ s{ D$ qt q2 8; =- =; k= (= P* <* W= ^= /; ]= h% d= d= `= 7* 5) 3= D* (* i= n= ^= 0* R= m- G= R* :- =- :* 3* b[ t= x* e= 9* b- O= M* }= j) R* :* d= p= q= B* P* rt st >^ S& .$ L} tt }= 9< *= F* i= P* 5= j- .- N* n] 0* =! @- d= w= ;{ I- B* l* &= 7= P* @; =! k) I- O= H= 9* :; b- P= J* w= h% 5= ,7 O* 3= @= (* [; ^= }= d= <* m- -{ y% b- v* i= t= L% :| 5% ^$ v, O! X* -{ i= 5] e= O* P^ u* _* l= 46 B* A- y% =! p) {* P* <; u* {* G= j) d= H= f= ./ X- 2* :* _= w= 8- 3* i* E* V= i= `= _* (* j= v> Q* g= U* D* O= 8= i* T= I] := 4- U* l* v> `! J2  r /t *} `* .= v- )= +o Jh D{ `] e] -= 1s x- i* E* 7k T] u! C] v) v% X] X^ O- o] b] w- n> t! W^ w- K* E] C{ l] o] l] B] g= v> i* y] w^ P^ a] 6! Fa &/ 2& 0* =& y] V7 w^ H- =< S% =< |] d^ @/ b^ 0% O% h] 7/ b^ 0% 0% K$ '^ q% {% j7 >^ h& >| |$ n2 S;  5 ~] .n {{ B- g] C[ f= ^) K$ /4 1> >% I{ x{ 7' m3 L% 7' |= J^ 5] q] N7 ",
"ut ri C^ f= w% 6* x- a, P^ C! {{ s* `2 E{ vt j$ B[ B{ ./ e2 W! U2 )| b^ 5^ k& K8 )% !& >$ -$ X$ g& E$ -^ 0% L$ d% b^ o3 3% 3% #^ ;9 !< J- D% <% d* Z; :5 E$ F& wt xt yt s$ B] Q; 3] S^ i% |] q^ 5] p) ./ d= (= `* v* V7 O= U] V7 e2 t] (* 0* ./ 5] C= D^ I- -% w- q= 1* z* [= K= v* B* S' c= jo w- ,o t] O= V7 v* |* d= Z- V= H! ~^ ~^ N# zt ;/ 3] E* S9 p) ]* '= d= q^ k) 0* /; }= {* j) S^ ]- %; 5* i; v) a; y= H- At k) '- h% h% =; b* z* C= _= n- k) D= (* C* D* +[ B* S= ;= *= v) j! B= w* J* m^ h% Bt T3 P% >^ i4 5] U' C= 3= u= 5= 5] 7) w- (* (* i% a- ]* (= b= I* '/ ]* i= P* j- t= S^ O= d= 0) w* <* N* u* (= /* d= 0* Q' ;) n- 5= ]* <* (* `= 5= P= F= z= k= d= i= s- 3* }= :- z* S' Y4 Y4 V$ %r -] '; =; j! q) (= +[ a- e= {* L= += D^ e= b; j) 0* h< t- >= j- |* h= <- V= d= e= P- ,; :; :* A- W= 3* D^ m^ w= R* P* t/ q= 2= m- {* K* i= P* v) (= C= ]- =! E9 Ct Y{ ($ -$ {[ w% '; H= n- (* 3* F* p> (* b* e= t2 5= ^= I- t, d= |; #= {* V) C* Q= n- '/ G= 3* 9* }= s- <* O= <; *= *= w- B* A* j) F= (= 6< i% $; b* j- m- K* `= ]= 3= q= P- &= q~ c{ Dt ^^ D$ Et k^ }= {* z4 1* 2* 5* A* D* +; B- v* t* Wo m, 0* W= (* G= N* /; g- {* F= 5] _* 6- i% [= j= B* V* P* C= D* %- G- [= [= r; :* g= w- d= [{ )! n- q- s- )- T= n* e* K* W- :* 8a Ar c- o{ hl Ft Gt ~! Ht G- ){ 4< )! It ~* r- u= M- |s `] 6! Jt o] an K- 9* A= )! p) ^* @% S* d* w- 9* N{ #} 4< S* t^ [{ q] {! h% b] u* 8] 9* w% v> /) V7 v> E' _} v> ,= ~< y{ i] %/ U^ U^ O% n& S% 1] 7/ <7 <7 O% <7 ]^ P% #& w3 L& i$ b$ o[ H: r} g& r5 (} Kt P# b> 6* `* C{ C{ 4* &= ~! u6 T2 w' 2} #/ S* a, ./ |{ V* q^ v) F= .^ op ",
"0' s| 6< K^ {* l] h* g= E{ N- y] 5* .> (% x* %{ Z& 4* vn |] A| e{ .5 o[ v: W$ X# S& S& $^ !& {% M! k$ ,[ 5% o[ ^$ ^^ /% S% !/ Z^ P^ o% 6' %/ 6* +> $5 A[ 0% <& Z_ ha ,% W^ q- 6! o- t- S^ {* x^ C{ *9 3* D^ P* w* o> 6* v) a[ /* n] w- C{ C* q^ O[ g< v) q^ o- h% 5= c< |* @= ]* l* %= (= zn d[ o> C* z* (* |9 a- #% V* {- Q% :4 th i$ +( _= 4! 5= 2] 3] I* Q* w% S^ L* 3* B] =- a; v) l) (= x^ s- j; 0* Q' 2= (* 3* v= t/ A* H= #= C* f= v* I- 5* _= +[ b; R= &= h% 3= J[ <* /; V7 [= -{ I* *= A- C* d= 05 Lt B# P# !& Y< |> t/ w* (= L* ,; k= z* *= D* F! J! (= D^ s, i= {; i= m^ w* u* 9[ E* '- ^= v) 2* =! [* O' M* J* t2 N- .} &= D* R* N* q^ <; /; 3* (= }= }= (* C= &= 3* p> 2= d= F* c= J3 S& 9% t: Mt ^= b; 7[ A- F= %= h% F* 5= &= /= [; J[ B* P- H= $- =; n, O= B* z* t= _= i= (= w= >- z* i= f= D* f! D= ]= f= b; A= <; F= -= i= &= e= [; G= C= )) I* 7) m- <* H' 3$ p7 f$ k5 s! !) b; *; S[ b- V= 1* S^ .} k! j) d[ .} f= Y) e= :* Q' r= t/ e= g= 8> C= G* 2* A- E= b; L* 2* N* :; 3* }= 5= (* @= m, w) B* F= J* d= ]* &= *= D* f= v* ]- jn 9; ]& {| a$ 5$ 5% H= @= n- <; g< K; 5= A- A- v) z* v* R= @= :; `* 2* <; `= K= z* }= ^= <= A= z* *; a, Q* }- >= V* u) _* f= 9* ^= e= R= 8] r; /= v- A- {{ q- P* s- :* [= q- 4! 9* :* y' f= N* `= := Nt V; Ot ;* Pt }/ Y= w* P] Ds _* ri `' ri := Qt Rt := -% St G- ^* _* S' d* Tt v> m^ h% [{ a] x^ ~; z= '= bo w- ,= S^ f] -% {{ 6* -% t* g] #/ {{ Q; $- S^ x^ w* %! R^ J- y] b] _% }/ 2} o^ ~< +6 $^ c> A6 %! 0< @% 4/ 0/ 0% h] H$ p7 p7 g2 g} m5 :] Ut W$ O2 Y# S& 7' ./ |* A* M* ]- @( ^% ]{ J'  ^ F^ h% *r d^ r* x- b] _* f! <% Vt ",
"X5 |} Wt v) *= E* $- /) @% 0* 7' T' Rp  ! r* I6 l%  = Q* |] Xt G2 ~5 C6 `} 3% Q9 >$ !6 !& #< .& d% 0% $& n& 0% Wf O% ,[ @& 0/ r3 !< 2} x% i% 5! N& V$ E$ ]$ Yt Zt y^ d9 p^ 8/ ~> a/ Q; x^ {* << u* l* 1< b] @% 2* /* v* 0* Q* E' u* v) w- {* p) =! -% w- L= -% A- (= ^= j) D= }> _= J* _= S- P* O* d= v* A^ $- U* 0* u* t> Z; `t W$ S0 oo l* )- {* {* m, |* M* q^ << B{ {* 0* y] P- C* w* w- v* J* k* -% -{ m- 8- h% v* ]> :- Y* *; V= j- D* e= O' w* h% w* <* O= /* h< K; 5= k) 5] Q' <> Q' (* L* w= V* :* 55 Y; i$ >^ l| u5 6[ j- N- p) K; f= /= A- }= ]- C= W= J[ A- C= @- _= E* G= S- D^ :- q/ m^  = l= }= d= K* N* J! A- [; C= :* ]* v* t] D* q- K* G* i= `= t= c= G* D= G= d= h% I- K=  u &] >$ >$ ~- n% S= /= #! Q* w* p> s^ P= Q* j- D= :* i! (! :- Q* a* 2* A- }= C= h; 8= C= .u v= $; f= 8> ]- F= Q' ;) K* ^= 0) j- 6< }= A- e= |9 ]* b= w- i- p) i= i= 0* ^- L* r; Nc B} L& S& w} `$ +u ht m- b= u* A- A- F= V= '- $- F! S-  ; i= ;- ]- G* ]- l* d* *; H= D* J* /= }= y* =; I* #- <; ;; w- ]* k) t] g< k[ D= J* _= O* K* =- r- |* B* F^ o* s^ n= N< 5$ K[ v, vc m, |9 ]- t= }= y] 2* J* A* /; [; R* K* v) z* w- (! >= P* S* A* n] N* :* }= <; B* h% {{ 8- -[ f; O= R* `* 5* =- K* >- ^= P= m- T= -% := n* ^* :* u* G- :* u= 7< T] X] ~* n; 4a Jh @~ E2 @u 'n #u A= [{ ;g M= 6* O- ~r O- $u G- =/ Z] b] y] %u &u }} S* en O- N* H- _< o] V* `* =/ w* _* {{ += *! h* 7* ~; b] _= J* [{ o] l] {! 7' h] B* c> |<  < :* {{ x^ u* #/ =< 6* x% w^ 5] 2] o> N^ %/ B] g7 ${ J) 3% h] F% (< R% *u m} C5 g& :5 =^ >^ pg -$ v5 j] 0* /; v* H* H= ,} S% W3 j, ~; O[ x^ {* x> w* c< 4= (! v- M6 L{ ",
"=u -u u* w- y] |* 1* <* q^ P^ 0* L* U; v6 ;u Q6 n& (! j] f] K! S< z} >[ g} P% q% !% [^ J) #< %% o3 $^ 5$ p7 d% n% -& +% $< C^ 7/ L% N- D- Q: >u i$ M! R# ,u Y# (< U5 Fh d^ w- h* Y* (* n] J* I- D^ m, =! A- I{ O= d= x^ G* R5 |* S9 -% q^ {* m, g] f! /; J^ /; m- `* v= C= *= J* n! 8) R* <= I- (! #a i% 5] I- {* R* _= 4$ b} L& K[ r* [/ 4* << D^ A- e= h* S^ 5] B- 3* += J* d= v) V* i= q^ 5* ]* ]* H- }= :* I* 0) O= ]- %- ]* R* d= %[ P* f= Y) a- *= 0* f= d= P= [= w= 46 3* m, G* Q= H= `= E* (! H- H- )&  n :] K$ &* a{ /= C= w* S' 3> %= 3* z* (* 0r z* 3* g- >< G= T* '- J! w% W= J[ f= =! P* C= e= :* m^ z* K* W= N* k* 2* i= v) D* g< w* (= e= S^ (= *= P= D* P- += F* +- D* G= x- 73 0% K# 'u ~n -{ i* M* s, 8- Q* N* <= 2= 4; m^ z* D* #; b- >= t, ]- us ]- 3* =- P* Q* -{ v= '= 4= H= q) 8> ]- O' m/ _- R* :- C= ]* z* j- N* `= *; D* K* z* :- P* P* V= u=  ; A- C- B- 6% #* j% S< Y' Bq W= F= U= _= ]* P4 /= :; ]* i= k* G= }= f= V*  = 2= z* N- <; K; w* &= cp >= x* e= k) M* e2 v* f! h; I- *{ R= b* c< #= ^= D* *= o* O= 3* V* :- 7t p, e| g5 A[ 6% )u 8/ P* f= O= `* %! Q* _= D* m^ v* f= <* ]* A* :- I* `* d= 3* l* :* x* D^ 0) :* $- P= `* q= .= N* 2* `* %= V* ]= {{ ]- r- t= u= R* 4! [= B* A* [= [= S] t* R- ~* R- )! W- [{ r* 4a 1* -; Z; p6 )% ]~ N] a* D] _< i* 4< $u Qt }* 4! W- e* A= w% t| S] !u '= A] {{ 8] P] [{ )= G9 A= '= A= x% J] O] {{ {{ S* a] 7* C{ a- 4< t! C] x^ ,= m] G= 5] e2 {* ]* N^ ~< ${ V* P; w^ |] 3! I{ y] U% 3! A6 J] '% L^ 2} g7 ~< 7% ${ &7 0| n$ [^ -$ p& 5$ X< &3 @] 70 8* >/ K; t] o[ ]= g/ <% $3 h= j* j] $- 8] -% d* -% v) E* q^ <% pr ",
"0' -u P* 7* F* C{ B] #/ m- C* @% w' T; h] ~u /) M% m, 2< x^ s9 Y< }6 M7 e4 k5 )% w3 n[ d% o[ =} q% k/ 7/ 3% F' <% $< [/ #& n& J) ${ |* j3 E} q% ^$ T% &~ )$ v* S^ v* J- ,% A$ w- @/ k^ H- p] i% K* }/ w- h% ]* d= m- I{ L% R* f= d= B{ #% 7' j) v* i* v) :* J^ v* A- B* e= _= := m^ 1; 3* 6* f= 0) ]* Q' N* 1* E* A* 3= L2 W$ ql T; Lc ^= (* N* }= f= w- y] $- c< B- <* v* w* Y* {* =! +[ V* <* p= d= P* D* B* &= (* O= m- #} Q' w- E* _= a- >< e= d= u* K* w* 3; U= [{ O= d= 0* *= R* H= ;) =- d2 d= N* {* ]- 1= i4 >$ P# 4$ d> _k d< g= m- a; C= 9* F^ O* <* 9* {* O= 3* e= 8> &= D* C= j= v- :* G* +[ `* k) =- F* 2= A* l[ p) J! z* <; h% v* d= /=  ; q= p^ e= ]= C= l= e= L= C= G= 8= F2 #* >6 P# b: Zm v- %- [= W= d= G= [= 3= 5> 8> &= ^= << &= a- }= [= 9* D* f= e= D* q= D* ]* e= @= k) z* 9* D* V= 3* A* >- j- N* F= J; C= [= D= 2= 7= j- a; +- A- b* -{ F* k= /; j- h% {u 5! ^^ L& .5 (] g; o* =; _k A- x* }- J^ &= C= &= '; K= e= z* 5= >- (* (* |* N* g= F* A- d= P* z* F* -{ v) h; q= B* O* m= |* ^= t] 9* /= u* ]* w* 5= *= /= `= ]* ;{ H- =p [$ o[ g> ]u z= ^u d= W= /= f= K* A- U] O= d< m, d= n- U* o- w* A* `= h= Q* h% 9* I- j; t] E* w* k= z* I- N* 8- <= _* {* s- l* :*  ; }= K* 5= 4! += Q= N* b= := := s* u= 6* 2{ A= W- A= /u N{ v* (u S< _u $p :u <u D] 6! v% 6! A= A= R] I; [u `' m2 [{ _< 0- =9 *! }u }u Y= E* m2 q- n> E* v% i* f] 8] C{ _* u* J- C{ b, v% w% A- d[ (! z7 w% ,% L% v) '= q^ C{ ^* y] -% |< 6* {! |< y] y% o> 7] ./ ;% %{ x% :% _9 a, E% r2 %/ g4 Q} k& j5 f5 lj ;% (} {9 Y< (5 }] p) R5 M) K* <* R= d^ |u j> wh )! $- K* P* j] L% I- ^= 8] `* p% O) ",
"1u a) <* m* 1* M- u$ {! h% w% N- Q- .> |< 7* @/ 1/ {* ~; A- 2u ,> v4 P: .| -$ b> !6 0% (} P% K# n& 4% /} Y6 @/  ! *^ O% $< &/ $9 %{ _7 C2 !& |u r$ -< S^ t* 7* y% B^ B{ U^ t! si U^ $- P* B] m, K* 3] <; 1; (* p) ]* d* `= w* D* S^ t- g= t] c< x^ ,* ]= U* t- $- D= C= S9 h% u* 6< }= ^= Q' a- u* u> q^ U] m/ k* d= '4 (5 P# d% 3u !< _* h* ]* j- a[ v) w- 9a P* =- 7* =- ]- 9* m^ /; g] h% f= C* H= v) s* C= v* (* ;g _* K* h% q^ 0* v* x^ K* E* z* :* P* !> (= w% D= `= (* K* ]* v* F! V* 8> C= P* q= A- F* Q^ 4u 4^ '[ Z{ e3 +; q= R* c= 8- =- m- 3* B* b; v* *{ $} i= v* l= O= c< v* /= H= i= H= P* F^ O* S9 %- D* (= /; t) ]* Q' _= H- #! J* V* A* D* ]- }= /; ]- C= &= m- q= O' E% S} '^ -* 5! S[ G9 :* F= 8> Dl ^= z* j- L* a- A* %= _= (* <* 9< <* @= P*  = f! 5= N- K* 7= %! |* G= 5u E* j) l* P* A- o- P* u* k* j) 1* |* q) n- I- J! u= O* &= 3= O* v* <- D^ v- t, ]- U^ *n 'n P# d% (3 e= 6u v) -{ $- 8= %; i= }= V= ^= b; c< G* a- (* P* f= A- P= R- _= 2* 0* u* u* [= R8 `= ^= g! [= N* u* d= O= :- S^ Q* G* *9 u* S' 3* I- G* m, N* s) +> hl P# '^ 7u 0< |* [{ U] w* (* }= F* j- m^ 0r s* /= `= >- t- F= V* O* C= e= B{ {* w% 4! y= &; d= f= :* ;g q= Y* '= .} >= :* D* I^ J* `= &= s- ^= E* i* 9> t* N* 1* )! b= R- V* )= )! [= %u C{ s| u= /s W3 `[ 8u 9u Uo }u S] }* `' Z] 0u _* Ar *! $u Y) au J- [{ S* }* ~* ~r bu != ]* +; 4! S* 4< 6* cu _< a] 4! b] E' v> u* {{ %! X* += X^ v% 6* t^ // V* C{ du v) g= y% c] L% i% /) d: @/ g] N- w% 3! C{ y% c> N] L^ %/ Z^ w]  $ || s% &] ]& Xd j: .! &* W$ %3 s{ 8} =/ eu 0* [{ B] I= P; :< h{ h' l* 9* @= P* (! ./ 1* I{ P- `* l% fu ",
"Bl q* j- h% K; 1* w* {{ m= <; '/ V* Y; n% w{ M^ o% B- u* |{ gu C3 W< /o 74 q% )^ Q# E$ y6 r6 .! i/ n& +% .( !< /) W^ t! 2} 2] %/ J- >> ~^ W$ f% j> hu w^ B] Q' N- O% c< :* N- y- E* m^ D* S9 9* (* N- 0* N* h% n- h; n- O* %! +[ =! u* t- {* p/ C{ U* U] '/ 5= H- e= n- J[ B] B] d= }= 2* I{ v) m- 3* a- m- d= S^ ek  4 }] s{ .> pb @= 1* D* S* O* x* p^ 2] 3* {* =! [* /* x* }= 7* ,; K* (* Y* $- 6* K* `* @= w* C= /; N* 2* 5] n- Q' D= N- h% v* F= u* :* (* v* w- l* {- ]= ]- q= b; [= f= $- ^= D= A* 3* 5= |; a, @= ]^ d% )% H3 U' *= =- b= =! D* p> 2* K; += Y* m^ H= P= @; (= <* `* J* B* K= w% P* A- 0* #} D* J* &= b- e= 46 G- {* m^ w= .= }= |* :* H= d= O' T* N= G= i= d= W' R3 0% )% x& Gp w* x* D* ^= I* H= (= /; A- A- G= ^= 3; :; d= N{ H- (= L* O= E= ,! G= ]* _= (= H' u) e= n- m- A- H' }= Y* z* <* ]= P* e= C= 0* K* C= (* 6- W= e= v* =! (* C= C= B* m! &= 8[ ^; 5) j: >^ P# v5 -3 iu P* q, G* i- P= H- d, :* =- O* ]- =! _= -- l* 0* d= }- V* 2* I* f= a; O= P= C= S9 W= q= d= K* A- I' q= e= %[ Ql ^= I- C= 7= 5= *; a- a; U= T% c} P% o[ '} ^~ 9* 2* /; (= <; 5= D= :* 0* D* m, z* C= h% (- F* R5 ;; g] u* g! N* {{ =- x^ n* (* B* u= >- R- R8 R= 8- A= [= &= D* S^ :* j= _* q- [{ r* K= 4- 8] n- O; ;g )= n; >* )- 4- ju &a v> 7< M= ~) jj ku lu mu &q Z] du W- nu e] t| ou n; pu r- `' qu ru %u 6t -f r| }} c2 ~r I] *; g= S' (! f] K) S' 6! 8] v> a] e- 6! 0* h% S) += h* f/ y% /) %! F] v> 9* -% u* w- m^ q^ _% v* q] i% u! W^ += 3] :% {! f/ 6/ =< !< c< B& W: A& :5 kl X' K/ _[ ]6 M! Z$ L3 [$ t5 e] J^ |* w- (* >= su J$ S; =) .= }= s- s- E' (! T- e= 3* <* r$ t[ ",
"tu M- _s 0* <* H- o> t* u* N* 0* 6-  > '6 |< (7 7] 0* $- $- *8 D3 k& uo T4 b% l& >6 W$ ^^ =} 1& o3 H$ [/ [/ (< =& G] u! *< P^ $9 T4 D$ q% _^ ;| <t Dh y] l] ;% _q C- y% Q' {* C* U] i% ]* Y^ w% F^ w% B] 2= {* F^ K; S^ %! Q' K* 9* '= 9* v* N* (! m, X* w= z* {* P* t* H* A- o* O* Q* @[ P* l) K* ]* 0* P* T* e= c{ s{ 5% U# uu I- H- t! u= K* }= S^ $- O* K* N* E* I{ m- >- ]* n- /; :; [* Q* R* }- P* ]- {* j- S^ (* z* m^ ]* ]* /; *= x^ )- D* J* a* P* %- N- P* #- 8- :; [* d= I- _= 3- w* _- =! V= 0* m- J! D^ vu wu 0% }% }| ~! P4 Y) )q R* a- 9* 8> :* p/ Q* D* (= ]* b- z= m, A- U= C= O* q- I* `* G= `= F* C= i= %; .; <* z* v) ]* t- /= P* W) D* &= L* l= z* /; == z* >= ]% }^ ^$ (} U^ xu z- ;) 8= ^= %= m, _= }= N* {* &= t, '- S^ I* D* u* i= 8- k) C= +; /= c= 0* w= 3= j- $n A- V= }= /* <; /; d= x* I* s= 3= <* ]- D* m^ 1* *= u* {* e= :* J* B9 c; n- |* V= n! G= -{ eq i3 Y& $& V2 S' b[ C= D= =- h, [= G= o- J[ J* F= 3* f[ j= ]- G- W= L' j- 2= ]* ]* N* w- 8= C= P* F* 9* F* $- f= P= Q* G* p] B* :* *= (* A- u= F= += v* 0; S< `) M! $g yu L^ #! w* +[ :; [; 6< *= }- <; w* `= R5 P* I{ H= 5] :* $- 46 :* u* 9; <; 2* =- z* O= @= 9* C= {{ <* $- A- `= e= v) O* 8] .- k= F; N* P= M= I* N* 9> A= v% A* Y= 4! U* zu s* *! V* )= h* bt Au Bu Cu Du Eu D] %- 5* Fu := &u 4! }u Gu X] A= X] `] X] X] Ta Hu }* `' i* r; }} S' 1* S' H- en b] 6* a] a] L] i* a] E* O= E] y% D{ w% I{ E* 6* y% y= z7 h] j] w* i% 7' @[ ./ 2] =l @/ w^ t! a] a, w^ N^ !/ 6* w^ q^ mq d1 :$ Iu $^  ~ &* w3 0% d% A& $p Y2 [^ kl r2  < L* b= 5] o= g7 $* Z2 Lt 6* O* ]* <; i= E* x* lj (* b* .^ Ju ",
"Ls Y] V* n- _* m, C= K* 7' y% B-  ; S; t$ /)  6 |] <; h% C{ Ku ,> Lu `$ e} {% P# >$ G: K$ r$ k$ Q% +% !/ S% [/ L^ O% Z^ )> p$ !< !! .$ y6 K$ 6> *$ #/ -% :% w% z7 e2 H- d= w- ;/ m/ @% 5] w- 3] ./ B] w* [* k^ 8] v* C* Vp C{ w- x^ w% [{ w% B] _* 0* h% v* {! ;) h% O* K= `* t* (* :- {* i= t^ E* E^ 1* z* 3* c$ >5 m5 /^ ;| x* Y* A- {* w% V7 h% e= v* 5= S' A- $- <o B* u* C- q= k* }- v* J^ v) @[ q- c= <* *= D* h; 0r ]* N- 0* A- b; w* /- <= m^ 0* 0* w* }= }= +[ k) D= (* H- i= _= a[ {* 7= 9* A^ u= /= p> C= D% )8 !% s{ _^ S3 Mu 5* #- '/ d= w% K* F* `* t= m- B* G= f= w= w- w- Y* i= b* 3* x^ N* {* &= V* }=  = h; e= H- u= I* P* *= O= {* ]- :; P= d= B] b* L= f= 8> Nu O2 ^$ P# +3 Ou v* #= C= H' w% S= &= 3= =! L* &= A* c= `-  ; h; <* V= }= m- v) ]- 3= :- `= }= z* ]* K* B* f- 7= C= P* &= ^= d= N* 3* v* H' I{ b= w* J* E* O= {* z* s- 3* d= i% (= c= q= O= D* }= t* A^ A$ :q K% l& Y2 6) H- O= /; b- R* ^= P= @- K* :; m^ ]= %! k) ^= w* d= K* I- P* P* C= 3] d= R* 4= :* A- j* K* A- 0* F* 6; x* m, w* v* t] B* D* W= m^ b- ,| S& f$ =} @$ <- x* u* m- w* '- P* J* A= Q* w= _* :* $- `= :* 8= ]* m, ]* .; $- _* <* i= N* w- ]* V* /; Q* n- ]* e= u= `= m= b* ]* 2* S^ B; >; `= 4! n; p) E* v^ g= m2 R- 8= 0- 7< e* -f )= 7< r* m2 lt Pu Qu P| Ru _u Su )! Tu )t ri S] Uu Vu Wu )t t| Hu Xu )= Yu xa r| Zu du `u A=  v t* =9 V] 4< D] += t* [{ f] 4< G9 m/ ^* 8] =9 N* Y* E' E' V7 a] w^ L% v* += $- y] 2* j] |* u* 9* B] @/ 2} 1/ w^ >% Ea g7 |] L% ~< o] Y{ T3 *^ 5% -$ j~ M! 0{ /^ 8} ]6 )% (} a3 2% kl T] Y^ f= [- Y* |> S% m% %3 O5 ~* #% =9 l* J- q/ v) k) h* d= (% .v ",
"+v r* c[ B{ m= :* 4* w% q^ =! A- >; T; K) L% lr W^ d= d= /; L~ H! U: I6 3^ W$ }] n& :$ S% p7 n& n& w3 =& F' !< m/ &/ |] t! {! C2 >$ S& ;6 W; @v T] L% p) B{ C* y% 7' 3] -% A$ J* U^ %! K* y% += ,% b] A- 0* ]/ l* <* J[ z= += {* d= =! w^ z* w^ J[ ,= <* v* A- 4= /= x[ 0* g= K* ]* 3* _= O* f= x^ 46 *= g< Y- f{ W$ K$ 4| #v Y^ A= u* g< (= Q' as u* 0* S^ .- S9 <* y% c= ]* }= p> B- R* 8= d= @= P= J* v* :- =- A- I- e2 $- D^ 5= >- +[ |* 8> ]= =! -{ 9* 7= g= C* i* C= Y= ]* D* P* Z- W= [* L* I- v* A- O= z* d= >= $v Hs P% #$ 5& /} %v Z5 <= w% k) R* u* (* D^ }= v) q= (* m= w* {* *= w* f= i= z* 5= t/ 6[ S9 :* i= S^ -{ 9- m- v* L' Y^ J* v* p] _= P* }= 8= K* $- j; t= q: !& n$ s{ ]; ,% %[ t2 >= W= o- b* Q* u* j- ]> 8> 7= Q= 3* 2= w* m, ;; d= =! w= I* q= $; *; }- :* A* 8> f= 0! W= /; B* p) d< C* i= v) '- t2 L' j) m^ D= 8> 9< f= q= R* `= B* 3= f= :; =; q= i* :* ]- &= &v U; >$ n$ )4 8/ W= A- /; 3= G= D* (* 3= P* B* 3* b- +[ s- .- %! z* n] 2* ]* v) 8> &= [= N- (* 0* :- ^= +; G* w% l[ e= Q' u= s- 9= F* f! C= =; [= }= J3 %6 0% :t e' 6* }= p) 9* K* {* _= v* ]* /* [* m] N* m^ @; m- Q* C{ -% m- w= 2* M* @[ q- $- I- [= *= D* p) D* }= ]* A= ^= )- }= 5= I* A= 7; p- :* q= .; A- U* 4= g= 6! z= <o 9> i* )! r- _* an ri *v Yu d] =v -v D! ;v >v ^* &u 5< ,v 'v ou )v !v ~v {v ej ]v !c v> ^v /v m2 Yu := t| (v +; ju .t x- o] E^ m2 t* +/ D] p) }* i* [{ [{ B{ m, &q E' += |] _v g] 0* @= Jt {{ C* p) U^ c< _= /) ~! u* J- %! :% 8' f9 *^ $< t] `& D2 n[ )% Y& o; e% <7 '6 :v 0% hl f$ '^ x/ s{ 'n )> vo _= j= u* f- !< F% +s O8 Q* :; B- 0* := U* B- S^ z* /= M6 ll ",
"kc 5< I- p) z* B] q^ l* {* }= 5] +) S; j$ x% L^ z7 v% m= P* <v V; )4 40 w} 0% *5 d% Q% %^ Dh $$ O% -* <% 2} |{ =& a, F' ^) &/ s} @$ 2% )% [v v$ y] U* %< =< y] 5] {{ R* @% 1* 4* |< p] (* e2 2* 0* >< j* Q' h% 5] =! {* v* {{ 5] {* o> d= ,= H- N- J* z* 5] 7* j- {* }v F* [t {* h; D* J^ z{ m/ 7' C{ _=  = ]$ e5 f$ $& ]; e% U* _= b; k^ b; y% <; u* h< 0* (* S9 f= A- e= q= _= _* t- K= C* R* $- f= P* v) z* `* /; Q' u* `= j) H' G= }= 46 4= :- 3] <; u* ~> *= &= _= g; I* [* O[ =f 1> k) [= f= A- [= =! a; [* I* C= S^ Bc +] c& #* J3 ]* :- ]* C= v* Q* m- 0* ^= ]* N* C{ z* }= B] N* f= >* 7t D* V* j) P- v* U* 4= w= 2* :; L* C= :- &= Q' F* q= ~> f= G= V= A- }= =- >= w^ B2 *6 L$ 53 |v -= `= .- v) }o J[ D= h% *= u* t= %[ r= S= ]* +- C* :* 8= e= U* << l= j) /= s- h; E= zg J[ G= (* x* e= ]- (= 8- 1= 0* :- F^ f- Q* '- 8= m^ i= }= 2* u= 5* A- t= E* 5= ;) -{ 2* ^= f= 3= &= D% m< 3% 5% S& S< H~ d9 e= _* i= +[ K* &= D* J! (* /; :; i= t= v* C= w* *= >- vn G* I- <; I- V* B* A$ 3* g! W= >- q= 2* K* #; K* 8* <* n- E* bo f, B/ Q# .& *& z= %! b* D= B* 3* p) m- d= a- g- (= i* i= }= g= V= -% #} A- K* w| n- z* (! ]* _* V* <* 7* u= M) a[ m^ )= 1* (* $- J* p) d= M= B* B* )- 6; v- O= s* Q* }* ^* := N{ s- }* := a* u= Y) S' |s 1v bu r| a' 2v 3v 4v 5v _< )t := Qt 6v )v 7v ~v ~k 8v 9v 0b R] 0v av }u bv e9 u! s| X] S] E] _< O- '= =9 n- Jt =/ S' i* 8] w% d] w- N* <; cv 1* r2 v^ /) 2} s* >< =- U^ U^ 5] += z7 8] q2 |< j] y] t! {{ P; !/ =< V* R$ 63 P% S& i$ Y) Fq 0{ `% 3% d% K$ E$ [$ X< P{ a$ /} a] u* w% T* p] <> ^% $^ /0 <! |= P- /= j- h* b] l* v% 7* (* ,/ z/ ",
"dv '{ ek E] a* S' N* -% h% -% Q' 7~ S; +% $< (% g] 3* ^= 1* ev ,> Pd #& V} X# .! K$ h/ $^ =% r$ '% 6/ G: O% t! |* x% 7/ {* 5! j% (5 X$ ]3 h; F^ @% w* m^ L^ i% 3] {! w* 3] {* M% }= i% S' Q' << :* ;% d= e2 y{ z* w% P* Q) t] =; N- $- m/ {! w* <* K* {* E* =- G* 3! B9 |* i- /* m, 5= 5= k) 0* i= A- R* ]* ;3 a$ A& Z2 X7 U* ]* z* w* 3* K*  - :* n- `* p) A- }= A- 5= S^ _= (= >= '- H' L= C* A- k) K* e= <= j- b; r; }= P- 0* <* 5] Q' Q' D* 0* (* F* A- z* v* (= H= =; D* m^ D* O= w= L= k) K= {* Q* 5; *= -{ s/ c< G= 4= T# >^ !& y[ E} Tp $; v) I- <* 5= _= 3* 8] c= <* m- t] S^ 0* v* A- P- G= 2* 3] %= a; 5= =- a9 9* B* /* l* q^ H= 1* ]* a- ]- ]- 5= *= v* R* &= -; a{ -$ .& 95  ) un Q* Y^ b= m- W' U] F= v* L= R* k* '- .} E= (* '- z* ]= P= q= b* a; d= ^= ab s, &= @- _= A- D* (= j- m, up d= k* &= C= 3* |; %; ^= 3* J; w= (* n- P* P= <*  ; W' ]- k) D* -- D= 5= i= Q' u= b= fv p{ 2% Z$ {] >^  o 8- }= [= f= g- 3* C= 9* a- ]* ]= A- 3* p) :* 0* u* w= k* A^ %! x* B* W= (* L= K; C* ]* C{ v* d= D= f= b; Q* J* 8> w= ]* J- /1 d% _[ c^ ]8 {* h% ek 9* D^ E= [* V= t] I- `- *= 1* f= :- n- q= u* 46 l* P* <; l* m^ 1< e= m^ H- w% S= ]* H- Q' ]- 2] '- `= 2* t* B* 5; d] ;= g' x* N* Ar l* @= ]* 6- x- s* X] Yu *; Y= *! ,= Rs 4< Tu 5< gv hv v2 iv jv kv lv Jh mv  v nv ov .b pv Uu qv rv sv tv ~v 5< 9] |s `] %u =9 *! `= 4- p) M= f] A= v> 8< e* ]* ~; C{ G- (! w% t* 9* ^* v% Ht >% A$ @/ {* 6* 6! e2 m, {{ 9a y{ b] h] =9 B] _/ 6! 8] t! D^ i% Nl 02 B# 57 '6 a* U^ o$ e% _7 W$ (< l% >6 k$ !6 b2 ;6 L! (! .< x^ ]* $- yi p% L$ U2 Oo B* v) B* (= B* V* j* =- d= >/ t3 Ju ",
"q3 nh S^ y' (* q- p) V* Uo `= u= ^- S; >/ C[ N] @% V* ]* 8] uv O2 () F- Z' E$ P# b$ A[ `6 w3 '% D% v$ j$ w^ >9 |] y% B] 8' =* )% %] {^ vv 3% t^ i*  < 5] S% y] |] 2} 5] Q^ i% 5] R5 o> {{ $9 d= ,= f] |* $- v) ]* K* wv h% h% ]* A$ 8* C{ B{ V7 g] d= 5] C= += $- }= S' ]* <n |* V= =- J* }= D^ B] C{ _> L2 Z{ '^ 9% xv 2& #/ |* 6< R* v* _= A^ ~> O= J* m^ /= w= f= J^ B] A- =- w- ^= E* K* n= |* v* K* C= `* D* Y* q^ w* _= l= I- 0* l* u* E* (= j= w* <* I- u= a[ *; :* z* P* u= [= P* 2= h; v* }= z* a* A- g< 8* }= N* n- yv H! P# !6 #3 }; a[ K* P* 5a h; 3* _= &= z* _= 2* =! /; << {* j) '/ 5= |; 5= e= y= /= D= f= u* ]= d= S9 O[ E= s^ +[ }= E* q= 3* 2* @- #= e= 5& 2| )% E5 I# @; 2* f= '- <* [= :* (= u= t/ 5= G* 8> y= &= :* V= u* ma A* u= 9* :* P= p> p] b; I- 5= h; N* y= R* ^= /= i= ^= J; 0) |; <; :- Q* /= N* +[ &= n- P* w* O* 5] v) z* /* _= @= 9* 5* _= F= f= j= .; @[ un Ln /& .& )% Q2 ,- j= H' 3* 2* A- B* [= ;{ S- q= ar D= t) @- d= d= A- =- m= G- D* G= m- ]* Q* ,! w= -{ ]* A* q= d= K= u* O= *= z* w= u* c) b{ zv 0% L& }8 ^< u* o- @- *= v* D= 3* h% ]* <; P= :* q= d= K* ]* A- q^ {* R* 6! += C{ A- u* -% <; O= H- d= N* K* 6- {* I* q= 2* i% <; ^* z= O- z= )- w* A) e* z- 7{ Fh S* w- e* X= K) Av 6t S] e9 `' nu Bv Cv nv Dv m| Ev Fv Mj mv )t Gv Hv Iv Jv Kv Lv Mv Nv Ov av Pv }u Qv wa Rv Sv Tv Fu `] e] T= =l ju C] )! N] E] O- $! 6' u= *! f; f] L] C{ #/ t! << j] l] w{ {* P^ {! $- l] (! E' ./ p) ek 6! U^ /) 6! &/ /) i% Q# L2 v6 /^ E% '= 8] L% Ea R< g/ A6 $^ $^ K$ +^ A! x/ '[ /7 t> $% 5* O= h% R! [] 7/ T2 m~ d* A- K* s$ u* $- B{ f= Y* D^ N; H4 ",
"1u L7 |; F= <* t* p* n- q= *9 |9 6> S; !< ~< r2 [[ m- g- 2* Uv l{ b7 <7 <^ X# a$ W$ (} +6 2& *& /% <% S# =< /) un 7] m/ ;] 7& >6 s{ 8^ F^ B{ e2 |* @% 0< %! Y^ x% Bn D{ U^ P^ S^ += a9 o- D* U^ _= w* <* P* 5= 3! J^ [* n] @% a- Y^ |] V7 {{ {* R* 3= -{  < (* ]n ,o J^ (= :; R5 v* *= v* p) w* t] z* 1< }| G5 k$ h> }! _= (= <* %[ O* <* C* N* 1* r! w* A- _= m^ Q) V* l* H= K; I* u* V= P* Y* /= C= O* D* w* f= @= A* C* 1* ]- G* [= H- A- u* ]= h% {* p] F^ l* W) F! z* h; E* m^ t/ -{ f= g= }= &= j) v) 5= J! i= ^= (* U* U^ >; P% Zt -$ In $; w% u* {; F= `= :* 9* l* d= &= m=  = %; 5* 1* %; S' x* 2= /= D= j- [= g; 2* 8= )- C= Q* Vv K* #- ]* (= C= A* G* S' &= 8] O2 V$ ~^ #e Wv }= &= R* #- ]* [- 5= N* W= S9 4; q^ K* $; et j- *- =- (* f- O[ a- (= A- :* f= :; I- 5= i= n- #7 v* `= ]> R- P= J* ;= H= (= &= (= == P* D* C*  ; Q* I- =! *= ]- D* H' D= H- f= 6= <- k= <* Xv j) 1* A* -{ %* Y& A! Z{ Yv 3) F= j- b- w) h% r- ]- Y* v- q= ]> &= *= 3* D* ]* V* K- q= =! '; S* =- +[ R* d= *= z* J* 3* A* C= N* m- p= G= ]= Zv a$ 1| !% V$ r: 2) >= n] I* C* S^ *= P* |9 b- 9> ]= `v v* I- a[ _= /; h% ]* 5= U* s- O[ }= _= K* w* @= d* C= &= _= p> O* u* i= |* U* {* 9= S' ]= _* B; :- 2* 8] 5* A- Q- u! )- -f A= s- u! -= E] Ar  w -f .w +w ru @w _> #w D! $w %w Wu ,v 1j wa &w *w =w -w ;w >w ,w )v ~j 'w )w !w  v ~w 6t [u Qt )! t| S* Ds {w C] E{ `' S* v^ )! 4< S* M- v> B{ u! u> U* U^ 3] C{ t- +; B] V* {* |< ]* ]/ ./ ]w w- += ./ u! @% @% Q' .* O2 '6 >$ K$ a$ K* S% K{ O% m% r$ $* Q% Z& ^^ ^^ '^ h> G5 (} g* m, <= G= %! '! p% t% ,> /9 ,* += z* K* u= k^ P* :* 6* {* lr Cp ",
"&o e- 0* 1> ]* 5] t= A$ x* O= (* 0^ Z; x% t] P] 7* z* P* S^ ^w @1 1| np l| P% K# &* W$ Q% c% `6 b^ O% t! E% N^ d! 5] V* O2 )] {% 7/ Q7 K{ z9 3! @% x% 2} -% -% Y^ %! S^ 7* 1* A^ J^ y] m] *9 /w y% |] w* q^ u* v> }= 5] y] 8] S* 5] {! 3] Y^ 5] v* S9 _= n] :* 9* x^ (! :* ]* %! C= a! w* N* 5] z* c= J< A& >$ 2^ J0 w{ z* I- Q' m^ S^ c< 0* K* 0* l* 0* O= h% v* m^ d= <* D* U] P= }= W= d2 /= k) n- 9= -{ {* $n :* v^ L= G= <- v) C= u* K* 2* C= F* J* v) H- l* Q* K; m^ w) 1> 2* 1* Q* f= S^ 0* 5= &= J[ $- 3* C^ t= 4= e= `= (w h> A5 [$ !! d= 4[ 9! b[ d* ^= a* a; D* G= s/ f- T* #- M* g! {- `- |; t2 R* 7t q= 1* {= 6< %[ f= R* w* |> {* ]n m- R* A- ]* V= R= I= /4 E$ >6 W$ d^ 9a a* H= x^ b; :; :* b; d= {* _* G* J* /= f= ^= |* @; D* P- _* x* f= J* 5= f= r= a* v* Q* }= Q* t) P* z* ]- p> >= 5[ 2= <* 8> k) ]= ^= <- }= D= ^= F= V* I* P* z* /; 3* t= 8- 4= <* A- f= :* O* [- G- 9a Y^ _w q: o6 E$ '3 o] h[ c= 8> (- ,! Q) q= t/ :; T* ^= &= &= 6= :w :;  o I- q^ 2= s, t- g= p> ~- v) }= v* 4= n- =; k) P= P- <w }- P- H; Y< A! Y& W% 18 %! l= S^ 0* x* 6; (= S^ p> h% G- `* ,o K* 0* g= |* q= ^= V* :* s* q^ G= /; Q' |* :* p> 2* D^ Q- :* 5; 0* %; N- U- l* u* v- U* s* :% Q- y' K* v- B* Y= d] u= 4< `] 0] 4a i* := u; K- ri ~r [w )t ri M- }w 21 |w 1w 2w 3w 4w ~w Qv rv 5w 6w 7w 8w 9w 0w aw bw cw dw ew fw gw hw fj S] T- }u |} Y) i* 4! 4! *! v> *! B] t* 6* v- i* Fh 7{ #/ n] 2] g= += D{ w* q- c< 8] `* c< 8] w% J^ w^ Y* :% x% 5] h% d% &3 e$ K# d! H$ iw E% @% l/ Q6 g/ [] B[ /% $^ >^ ~^ o6 e{ L< qc Y) jw D* C= a* 9o ^% e% Y2 Ir ~* u* I- c< [= h; x% x^ m= U' C6 kw ",
"0' )t h% <* $- k* 7' {{ r- C= h% 7) S; =< @% ^* x^ `* }= J^ lw a{ j} $/ [4 $* >^ Z$ F' i$ o3 d% E% U^ -* B] '% !/ :% q^ i3 E[ s{ /4 Q! F] `^ T^ {{ y% U^ _%  ! M% t- 5] Q; 5] S^ i% C^ A- 9* j] ek R5 K* V* B* t! -% I- (* G- m- 1* m^ x^ @% %! I{ w% S- R* v^ i* {{ v* 3] m^ m- N- N- b- d= `* Y^ .^ s4 &* L< w6 4] -= 0* 3* {! `* Q' w* P= C= P* I- [= q^ /= :- [= O= 0* K* (* 1> W) h% m^ P= N* m, := z* <* w= m^ D* (= 0! D*  ; C= ^= A- v* H- ^= %- R* D* Eq Q' A- [{ v- O* m- P* (* _= K* D= 8> m^ <; 5= <; A- x^ K* v* <* mw nw S& >$ ca V; P) W- x{ w) 8* f* (= -= A- R- j] B- S* ,* p) /* A- 6! p- >% C] V] -% 6* v> _} (! Q- 6t j= 0] |{ ,= M* u- 6* {* K6 Z9 ;| {% ~] c^ ow :; 3* Q= I* l= S= t= D* (* 3* C= /= :; O' P= $- i' m- d= P* I* &= {{ P' 3* i= P* O* 0* i= O' K* e= a- v* P- D= v* =! 9- R* ^= _* I' P4 i= 3* f= Q= W= 1* *; <; f= K* 3* 3* (* z* !- n- A- x! d= 46 5] I* `= n] G= /^ o6 a7 I2 -= j= 9* x* )! w% e= K= )- j] G; ]* v> d* l] I] w- 7' w% :* _* in u3 4* E* h% L] |* Y* j] V* 8* -% j* != u$  ^ (3 S& !^ >$ I] O[ 1* V* 8> S{ =; S' z* 0* v* {* w- 8] y= 8> 0* m^ _= (* y% C- @% O= <* #; ,; w* k* $- <* 5= q- K* 3* d* v* N* 4- := u= K* 4< C{ l* `* P= M= l* *; `= q- k* i* ^* *! }* Z] m2 ~r A= r| }* )t pw 0l bu Kh qw @2 rw sw tw It [w ]v uw vw ww xw yw zw Aw Bw Cw Dw 0b Ew Fw Gw Uu Hw fj |} 9] bt G{ 4< q- St V* /u Ds {{ c2 += 4- {{ ^* z- {{ *= _< A9 8] += m- m= h% <; |] 9* y% C] u* O% G] E^ '= x^ 7* f5 N< b% h^ w3 U$ Y! 8' ${ (< F' ${ ${ H$ @/ E% @& '6 !6 E$ U2 S& ll J] V7 b* <* l* R; t3 n% Z2 7~ i% }= <* w* p) 5] v- i* K* (* g7 Iw ",
"b6 )7 Q* ~* W) c* K* {* v) q= $- u2 Z; +% P; W- -% @= Y) v* Jw O2 T: Kw u} >$ X< E$ 5$ 6' '6 E% $*  ! r3 Lw a, A9 O% ]& Z{ )% ~] `& d& J9 C! l] }5 K) ./ &/ ./ a, :% (7 {{ ./ @^ N- J^ m/ ~< (* K* ]* 8* 3! %! J^ w% O[ Q) N- H- w* C* 0* S9 J^ B] U] m^ V7 S9 S^ ]* y] N- P* u* *9 w* =9 v* m, 7=  > @$ f$  > ~o v* S9 fk B* l* c< f= 9= :* {* -% 3* i= ]* ^= 8= x* C= |* `= /; h% I* d= G= (* v* #- v* 3= %! k) 2= d< S^ ^= >= ^= Q' ]- 1< z* }= h* _* S9 O* [= S- 4= u* S* v* S9 _= {* (! z* v= j- :; v- '- u* f= D* l* w* h% Q* h' X2 !% $$ !5 %1 C3 L2 S3 x/ P{ `2 G2 O2 Y< H2 C3 B3 G2 F2 +3 ]{ +3 L2 {3 U| g> x/ J2 69 *3 H: @3 /3 43 D2 E2 O2 D3 #{ L2 H! G2 C: P# Q# I/ Mw )r [* D* I- r; -{ y= `* K* m- Q' V= '- &= h% M* a- J* d= ]- Q= 5= 5) L= t/ m^ W) _* C= B* N* 3* :; A- P= P- }= 4=  ; #; J^ $; P* ]= (= U] i= <; _= F!  - P^ (* ]> a* 3* W= R* D* P* C= ^= A- 5= 0* *; .- W) %[ P= Nw U; E$ Ow 1| n{ (3 3a c{ S< n{  > G2 Xm {0 #{ b{ d{ 73 C3 C3 H2 N< @> -3 ;3 G2 92 @> (3 S3 F2 Y< p{ O2 F2 ~9 Y< W3 e{ U2 h> B% V$ s{ Pw Tm b- ]* m2 _= =- ]- g< A* e2 K* K* D= S^ w% w* w- 2* V= 3* %- 5* ri s- s* w- F* I* w= j= (* [{ 0* O= D* b] w* n- == }= B* {* I- /) {* 2* U= q* f= C{ P= l* S* e* [{ ju U* Ar v> Qw r| Tu [w }} `] Vu R] Yu Rw Sw Tw Uw Vw Ww Xw Yw Zw `w  x .x +x @x #x $x %x &x *x =x Oj -x tv ;x }u >x 4a bt S] Rv w, Y= ,x _< <9 }* Y= >% d] 6* 1s S' C{ <; <; 6* ;% E' K) B] V* z- m^ @/ += := C{ T] m] N^ 7] O= qc J3 hl c$ o3 V{ Jp Z^ o9 )> 1] <7 p7 ]/ d! w3 W$ >^ ~^ q% /6 (3 /^ 80 O- Q^ ./ _= @% 'x (< _% @> <~ H- o- S^ 8] %! w% {* }= 1* a] /% )x ",
"+v P) J^ o] m- (! 7= Q' 4* x* 9* i! `; Y^ d^ ~* J8 ;; <; A- !x O2 ~x t3 s4 ~% Q% A! 0/ 4% <% `$ M6 n& '% &/ ]/ _/ g] {& a$ S& Z& (k r$ P^ =< f/ E' 2] N- I{ :< w- .< {x v* c< R* (* Wp 8] q^ I{ w= j) /= K* w{ t! {* s$ s^ |* r! v* N- C- @% W^ K* C- R* ./ $- v* u* :* N- P* S^ 6* G= m^ P* 8] f2 #] q% Q% 6s w^ `* E] :* 5] C^ w= m, a9 A$ Z= t] S^ #- x[ =! j) J[ Ah <* K* Q) a; m^ v) *= m= [{ }= 7* &= 6< a- l) I- v* v* '- =! ]* m- d= q^ q^ D* I- m^ J* S9 m- O= p) p) w- B] n] =- a- S= [= u= n- K* J* :; 0* n- d= +[ H- Q* t] ]x _^ M! ~] t6 M$  7 W$ >^ `6 o3 P# $$ s{ $^ Q# .& 0% L& '^ .! /^ B# .! J) [$ M! q% }] B# K# Q# '^ W$ 0% S# .! 5% q% P% q% d% M! K# 1$ o: ^x /= -{ 3* h% m- j) g< q= (= G= 4= O[ ^= 3* 3* R* x* @; q= g! 7t &= t= u* w- += W) :* e2 P* G* w= e= f= f= 8- 1* &= I* P= ]* A- P= I- [= E* d= :* b; -{ c< 0= b* }= z* (= j- 5=  ; [= A* 5] I- o- K* x* -{ 3* 4; =- ]= _4 M! Q# P# ,[ A[ M! B# $^ (} i$ Q# !% d% !% M! A! W$ d% {6 M! B# /^ Q# [$ !% r6 4% -& >^ B# *& K$ I$ J) K[ b$ qc J6 Z$ s{ a$ A& ($ /x @^ J* }5 W) Q' [; p> `= o- P* $- *= <* Gh V* A- v> _= w* (* 5= -% A- B* K* p> R* ]* w% *; _= 4! j] :* A* v- ]* s- 0* [- K* q= {* Y= 8] b] M- y= 8* 4a [{ [{ Q- )- := )= d* Yu m* X= c2 X] Qt W- (x Yu Qw [u _x lp :x <x [x }x 'v |x 1x 2x 3x 4x 9w 5x 6x 7x 8x 9x 0x ax bx cx dx t| }u ~r ex f] v% Z] &u q' T] D] O] E{ 0] fx )! x- m/ ){ p) Fh x^ 8] w= k^ D{ g= <* w* n- q- /) p) $9 t^ w- v* e] $* `; >^ B# Z^ Y$ @l ^^ w^ $9 E% %! Z^ N^ 6/ D% </ </ o3 >6 r6 ,6 #{ ~^ .! U* S^ <} 9* @= |> [] +% C3 <! |= q2 2* o- _* S^ '= [{ D{ x* qa gx ",
"Ud 3{ C* D* y* B- P* *= (* Q* d= h' S; }5 @^ d= ./ a- <* v) hx R3 1| )> e} b$ X$ S# #< /} </ %^ L^ 8' d! D6 '% E% xa O2 E$ (5 /] >o w^ C- ~< 1/ m/ $- B] g] !< ,= %< %! S^ S^ {! U^ C* U] ./ s$ ,% w{ ;% q^ N- x^ mo '/ -% {* g] q^ Q* ]- S9 e2 i% x^ I{ s^ v* S^ `* f= 5] Q) %! +[ Y* 0* 9* m^ .& v6 q% ;] r3 G* U* 3] h% m^ ./ <= l* :- K* %! d= S' 2= @[ A- j) I{ }< (! R* Y* 9* >0 _= K* m] =; c= 0) l= L= P* g< K; L* G= <> 5] i= (* P* v) h% A- m^ 1* I* 5= I- J^ :- V* 0* 0* t] d= A- Q* 9* _= I- `= H- ]n W= w= @- A* w= %= e= j7 !& E$ ~^ @& .^ Z$ 7% o$ .^ P: r3 S% N^ g7 F6 l/ ^% C! q] N9 L6 _/ x% [] (% o$ F' <7 Dg p% F- 8' D6 )>  ! *& b^ K$ A6 h) 6/ Y& ^$ ($ o5 A& &= 3* 5= w* x* 8> {{ %! a* /; :* `= <* Q' _= 1> I* I* v* 5] H= H= l* }= O* z* l* [* l* O= u= e= J* :; /; C= 0* G= P- V= e= Z= m^ }= t= C= O* 5] P* h; 0* 9= O= u= T* t] 3* w= K* n] S9 F* O* f= A- 7[ r= r; C= j! m- H3  7 (5 @& g7 ,= j] =l W] <% 1] (% j$ |< @^ ~< h] G] /) )9 %{ z6 E6 >% C! N) o] L% t! :% {{ 2} ~< g/ g]  ! w^ h/ b, F- S% ^^ P# !& 7| {! ix N= x* v* h; Q' vn w* S^ s* |* ]* 9= w* D* <* w* i% f= K; w- >0 i= Y^ `= q^ *= K; j) B- p) h% K* m- n- G- =- /= w% m= F^ ~; `= <; v% U* f; S' *! ri g= u= )t 0l Qt Z] *; Rv Tu 4a 7< l* jx bb Uu kx ru Rw e1 lx Tw mx r| nx nx Jv !b ox px qx rx sx tx ux vx wx Ew xx Gw ou yx K] Rv an G{ A= an Ds v> x{ O- e] v> kt v> 4! ]* ~* ~! -% b] B{ :% v% 4! Q^ x^ 9* D{ 3* u* p) p] i% x^ -% x^ v6 a3 ~] W$ bn 1^ uv #^ +% @/ x% F- L% c% d! F' c> e$ 7/ $* i$ D' [$ F2 :$ p6 Z] 0< P= d= 0*  ~ Ea *^ G2 U! H- (* `= _* [{ /) [{ w* U* +[ t$ t[ ",
"s> a= .- u* |* F! 7* E* /; z* m- _> S; G6 @^ u$ =< E* Y* 0* *n R3 &] I6 b4 Z$ 5% K$ +% F' B[ Z^ H$ `6 %% L^ Z^ m] ~; +0 &* :$ Ma >= 7* [t q^ y] a, B] 6! @^ a, c< r2 |] <; w- N- o> I{ 5] 3] C{ {* 3] ]- j] {* P^ =! `* K* 5] L* C{ += U* w* k^ S) B] B] h% w% w* a, +9 <* C{ (* A) <; `* D* #/ zx n: >^ E$ c^ s'  = l* 1* S^ 9* i= q= ek /; /= #% m- V* d= C* w* {* vn ]- F= w- 9* =!  = m^ H[ G* ~- +[ v* F* (* E= 3> }= D= L* B] P* `* =- n- D* {* k* S9 z= ]* 2] }= l* q- 2* 7' 5= +[ L* =; 2= v) d= 5) D= D* -{ 3* v- (* W) W= ]- S; Z$ '^ w& e0 W> Ax )( Bx Cx Dx V@ [( A+ Q. Ex z+ Fx Z. E+ Gx j  Hx H+ ># '. I) i  Ix Jx H@ Kx Lx Mx ># 7@ }  u. u. Nx A@ y# Ox d% E$ 8} f{ :- b= D= 9; I* q= @; R* t] A- F* n- F^ j- l= u* '- 0* e= (* ]- D* O* e= z* G= P* N* k) 2* S) j; l= J^ G= 5= 3* C= [= |* 1* q- R8 f= f- q= b- {* k) %[ 46 K; n- B* i= d= h% =! z* v* V= <* {* C= /= <; l* &= D* f- Q: %l !n /7 v> Px Qx Rx Sx Tx Ux Vx `> Wx Xx P@ Yx Zx `x  y .y E. +y @y 7. }  d  #y $y %y &y .a `>  l [  *y 7. =y -y ;y >y ,y j= w3 Q% G& w& Z- <; +[ S^ p) (= E* O= m= (* ]* (* /; d] (* B* m, A- w% W) *; A- Q' I* 5= V* )! F* o* {* ]* H= o- )- <* += C= P* <* E* @= K* k* K* v- [- [{ <* I; a] >; o= r- )t I^ )t M= Y= 0- }* $u )! 'y Tu ^v nu 0l xj )y !y ~y {y ]y ^y /y (y +j _y :y <y [y }y |y 1y 2y Gv 3y |x -x 4y }u wa ;x =9 Bv 5y 6y *; r] Fh 4a  v It ,= |s p) 7' p) v^ [{ >% _* (* u* B] /) |* -% `* I{ J] I{ l* 5] ./ /* p2 h9 v$ o[ ^% yr ~n )> $% Q; 4/ W^ ^/ N^ 8/ %/ F' E6 d! 3% (< !^ i5 /^ `2 Q# ,6 r- n] D* i= N- 7y #<  ! 43 T! I* u* X* v) {{ z- f! I* N- J* pn 9' ",
"O7 d; J^ (* @% H- @= v* D- f= R* E) S; %{ |< 4< U^ I* _* I- }8 S3 G& 25 m6 i$ >^ 7/ (} =< %% e% U^ A9 1/ s$ [5 p/ 9< {] )^ ^6 [| 2] ,= W^ j] a, x^ ./ x^ 3! w% u* ,% |* i% J^ a, I{ >% n- 1< A$ 3] 4/ ,= `: a, 0* w^ -% w- u= V7 {* 7' *! P^ 9* C{ |* A- /; i% d= |* j) := =- 9* v* x* (* t- Q' d9 d! J$ A& .$ v} L' N* w% g= v> |* P* v* |; <; e2 J* << K* 5* r/ d< p) K* ]* v) I* J! 9* [s A- E* C= l[ 3* h% }= E* u= O= q= ]= z* (* ^= v) v- }= 0* O* W) H- %- m- 8> W) ]- w* w- &= v) {* D* Z- w= ]- q= I* V* u* h= `=  ;  = Z- W: S& 6% >$ 8y b% 3/ |] d/ ;9 c& #$ %% Dt )& S7 Ca Q% '^ Q% 9y Z& Io d& b% v9 U7 ^{ 0y 1o i7 N$ ay Io K% Z& 5% <$ 7! l% ^{ by  & 3* v: %% q% @$ d| >! D* eo N* K* D* z* }= =; d= [; s* B* ]* _= :* k) 0) xn 7= C= k) a- (= b; /; %[ 4= D^ #% A* t/ b= e= A- j- S= F* m- w% <; I- I* f= P* z* 5] }= w* U] 3* F* I- U- G* (* ./ -{ m^ I* F= Q' /; a- v* K; C= q= a] B} 06 ~^ cy ]7 G# +( q$ J# _& o& 2$ dy ey F$ ;$ k: fy #$ k: }% J# gy hy 1$ iy '& yt ~$ #$ T# .& jy /$ ^$ <% L# j& j& Dh w6 iy m~ Z2 r6 D' >] j$ b* u= =! d= $- d= w- b] f= -% I* @[ V* F= w- m- -% m, E* A- (* =! }= K= w* $- 5* v- L* 2* )- 9* m= v> O= g= K* s- r; K* :* )= '= z= G- s- z= ~- V* d* i* D] C] Jh 4! ky ^* ri )t X= `u fj bv !w 8v bt I; ly my ny oy ]v py 1j qy *i ry sy ty uy vy wy xy yy zy Ay By Cy Dy Ey G{ )t Yu Fy ri =/ 4a Rv =/ [{ Gy Rv q] ~r 4< <; a] `] f] H- 6! =9 6! U* 7' C{ {{ -% H- i% <* 6! x* 5* ^* V; ;] ~^ kq Hy Iy `: t- 3] _/ g] $% +% =& r$ ,= Z^ 5$ S# _7 =} *& ^$ ~^ U2 ,6 K4 A{ Jy o* )- Q* $v _/ j$ N< :} @; {* A- k* ju <; I* /; Q* f= o3 r> ",
"Ky >e h; u* R- v* E* `= 1* v) x* Z= S; c> T^ p) J^ `* H- P* Gs h9 *5 >t b} i: -^ 4% 7/ /% )/ p$ =< t% O% c> R^ jw 7* &] 0% !% $* Ly y% 05 x^ (& += 3! _% p^ @^ 3[ F^ Y^ += b] 8] w* @% [* D* ;% _= t] 7* w- |* /) V] (! O* #% u* 7= p> =- q^ ,= P^ 5] H- q/ J* U] B{ B- Q' 1* {{ :* Q* S^ '= <; w* My z| 3% x6 ~3 K* .} z* 8= 9* 2* z4 <; |= O[ 5] v) w* ^= N* -{ _=  < v) 3* x* :; t] d= {* #= :* (* D^ `= :* w= d= V= (= {* a- 3*  = |* P* z* d= 3* 0* W= 1* =! C= j- K= p> _= v* -{ <; /; 4; m^ l= Q' ]* i= F! *= K* 9* /; w= :< s} ($ K$ Z; j2 v* K* 5] ]n 9* x! v- V* 9* <* +; f= v* $- O= N* n- m- &= +[ ]* Y* p) 3* S^ ^= k* I* P* e= A- m= O= S^ (= j=  = e= v) q8 /& '^ }$ |3 v% |; 9* ]* 5] _* e= :* O[ {* :- l* j- f= J[ [* a- P* z* G= d[ (* U] 9a j) A- T* <* `* B* &= H= G* q; j; h% 0* ]* G* F* D* &= v) ^= 5= J* F= w% O= G= V* I- z* [= x) l= *= J^ <; :- :* (= P* <* A* a; C* u2 a{ i$ ,[ o3 Ny q^ =; e= ]- -{ &= F! :* h< I- (* *= =! q= v* i% _* _=  = [* t/ )q p> _= V7 i* |9 R* S^ 8] p> A^ h%  = i% v) ]* n] $% s9 .g f% v6 73 <- J[ -% V* `* h* A- 5] 9* K* 9* 9* K* =- {* 5] p) /; C= 8] w% *= {* -% &= 5* @= h% k* 9* /) 2* v% v- B- 4! 0* <; D* `= }= H- U* ]* h* 4! 1* := 0] M= E* *! A= X] ^* F{ J] t* Oy 0l Py Qy kx Bv Wu r| Ry Sw Sy Ty Uy ]c Vy ]y Wy Xy Yy Zy `y  z .z +z @z #z $z %z *w &z 'v wa Uu X] `' *z =z fx -z )! 0] ;z _v ~r )! 8] A- ^* 2] S] Uo h* S* p) T] {{ y] 8] v> [{ x% 9a c< 1* `= x% c{ b> q% >[ X; >z +% t! y{ w^ m] q^ &/ P; t! @/ B[ ${ r$ b^ W$ ]< `6 '6 >6 _0 M! ;^ M) si d= C{ u= h~ C[ ${  > 6> (* 0* 0* $- t- 0* N- N{ F* A- )> nj ",
"pp 7= .} a; 2= N* <* 46 J* I* h% :* S; >/ ,= V* ;/ =! <* |* ,z E2 X{ *4 c} K% 6% $* 6% c% d^ ;4 $< 5$ &/ [/ 7' `% y% K$ >$ J$ g- 2/ Q' ./ ;% 6! m/ B] p^ V7 ;% x^ e2 v^ ,= ./ i%  < O* |] x% <; @% {{ C= -[ <* A$ m- q^ l) /= ;% B- C* `* |{ 1* 0* S^ ;; 3] $- 7' u* 8] B{ C= S9 d= O* w* n] *= S) }/ Gn K9 ~] L$ ,> N= G* `* -% J[ x! f= 7' l) Q' u= k* E' C{ P= h% z4 7* m^ }= B* h% N- D* :* <* 1* i% w* z* v* z* %- [= J* w- }= fk a- =; .} 5= R- 5= 2* 5] w* A- o- J* %; m, y% w* A- V7 v) :* }= P* D* A- @= 5= 1< I* -{ ]> d{ >$ >$ W% 'z .< <; %! F! D^ 2* A* k* i= f= b; 5* a- _= m- &= D= n- J* D* Q' S^ <* d= w= }= ,; D* I- <* 46 fr %= += ~- N* S- ]* :* P= D^ ,% 4s ^^ :$ f{ pq d= .- z* A- 3* E= [= U* d= H- /= D* :- /= S' ]- u= /; F* K* K* @% N* 0* J^ 3* v* }= c= q= 1* k) w* h* D* C= *= w* d= 2= 1* i= w= I- <; 5= V* k* G= t, [- 3* &= 3* J* ]* S9 5= 3* f= ]* B- F! }= #! F' A} ($ !6 ~3 A< H* 3= '- ]- a- V= J[ W= 0r z* m- 1* O* r= (* 9< ,o I{ v) 7* O= d[ P* 0* =- D* C* R* x^ p> m- 8; h% G^ d= [* 0* N- P* 2- )z 6/ <$ j} -$ >= v* G= ]* _= Y* }= O= 5] t/ S^ `= n- l* {* &= S^ {! q= R5 q= E* V7 <; {* R* A- (* I- v* v* 9* v> := z* H- z- t* f* j= _* 5* A= E* -= (! s- j= y] A= O- !z Qt s- Uu r* [u ~z `i {z 3w cx  b [u Oy &b 11 ]z ^z /z (z _z :z <z [z }z |z 1z 5x 2z 3z 4z 5z 6z 7z Ew Cy 8z nu 9z 5y Xu Rv nu v% X] 0z W* O- }u A= 6! p) _< K* v% o] U* _v {* ./ N- p) C{ 6! (! K- I{ B] 5] y] 0- H! `9 Y& )> S; ]t C! g] ;% l/ B] 2} +9 |] |] w{ L^ ${ _/ l% T% H9 <% >^ K# >$ %3 S& kl |< <n :* P* Q' I= g7 )< H! M' a* A- j] z* m- 5] V* {* 5= &= F- -0 ",
"O7 B; |* @% a- Q* )! E' o- d= m^ d; U; C! K) `* y] I- u* 9* %8 02 *5 D7 g} !^ b$ i$ *^ c% K6 !< S% (< p$ =< $< p7 z7 v6 j% .! ~- I{ t] 9* x^ L% 5] W^ L% a, x^ R5 H- _% ;% @% 5] -% 8] 2} /) C{ p) m^ 6! w% i% :; (= u> F^ =! $- w* K; 8] |* C* |* 0* _= a] q^ @% v* w* U^ %! m, -{ a, e= t] =- e2 7* ') j> E$ -$ x2 N; G* v) J* *= Zm [; O* t* R* (* m- A- S^ R5 <; Q' m- (* v* #; ./ (* h% o- 0* z* C* D* D^ H= m- e= ~> p/ ]- &= Q* R* }= P= :- 5= v* (! 5] f= (= R* {= V= d= '= 9* z* $- q= i= A- J* @= 0* D* J* v* B9 T* .5 p} W$ Z$ +( az zu l* V7 d= j] s- 0* 4= S* u* ]* <* w- j) y* {* P* t= v* Q' O* D* ]* x^ 3* =- w= i= M* m, 6< D* M- H' j- f= /- e= V= 8] <* bz ,> Z$ s6 4| r$ a; d= q^ 5] v- m- d= K* ]* b= p> u* <* R* w- (= %; j- <> P= m^ C= I' F* :* t] 5= t/ [= %= t2 G* v*  = 3* M- E* f= u= }= R* d= v- P* @[ R* &= -% 3] F^ ]> L* 8- <* u* =! x= I* h% {; R* 9= *= ]* G* M2 L& )% =] cz  < a; u* U] @= m- .- 0* 46 e= ]* _= }= K; K* 1* I- H- u* `= m^ ]= B* 5= qq }= v* q^ W) B* /; a9 K* D* V* v* i= :* 3* m- Zt `o H# S# K$ F2 z= D* R* J^ 0* z* J- T] '/ v) <; E* &= 2* L* O* C= V* d= v* A- y% 2* v) 0* q/ C{ P* J! =- o- b* w% 9* ]- N* _* M* V* d* M= G- S' Y* Qt -f 7= E] E/ dz S' 6t q- := `' }} 0- v% )t O; Cv Hd ri ez Uu fz gz hz iz jz Qb kz lz mz $z nz oz pz qz rz sz tz uz vz wz pv xz yz Hw zz 3w 9] Qt }u Az p| Bz Cz N{ N] =9 *; Kh D- f] o- N] v> L] o] B] 6* y{ y% q^ m/ t* += w-  = j] j{ v6 $* (& >> *y _[ |] E' Ql 1/ 8' @% c> @% w^ B] :% l% !< L% h] /% r$ d% Q# Q# e{ L! Ot a! #% z* I* v* V' .^ F' c^ N~ C{ S' (* `* d* -% ]* {* K; H- P: nj ",
"Ls P) 3] q/ K* m- M* 9- I* c* O= }{ S; h] y{ q* ;9 ^= {* F* B< S< {] C6 >] $& o3 >^ o3 $^ S% %9 L% $< B{ @% H$ 3] @% .e P# A& K' o% 2} m/ |* ;/  / U] B] Q' x^ J- q= q2 a, K* u> |< w{ o> e2 B] |] I{ |* i% {{ <; {* m, $- 8] @[ -% m= w* 2* |{ +[ 9* k* g= 0* P* Xn c= 8/ w% Y* p) 2} l* u= m^ )! j] u% Dz g& 4% W$ c{ Z: j- h% z* <* |* -{ v* <; 9* w* z* p> w% -% R* w- <; L= 5= ]* '- $- f= (* {* S= v* (* w- o> P= m, O* p> v* V7 S9 P* A- L* S9 K* ]* O= q^ m^ E* <* k) N* =- /; t] I* c= &= :- A- 0* p> }= C= :- C= ;- H! K# !^ *> Ez w* y* << 0- ./ K* c= K= B* j- j= {* A- H- K* s* 0* 1* w* f= e= C* e= m- V= j) =; q= F! 2* m, D* 4= %- z* A- w- C= 4= (= l[ (! 5] on *& A[ Q# q{ Z= 3! s^ $- 6< O* `* N- ]= V= s- `* R8 7= a- C* C= w) &= 3* *= {* d= N* v* 1* J* <* W) N= Q* }= i= .- Q* m= O= z= N* m- G= q= J^ `= <; {* A- D* (* D* 9= Q* #} D* n- A- v* j= f= (* m- 3* O= 7) u& k& w3 b$ Q& *= <= x* a- ek ^= P* w* x* %; 5* p) O* {* (* D*  = A- {* d= S^ S- v) x^ {* C{ m- N* 3] f= m= U* x* 3* H- A- $- i% 5] (! vn H- '9 A= o[ _[ )% )z P= w- %! V* '/ *= V* {* R* S9 5* w* P* d= i% x[ {* R* G= p> w* :* N* <* N- w* p) ]* v- 1* j] 9* s- w- 3> d= <; s- F; 9* f] z= i% 5; ^* t* e* l* A= G- *! e* )! @w A= zs q' [u Fz Tu bu Gz G{ !w Hz Iz Jz Kz Lz Mz Nz Zw ]y Oz Pz Qz Rz Sz Tz Uz Vz 0i ]j Wz uw :b Xz Yz Zz `z -u Yz ru Uo *! Ht zs l* `' i* L] P] w% _< S* v% 8< 0* b] w- {{ S' U* H- H- (! m^ d< 1* V; u5 $* M6  A .A 6/ l] C{ o> o] h] =- h] 8] E6 U^ d^ Z^ a/ x% )> l% a, Z$ ^^ =^ E$ Q: Y& -o j] c[ j= ^- B{ |> H6 >/ 7^ P! Q* u> x' }= (* C= w% _= [- I- P: nj ",
"+A a= D= s* (! u* p= d= 3] 0- w) i! S; E' |< R- 2] E* 6* U* @A 43 %5 (% >] J$ r$ D% [/ u% +% N^ p7 d! =< W& K) l% x^ <] *] 4$ Ld ;/ %/ ;% M% 3! Q) q^ 2< /* {! w- =% K* j] 5] |< @% x^ m, y] E9 ./ u! `* x^ += i* (* 0* J^ w% P* E9 d* y] {! v> y] {{ i= z* j] :* ]* z* [{ z* _= J^ (= N- {* N* m^ (* A- D% b& 7/ E$ 1| A} (* w% K* '- =- R* A- v* j- Y^ j) S^ P* $- S^ J* i= t* :* P* =- C* <; U* j- 0* A- (= 9* Q' z* D* G= N- 9* <; w* *= w* 8- k) .} f= L* D* {- O* x[ Q* 4> ]* $- v) z* [- v* v* B- -{ D^ n- D^ [; 8) H! )% $$ i$ Q- D% A= ]* s- q^ (* 9* w- L* h; U] _= w% w* P* d= =- <* K* z* (* I- A- j) <* j) D* G= v* d= {* S9 q^ f= [= u* 5= s^ N- d= C{ j- 9; D* u/ 83 -* P# () Pd <= A- S^ J! z* v) {* w= a- ^= f= P* w* v* b* {* s, :* }= &= P* *= _* b* {* O= `= &= a* w* 8> c= 3* _= ]= R* Q* G= /= c= p> &= 0* [* u* R5 S^ <o N* e= S9 p) }= .} j- (* 0) C= =! {{ 0* }= .- `| q% ($ #A T  m- P= _= 4= V7 Q* y% ]* }= (* }= 9* _* C= }= 3* D= z* 8] -{ N* m, E* (* 2} 0* {* V* += 9* S9 N- 7' J[ {{ 9* :* _= (* E9 K= :* U^  8 Y2 `$ d/ %} C# H' D* q= P* {* u*  = G= f= $- Q' m^ 5] A$ p> w* 0* V* (! :* 9* 2* {* 8] N* Q* x^ 8] N* q= e= C= ^* E] *= /; ){ Q* <; b] )= s- Rs 4< K] A= Ar ]* Jh Hu s| Ds -f du q* bt $A $A ~z %A %b Pj 0b Fj n1 iz &A *A 0x =A -A ;A >A ,A 'A )A !A ~A {A ]A ^A /A (A _A Hv Qw cw `z `z :A an {w W] Wi 8] b] <A &q W- _< &q o- E^ ,= ~* /) j] v> l* =9 E' B] 1* C{ b] U* r* T; ;] $^ o$ X; [A Q% =< ./ 1* g] Z^ Z^ f/ 8/ t! @% @% e/ %! Y^ X^ p$ H$ $* e% T% E$ $^ `2 P# ,6 ~< 3] I* K* h* $! ^) O% `; Ch /= l] t] l* =! 9* w* A* d< i= o$ -0 ",
"}A p- J* K; K* 2* H- S= p= P* j! 4> S; J- J] d* w] P* g= '- Uv 32 +| /o T& ^6 `6 P% =} 3% $* `% L% `% B{ U^ =& O% S^ [$ ~] j5 O~  / i% i% 2} &/ y% B] @% S^ 6* t- w^ S9 i% q^ U] |] x^ B] n] &q i% x^ =! {* w% >< 2* E' :* B{ `* w- Q' U] ,% v^ 2} J^ }= j) l* p) ek Q* V* 6! 2* x^ a; v- %! %! P* |A C* ./ d8 W: W$ /^ C2 g< vn .} `= C{ l* n- (* 2* H- m= O= S^ S- N* D* K* 0* S) R* <; m^ L* A- C* w= O* {= A* +[ <; :* J[ C* m-  = 5] Q' w* R* w* a* -% [= x^ o] [> v- d= 8> ,% O* C{ G= y] V* S9 _* 2* h% I* m= :* y] %} P# b> Hn *a [{ y= q/ #% ^= y= A- (* U^ v* C* N- m^ <; 0* P= (= %; l[ u* 5= I- &= *= R* #} 5) h% D^ m- D* K^ A- {* Q= i= V= k) 0* a; 0* `= v) 2* V7 5  &5 A& S& b2 1A w= S9 A* (* F^ J* A* 0* m- G* *r z* v) K* 3* n/ h; v) /; -l h% m^ V* |9 3* n] /; P= A- F= A* f= J[ 3* B* [= {* F* 3= R* %[ =; `* R- ,! f= {{ (= 3* ^= P= O* f= `* 1* J* V= :; <; .= H= !! e5 Q# ;^ iw B] H= _* A- {* h% F^ O* R= `- f= A- (= @= D* j=  ; C= 0* =! *= L* j) &= ]* q= v* 0* A- t] 6< m^ v* j- (* (* v* o> w= 7= S' Vp 9* c> 4/  m o[ S# f5 b{ '~ N* {* w- o! v* S^ 0* C] {* q= u* w= 3* >< K= U* += D* C* K* 0* m, K* O= |* m, g< j= u* N* (* :* 6* O= l* w= <* p) t* r- _* -f S* A= 4a 7< h* q* S] X] W- q* *z jx /v }* &u hw 2A 9z It 3A .j 4A 5A 6A 7A 8A 9A 0A aA bA cA dA eA 5x fA gA hA iA }j jA Jv kA lA mA Xu Ey bt za ew R] Ar ;x nA _v Qt b* *! 7{ q- X] ^* _< e9 -[ {{ bo w% ;g U* V* a] <o [= 02 )% l% =} +> &y X$ /) 6* 3] i% p) I{ R5 ./ F' {{ g] U^ C* h/ h] W^ O% o$ B# Q% (< '[ D' x/ W$ oA x> J^ A- f; /; [> q> #& M: O! 1* _* u- V* S* Y* @= v> [= d= pA qA ",
"O7 rA ,o {{ P* L* m= g< h* |s k* |> S; ~! @^ 7{ e2 e= S] n- p< S3 /5 (& 0$ W$ Z$ `% $* D%  ! _/ g7 ;9 Gh S% 6' 7/ l] ;^ J) i| sA += fk 2} i% v^ x^ @% P] z{ 6* {! (! i% n] bo y% |{  ! S^ G4 A$ ,% <; a9 m^ |< :% 9* t] w= t- m^ (* |] W) H- w- u* t] <* O* 0* V7 ]* z* w% I* {{ 0* ~* w* -% C{ *; n- /* a] 7/ s' %^ q% 1[ 16 c= w% E' D* m, d< (*  / }= Q* C= x^ d* 0* w- a; I- m- %! t/ h% _= 0* += A- J! 5= ^= -% R* K* G- g< 9[ N- H- C* B* t- q= G* f= $- c< _= l* }= A- k) B* b* -{ R* D* |] U] ^= m- h' J^ t/ H= z: L& R#  7 68 [t B* w= Q* A^ S* O= W= K* F* z* f= I- a- }= Y^ O* D^ /; S^ R5 C* t) E* 0* :- )- _* +[ k* <; =f _= z* ]= D* ]- 5] 5] m- a; =! d= (* b; *= a[ D& J) Z# n$ c{ (- {* l* <* =- Q* c= I- _= N* w- t/ D* l[ ;{ J! F* f= v* u* F^ R* #- o* p) K= I' ~- s, @- j- b= {* (= F= ;; =! F* {* }= Q* i* :; /= =! +[ <; D= s, u* :- z* G= C= 8= p> u* A- h% S9 =- K< `6 E$ 6^ tA 8- u* j) e= h; (* -{ (= m- i= _= /> V* }= d= G= G) i= f= I- 7= K* K* G- (= S^ i= I* A- C* Y* h; E* ,0 D= i% x^ }= ]* w% j] 5= v- u* r; >o c^ ]< .! v} /} S- `* %= C{ ^= S^ g< w* @% {* C* C{ v* d= %= S^ :* j] K* D* `* K* _* O' i= I- I* i= V* l* 5= I' ]* C{ `= v* [= w- )- X] _* B* w% 4- )t uA s- 9> N] xa }u =/ yj Fu Qv ru $A S] vA wA 4y 'y xA yA zA AA BA )w *w CA DA EA FA GA hg HA IA JA KA LA MA NA )w OA zz ~j PA QA kx =/ RA [u *v }* Uo n; S] 8v Qt Ar T] 8v S* L] v> p) J- Bs B* o] |< ^* l] 4-  > t5 @& G6 ~[ #  th 3! 2] S9 w% '= 3! U^ W^ i% I{ C{ x^ c> U^ K^ |] l% @/ h^ <% 7r (} E$ P# O2 {% 70 a]  / A- v* i% rj /% h) x/ 56 l* w% i= Y* [{ w* T- w% j] d=  6 )x ",
"V5 [w P* I* += P* (* R- D* U* != l< Z; D{ x{ _* D^ ^= E* F; ]s pg 1| u6 T& y6 b$ w3 <% %% F' q2 0< 8/ n] @% 3! $* /) F4 *& k& zq B] x^ C{ >9  < B{ o] m^ P^ 0* m] U* p] |* 3! g] @[ 3! S^ _% 3] m^ 5] O- 8/ B] d= }5 S' 9* {{ (* x^ y] <* y% |* D{ n- 3] o- f= O[ q= a; s^ 2* `= 0* |* Q' v) y] m^ ]* -% U^ J^ SA 6^ }] b% @6 8} c= u* <* `* g= #% *= K* f= 3* K* ]* {* v- C{ p) }= l* S9 ~; f= :* 3* m^ 8= /; 6* m^ w* N* I' v* |* w- c= $- 9a ^= =; 1* [= m= R* |* [; d= Q* 5] f= d= z* |= #= q= `= D* H= /; =! TA -a C} ^$ h^ c' <q $; (* ]* u= d= <; q= H- 5] a; h; P* v) (= D* K* A^ i= v) v) *= V* O* A- J* <* %! 0) D* 2= I- &= d= p] w* @= ]* 0* D^ A- =- {! D^ [= ~> H- b= Rc 1^ ql $$ )| ${ 0! 3= {* I- q= A* g< h% C= 0* (* ^= m^ b= R* N- G*  = :* x- `v ^= K* N- J* 3* 3* l* &= F= x* f= A- :* (* f= c= &= P* 8= G* q= z* 4= 9< `* <; e= P* [; G= V= /; d= :* @= D* >= Q= x/ _^ b% X$ Bt 4/ f= m- ]* (* /; R* I* 2= J* u= 8- b; %- ]* _= 2* A- A- v* Q* h% P= m, w% l* {* %! &= << 3* v* (* p) <* D* |* N* m/ _= j= v* v* 6< 5* d= l^ |8 '[ $$ s{ D3 A; I* 0* i* (* 2* a] i% h% <; A^ x^ :* <; N* E] s* O- M* 0r w- u* `* b= C* $- u* %- S* Qs =! g= z- ]* 0- `' 4- =9 t* 6! s* |s |} q* w% =9 7{ 5; Av Jt 6t /v UA ru Fu >x ^v VA WA 0b ~v }u Nh %2 XA ]z YA Jv vz Nz ZA `A  B .B +B @B #B $B %B &B *B 5z =B 'y Qv hw Xu Wa -B 8v Ds cx {w Vu e] D- := zu Hu E] q- &q {{ q- J- +; a] u> p) {{ T] .u /> E2 u5 ^^ J$ 9} ;B ,[ l] C{ 6* 7* x^ 9* p) l] $< 9/ J] u* N- '= i% 4/ ${ =< a> T% @& <% 0% !% (} l{ v5 K4 {w xu 6- ^= F^ j, (^ t$ Zn ,{ n* )= q= (* h* O* B- K* v* u= l6 >B ",
",B n* w| 5= b= h% p) 8] a] 8= {{ A* S; %/ u! G- m^ 5a Q' /= 'B h9 )[ )> i4 :5 W$ '6 )> -* r3 @/ S% r3 L% |] |{ (< 46 v6 ~^ la Q! K^ N- #/ M* o- _% I{ y] o^ y] ,= x- C{ q^ z7 [* -% ~> 2] `^ p) 0* ){ i% (* t! *9 E' a[  = B{ (= t- i% E* `^ {* @% K; += 2= I{ 5] n] =! R* }= d< f= q^ {{ m- 0* n- p) Y^ << m= &/ )B }7 Io K$ G2 I= m^ A- 0* k* J* `* P* w* 0* c< J^ *= m- J* z* z* 0) (= }= !B 1* v) _* 5] 9= d= i= %; B* <* m- v* /; l* _= m^ q= >0 b* v) .= R* b] }= l* C* /= (! p] _= (* z4 W= }= &= /; K* ]-  ; jj 2% )% :[ {7 uA +[ <* <* -{ 9* d= z* u* *; C* @= k* cv m- M- z* _= O* R* j] (* I* =! 0* v* C* u= h% I- }= 0* {- C= P* f= f= #= y{ 5=  = F* m- A^ j- #% I- a- ;9 d, Z$ M! Q# `; i^ x^ '= C= i= ~B ^= D* d= h% Q' ]- t] B* *= P* I* F= C= s, z* J* 8- B* $; F= B* H- m- C= W) 8> }= D= V= /; H= %; u* R* /; ]* F* 5= $- }= P* v- ]- =- I* R* K* t] -- <; /; Q' F' H} Q# q% g2 b' F* D= 0* P* w% 3* b; P= *= S= K* zn (* f= :* w* z* l[ 2* %[ N* R* j) m^ 0* 5= 1* _* -% B* *= $- J* }= 1* K* 46 u* I- :; B- p) [* J^ D* P* 2* 2* c' `$ $$ {^ 2^ a- ]n 3* k) n- H- .} Q' m, $- {B |* U] -% N* |9 z^ t] 3! 5] v- /; 3* (! O= E* s* &= %- S* E* /= g= B* q- Q* n- J] Rv a] f; }* )! f] -= n; du G{ Qt W- Aa G{ [w (v av Uu ]B fj ~w {z r| ^B /B (B _B :B <B [B }B |B *i ,A 1B 2B 3B 4B 5B 6B 7B NA Oh |j 8B Dy Gz 9B `z /u an )t 0B mv aB W- ;x Uu S] ^* U* V* Ba K* Aa a] S] H] 7' p) w% b] ~- e{ ~x 5% #^  A ). wr c] B] ~! C{ ./ a] ]* j] L% w- B] l] ;% ./ W^ e2 q^  / $* 3% O% 7$ _/ ^^ 3% >^ _t J) M7 6* ]n <= 0* 5] I= .^ _% H: bB u= _= N* A* _= w= `= 5] %= i% u% nj ",
"cB ^> j= K= 7' l* m/ r; 2* P* h* L- S; K) F] W* B] 9* C= B* u8 N< B: o$ 3| ~^ @& $& /% v$ l% <%  ! F% x% t- _% *% _} v$ 7$ v} dB z^ ,% s$ 5] 6! /) g] M* <% B] %! y] E9 x^ I{ @% Ep ./ ./ {* x^ Q' 2* 0* =- z* 2] 0* x* C* j- =! J^ ]/ 6! }5 S' 7* m, S^ C* 5= .= J! U* B- m^ <* m^ <; $- p= 6! m- i% <; h% i% (* X* eB o[ !% 7& 5& ]= v) (* O= N- o- <; V* f= U* K* :* m= D* U* I* <* 3* K* N- d* C= m- <; J[ '- K* }= (= ~- }= _= R* (* t= ]* _* F= /* t= 2* C* e= [* 5* C= ,= z* h% z= O= f= p) m^ m^ c= }= 8> 4^ :^ A& $& A* =< k) B* B- 3= $- N* <* z* C= A- += z* P* S' i= s- ]* <; (* O= V* w* f= P* O* 1* K= .} m- U] v) }= v* 7= w- `= P* &= u= n- C= f= h% %[ L* 8= (* mo  ; gu Y; L< P# =] Q# {; (= D* @= p] q^ &= <* R5 E* h% v* W) <* k) L* M* *9 mo z= 0* n- }= &= w* i= 3* D* %- %= (= `= A- 3* S= (= 8- t] N* 3* f! &= d= u* I- G= P* P= *= |* _* <; D* e= Q) :- 5; b{ v$ L& E} fB n] *= ^= 5= n- 1> `* n- (= S^ ]= ]* A- I{ D= &= C* h% v- P* `= F^ 5= 0* {* bo c< D* S^ Q' S^ =! 2* 7' h% h% _* z* v* 6= l* F^ ^- z* :; u* +; O= E9 gB  $ $$ {9 #3 u; h% D^ u* `* p) S^ P* |* E* U] (! 5] 1* b] J^ d= H- C{ Q* E' j= ^< N* K* {{ w- *; A* Y* v- <* L] {{ }* %- @% M- =9 9* hB M= 4- ~* y' D- @b e* }u e9 Qt ~z Zz {z nu 8v iB ou 'v Hv Lh jB 11 kB lB mB Gv nB CA oB ww pB qB rB sB tB uB vB wB xB yB zB |x Lh 'y Hw 0b )v  v Ds r] 4! E{ +w M= bt S] O- AB 2{ 7< n> 6* b] X] I* O- E' V* /= c{ &] a> B# M& L( _$ H^ a] N^ J- w% 8] Q' w* x% &/ w% V* x> t! |{ h] 3! g] 6' _/ #& i$ *& E$ )/ W$ d% $3 =^ b> v> 3] r= O= N- Au j$ w3 o: 9k b* g< K* N* h% O= V* v) u= /) !a BB ",
"45 CB o> H- A- :* ]* H- J* n- x* ~- S; S% j] q| [t a] _* P= DB N< 1| )* 8^ (} P# b^ o3 7/ k/ S% _% S% I{ :% %{ N^ y] 8} (} =] .[ B{ y] 8/ W^ 9* N- C- ./ C{ c/ c< y% >/ e2 ,= ~< ~! o> c< Q; q] y] 5] u* 5] %[ x% 1* -% B] 2* {* +[ x^ %! (* x^ Y^ I- m/ ek W) p) '= 5] I{ V7 S' v* u* =- f= 7' v* }= m^ (! |* b] p^ EB ^3 d% uh Z2 /; D= L* r; k) }= ]* ]* t] <> <* K* C= 0* |* O* l= et w^ S9 A- W= d= E* N- P* $- [; 5* P= b* 5= t] W) =! w* /; 2* C= K* A* E= /; Q' F! i= P* K* :* w= 0* V) l= Q* P* m- m- c* %1 ;* '[ +3 FB :* V= 1* z* E* t/ J* D* m- 3* ]* s* ]- 2= C{ 5= N* 0* G= |< G* P* h% m^ L* o- 0* K* ]* ]= W) 8> j) C= B- /* m/ D^ G= ;) ^= D* S' G= Q* .= [= }= f= (* +[ GB =^ M$ !% l{ ^- N* 0* 8- h% D* F* 5= m- j- O= %- N* e= G* l* *= Y* _= b; N* <* /= =! C= *= ]* ~- z* A- ;) K* P* @- *= 2= /= N* u= (* &= Ep A* t- p) 0* I* v* N* ^= D* a* j) C* h% !; :$ g5 K$ i$ r2 05 q- Y* j) M* {* ]* 7= v> d= [= f= P= {* h% s, E* /= b= ]* D* z* |9 i* m- v- d= t* C* v* G= ]= {* 9a J* p) += ]* =! 3* (! J^ O* S^ i% e= n- 5* ]* P* HB a, @& Y& d% S< :- =! S* Q^ {* -% A- (* A- 5] i% %- {* {* v* S= K* {* $- ./ d* p) += u* o- N{ P* I* w% A* C{ :* f= a] [{ >; _* 9* 1*  ; 5a )t 0l Hu *! Nu |} dx }u A' Va Gz v| Qy cx Tu 0b IB JB mA KB LB iz MB NB OB PB QB RB SB TB UB VB WB XB YB ZB `B Ui  C .C 0j gv Ey +w ,v Yw bt )t Qt r] +C )t Zu |} bv Fu )t O- r] m2 =l =l *! o- J^ -% )=  1 ~5 D' ;^ 14 w  j& U* B{ B] w% w* B] 5* y% w% -% H- w% y] 4/ C{ q^ w^ 7] @/ a, _% 3% <% o3 3% %^ 0% ~] P{ }] 1! Cs k^ E* {* m^ $} .^ r3 `2 >~ '= {* 5= 5= ]* V= I- R= =! R- F6 @C ",
"#C $C n- _* F* b- B* 5= t* ./ V= Cl S; d! K) Q- M% `= (! d= &v f| j} O% /] >^ p$ ^^ *^ S% o3 `^ L% @% '% :< %9 q] @= %C '^ :4 %4 C{ 1/ (* &/ >/ @% b/ ;% {{ 9a L% y] J^ B{ R5 t] 2] 6! 9* P^ w* 5] += 7* ]* ;% z* m- =! P* n] D^ w* /) $- U^ %! (* B] K* }= u= :* Q* w% *; O* 1* J- ]= :* $- y% A- C= (* D* N* D* 3! @/ 4~ i$ Z$ ]& S} 7= _s f; K* 0* m, N- @% P* $- D* E* += A- F= *= w* 6* O* <= I- O* <; D* v* h% Q* ]* }= b- ]= H- v* $- C= i= 2* 9= O= K; [{ x* 7= `* N* 5* i= C= B- d= A* m^ o* A- O* &C Y; ;6 v9 /} *C 2} <; l* W= J^ G* /; K* 8* R* <* w- e= A* v* (= R* m/ C* d= Q' E* m- 3* <* D* v* 9* J* (* 5] 2* @= w- 1* (* h% q^ W= A- O= ./ :* &= p) z^ O= B* i= E* K= d= 6- @e K$ 0% v5 14 N= 9* :- (* 8[ {; y; ]* D* J* a- s^ e= -{ R* v* (= ^= D^ 3= A- A- :* [; C* I- =- I* }= A* v) b= I* z* f- (* E* *= =; m^ Q* 3* d= A- (! 3= O= s^ 5] V= _= *; W= A-  - %1 .& f$ H: 85 K* _= ]- J^ t) := i= 5= a] f= C= <* :* 9* /; O= H= 3> _= 2= }= P= |* 2* v) i= w% z* I* O= t= =! A* e* h% x* w* i* 5] S9 0* o- ./ -{ k* u* 5= m, i= d= I* =C -C $& .  =| P^ k= v- n- :* h% {{ `* S' <* p] h% j) =9 i% E* <; P* K* C{ Y^ 9* w* I- 9* u= ]* x* v% M= y] v- l* q= u= K* += S) c2 6b b= T= kx }} J] )t ;C *! ov d] @b Qj Uu wA yz 9z Pj Yw >C $A ,C T1 'C my )C !C ~C {C ]C ^C /C (C _C @B :C <C Oz hA [C }C |C =x Hv cw 1C Dy 2C 6v 3C 4C O] `' o] Hu S' Rv O] )t F] `] d] x* r- -f `' V* F; 73 B& ]^ p$ .& S+ 95 6! _< x% S^ K* v^ =- /* w% %! y] u* S' u* {! -% ~! A9 8' 6* t! Z^ !< w3 )> $^ D' !% s{ Q: s{ 5C 2} Fg w* A- (* Y- 8' yl ]{ fv m- H' .= U] j= ]* =; q- C= m, P: 6C ",
"7C t> m^  = f= `= 8= [- u* U- N* 3~ S; l/ y{ 6t 5] '= x* ^= 8C S3 2| 9C d4 @& /% 6% Q% l% e% !< +% t$ -% U^ |< ^) l* @g _^  $ 0C #/ 5] l] Q; U^ K) E^ B{ B{ /* J- J* q^ m] 7' B] U^ o> y^ x% {! x^ {{ H- 3] A- 3] ]- y] y% d= i% _= 7* 5] j] ~! }= >< z{ v) 1* b] B{ Kn != =! R* v) J* a- -% 0* &/ 5= W) <* m^ #/ A* w* aC &> E$ ]& G3 F{ 3* %- H- z* v) v) E* h; B- <; (* v) P* z* +[ g< `= h= p/ o- R* O[ /) A^ 5] `= =- L= P= m, k* d= E* P* e= J* =; t/ `= ]* B- A^ A- y; :* O[ C* l* G* O= H- I* (* e= )> A} X$ A& bC 0[ N* G* %= P* +[ C= O= R* /; m^ <* w= j- [s }= `* /; v* s^ B* G= P* 2* *9 C{ ]* :* g= /; 8] `* %- f- /; K; I* /= V= v* P* `= J^ ^= f= O= d= :* 7= d= :* }= 9; }= cC R$ .& s{ d| (* d= P* u= k= ;) {* H= :; u* w* n- i= h< P* 2= ~> h; q= G= i= a; U* K* B* J^ 1* I- w* }= (* C= q) }= }= d= P= c= (* S- O* t) 9* S' (* w- G* V= k* v*  ; <; O' ~- (p .5 W$ Z& dC .( 0* |; v* l* `= D* N- N* 0* ]= l* <* ek j; w= :* S- u* H' R* K= w= <* _= %[ z* ]* *! m- z* `= B= I* t] i= _= q^ A- h* -{ 5] J^ ]- w% Y* ]* d= 2* D* j) z* Qq eC v6 V$ )6 Y< }; |* ]- O= {{ {* Ql D^ _= h% <* L* w- h% n- 9* w- h% V* p) := $- 3* p) N* 9* 6- 1* `* y] _= m= O- I* V* l* O- a] +o Y] G- )! }* )t 6v It Zu Cv 6v r] E/ ~v ;j &z =z fC  v Xu mv Vj gC lB hC iC ^y =A =A jC kC lC mC nC oC pC qC [i rC %z sC tC uC Ey ^j 4C (v Xw dx Uu }u It Ds e9 S* 4a r| C] O] 1s Ds S* {/ v> (* V* (k c| >] B# S% Z$ vC Yn Q^ |{ 8* S^ E' K* v> w* U* -% y] o] U] 3] t] :% U^ y] p] z7 O% !< m& 5$ Z^ o3 r3 `) L$ w6 ~[ S& I$ L% ;) |- v- 9* Z~ b^ r$ g> /~ C= p^ C= ]* 6* %! @[ w% C* n- 0{ H4 ",
"$q T= =- N* m- /= E* (! I- S' (* tp S; z7 K) 4a ,% 3* 4! u* wC /3 Y{ ^% 5^ P% b^ 7/ *& T% `% c> $< z7 x% U^ &/ <7 Y* j/ I$ y[ +~ =< m- P^ ;% c] a, @/ D^ h] 1< C{ u* ./ $- a, z7 I{ (* i* 3] -% _= 5] b] w% t* u* %! S= B{ ./ 5] J- {* A- b] [* H- k^ 5] G= h% +[ K* D^ B- m] i% w* y] 1* z* ]* J* A- |* v* i% n- %! _* xC 68 :5 $$ {6 f{ r[ *; m^ v) x^ (* @[ E' u* V7 h* /; m- S^ V8 O* e2 _= K* P* C{ S^ k* I{ d* 0* y] v) Y- R5 b; a; -{ v* _* A- m= I- <; q= 0* .} 0* A- 2* I- G= 2< /; 5= h% ~* h; #; b{ E$ '^ %* yC U] :* 5* E* #- k) %; {* V* H= w* <* D* b= {* I* m^ 9[ N- 0) :*  = h; [* -{ 0* O* [* (* A- {* f= l* <* 3* L* 3* j) 9* zg j= i= K* (= '- &= b* 3* [= (= D* C= <* l=  / 1* v6  7 ~^ 9} ]> %= l= l= z* d= A- A- {* W= ]* C= B* i= z* :- C= E* R* == S9 }= v* /; 6; A= P* w* }- b; ^= O' :- D* <; ]* K* F* /= 5* (* W' 9* d= w= l[ }= B* `= %! D* O' m^ }| 0% d% S; zC u- q- f= h* E9 (= N* ^= :* K* f! 46 w* x* C= b; &= ]- d= V= Ah h% $- O= I- I- E* ]> [k fk A- :* C= x* P= A- D* L* 3] 1* P^ F= C= w) U* V* O= G* *= N* {{ F* s* Z: ^} M! W$ .7 i5 *= {* }= U* _* L* S^ }= 0* V7 w% M* 3] t* A- B{ 9* -% AC w- v) J] d= +; 5* <; 8* n- u* 9* [= 9* K* 4! q- 3{ := q- )!  v BC CC ri Xu 4a Cv w, $u $A $A *z `i Hw [u Hw DC EC Li FC GC HC IC JC CA KC 5w kC LC MC NC OC PC QC RC SC TC ax <B Ew ^y UC tv Lh lA cx Qv VC dx r] {w Cs 9z Py Ds e] dx e9 U] S* 8] D] A^ F; O3 h3 M! *^ 80 Wc WC B] kr V] f] -% v* H- w* y] }5 5] C{ i% x^ u* _< S) B{ g] T] ./ f9 ;4 @/ 1] r3 $^ $& %% X6 K$ $3 /^ .^ j$ N- Q= l* Q; tt K9 j/ T2 O: d* v- G4 ~- 1* :* _* v* P* *; J7 kw ",
"X5 7{ 5[ w* q- O* C{ ;; 4* $- m= P! S; L% 6/ l! y% (* a] ^= XC @1 &] D7 t& W$ .! 3% b$ 6/ ;/ 4/ g7 ^) p] 1/ ~< `: O* Fn ~^ wr Oo x^ K) t] u* {! =< %! s$ t- R5 a, V] A- 6! |] N- v^ F^ J- /* t! w-  / p) x^ i% t- $- M% s, ]* e2 Q' 2} y% m^ w% |* o> C= l* i% Q' t] L* w* {* {* S^ =- ^< w) 6* u* &= /; }= O* v* C* n- P* 7= D$ X6 |% +| =a r/ S^ a; (* N* K* d= {* A- 7* u* =! 4= O* N* }= y] }= N* $; l] d< %; w- P* 5= =! 5] _= I* D* {* h* $; f= B* O= }= t] P* m^ ]> O[ P^ b= f= (* K; w- d= f= v= e4 Z{ X$ L& *$ :; u* G* d* N- S= d= 5= B- P* f= ^* J* N- (! >= /; i= D* J* E* w= ^= h; =; i= P= '- S^ S^ u= -% ]* Ep (* (= [; U] C= P- '- F= P* @- Q* ]* 3* d= D* 2= m^ h% V= ]= /; D= YC Y< L& M! h} E6 b; O= J[ [; A- 5* v* S^ i= E* m= z* f= C= b; [* &= t] (= n- w| k) m- 0* ]* P* u* I* t, 3* Y* }= Q* &= 2= ]- a- P* }= ]* (= /= j) A- w- v* $- $; O* :; 7) a{ [$ K$ !& ~+ <n g< i= F! }; _* G- f= ^= ]= 8= S^ '/ B* /; .} B* v* F= 5= ]= :- b; d= A- N* D^ |* h% P* %! z* u* 0* e= I- N* A- H' }= Q' `= _= }= d= K* N' w- /* D* h% ]- u* '- d< ZC j5 Zt K# a3 9- O* $- :* 3] %[ g= V* p) O] h% += :* u> v^ Q; '= <* u$ 1* l* v> A- 9= d* w% {{ S* -= V* 1* u= I' w% K* )! t* <; n- -f }} p) M- 4! &z Lb 6t m2 kx ^v Cv ^v WA bv `C  D Li Fw .D +D MB @D #D vw $D *i >A /A %D &D *D =D -D ;D >D ^A ,D 'D <z ]j )D Qb 2A ~w `u !D dx }u |s 4a }* M= w, !u P] d] O- f] S' l* h% w' u} p} s{ o$ (} 98 #$ h* ]* H[ H* (* m= |* A- $- f= R5 t] y% y] J* i% ./ w^ 2] |< W^ ;% B{ 2} %/ w^ U^ 0< <% Q9 L< U6 Y2 }] !6 :% D* l= i% 3*  ; )>  ! P{ +~ g- Q* u* j* I* K* 3] f= b; `* K9 ~D ",
"s> 5* 5] }= b] *; I* A- %= Q= [= ~- S; +% r2 }; C* B- x^ _* .8 73 Cg =} =] '^ J) ^$ 5$ B[ ^) !< s$ O% ~< O% L^ }5 m- [$ s{ L# *~ y- p] w- L% t! U^ @% 5] u* 0* =< += B] |* += D^ x^ 1/ m/ U^ z7 w^ +[ C{ y] c< V7 B] (= 0* H- N* m^ H- N- w% s^ o] |* -% E* N* /= =! 8] ]* {* c< w% S^ |* x^ H- |* 8] H- q^ x^ {* 1* ;) =- P* {D w& X# K$ p{ I= o- 0* {* 9* K* <* B- `* w- m- ]* )! i% )! :* v* B] w* [; ]* H' {* m^ I{ w* `* R5 e= P* w* n- k) S^ w* B* a- 5= 3* A- :* =; x^ ]* a- =- d= x* h* T- d= t* *3 |% )6 -| |o B- A- K* z* |* 3* (* P* '= 3= m^ D* I- S' R* z* <* V* A* 0* (* (* Q) n- j- I- (! ~- J* N* ]* -{ H= v) m^ (* w* :* {* j- }= A- l= Q* k) e= R* }= z* ]* 3* K* i= k* O* D* 05 tj $* s{ s{ M: 7= D= [= <* H= :; P* P* y] z* O= W= O* Q' }= }= 5= C= S' n- w% }= v* :* /; :* 9* I- G* G= F=  ; j- f= D* g! &= h; C* 3* m= W= :; 5] ]* z* m^ v* u* }= 5% v} r5 ^^ j: 0= d= }= D* =! :*  = P= o- (* b- h% z* }= u* P* d= D* N* C{ D* G= %; _* S9 5] v* i= S^ O* (* &= D* O= x* D* w% 0= &= }= +; ~- K* @% o- F* J^ 5= S9 _* S' 9* N- ]= @% E* k^ 1/ $p $^ z} '4 b- 0) n- 1* w* (* 5] (* z= y% 3] w% /* m, k* y] K* _* ./ C{ <; := `* Q- S' <; t* /) S' T= h% p) V* 1* q' S' Uo M* -f m2 |s )t bt }u Qy Vu =z *! mv It }u dx Gw mv Cy ]D yz ^D T1 AA /D mh =x Zw Ti Wy (D _D :D rB <D [D }D /A |D 1D 1x 2D ]c 3D 4D (v Wa Zz ou /u Ds )t -f r- ex 9] -[ f] nu G{ t* t* [{ h= Bu f1 X< %^ '^ 58 c% x^ a] u> J- m/ V7 w- 6* m^ |* x^ {* l] V* y% #/ x^ 6* y% C] -% c> %{ W^ !< 3! A9 =} 0/ 0/ *& >^ ml W3 E4 p6 f/ 9a p, .} a] Z5 i$ Z^ H! )~ ~; ]* a] e= p) {* ]* b= /* O* K4 Cp ",
"5D n* fk I] }= <* V= I- D* x* v* s' S; 6/ C] %) 5] :* w^ 0* 6D E2 =5 E% >| i$ P% o$ p$ m% /% <% ;% N^ $< U^ 8/ )6 v% I$ n$ ,$ l~ N- B- 3] 7* @/ 4] @% b] 0* i% x^ u! 7D q^ 3] ./ 3] N- V7 5] x^ B- y% ,% K* u* w- >0 ./ i% 0* C* q^ S^ a, v) 2* v* A- $- |* Y* T- 2} K* a[ $- A- v) (* w- H- q^ ./ p) @[ j] @% 0* c< B* e= O* -< w- i$ Y/ j5 Ak d= d= v* m, $- =- D* 0* A* y- 0) %! /; ./ 0) )- S^ ]* :* =; R* << P* q^ 7* 9* n] A- G* m^ D= j- :* A- &= #; 9* h% /; k) += b; a; ]- m- |* F! `* W= _> Y3 p6 !% '6 Z: ak 0* N{ P* A- @[ N* Q* `= &= f= @- <; P* 3* 0* R* D* q= 9* #= D* h% a] @[ ar v* Q- %! {* K* }= ;) e= R* A- F! /; w* _= '; (* C= ,; f= r; V* ,; g! 0* <*  = l* $- %; (= 3* l* q! B/ E$ V$ q5 '| :k v* ^= z* P= J! f= *= 5= (* w= O= D= N- 0! Q' a- p/ <* E* q= n] Q' Y^ Q' z* 0* D* :* 2* x* s* [; Q= d= =- j- }= d= C* w! (* j- v* $- Q* O= D= ;{ H! !% W$ 6^ c0 m^ 5] 9= <* w% S9 P* F* q= -{ <* w* `* (* &= 7* n- :* q- B* ]* I- Q* O* 46 _* m, O= V7 D* )- P* T* }= f= t= F= y= A- z* d= J* n] (* *! $- V* a* F! n- q- w- A- <* ]* R* Kn Y7 :a -& 7p 0} l] w* v> /* c< :* E* b] v* F^ S9 d= m- [{ 8- /= b] a] b] v) c< I* 2] $- <; t* &= {* B* h* p) t^ i* ]* 9* G- 7< y' J] zs m2 '= r] *! Jh 0l Fh n; WA [w !w Gw 9A 8D Ey 9D 0D aD bD cD dD eD fD gD hD MA iD jD kD _C lD mD nD oD pD +j qD rD _z sD yz ou Cy ~z Zu tD q] Bv -f M= `' N] K- S] |s E{ _= G- ^- (p 20 a$ $& Q# N0 Dh {{ ){ o- #/ A$ {{ p) L] v> ./ B{ |* U^ 9* 0* {{ 3! U* f] D^ y] B] 7* |] =< g/ h] H$ $< /% w3 L$ 9% r6 F2 b> L! z6 ]n $- {* u* [- i9 O% Y; `d M) w* g= << x* N- <; (* 1* 3= `% uD ",
"5D S] (* v* N- V* K= _* R8 A- u* 3~ S; -/ K) I= h% `= `= Q* 68  1 1| t% /& !% >^ 0% P% !% =& (& 1/ t] u! ;% |{ _/ e2 xp !& H& K! W^ L% |] 2} K^ @/ t! t- d^ 0* -% v> =- y% C{ y% |{ a9 N- 8/ x^ += B] i% g< _% w- {{ ]n w= g] O[ x^ %! %! /; _= 4= f] w- w= n- ]- `* &= |* {* 1< V* h% K* C* E* h% Q' O* N- ;% 3] =- 3] m^ f= N* e8 h> R# '[ ;3 7= 4= S^ r; F* A- {! h% O* }= (* b] (! v* (* ./ k^ E* m= %! w% B] =! 2* :- {{ (* ]* Q' &= m- Q' 2= K* 7= g< [s P* L* <* k* := E* q- <= b= R* h; F) @/ V2 <$ V$ :3 vD Y) (= 0* 0* (* &= _= m- P* Q' N* Q* /; S* t= 4; h; m^ K* :* N* u* P* q/ `= 2= h% =! -{ A- z* O= $- E* [* 8] K* C{ (* O= ;) P* v* *= l* F^ l= <; C= A- =; N* 5] 5] A- (* -{ O= 1* 18 G& 5% L$ e3 1* W= $- D* x* g- O* D* _= i% 4* z* h; $; x^ a[ 9= C* w* B] _= 5= l* }= b= K* 9* g- !0 A- l* h% Ah :; {* ;) _= O* G= 3* [; k= [* e= u* $- r= t) {[ ;6 E$ b$ T- z9 D* J[ ;g D^ l* e= 7= J^ 1* N- I- 3] `= m^ j- l* =- _- N- k) :* -{ /; ]* ;g Q' D* 0* ]* P* f= R* ]* J^ /; C= N- }= k) Q* f= K* J; z* }= %= n- K* D* %! <* /= A- u* <* }= k= f% i< ^^ b^ -^ /3 '- 4* `* 7* C* P* 5* 9* m= k) t] w* y% A^ 5] (* ,= ]= t! <o -% S* ju C{ `* A= m= I^ *! v> S* W- H- L] x* 4! W- 4a A] m2 Sv fx du wD R] Pj X] [u xD yD zD Ey 4j 4C 4y Cy AD T1 kB BD CD hD DD hD ED FD GD HD ID JD KD LD MD 5z ND OD 'v $D 8z Hw 4a PD bv >x QD r| W- /u K- I] Vu Aa 1v E{ V* RD |- *o t} v6 y6 >^ SD -< ~! U^ {{ u* 9* 6* S' J] %! J^ %! {{ V* ./ x% u* 7* 9* 6* ]= 2} R5 a, K^ L^ =< :% j$ %/ /% L6 b^ b$ 3% ~^ TD !^ zo (% 3] k) %; /= 4> p% w3 G2 56  - _* A* *= ]* a- R* m= m- L* o$ UD ",
".f R- d* u= <* R= /; E* w- 9* $; (; S; j$ %/ VD p] h% d= f= ]8 /3 Cg K9 X} r6 /^ ^% b^ $* n& D% @/ C9 +9 !< t- ]/ E* !6 G% Pd Bh x% %! B{ /) $% w% N^ g7 1/ 5] w- G4 <* u* 9* Y^ E' a, |* x^ |* W) G^ R5 =! U^ Q; ./ 9* y% E* _=  / =! U] %! += g] >r 5* h% q- ~< 7] =; ]* 0* N- 0* 2< += w* u> J^ S9 0* m^ c< =! u* x* -% C{ m^ Xo WD i5 W$ v4 x/ o' s- j] 9[ :* 9* K* p> :; |* =- m= r^ N- 0* k) S9 m^ O= /= $- ]* A- 5= h% w* h% K* z* <* v* 5] }= m- 9* i= }= c< 3= E' :* a* S^ E* I- V= A- q= N< (} W$ ;$ ]s B{ &= v- D* d= /= K* v* N* I' f= C= x* N- d= d= w* N* Q) f= H- /; D* K* A- 0* P* K^ &= v) D= P* D* V* (* K* $- /; R* S^ h% A- A- S^ <* _* z* i= J* #- J^ R* 4= v* -% 8] P* D= &= 3* R^ *% 4% q% _^ O| ]> g! v) <* =; (= :; =! 2* j) C* D* D* q= -[ =! u= A- I* C= (= P* n- >- v) P* i% l= /; q= 5= E* i= O' G* 2* P* O= /= B* }= f= ~- e= R* 4; 4* %1 Z$ E$ T; e8 w% D^ ek w! :* I- (= 0* %= z* *= n- |9 u* /= (* j- 3* i= K= =; v) ]- (= d= w* p/ 3] u* B] @= v* m= v* P* z* i= u* I* O* <* -{ h% q^ _* (* )- e= L* (* k* u* v) m, C{ K* _* N* us fl => @& B# i4 _v s^ 8] c< m- h% D^ W) /* q= p] (! d= N* J- {{ 5] <; m^ H- S^ 5] :* 8] m- z* A- 6! V* c< G- X] /* m2 Ds s- Hu )t d* N] s| 0B Hu qu fj r] wa Fu ri  b Lb `z *z wA ^v &z XD YD ZD `D :B ax  E vw /A .E +E @E #E $E %E &E SC *E =E Wy -E ]j ~j ~k du dx cx ;E fz ri r] Y* du an O- >E E' U* )! q* b2 h} .! I6 _[ Xe k$ (! I{ b] R5 -% :% n] K* {! R5 w* S' /) 7' S* w^ v^ -% Uq 4* @/ |* %! 3] += p) t! U^ :% &/ /% P% @& b$ q% x6 Rp /^ qc 4} U] j- J* 2* ,) ${ ^) H! W! R* B* :% V* l* A$ R* 8] ek O[ V6 !{ ",
",E g, A- I- 5= N= |* ]* (* 9* v) l, h> g7 ${ m; += ]* 8= @= f8 x| X4 I6 N/ K$ E$ P% 3% )> r$ h] w^ !< C[ v> o> C[ H- %6 n$ N# j' 3[ A6 $- t] %! b] r$ |{ :% -% #/ o> |] U^ E^ g] I{ @[ c< b] bo v* += h% x^ K* 5] w% ,= g] i% @[ h; {* U* P^ S9 Wp w* u* 3* %! h% @[ q= x* A- 7* 0* =! t^ x^ }= @^ P* x% @[ x% S^ w- S* N* {* G- v> s' G2 d% g& w& {{ h; 9* A- Q* M) x^ %! K= '= =! e= S9 << e2 m^ ~> E* O* m^ H- 5] *= y] p> k* k) w- K; <* *; ]* S^ &= C{ {* b; :- 1* M* h% F^ Y) -{ 8= 9* }= {% /& r6 *& B% o' <* 3! K* Q* e= @- %; (* _= `* ]* D^ (* <; N- *= i% 8> A- +[ K* v* D* N- ]- 0* F* C= C* Q* P* a[ j* =; f= +[ ^= {* *= h% O* C= k) .} g] {* 0* D* O* *; t/ P* z* (* fk g= P* v* v* A* W= 'E x3 .! +^ N& %{ At `* R* C= f= =- v* a; w* 1* .} 5]  < t/ t2 9* S9 v) K* u* <; W) z* {* o- =- %- .} F! a* O= A- ^= I- P= 3* h; 5= d=  - _* N* p] >- j, /3 }] A! M! uv l% R* ^u p) C= k) 3* (* w* (* (* w* O* <* 9* 0) w- (* D= I* d= 3* ]= j= x* %! p) b* q^ S* p) @= e= G* q= V= l* .} 0* m- q^ 2* .} V* R5 <; v) N- Q' 9* O* j- 9* {* D* 5] #7 x* `= f= #/ )E (} ^^ s{ S3 n' h% '; C= << z- w- ,% `^ B- m- C* d9 0* G= x* >< `: O= C{ H- `= 8] 5] s* w% 9* S' b] W- l* K) J] Q- Fh b] X] Jt Tu }* s- .t ou {w tD -u {z Li Cy Yw za #j 0b mv !E Jj ~E {E BD ]E ^E $D /E (E _E :E <E [E }E |E 1E 2E 3E ^y 4E ]c kA ^v Oj ]B Yu Cv 4y Uu +C r] 5y U- Aa W- 5E e] }* U[ !| @| /} K[ )> u' (< 6* P; y] 3! y] E^ x^ u* -% K* $- $- d^ q^ H- l] |9 t! 5] `^ 7* 2* _* K* $- +a 46 J-  ! :% u% @& v6 H$ n& i$ !^ E2 X< b> j$ [t R8 d= k* 7y #& H$ J2 =~ == F! _- u= V* b= q^ U^ B* d= `) W5 ",
"6E b* J* Q* z* 2* P) E9 e- m^ 1* X'  > _/ h] xa s$ `* d= S* 7E 32 8E =0 c} `$ ^^ A6 &g H$ B[ t! `% :< S9 ${ 1] @/ t] L! ml 64 9k _% y% |* @/ U^ S^ %{ u* `: 3] h% )> p) B] w^ |{ un O* N- 1* y% u* y] u* i% @% (* %! 5] 7> w* _= u> I* D{ x^ E^ J* A- I{ m, P^ J* q^ [= e2 0* 5] |* D* S* C* ,o |* .} {{ w* -% E* U] <; 7* C{ v) b* z7 9E Y4 {9 0E E2 V= ,= m- S' p) v) K* << `* C= %! =- N- z* $- q= w% 0* =- m/ 3* k^ 5] u* 3* 5] v* z* i= >- N- '/ O= >- D^ 2* 5] k^ m! w- x* i% #! Y* Pp aE S< :5 L! X{ 28 S^ k* D* :* w* C* H- 0* w% ]* P* m= i% *= =! (* /* (= <* K; 2* K* (* w* s- (* V* ]* a; *= $- h% :; 3* zg {* S9 f= 8- N- Q' k) d= R* A^ <; w= K* o- k) u* S^ i= 0* {* @% %- 5= 3= L* w- m^ '< 4> D' l& r5 S2 d, A- P= ]- L= H= P= `* F^ Q' l) A- m, gp O= e= ]* J[ P* 3= [* '= v* C* =- F= Q* ,0 D* D* 6< v* ^= O= 5= (= 0* D* I{ ]> J^ I- S^ M) %/ '| bE P# $3 g[ <* c< x* w- Zm C{ n- 3* D* P* O[ Q' (* 0* (* %! u= += ^= ]* U= u* (* j) k* =! p) _= O* w* N* ]* [- z{ &= 0* 3* t] v) ]* =- A- F* =! {; <; N- v* q- C{ _= .} N- z* ]* I- += 0* [- 5] D= w- V& 8} I$ () @| #= :- (= 8] h< f] k* (* J* m/ ){ v* b* $% 2] +[ h% E' Q* l* p) m^ l* C{ := <* l* =9 J* v* D- h] f* v> w% xa Z] `' w, Ta j= 1v r] 5y ,v Nu cE Kh dE !w  v Pj Li eE fE /B gE hE iE jE <B xB ww kE lE mE nE oE pE qE rE sE tE uE vE gD ,v xD Xu wE +w Tv Uu ~z !v ;C {w M= [u 6! .= )- r} q1 M! Fq ^) u; R^ <; x^ ,= |* E* q^ j] -% w- 5] C- -% x^ P^ /) 1* 7* y] {! m^ I* H- u* J- S^ @/ C{ a, `^ Uo f9 S% H$ B# 7% >[ $$ xE H2 =^ yE zE .< V= u= 5* t> 40 D% c{ j~ Y* A- A- K* v- K* h% l* (* v> T6 AE ",
"<) G; K* E* /= Y) H= .= H- u* r; .{ S; {! T^ BE S^ d= u* z= CE 02 +| K9 Q& K$ <6 =} DE 3% N$ r$ _% y] $9 =& t$ X^ x- &{ t6 +] +~ P^ ]< _9 d^ C- U^ n] p] {! |* t- h% 9a p] w* }5 %! |< A^ Y^ C* B] 5] P^ 3] (* m- (! 9* '= o% I{ S9 C{ p) J* << w- :* %! m, I{ ^= -% S^ R* w- |* {* /w C* H- R* <; S9 N* =! O* u* {* -{ L* %! l* x* (= g= 2$ *^ EE Z' M! cp V* *; m, ,o m^ x^ u* 1* =! 5] Q* K* _= t] <* p) h% x* (! 8- {* 3] t/ w= m^ g= :* c= ^= @[ B- 0* {* J* /= f= ]* H- N- S= v) A- e- Ga )% 4% %^ M% FE 4- b; -{ (* _* <* K* (* }= P* B* J* $- _* B* h% {* t= 0* }= 0* (* <; ]* n- O' 0* 7; Y) _= n/ x* v) l* =! 5] )! (* 5= L* H- D* :* _= (* v) l* R8 J* i= I- L= 2} Q' K* a* *= 1* z* i- -[ B; Ah GE dl Q# |% @4 !& T* _* 0) 9= P* :* A* N* (= F) 5] ]* G4 b= 5] <* y% _* [{ E* 0* k) <; :* 5= w* {- A- k* =- (= ]= G= =- w* s- 7= O= /; 0* N* ]* 8= S< v5 5% <^ HE D% <* V* |* n] /) O* i% 5= O= h% &= 3] K* l* w= (* m^ 7* %; ,* `* x* P* C= v* z* m= m^ o- '= A* s- j- C= 2* %; I* 3- d= *9 J^ w% :* ek O= a[ q- 1* A- u* {* -% c= 8- Q' 0* S= J^ N- P* 2* @[ IE V& 3% !6 a} P* {* ,0 h; ]* v) e= =- d= n- Q* |* $- w- |A += 6* p) K* S9 Q* ^= h% 9* ~; U* r- ){ B* S* ~* l] )! !u 3{ Ar T= Ds )= JE 1{ It 5< zD en )t Pu KE {c Qj ^v LE Kv (j ;f ME lB NE OE PE aw QE 3y RE SE TE UE  z VE WE XE ^A YE ZE `E Qv uC  F %u .F N] *v  w {w W- fx ri bt o] Ds +F ~5 71 y6 o$ yl 89 +o J^ Q^ x> /) J] += a, m/ j] A- |* u* %< 9* {* $- C{ ,* y% O] v) y] $- U* 2} {{ @/ x{ N^ t! g] O% A6 .^ ^% b^ E$ 5% Q% x/ B# x5 w] 6l Q* w* Y* r= d! w3 h9 q~ E* %; K* g= q^ += 8- J* D* `= .^ bl ",
"@F w; w* %= P* P* M) <; A- q' {* s~ `; B{ p| #F I{ (* ]* 5= $F V| X{ D7 %F L$ [/ 4% k/ r3 S% ${ )> `% <% ~< i% B[ B- %l >$ ]$ .9 u> w% f/ C* @% O* M% g% C- S^ m, y% y] w% ,% ./ w- %! N- m^ b] o> Q' m^ c< {{ I- J^ N- ./ S9 /* m^ 1* += :* q^ @% S^ I* ./ D^ B* 6] =! H- $- J^ U* 5] <; Q' d= 1* H- %! q^ i% N- K; K* V* {* u* h% v* i* ]7 N} V$ ]& b{ 3~ 3] 9* u* m- +[ w* {* q^ 0* I- += {* p] n- :% 1* 2] v) %= q] a- D* &= D* J! R* P* V* S- {* O* i= '= 5= m^ P* v* C= m^ H- h% s- B{ pg K# /} $e @. O* ^= C{ *; D^ w* z* m= m- R* 0* v* h% w= %! {* v* (* z* <= N- P* x* e= A^ 9* 5= p) v* /= 0* K* O* P* Y* `= O= v) %! D* x* (* R* v) 0) j- }= += A* f= t- /; {* `* Q* G= _* .} R* :* 1* K* J[ W= -& &F s{ ^$ zo 69 `= K= g- V= h% 3* ]; j) 9* m^ f- v* 5= -{ w* =! :* {* L* G* d< K= t] V= P* d= |9 1* C= *; e= 0* v* Q* Q* 0* 3* := P= =; v% &= U$ v4 ~% J) m5 p/ -{ f= v) r; O* m^ {* D* A- <* 2= |; C* q^ P* A- B* <* 0* F* v* 2* h< h% t] O= t2 f= <; J* =!  < P* A* S9 K* d= q^ <* w* t= :* D* p) m^ N{ (* {{ 0* R* E' v* c< &= R* ]* s$ I- /; J! &= =; v> <n g- 6/ K$ !^ x| y= <* i% B{ K* /* 3! A* f= N* H= u* 8] C= w- l] t* `* _= 4- E' 1* 5] Q* x^ P* C{ (! (* [{ ~< Y= n; v% 4- )! m2 ri *F I] du `u 3C ,v bt It bt Nu 0j LE xD Hv xD )j N1 =F -F ;F >F ,F -E sC 6z 'F )F !F ~F {F ]F ^F LA /F (F rv Ww 'v 0b &j pu +w ;x Py 1s S] [w Uu `' )! E* >[ C2 D' E% l/ !%  - P] K* H* _F m- -% K= i% ,= K* |* !< 5] y] i%  6 N- v) y% :% y% t] p) `^ 8] 2} =& /) =! ^) g] Z^ _/ g] 7/ H$ p$ P% 3% (6 b{ A! v6 F' ~< P^ h% M) t= b, 0/ M: 3~ c2 g= )! V[ D* A* |* z= J* J[ D6 :F ",
"s> <F '- '/ *; a[ <* {{ h% q^ H- rp S; @/ 1/ e) x^ G= b* P* [F V0 -] .^ c} K$ r$ !6 0% |/ H$ ;4 ~<  ! x% (& d^ }F [s !6 ;] b4 ra I{ (! L% U^ E' c> ;% j] w^ K*  < m= a[ w^ @/ :< D^ 3! Y*  = S^ e2 A$ ;% ]* F^ c< e2 I* N- O* Y* =! 0* |* {* +[ {* ){ K* %! (* x^ p) N- Y* H[ -{ K* n] <; D* j- p= i* u* ^< p) H- F^ h; B* *= K* N- |9 q- ]< |F @& W$  $ -$ :; |* z* v* x% d= S' t- <* U] 1< h] 0* w* _= 9* S^ n- @= h% q^ c< N* m= ]* `= v) u> @= v* u* G= d= <; w= K* ]* n] N= 2= D= j, #{ k5 s{ b$ 0; m/ us w= {! N* 9* %[ A- {* Q* n- Q' %- d= i= w* ]* x* i= <; v* 7* n] K= S9 2* 5] =! A* K* d= q= _* O* C= O* <; += d= m^ k^ f= _= e= ^= v* v* :; ^= I- d= D* K* Q' H* Q' c< v* z* h% {;  = P* F^ *= R4 j, ti E$ X# )% >| q= (* I* %! i= D^ D* (* v) (= =! C) z* u= K* K= ]- z* {- q- (* 9* S^ L* 8a E* h; G- [; J* (* H= w* v) P* ]* A- =- Z- K* R- x| G% 4$ g2 rs 6! s^ J! k) t] O= v) {* l* u* /; :* C= 3* p) 9* F* Y* V* (* ]= a] _= w- 2* /= Ws *; B- m^ x^ $- O= V= 3* 8= h% |* =! S^ l* p/ _* ;) R5 (* $- (* w- Q* f= y] z* P* d= ]* `= l* h% Q' =! D* P* %- k) 1F *o $& Q# o} v> Y* =- c< _* <* _* v* A* 1< 5] w% 8] p) v* '= C* p) 5] <; := N* 2* p) S* E* E] H- w- v> Rv E* g= Jh 4< m2 2F ri %u 0l 4C K] v| r| !w {z 4j Xu Lh Qv Qv It Qv 3F 4F 5F 6F 7F 8F -k 9F 0F aF bF cF dF eF fF gF hF iF jF kF lF mF Fu ou G{ nF 4< )t `' := ~! [{ 9] U- Wi np N3 y6 b^ S% x3 dp |* S' 9* z^ <* 6! 5] o- (& {{ {{ p] w^ o] U* t! -% oF S' v* /) S^ /* 3[ r2 l] 5] p) B] x^ x^ z7 L% [/ Z^ 6/ W^ ]< `$ >^ $$ %3 i5 (o <% += J* `= a9 7> 6' E6 6^ )~ G- p) %= N* _* h% :* $- =! z= $p pF ",
"}A -u Q) N* h% w! o* := f= N* `= <- S; %{ x> e) ,= z* u* )- qF C2 p} o3 X{ ,[ @& p$ o[ 3% +% D% r$ C[ D% un r$ c% J! Y0 '[ p} rF _% L% H$ A$ R^ A$ 2} x^ {! x> I{ i% B] 9a P* m^ b] M] Q^ {* J^ x^ Q^ -% 3! h% B] m- b] %! =! y% (* [t 0* L* '= |* %! $- y] u* w- 2] 8< p) w* U] =- -{ p> t- w* x^ N- += F! |* w= %; K* y{ a] w* V* K= D^ j* Ps 5! Y/ ($ ;3 _- C= z* u* u* -% R* m^ w% I- w% <; J! $- g] K* |* <* |A 0) O[ 9* v* 3* J* j) u* y= B- }= 5* Y* b9 a- j- oF (* :- n* 2* /= x% *1 i7 U6 Z2 SA <* b; {* 0) C{ (* (* L* t/ 0* N- =! i= (* 3* 5= P* D^ I* b; v* f= B* O' b= p^ {* |9 `* m- H- w* D* q^ 5] z4 A- }= +[ :* z= V* <* y' j- p> %= m- _* u* P= P* ]* (! ]= ,% w* 6< D* p) v) `= v) +[ _= x- v^ |o i4 )] >$ B2 x- i% M= A- N* $- ]= m- A- B- A- s- 3* 46 :* $- _= f= A- l* 4; &= m- *= m- K* O= <* v* 2= x^ =- [; ]* 3* ]* z* 3> R* :- a0 ~] Nl ^$ i; sF u! 9* _= H- w* &= |9 +9 Q' O= 0* K* o- j) O* O= U] =- w= J* x* @[ C* ]* N- Q* m^ |* 9* ~; n- V* 9* V* S* 1* G= h% s, ]* S9 S^ ./ 0* ]* m- w- a] d= v) P* Q* v* V* |; v* 3= N- =- H- i= f= [- v- |9 3! tF '^ ^$ .& h9 V= m- 6* 5= (* += c= := ,= I- K* w% q^ a] <; d* y] S* {{ w^ )! 7' C{ +; b] C{ ri s- }* Fh X= an Ds Jt 4a cx aB 1v Tu ~r kx dx ru It ^j 6a bb Ey )v Mz Gv uF ^B vF iz wF xF jE yF zF %x AF BF CF DF EF FF GF HF IF JF KF @j Dy (z nx LF Uu MF qu Bz ;z ~r en `' +C -u Bo `t $& (< B3 0s =9 {* M= p) y] w% l] {{ b] S^ B] %/ 4< @% U^ L% A= U% w^ w- ~< L% `= O% @% g] w^ /) ,= '% {{ ./ !< !< B{ !< <% /} Q% )/ hl X< E2 W6 J) h] A$ h% t! C= H= t$ $^ J2 NF $= =! !* s- _* A= {* A- ]* [{ /} -0 ",
"7C 8{ +[ |{ <* 9[ zg [*  - h% C= S~ S; E% w{ va $< H' l* 5] OF Z| )| 25 N/ '6 <a v6 i$ b$ |] R^ N^ D% 8' x% 1] #& ]* PF P# T& Pt B] @% U^ @% o] =< K* _% {* oF {{ t! u* Y^ o> ,= << s$ _9 -% 5] 2} {{ y% 5] i% B* x% 9= I- J] g] j) $- I{ h% x^ 1* n- v* y% $- v) N- ./ {! {{ %! C{ j* =- {! v- ~> S' 3] -% '= ]* K* m^ A- S- V7 n- 0* 7= F^ o% -~ :7 A& f5 d> az <; i* w* w% I- R5 K* p) *9 I- v) s- ]* q^ P* m^ m= k) e2 e= P* ]- l* Q' d= K* %= j- 0* P= 8= /* 0* 3* L= A- [k D* }; 43 ~^ V$ 1[ QF y] [= H' n- S' `* `= $- Bn P* B* -{ d= R* (* z* 2* F* L= (* N- -{ <> a; ]* 5= M* 8= m, 5] G* K* b; t] Q) N* {- 3* -% {* I* v) T- s, (* }= *= P* (* <; 5= S- (* w* J* Y^ /* 8] |* x^ (* 2* g= {* =! A- a] P* h/ ~- '6 E$ S& 9} -- a; O= B9 r- L* R* $- =f <* #% m= D* 2= D* R* D* D= :* := =; G* v- 3* C= m! $- v- (= e= &= D* =! 3* m^ l* K* (* G] {[ '[ R$ S; RF K* d= d= h; -{ w* 5= H- O* p) 7' v- /; w* (* I- ]- J* O* w* =! N* :* :* 0* n- u* g= O* [{ C* 3* K* 1* w* r; /; w* b= z* O* P* 2* E* 9* v* $- `* m= 6* :; )= q/ N- k) :- H= S^ /; N* 6< P* J^ m- ]* J* m- l, SF ^^ K# TF )> j) 3* R* {* u= t] I- 7* :* `* o- o> N* C{ <; 0* 5] B] -% l* {{ m= += e* =9 nu 5* |} Ds ^* UF S] D] `u `' -u Tu Yu dx e] ,v ~r &z X] 4y wa ou xD Ey 2C ]B &j Sw zA VF WF dw 2A XF YF (y ZF `F  G .G +G @G #G $G %G &G 0A *G cw 9z =G  D 9B -G .t r] Y= O- f* ez f| ;G J$ }] #6 >G %/ U* ~! x^ W) q^ H* B{ ~< @% I{ N- |] B]  < u= P^ U] :% 9* ~! ^* g] t* i% 0* y] >< Z^ 4< L% p] i% u$ N^ m% E6 i$ D% +% F' '6 (} e{ u5 No 8'  / &= _= :< >; ^) .^ S2 Yf T^ K* I* a; l* }= |* {* O* 8= *^ ,G ",
"Bl w; O* A= m- ]- x* f= w% I* V* r' S; W^ @/ $C Y^ C= Q- 9= q< *1 b4 *4 b4 0% Y6 E% )> '% /% 0< o$ t! !< :%  ! m% {* kl :$ @7 Xk v> J^ :% w% q^ $- R5 a, N^ /) ,= =! y{ E' @^ 5] e2 y] y% h% B{ q^ ,= f/ S^ V7 ./ hp V* d= (* x^ R5 7* O= {{ 6! w^ m^ m, {{ h% P^ /; q^ 7' 1* m^ g] ]* q- d= $- ^= w- %; S' u* D^ t] P* <* w- d* 3! C{ P* p) z= &4 _0 L& (5 #3 -= _= I- R- <* << 5; D* {* R* :* P* <* 8> v* P- #= /; e= a] C{ K* D* -{ p> Jy ^= K* 0! I* d= w= @; C= j= ^= (* 9! W* !< K< '[ S& ]& <; P* -{ |* g! q= S' D^ $- w% A* t2 v* 5] v) $- 2* 3* Q* D^ Q* z* 9* O* `= m^ v- F^ >< Q* 7> )- (* &= J^ 0* 0* P* e2 I* S^ no k) A- w= e= %- /; O* V= J! h% *; (* Q* =! z* C= S^ l* -{ $- `= D* (* h% P* ,* 9- J* 'G Q: )G 4% |$ K) a- S= j- (* w* A- e= 8= q- F* e= b; #- D* %- F* :* O* T= {* h% z= Q= K= m! @; *= ~- ]- J; == ~> ]= 5) [= 5= 5; &3 7& S& T# !G j$ I- @[ =! j- =; K* 9* V* Q' n- -{ H- m= m- d= J[ v* =! b; R* /* z* k* E* <; v* v) P* K* =! R- M) K* d9 R* 1* +[ m- d= u* <; 0* e2 @= P* P* v) I- c< u* m= =- *9 *; (* 0* t] w= S^ B* /; I- S^ O* ]*  = z* I* ~G d} q6 k5 @> ,) d= m, /* O* O= I{ {* v* M* 5] O* v^ l* z* w* A- {{ =! /; u* N* H- Ht J- J- )! t* &a 2{ N* {* S' Rv bu cx N] W] Uu R] Uu gw )t {G ou lA zD bt =z kA ]G ^G s1 /G (G _G :G aj jE <G [G }G |G 1G .G 2G 3G 4G 5G Jv zB vz Nz 6G ]B ~w PD It 9z bv vA Yu )t j^ )t j3 Q% d% 2% 7G 4% i% 8] 0* R8 V* @% N- {{ i% @% x^ C{ L% 5] 4/ B{ C{ !< S^ 2} 2] u* B] ./ y] h% U] 6! |< #/ V7 a] e% B] 1/ g7  ! `% =& l% /% J) Q9 8G x5 Mq d! I- *= N* -% b- M6 h/ 5! e! /= 4! m= x* (* A* B* 9* o] P* o3 :F ",
"X5 u- J* `* I* :- =! f= A- .= m- 6> S; s$ /) u{ |< C{ *; 2* Lo {t V4 #& E} q% $^ r$ 7% #^ D% e/ p] |] m% _/ kr $* -% p6 W$ Y$ `d s$ J8 9a `% h] 7] 9* U^ B{ {{ w^ :% V7 q^ P^ += {! {{ m^ n] d< 8/ S^ 2} t] |* H- v^ E9 7* ;4 _= t] w- n- t] 9* C{ w^ R5 V* d< y% g] 0* |* S^ J^ |* J* *= R* m, 5] =! k) << u* 3! $- -% R* t] K* `* z* :* y] 6; C9 C0 N& X# -$ Y; Y{ d> V} h& }| W} %} D} 84 h& C: b} i4 4| b} >] 1|  $ :4  $ :[ V& N& [4 V} N/ h& I} /] v} /] @6 64 64 u} Z' A} _& Q2 ^$ A& y2 9G 0* j) O= l[ `* -{ {* v) B* P* }= v) _= Q* v) m^ 46 d= f= [* [* %! D* v- R* G* N- j) ;) G= G= n- I* y% E* s- y= R* P* {* Q* i= A^ J^ Q' n- 7= D* q= (* -{ ]* F* d= D* *= 5] &= +- {* :* %= }= ^= `* b* ^= L* i% K* k^ B| &$ m5 Q# #3 .] =6 F7 4l y[ >] H} Y%  $ @4 Br W%  $ N& _$ Q& ]& l| 5& V# +$ g} 5^ (] L} i3 H# E} d} ]$ @5 )5 ,] N& 4$ !6 M} >5 .& )] Oq 6> H- R* <; :* B* g= =- |9 <; q^ w* :* (* C= j) ]* 3= E' `= v> r; <; j- '/ n- D= d= m^ /; A- C* `* (* z* w= $- G9 8* 6* v) u* -% z- )= u* ,= u* m- (* 0* S9 u* K* w% O* N* y= {* 3* A- 2* t* W^ (= 5= 5= P* O* *=  / =< (} A& 47 ~5 8> V= }* 4! /; D{ E' N* {* n] =! I* 1/ q^ N- += -% ]= 4< Fh '= _< +/ S* 7= ~- m2 v* q- =9 6t U- Ar %n ~z e9 Sv K- e] gw r] Uu Tu )v 3C AB 6c )v bt mv 0G aG bG BD cG dG KC qy mi eG fG gG hG iG jG kG lG mG nG !j rv 8z oG pG Sv 4j Uu tv yz E/ ^* T] |s $6 qG _[ p6 {{ d/ V* U* |< R5 b] 8] |{ J- P; $- y] v> x% {! 3! |{ {* J- 5] 8/ |] v> #/ m] P^ w- @% {{ >< U^ v* >/ :%  ! W^ D% B{ N^ 4% #& b^ b^ (} $^ @> u5 M7 N] !< A= u= k* e= ^% ^/ P{ rG 1* L* E* C= Q* n* ]* _< q^ O= p6 ~D ",
"sG O; q^ n] B* (* D* m- ]* ./ u* h, Z; b, 7' tG ;% A= C{ 0* uG vG H& 06 `} L& p$ n& $^ 4% B[ 6/ d^ Q; a, W^ L% ${ j] .  )^ @5 4~ L% B{ y% m] |* B{ B] y] g] 2} -% t] += B] I{ x% t- ek {* x%  < 6* ./ u* k* -% y] {* 8] L* 3] m^ S9 t] 5] a9 |* 6* w% V* h% += ./ f/ {! t] w* `* i% j) 7* ]* }= z* P^ (* 0* I{ S^ C* w% :* C{ R* w^ J! <; S= m^ #0 u* N^ X< ~] M# z} 4$ +5 +5 v} .| @4 |$ R: 4$  $ !] Y{ *5 y[ ~5 .7 B: D$ 8$ ]$ Q& k& .5 Ei .5 =] .$ V4  % @6 Q& -] .5 L8 7& U: N# .5 A& 1[ 8' t= *= {* C{ 7= x^ z* ]* 7* z* }= h% i% :* $- v*  = _= x^ z* d< d= #- Q* (* :* C= 5= L* i= I- /; O* z* C{ P* t] S^ z= .} O* I- i= v* *= V7 {- :* t- k) ]- J^ n] d= S^ ]* O* 3[ A- i= P= Y) 3* u= W) |* <* A- v) O= {* <* ^; H# >$ !6 -$ b4 >] ]$ 2|  $ 2| )] .5 #] =] () $5 !& `# () Z{ {] y) <^ &] 4$ .$ 47 v4 Q& n5 .* 95 z} +5 %5 W< L8 @] u& W< ;] j& j% =] ]7 8/ S9 <* 9* J* D* 5= f= w= v* z* 4= |9 =! Y* n- ^= I* L* g= J^ |* 3= |9 ^= &= k) D* }= ]* z* t- H- n- x^ x% 9* D= E* v* w* N* ek 9* K* 9* :* w* |* b0 n- U] =! 5= 5] a- H- O* J^ 1* w- 0* I{ :* y% jn /; v* h% 9* P* k8 s! ~^ ~^ 32 Q= )q U] H- ,= a[ p) .} a] u* m^ ,= 7* :* G- m, w* b] 5] 8] << z= j= o* M* |{ ~! C] r- +; Y] ~* D- `' =l t* J] Fu an n; Yu wG 9D ]v }u yz bb wA Pj bx 'k xG yG zG AG BG CG DG EG 1D FG GG HG IG JG KG LG MG NG ~C |x 9A Zb Wu Dy yx ^v dx `u nu 6t W- }* OG    <7 1a 78 w% 9* %! S9 5] ./ T] D{ a] l] s* u* P^ 8< w^ y] |{ /) I{ q2 %! p| @% m^ P^ K^ 1< 3] 2] s$ v^  ! 7' y% 2} #/ h/ ,/ f/ u% 7/ ^^ M6 a$ E$ Z; [$ J$ Y9 c/ w* ]* Y* Ai )> '9 d3 er t= v* q- *= S' V* $- i= C= 5* v7 ,G ",
"PG QG v* P* M) p) ^= D* A* K* m= 9o O< 8' g] d) _% N{ )= J* RG (p X4 K9 Z' K$ w3 0/ $^ H$  ! Q% D6 f/ -/ U^ SG 2/ Y* !% X6 W% <! += `^ r^ U] f/ w^  ! W^ c< _% 2] Y* 2] %! >% u* B{ M] {{  < q^ B] << @[ /* J^ ./ /* y] I{ *; q^ Y^ @% s$ +9 t$ += 3] E* i% |] Gh @% R5 1< w* 0* ju  = B* !< :* x^ =! =- y] /* x^ 5] o- u* n- 9* {- w% ^= U^ ^< v% $% .m h} v5 ~] R# .& v[ ~% (6 TG #$ R# :$ !^ [^ ~^ v5 R# {6 X# [$ (} d% a$ >6 th $$ .! L& ;* b> $$ z} i$ Q# X$ .! 0% =^ E[ %r Q# L& .& d% '[ .= S) i= H= O* `= V= }= M* v) =; d= P* :* C= m^ 0* u* O* O' ,; a* x* ]= H- d* C= h% ~> {* 3* w* F= <* (* Q* |9 (* d= H[ K= <* _* n- A- 0* O* V* K; J; w- l* A* z* F* A^ q^ <* J^ m- :* u= 0* n- u* V* =; += <* u* w* _= #= @5 5% t6 !6 UG 5% V$ Q# a$  5 q5 u5 y6 P# -& =^ i$ 0% {9 VG S# '6 W$ >^ Z$ B# a$ A5 n[ !^ '[ )% v5 >$ V$ f$ S& J# #$ 0% n& h5 Z{ 9} Yd l* r; ]n 2* v* j) t] q] _= g< O= V* V* 9= !; R* G= q^ O* v* *! u* O* S9 ;) v) e= `* 0* 9= }= m^ u* P* {* I' {* %; k* @[ S' I' t] {{ m^ {* I- $- u* K* <* d< O* w* J^ (* {* :; w* V* q= R* u= D= |* a[ 3] *; `* v* C= {! 7* Q# ~] g& J) m/ D^ w% E' |* == i% I' c> x^ 4a _* v* 3] H- $- u* E* U* e* O= &q t^ {w O- G- I] l* A= T= +C 5a f] Cs [u `u )= 9] nu bt fx WA Xu 5< !w Cv (j RA 0j `i 7n WG XG YG ZG vw [C ]y ~C `G  H .H ~F +H @H #H $H ~C %H @j &H *H Hw =H Ey 9z 4C qu r] [{ 8] [{ #t 25 D% '^ X^ Cs |s [{ E^ w% o] y% b] << {! t! 4< S' << ~< y] y] 9* -% T] J- 6! P* E' @% ,= K* @% x> x% j$ q^ |{ }t S% ;% %/ !/ Q% O% n& _7 w3 X< 9% Hs J) ,6 6* u* Y= w- X* >) h) <% a{ Ir Y* 0* 5] +; -% /; q- S^ |{ w% D7 -H ",
";H !0 F= P* ,; ^= 5= m= v* a* 5] j' S; _/ 1] @) m] K= )= B* p8 (2 =] K4 c} )6 K$ $< p% e% p7 A6 N^ |] w{ w^ S% '% #0 J) :$ .5 s' o% q^ s$ *< :% u* c< i% !< @/ 4/ _% w^ ~< S^ {! t] ,o k^ i% i% o^ -% c> N- e2 |] N- ^= O* |* U] 5] y] <; $- N- C^ P^ m, u* R* C- i% H- t] p) q^ m^ u* n- ]* c< o- v) V7 5] u* <; K* i% y% += V7 J^ m/ a[ i% 9* v* [= Z; C/ A& Y% S; S; S; S; S; S; S; S; S; S; S; S; S; S; S; S; S; S; S; S; T; S; S; S; k{ m{ S; S; S; S; k{ S; S; S; S; S; S; S; )] t6 b$ ^3 dz }= 8- o- c; 0* d= I' A$ v- m^ V= (* C= /* 5] P* v* Q' /; O* 5= C* :* F* $- K* /* k* 0* E* 9* m^ S' ,0 }= O= w% b; <* V= N- =; X* F^ l* z* *= O' {; `= i= 9* (* {* v) N- <; O= j) n] $= m- =! }= w* U] 3- n- 8] i% P* *; p{ X# L! !3 S; S; S; S; S; S; S; .> S; S; S; S; S; S; S; X; S; dl S; `; S; S; `; S; S; S; S; S; `; S; >H `; Z; S; S; S; $3 +^ Z9 :] d{ >! v> A- A- ./ += $- u> A- 7* 5] m^ i= m- (* ;) u* O[ i= o- 9* A- (* 1* P* V* P* j) x* (* S- w* u* O= O= w- x^ Q* m= m^ p) {* $- S^ K* B- F^ ]* a* `* w% l* <* V* i% H- u* u* Q) Hr |* $- ]* V* C{ .} t] i% 3] w% k) f= N< ~% {9 @5 ,H U^ W) q^ 0* g< m, ]= Q* v^ p) 5] Q^ h% q^ s* N- ,= a- V* S^ o] m, H- J] A= [{ Fh d] &q n* U* n; 0B Ds R] /u [u @w *! Wi 9z [u bv 'H Tu ^v $A )H Bz !H ~H {H ]H ^H Nz {C /H NA *i (H _H :H <H [H }H |H 5z CA 1H 2H Xz ou -x ~w 9] av Yz `u 0B Y= {{ {{ d} Y0 J7 A# l% v> 7' C* @% p^ y] a] y] i% t^ |* 1* 2} w- L% c> l] J- p] E' U^ += |] 2} w^ @% Y* C- |* -% w^ c> 1] += 7* f/ 3! h] */ =& L^ t% t% b% B# p{ X< u6 5} M% @^ [* B* f- ^% 8' U2 )~ e= 0* <* z= M* l= =! N* A- G- l6 3H ",
"&o 4H 1* v* D* J- :* ^= O= <* q- -=  > >/ Ba m) <* s- z= *= 5H S< #5 /% H# w3 A! 4% O% Wf (& d! L% 0< L% @/ |< H$ J* Y0 1[ &] P! |] a] %! |{ m/ Q* _9 b] n] m] {* ~0 P^ P^ -% O* V7 S^ e2 3! ]* U^ D^ Y^  / g< m, D* i% J- -% 6* O] 9* 6* =< += 9* o> i% z* S^ S^ ./ u* 3! v) <* u* -% o- c< _9 z7 5] {{ u* G4 D= l] K* += 6* V7 v* h% y% B] m^ W= k/ s} P# /^ h= 6H 7H 8H 9H lc 0H ,z aH bH O5 oq Ku t7 cH on Y5 `0 Kq dH eH d~ O: fH `0 gH  m 2p cq >o hH eH ,H /9 `0 O8 iH 2n jH 6& '^ #$ n$ H: T! #- 8- |* *= (* :* (* 2= R* @= D* A- 5= C* V= C= i= D* }= L= h% o- R* m- 3* v* z* =- y] a; u* _= w* -- C= *= Q' a; m^ :* 2* /; b= B* $- H- K* [* L= i= ^= *= D^ 9* V* 0* {* c< H* C= {* l* S* }= -% m/ +[ {* t- kH h> Q# y6 >] lH {~ (= L' p> 5) C= '-  ; w' n, <> iH E~ j; |> mH nH A4 oH P= tp ,n /~ <q 5> ^~ ^r /~ Y- O: pH 4> p, l< 5> 5> {7 +$ b^ K$ [| pn `= q^ #} -% v) O* }= v* j; O= u* q= S' w* {* |* ]* P* x* {{ -{ {* C* 8] h< R* v* =- I* 3* 0* K; B- z* <; z* u= J* 7= 5] A- (* q^ v> {* S^ t- U* {* K* x^ u* `* 0* z* 3* K* B- [= <* w* w- 2* V= S^ [= {* 1* P*  = R$ e5 M! 06 B} ^; 1* i* {* {! S^ u* `* K* V* 5] u* 5= A- {* 5] << d* l* V* q- q- x* 4! ^* [{ H- E^ Y= 6t =l A= w- [{ qH ~r e9 0B `u Fu ;C rH Xu ri Ey Wa (v ]B Zz Qv sH tH uH vH wH nx xH yF xB NA yH zH AH BH CH DH EH mi FH GH HH IH Dy ]D t| wa Sv ~w [w r- S] A= C{ Ol JH S% Ms W^ %{ Y= ]* [{ 1] q] 6! E' K) H- w% a, p) 3! Q; =9 6* ,= B] C{ |< l] g] {{ o] y] U^ b] q/ 2] D{ %! a, x^ |] 4/ Eg ${ !< 3% /% r$ 8} ,[ !^ b{ M! ,6 _} I- v* 0* q/ f) 6} @/ `2 KH I* 3* ]* 8] C* i% v* U* v* `= >[ bl ",
"LH q* V7 j) V] V[ e= ^= {* *; 2= 1) `; ^) |{ P~ I{ 9* '= ]= MH K3 y) .^ @4 P# f2 *% p$ v$ p$ %% ./ #/ :< '% _% -* w% !} J# H& l< B] a, q^ !< {{ P^ }5 %< t! n] << B] s$ I{ -/ f] ;% ;% 5] w* =! a9 #% o> |* ;% 1* |* =- S' B] ){ {! 7* [* w- o- /) =! w^ |* Q; A$ P* _* B] -{ 7* 0* {{ P* N- ]* C* h% w% {! N- V7 :% x^ %! o- q^ 9* e2 q^ l* S^ 6- M: $^ 3%  > NH u* w* ;g E' y% 9* t- w^ -% v> /; w* D* S^ @% >* B- :* x* u* u* m^ E* u= /* E] A- l* D* z= '{ 9> 0* x* D* x* G- d= -4 v} 7$ t6 /] >^ g! b0 D* 3* m^ I- b; `* S* <* R* A- (= {* 2= h% 3* d= H- <* J* i= (! J* }= $- }= h% 8= ]* a; w* <; C= (* -{ i= += E* {* z* S^ i* z* i% /= 8; &= 3* u= 3* i= e= *= n- U] <; v* :; G9 m= a[ T- C= 0* j- d< U* [- Q& OH /^ ;] %] g= >< N* :* x* P= s- :* w^ K* w* v^ ^= <* v) P^ z4 .= S^ s^ ]* N^ p) %! 8* K) h* _= %! C* c< d= %! P* B* 7= s* <n R[ =} >$ :^ e{ >! F= t^ @= l) R* 5] {* {* s, 0* h* w*  = v) Q* q= -% m^ n- }= (! D^ K= F^ *= *= K* P* *= J* E9 S9 U* N* ^= m^ P* v* u* ^< w- c< 7* o- Q' =! N* 3* 1* <; O= v* D* C= t] 8= H- M) y% D^ m- N* -% O= U* %! &= += [= S3 >$ L< PH lH 4/ 4= i% (! |= v- J^ O= |{ N* 5] B{ <* x^ z* 9* {* S^ b* v> C* A) t* 6! ^* U* q* l* -= t* a] p) v> O] /u O] d] =/ QH )= 5< aB /u 4C ~z mA lA bb ~v Yu >k &2 RH SH TH /y ]j vw UH jA VH )F WH XH YH ZH `H  I !j 0F 2b .I Gw wa Tv Gz nu  v Cv 3} en [{ x- Gi /% R< jt &/ l* -% V* C{ S* [{ V* :% C{ -% J^ S' V7 x% |< |* T] a- n] P^ C{ 3[ _/ a] J] N- w^ `: g] d< |< =< E' O* L% Q^ h] u% w3 O% o% <$ @& S# B# +I X6 W6 i% S^ D= K* %! ,- o$ b^ M: S! /= ]* :* =! ./ r; [{ O* H- d= ^% -0 ",
"O7 X- Y^ n- (= P= }= `= A* m- d= Q! S; m3 9{ .9 d< /; Z- h% @I P3 N# t% 0$ 4% 7% `$ +% o3 <% t! `% x% g/ x% B{ n& Fa Ot '[  $ 5n =< g] U^ 3] I{ O* -% 2} K^ x% N- L^ o- D^ @% I{ << =! B{ m^ ,= 1* I{ s$ @% w^ U] S9 v^ x% v* 8] m^ @[ h% w^ v^ (! 9* y% i% A- ,= }= B] u; w= Q' 2= e2 v* z* m^ U] w- p] t] {! B{ w* b] m^ %! ]* S9 B] x^ t] F! k3 Cg s{ F& #I Wf w* g< N* e2 8/ V7 i% v* (* 8> t] 0* m^ I| q^ v^ [* 1* d= /* B{ N- n] p) w= z* N- U] =! p) J[ 2] 0* v* H- 9* m^ .= O% J9 J) W$ ^6 Z2 b= S^ 5= {* m- O= F* 0* m= 5] K* S^ 9< ]* z* h% d= C= |* t* /; @= @= q- Q' F= ]* F! |* {* m^ 0* [= S9 I* D^ u* w- J* 0* O' [* v* H- O[ *= |* == S9 j) P* %[ J^ {* 5= q^ Y* p/ /* L' 3] m, E* [* r^ D* S^ jn $= F3 a$ J) 53 $I c> 2* %! a[ =! d= m, S^ m^ R5 V= =- S- i* 9* ]- _= n- E* o- w* J^ 5] Q' i% h; Y* }= {{ K* += v) 0* Y^ S* m, n] s- O: 6^ W$ *& t4 ^^ ]- u=  = C* L* q= D= E' e= P* J* B- <* 4= (! -{ u* u* _* j] C{ P^ B- q^ x^ n- (* d= /; `* E* a[ S^ q^ vn Q* i% p> w- 9* 5= w- +[ m^ {{ m/ v* I- (= 3! C= S^ O* ]* A- n- k* i% 5] C{ -% v* x* w- ]* {{ P* w= Z| '^ 7$ +% +/ P^ -% h% I- <* -% *q /= q] {* e2 w^ s* %! #/ {* q- 5] p) H- o- C{ V* t* {{ E* X] P] A= L] T= A= r* v> PD e] Qt bt 99 +C nu }u ]G !v wE {z Gz dx r| Uu wa %I &I *I =I -I ;I [C vE >I ,I 'I )I !I ~I {I ]I ^I jA /I (I _I 0b tC :I dx Xu rH Ta Yu Vu Sv W- s- X{ K4 _[ <I B{ 6! d= U* N- {! Y) 7' u* l] >% /) h* i% w^ 7* `* 8/ @% U^ << x^ @% ./ S' @% A$ 9* {* ~< P^ B] !< 5] !< S% ;% a, R^ C[ i$ +% n& A[ p$ hl V; r9 <] o$ `m ~; J; us Y- /% >9 Hn )~ ;; S) $- 1* -% {* @= q^ C{ 7= 7p r> ",
"q9 u; J^ )= |* p) [= _* (* 2= 0) 1) S; `% u$ H; O* j, m= 7' [I H3 ~| D7 (] W$ B[ w3 Q6 +% =} =< $< 6l d^ L% $< f9 :% K4 v5 W% ^a y% N^ A$ H* D% %! w^ t! w^ p) R5 `^ 4/ ,= B] u* x% D^ v) V7 C{ {{ y% m^ V* y] I{ m, m, 8/ t] |* 9* 3[ p) U] w* Q' l* v* 0* m, ./ &/ 2* l) x^ i% U] e2 v^ t- h% H- +[ 9* P^ m^ m, j) q^ [t N- L% 7< d< 46 u* d= W: Q% B# '} m) O* d< o- m- << m^ k* C* 1< g= =- C* t] $- E* _= v* B- 8* Q) v* N- 5] ~> 8] 1* g= O= ]* $- A= K* M* V* ^= W) |* ,0 M) 1; Y7 Q2 !^ !% |$ -$ :- ,o S^ J^ D* a- /= t] f= d= -{ I* q^ t- 9* E= N- ]* C* ]- :* k) f= -% w- D^ }= t] jn 0* |* J* w- N- R* q= 2] J* R* <* =! P* 0* <* v) R* j) *r 9* G= f= y% <* C* u* Y* 5] v) g= ;; o- U] C{ b* '/ P* W= e3 n5 _^ <$ <! 6l i% _= << A- D^ P= *= O* `= p) (= N* K* 3! k^ 1* h* += {* r/ q^ [{ H- t- (! 0* L* t] N- Q' 5] O* l[ q= $% << 2* :* }I lH )^ 0% Z{ j{ }> A- P* u* 8] v) L* 0! _* N* k) v* -{ k) {* x^ m- y] j- .} J^ I- $- B* /* }= (* ./ E* P* += 8> :; d= m= m^ (* |* V7 {{ m^ u* 0* v* J* 6! }= =- K* [* E* S^ (! u* 5] }= 0* U] N* q= $- 3] %! k^ J^ A^ E9 o$ q4 Io A[ Y2 68 S' =- 4] B- C{ V7 N* t] <* H- u* O* K* D^ f] i* O* 9* a] G; 0* u* u> m= <; f] [{ U* C{ v% +F ~; /) kr C{ +/ 5E 4< }} M= an r* {w qu 5y  w Yz ~z zD t| )v 6c Sw |I 1I WF .I YE 2I 3I 4I 5I 6I 7I 8I 9I 0I aI bI cI *x *G 0b wa 0b dI [u Cv 6a bu jx 8< `' V* jk u6 a> Sd |] H- l/ -% #/ y] L% S^ 7* h* ,= s$ wv |{ += g] (! g] 7' t- Z^ >% c] a, C* S^ J- w] {{ =! U^ p] /* =& B] t] x% h] 8/ #< Z^ <% Y6 r$ 9r {6 N< _[ _7 T] g< u* q= I{ r) o$ E6 h| +l M* d= e2 << <; f= D^ -% 7' <* $* $w ",
"s> >e I- I* D* l* W) *; Q* n= )- m~ Z; 89 N^ X) &/ v) ,* n- eI fI Y4 p3 D} Y& Y0 E% ${ W^ F' C^ _/ D% ${ B{ L^ w^ cu D' -$ {| 5n P^ B] B] m^ I{ X^ u* B] S9 ;% Q^ |< y] O% |] w% 5] D^ u* N- g= q^ n] -% 5] m/ 7' 2} Q' 3] #/ H- y% u* n- H- w- I{  < m^ q^ S^ t- 8] w- 6! 6* |{ V7 (! J^ I{ w*  < w* ./ << |{ $- 3! R* m^ B] ;% U^ U] 2* 7= gI )^ P# i| hI g/ 6! o> ]* |] N* u! m^ ./ =- Q* C{ o- f= [* v* i% m/ e2 b] Q' p) w- }= V* 9* h* ^= _* 0* += }= n- (* W) K; m^ si I- S^ |* 05 iI X6 d% >^ O2 G= W= l* d= b; C* _= =! R* c< D* d= ]* [; w* =! (* }= S9 A- /; f= z* D^ j- p] 7= m^ O= (* N- P* O* D* J^ J* ]= q^ ^= ek m^ P^ n- _= _= a; ^= 0* w*  = o- <* =- =! f= I- =- w% m^ /* h; k) n] t] `= 2= 8* o} )6 ;6 x/ lw P= N- 0* v^ J- _= =! 5= {* v) v* .= 9* w* 3* 5= J* w% 5] 5] ./ C{ b0 2} 0* w% K* D^ S' += p) U] 9* <; z* h% z* j) {{ l* S9 $^ @& .& /] i3 8> t* A- *= P* cp -{ m- w* x^ v* [= e2 {{ u* 2] h% 5] A- |* v* 0) >< <* w- A- A^ B* <; w- O* :* A- q= d= u* n- $- _* h% x^ N* m^ w* x^ w- j; C* Q' w- 8] f= A- _* A- +[ a9 `* ./ u* w* z^ C= 1- v* t, V; ~^ $* Al jI H$ p) C{ Y* q- Kn S) w* $- I' Q* ]* x% _* d= ~; [{ ./ 9* <; v* {{ m= A- 5* Y= k* i% o] l* o] q- [{ Jt kt bt =/ ~r |s 4! [{ t| )! Bv `] pw w, K] Fy EC hw Yu kI a1 lI ZD mI LF LF ^y JF @z nI UB oI pI qI rI sI lG <B tI uI )v vI =z Yz 4a gv =z ;z R] Jh Hu ri N& *4 b^ s~ N^ v> %= 9* p) y% ~< $- Q^ 5] ){ S^ S^ m/ u> y] J] K) v^ t! q] 9* w- w- d^ U^ @/ q^ S^ N- <; l] |{ t* P^ E* s$ d^ B[ ^% !< n& 2& T% ($ ;6 >> >^ I$ ~* 3/ N* q= U^ n' .^ a> s! L~ A- m^ C{ C= A= I{ 1* H* <; _- *^ wI ",
"xI =v K* 2] a] ./ p) (= h% m= z* y~ S; .^ y] (; (! S9 == S9 yI C2 )4 u6 S} E$ W$ 3% i$ w3 r$ 0< ;% H6 J- #& a] m3 Y* b^ i5 `# &4 L% |] i] t! 3] p] N^ 1< g] i% _% g] A^ q^ 3! x^ u> y] R5 J^  < x^ S^ P^ I- 0* 2] Q' v^ w^ n] u> w* o> Q) 2} m^ >% n] m/ e2 7* w* {* P* 5] c< S9 a; 7* D* h* u* |* 2] y% B] g] m/ ./ v) 5] w- -% q^ 0* 0* e2 F3 {} .& =< 5= Y* += %! _= z* (* U^ N- Y^ 8] &= v^ P* 5= {* f= @% A- t- _=  = G- z* B] B- -% /) C= z* 3- (* 8] t] N- k^ w= 3] 5] `* Y^ p) w% a~ U{ $$ P# ^6 5^ 2= 1* K* (* S* Q' *! {* (* 3= =! @% N* w- I* }= $- `= /; 0* z* f= i= S9 Q* A^ B= F! }= w* 0* /; f= N- Q* A- E* h* @= C{ 5= w- U* ]* =- P* :* S^ /; h; i= z* `* v* D^ P= :* 0* O* _* O* ar Q* 5= c; l{ >$ b$ ]& F8 ;9 x= p> t! W) K* <* +[ x* =- =! <* f= n-  = w* m^ .} 5] N- I* B] E* h% m^ D^ B{ 3] J[ g= F* 3] f= t- h% w* 9> >< ^= 3] L= ,% zI Y% R# !% '3 6! P= S9 l[ 9* :* m^ f= S^ <* AI B- z* 0* '/ h% O* {{ m, k^ S^ p> v) y% m^ u= 9* C* u* k) {* g= ,7 n- w* (* {* x^ t! E* -{ -% n- d= Y= N- 3] D* m, w* f! t^ _= Y* v* @- ^= 5= 8] |* A- (* B* j- J* L& {] w6 *% ,3 +r h% S9 oF S^ |* p) L% w* w= C{ 1/ <* C{ p) S^ `* 8] 2* <; i* t^ (* 1* A- j] S^ :* *! I* ,= b] ~r e* O- [{ I^ f] D{ e] Y= r| Xu [{ Q5 *! BC |} Zz wE >x /u 8v BI L1 CI DI EI dw FI GI [C HI II JI KI LI MI NI OI ei PI QI }C RI Cy bx Ey Cv e9 Qt u! bt m* U* P] {] pA T% r~ $% m= m^ ~! P] br E' N- C{ i% E' W^ m/ {{ P^ y] {{ |< 2] w^ 2] 3! #/ i% s$ @% I- O* -% q^ N- e2 B] w^ w^ x> %/ q^ `% ${ o[ p$ (< $^ $p K# b{ /} hl :% TA j= h% 7* ^> b, =& 04 -~ 5* *; u* D^ p) B- S9 0* m, i* p% SI ",
"Ud g' Q) {* t= <; 8= i% P= 9- h% r~ S; D% C! 9o =< 4< V* S9 (8 V| .7 .^ v} '6 '6 $^ F' ,[ ${ t! $< j$ d^ 8/ |{ %% B= @u !& Q& /~ P; >9 b] (/ w^ ~! x% y] _% q2 ./ I{ R^ 6* u* y% i% h] 3[ x% }5 (! h] G4 _% p] S9 V* v) |* U^ +[ ;% O* c/ l* {{ i% w% I- |* @= a] v* f= O* H- v* h% J! |< /* V7 <* q^ L* %! z9 u* m, Y^ O* -% x% w- {* d= D2 $$ !6 Oq Zo i* t] 46 1* %; Q' 6! e2 {* 1* N- t] p> w* u* B- {* h; $- V* `* d* B] z* v* 1* N- z* 7{ {{ 8> C{ p) _* q- `* ]* O= (! v* 5] 5] 9* 7] !8 () i$ Z$ #{ o] TI 8= [; z* #; Wp z= L* d= hp h% 5] S' N- 1* C* n- w* O= ~> G- *= t/ }= O[ w* w* L* v) F* _= u* (! Q' -[ 2= <; v* P* O* Q* v) q^ e= `* D* A- j- =- C= S9 k* Q' &= 5] w- a] v) $- 5] ~* D* 4= ^^ @7 *] 6% `/ k! N* N- E* I' F^ =- {* S^ D* l* (* I- ]* }= u* $- (= J^ /; -% (* p] m^ v* /; {{ R* O[ q^ ){ k* u* x^ S9 (* k^ f= n- 6' <; N- ]* N% ]; -^ h$ (5 B3  ; f= _* p) :* A- k* v^ P* V7 ]* w% O* A^ `* m/ O[ [* C* m^ q^ P* u* R5 t/ S* v* -% v* (! /* A- /; 5] D^ $- I* U] h% I- w^ a- {* v* C* (! j] D^ 2* n- C* i* e= v- m, c/ v* l* d= 3* /; w- =! d* N< }] [$ y$ Nn 6! J* U* h% i% Q' bo x^ A- t- <* (* %- 0* ,% A- f] R* A= t* $- G- *! J* 9* |* 7' v- =9 5* )t [{ an K* _< BC )t _< Ds =/ ~r 4< Hu `u `' UI t| nu bv +w &u bt $A VI WI XI YI ZI `I Xw ]y  J .J +J @J #J $J %J &J *J wz =J -J |x Gv $A 7j ;J &u ^v U- -f w, |s Uo 0- 4$ %o i$ }w _% <o v> |< 3! '= v^ p) J- -% &/ C{ t^ y] V7 /) w^ (= %! 2} a] w- += h% E' =- v* h] ./ B] y] w{ x^ s$ ek _% =l /% D% 7% $* $* b$ *& <$ !6 %3 ^^ b> ${ >J P^ ]= o> k! <% l% ,J $t Y) v> `* =! P* V* v* [- +; h= o$ 4v ",
"'J X- )J H- Y* l* J] Q* 8] J! -% !J S; _/ 7] u2 9a <; M) a] jI #3 {] :q ~J s{ L& *% *^ o$ (< l% !< &/ w^ L% @% {J q^  r F& J# )~ 8' _% u> x^ l] += 9* |< ]/ %/ t! y% x^ ,= B{ |* 3] <* h% k^  / $- {{ B] J] N- m^ N- B] U^ x^ 2} g] p] ./ ;% q^ O* v* |* n] 5* $- %! *; C= {{ b] o> |* %! 2< 0* B{ y% x^ _< t] w- o> y% t- P* D^ D^ k* T% _a T# '^ ]J p$ Q* V7 w* K^ |{ ]* `* i% U^ x% Q' z* U^ 46 L* <; k* m^ k^ B- 9* t= B* <* 9= V7 9a a9 #! }= S^ O* ]* (= &= a- <; J* 9* w- {* J* 2* 3* q= Z& W$ P# B# S<  ; 5* z* $- n- D* A- P* _= F* Y^ J[ E* N* += Q' H' (* P* ;) v* u* h% 5= :* 8] O= q- m= N- 1* Q' }= e2 ]* D* {{ H- += D* {* }= h% B* f= .- d= =- e= e= {* 3] v* A- =! u* u* H[ ~; =- V* q= >= c{ ca A5 *> ^J x% I- C* v) {* w* q^ q^ z* &= D* l* 2* i= G= =9 =! a- P* 0* e% H- m] R* D^ ]* d* e2 O= <* A= J! u* <* m- m^ q] H- }= ;% v* /= _= <; ev rr L& ~^ V} a, D= t/ K= |* w* {* v) q^ 0* @= m, v* w* A* d= E* += y% I- D* F! u* U] R* m, V* v* D^ l* J^ w* m^ 0* K* _* Q' P* H- C{ I* R5 <* ./ |* += h% B* /; V7 Q* w- u* 9* ]* V* k* d= o- 2* V7 {* l* v: Z{ '^ >6 Q% m^ u* 5] H- B] v> J^ F^ v> d= 0* y% |* <; $- (* 9* S' 2* A- d< << ,= v* R* a] _* )! =! *; w- 2] A= R] 8] K- du o] X] q- f] =9 Ds qH m* e] e] &u cx 3w Zz Tu `u Qv /J !2 (J ny _J -x Nb hD QE :J FA <J [J }J |J 1J 2J 3J KC 4J 5J ,e 3j >C 'v Uu 6J nu v% g< U[ _< x* H} M7 #^ 3~ F] B{ w^ _* D{ m3 x^ m/ ,% 5] 2] y% 7* '= y] i% 7* g] H- P* B{ @% K) R* w- @% k^ $- S^ D^ L% U^ h] t! %/ |] q2 %< t! th o3 #< r$ L^ F' X< a{ 06 X< T^ += 4a B* m= n= 8} E% d| 7J F* P* 9* (* p) S- *; /= w% =! *^ 8J ",
"'* 9J m- g= O= q- V= C{ n- <; 0) s= S;  ! c> R; i% += Q* %= gH $m k7 /} '| ^^ b$ $* 9% H$ <% d^ $< n% |] x^ {! j$ (! >[ >$  $ Pm 2} =< B] y] S' d! i% o^ y] P; s$ ,% k^ L% ,= y^ i% l] w- {{ m^ |{ v) ./ S^ w- w^ p) D^ U^ {! y% 5] u> H- /* +[ w^ w% d9 w- v^ 2] D* =; Q* $- I- 7' w% U^ y% w* t] S^ w- C{ <; w- 7* w% @% Y^ T^ O[ R= G2 2% ;] +> 0J D* {! S^ +; h% l* S9 J^ D* '= w* `* L* $- v* E* 5] u* += p] (* m, v* h% _* V* 0* M- (= E* G- N* P* Zm N* B* w% Q' 5] d9 D* O* C* u* H- z7 88 ^3 4% W$ ;5 .^ b[ t* n- 3* s* O* 7; v) K= /; ]* v* 0* O* H- {* C* D^ k) ]* m= w- u* +[ 1* z* v* a; :- :* o- <; {* P* 9* K* O[ m^ += m^ 9* 3] ^= k* x^ P* ^= q^ 2= {* (* Y* &= |* n] d= =! ]* O= m- `= w} u5 aJ _[ B* #$ w* _* N- y] B] f= h; C{ [* B* 0* v) `* :* R* 5= :; ./ n] (! p> x^ f= =- A- u* w* O* 0* W) Qs 0r 2* p> v) D* I- h; `* _* g= R5 w- }= -& m8 ^$ Q# A! b{ ~- ]* b- w% N* m^ D* z* :* v* `= (* N* n- += <; v* /; a; A- `* C= {* -{ H- (* m^ v- w% C{ _* (* H- u* v- {* t* += i% D* u= w% <; 1* }= (* z* {* :- F* 0* -% E* d= D^ w% N* (* U] -{ w= %{ e| E$ v6 p{ bJ )! d[ v* I{ w* o- u* 3] 3! 0* A- [{ =- S^ i% o- ]* S^ '= 9a d* <; Y) f= := u* w% m/ a] `* 1* u* {{ P] _* O- '= ^* v> Jh Rv Yu W- UI bt t| W- }u t| 5< Kh ru }} cJ Fj dJ eJ fJ gJ hJ ]y DD SB }C jD iJ jJ  z kJ lJ mJ (E Nz nG uI ax Xu Xu ,v Ta 8v K] 5< L] O- Q5 =9  $    t% nJ 2} V] H- y] J- ~! 6' :% g] C{ x% v* -% o> q- n- 6! %! y% <; v> |* 3[ I- =! Q* I{ -% D{ |* << _% L% l/ ${ N^ 3] P; D% |] p7 _7 D% 6% W$ '[ oJ M! b> t$ S9 t* A- Y* Q4 h/ =} s! >o u- Q' M) b] ]* 7= 1* Y) '= 0r o[ ~D ",
"pJ F; 9* K* #0 v* +; V* I* -% m= 0; S; $< Q; Ms w* x* l* p) qJ Y| m6 rJ B} L$ [$ >^ Q% F' 8' 3o B{ a, _% a, g/ W& G- D' Y# .* Xk L% ]/ V7 ,= s$ [{ Z^ B{ ;% >9 $< U^ {* u* |]  < %! 2} x^ x^ a9 S^ u* 5] J^ P^ *! 3] wv =! V* w^ %! J- B] {! *= U^ *9 (! E' R5 c> u* z* v- <* 5]  < w{ E* 9* m, I{ U^ @[ 7* {! S^ 9* b] N- 2} q^ m- t4 /& d% Y# sJ p2 5] q^ $- x% ^= 1* w- _= u* S^ 2] S9 p) F! z* p) #% J^ R5 S' C* P* /= q- /* << h% |* D^ <; {! S9 %; C= K* J* m^ {{ m- _* S^ 0* m- w* y] v- [/ q) >[ $$ W$ N< )) $- 5= u* (* d= w* v* }= _= A- 0* l* V7 J! F* V* _* B* n- 9* &= a- /= w- z* L* {! <; u* m^ /; mo 0* H- *= Q* [* q^ w% {- y= <* J* t- w* s- (* C* #7 S9 D* v* m- C{ I- D* 6* (! u* u= V| >$ )% _0 %8 ]- O[ j] 0* 5] H- <* _= C{ (* N- $- C= F^ N- a; w- *= N- w* |* n- S' G- P* u* 1* x^ }= a- (* {* t] |; q= m= I* C= ]* V* w% =! I* v) v) g= s* tJ uJ *6 ~5 8$ s, ]* K; O= }= E* C= [k b* v^ j- 2* v* *= 9* B] c< f= p^ 0* ;) z* c< a; 0* A- |* N- S^ Q' :* I- v) g< t] P* |* w- H- p) U* :* A- m^ p) E* |* N* B- C= =! 5] a; ,! n* w* 5] Y= Q' G= f{ 0% vJ #* wJ ,[ v* @[ {* @^ _= << I' N* }= f; 9* m, x* B] 5] 4- u$ '/ 6* A= N- }= :% ]* {{ J* w% :; 6! 7= B{ w% b; lt C{ d] Fh W- D{ x- /u S] }u r] _< Bz e9 [u Sv Qv 4C Hw !w xJ yJ zJ AJ 1I BJ CJ 2b Nb DG DJ :y EJ FJ GJ HJ IJ Oz JJ KJ LJ OA MJ .w 4y n; Yu UI Sv 4a q- Y= Rs QG 1^ K9 NJ VD /* a, w^ B{ v> C{ w* <; {{ S^ :% g] d= /; y% 1* w* i% a] g] ;% 7' x^ P; {* x^ 0* I{ E' |* w* i% 3! <6 ${ @% x^ L% 4/ ^) p7 @& S# b$ M$ V$ >> >$ 87 @/  / g! O= u* ;= 3o [] `2 G~ 1* `* 6* }= O= S^ .= C= J! y= yE fJ ",
"OJ A# B= D* o* A* |* N* q- C{ ]> e) S; E6 T] 6{ N- ./ R= p) PJ In W< M7 M} i$ t% 7/ r$ g/ D% 1/ (< C[ =< :% QJ H$ p) hl n$ Y{ Lt w^ U^ !< 1/ _% m% p] g/ c> ;% |] m] S% ,= g] H- /) t- B{ z7 S^ -% v* /) (! |* |* Q' m^ 2] U^ A- t] -% {* x^ J^ u* Y^ 1* += 1< v% m^ -[ ,% += |* 5] B- p) U^ [* 5] K* 9* j] {! {! x^ 5] u* S^ u> +/ Tk '^ >6 04 4= '= n- S9 w= e2 0* 9* Q' B{ S9 x^ L* m/ z= 9< B- =! J* q^ |* f] K* B] @% p) 0* `* A- S' y] B] C= d= h% f= N* m= v* w* <* u* N- N* S^ k^ j= w^ Q' Jw Y< P# [$ 4$ .5 )} D= h% -% 2* u* O= C* _* m^ (* %; ]* B- 8] S^ P* f= d= g, C= D* D^ {* 2* W) 5] w% 8> 0* m, 5= `= 5* B* B- (= *= 9< @% U* i% 1* d= 1* n] B* m^ <; {* D* V* +[ J^ D= n] 2* (* h, :a 0% f$ m5 RJ SJ K* w= g] w* <* u= m^ D= /* q^ k* i* i% m, ]* 3* F* %! C{ A= C* }= J* /= 5* u* v) j) 0* w- V7 {* /* }= h% 4= B] ]* D= *= Q) 1*  < w= j- I* 3! TJ B& Q% ^^ `2 8- a- S^ y= Q' 1* S9 z* v* K* 3! G- D* S^ v) A^ H- -% (* a[ h% += u* /; g] P* 9* ]* /; |* }= O= C* C= <* a] 9* V* k* O= 0* `= _* }= w% A* B{ P* w% l* D^ A- d< z7 ]* V= N* 5] z* l} g& {9 /^ ;| 6> 1* h% S^ C{ E* A- J^ v* `* V] 2* [{ p) C{ @% {* 0* p) *! m^ c< (! += k^ )- {* q- <* g= S* <; J] l] <; O- A= v> /) A] r* Jh }u +C UJ P] 9z ~v }u Yu QD Xu Rv du Yu =/ VJ Sw WJ XJ YJ ZJ `J [C UH RB  K .K +K  z @K ]I #K $K aw }B ^E zy wA Mz 0b Yz bt &u C] t| Fh =9 B{ %K qc yl &K y% N9 `^ 1* #/ 8] += $- b] 6! a, /) -% x% S' x^ B{ A$ w- w] L% v* B{ {! Z^ d^ g] x^ N- |< 9a B{ z7 U^ !< x^ N^ l% 0{ $^ )> B# 2/ J) W$ i5 L| B# b> V] F^ 5* f= B- |> o3 @& ~7 /~ == a* |* ;) z* a] {* O= N* K* C6 *K ",
"E| Q{ <; `= (* N* d* l= F* <; $- e! S; |< ${ &4 5] l* w= 8> 9G (p F} j/ 84 w3 i$ Q% k/ t% =& h] $9 {{ |] t! t! c% t] =K :5  $ s2 a, a, t! /) q^ c< p] 6/ ./ 6% x^  ! l% =% N- w] y% ]/ t! :% 7* N- B] 1* S9 ,% =< g= O[ y] `* h% F^ Q' (* |* p) }5 ]* k) 0* %; m^ u* u* m^ d< i% q^ L* =! 3! v* B] v> S^ C* y] x^ A- |] |] v) A- 5| :$ s{ 93 }0 m% t] |* Q* K* B] O* y] 3* }= m^ R* i% O[ 1* u* Q' :; E9 9* $- I{ 1* w* x^ y% P* H- |{ v) 0* K* i% += h% U] N- R5 w% y] %! 0* 1* {! 4* {* #% 46 :* Q^ -K ~5 d% =^  3 F= D* K* %! I* K* t] J^ m, n- Q' 2= A- u* K* ./ 2* v) :* i= =! N* '/ y{ (* w- w% 6* C* t- _= z* i% ]* <* N* Q* |* v* 6- b] j) C{ K* j- m^ x^ I* N- /; 3* v) x* $- D* I- R* 2= w^ x2 '[ |% 83 q~ t^ a] P* C= m^ U] p) S^ v* w* << H* S^ v) D^ u* -l v) `* $- I{ C* z* 3] f= D^ {* {* V7 m^ 3] m= x% (* u* (* d= N* *; K* A- <; i% (* N- z* 5] <* |< |{ `$ 4% *] u} 7t a* 3* m= v) J[ x^ }= ko Q* q^ ]* J* {* N* S9 S^ c< n- K* |* :* {* ^< v- y% #% $- J* D* D* ./ v- D* _= x*  < i% x^ m^ d= n- O= l* 9* /; A- u* f= w- K* t] U] K* J* v* D* w% 12 W$ ~^ r{ ;K x% 2* 9* -{ e2 m, a] $- I{ <; `^ w* <; q^ m^ m, B{ }= @% E' 1* w- ]* U* u* S^ j] 9* p) m= C{ N* j] q] [{ 2] A- 9* 6! Vu L; ~r _< O] $A >K +w m2 {w bv 4a dx r| Yu (x yx Yw ,K 'K )K !K zz Qv NG ~K {K ]K ^K /K (K _K :K %z kF Pi <K [K _z }K kA R] Fu Sv Ar 5< Sv 4a Ds t* l} zo D' s' $- C* B{ 3] B{ z- 3! t- S9 m^ ~< |{ B] += S* y] w* %/ w% %= 2] =< q^ i% B{ &/ g] += |* U^ {* U^ ./ )< /) q[ !< o$ Z^ +6 D% r3 b$ *& o3 L& d{ 06 r9 Dg Xo (* w= d= w> o$ E% 9} r~ .= w{ p^ N* Q* 6! ,0 g= z* 5] (} l2 ",
"ic <F e2 D{ '= N* O= 3= ]* l* x* o~ S; !< zE u' |< ]* _* (= Bi +1 X4  r 5| i5 r$ 5$ -9 K{ r$ (% /% <0 x% S% |* ,[ K* ,} P# Y{ Xe L^ %/ J- @% [/ w^ @% w^ q2 Vp W^ k^ c< Q; m/ 9* _9 0* i% y% J^ -% 6* ;% /; N- 46 |* p) H* s$ a9 h% `: w- b9 /) J^ P^ H- <* {{ i= << G9 ]= n- N* ,= z^ u* v* m- S^ %! 2} C{ 5] S^ ~< i% (! w- l/ 5^ &* *& $$ S# fk {* x^ 7' m, t* $- P* =- K* |* y% H- G9 D* =- D* j] f= a- E' A- v* K* O* g= {{ v* d= m, S' ]* P* H- l* 7* _= .} 6* h% V* J^ g= 0* (* R* K* Q' v* 0- <* {$ ]^ ($ ]6 Y3 n* =! M* f= k) `* h* =! {* E* $- i* w* c< <; {* A- d= h% 3* m/ g= 8] d= e= o- v) .} += q= `= z* (= u= d* &= &= _= v) z* A- F* F* m- u* C= m^ q^ (* v* 8] i= a; w- K* _=  - b{ #* {% |4 =t k^ 3* Q* <; O* A- (* '- %= ]= <* {* 1* 0* {* 9< R* |< A- x^ t] S' Q* e= j) == U] S* m= <* i% <; 9* I- K* w% w= Ql C= d= 8> 8= @= S- %- D* S' q^ {- D^ Eh D2 M! (} a3 v> F* g< m/ `= ^= %- i= I- u* G- y% w* P* %! S^ I- Q' V* H- U] e= _= _* |9 |* w* q- c< `* 1* m^ }= Vv *= := B] z- -{ f* v* w- S^ u= P^ *= 3[ (* S* Q* w* V* d= (! s$ &= )= g2 :^ {9 W$ ~- |K m= N* += Ah |* C{ 9* i= y] w% y] $- 1* 9* w* u* ]* z7 $- U^ w- (* a] 6* `= += := %; M) a] e* ,= l] Q^ s* i* 9- ,= X= [{ `] O- ri 7< =l 5y r] W- 1K gw dI ~v 0l 5E 9z av PA a1 yG 2K 3K Nb wx =x BG 4K 5K 6K 7K 8K 9K 0K aK 2I ~C 6z 1j bK cK Hw &z ou O- 8v `' +/ }u }* u* R$ dK yl eK t! y] U] a] << ,* w% C{ C{ x> b] ~< b] y] H- *9 x% _= A$ >% ,= U^ h] K^ `% U^ 5] z^ |] h] m, B{ q^ S% e2 |] S* )> X^ b^ H$ Q% P% ~6 e$ [7 L2 K$ A! Q; m, ~- K; -% p= E6 (& s! 0^ $= G- 0* q- l* %; ]* w* %! 8] fK gK ",
"hK o; v* P; 5* +[ b* r; h* e2 t/ H; S; :< Pa U< FE L* V* P= ]x H3 /& K4 }| {% d% ^% 7/ n& K{ _% ^) O% 8' `% 1/ $* .} v6 V$ W% +~ #/  / m/ M% f/ {! @/ Z^ L% C- 3[ a, 2] N- a] t] N- w* ~< N- v- C^ 7' [{ 5] (! (* e2 =- W^ ,= y% J* %! -% w^ h; m^ w^ 9* |* $- O= N- k* j] v* 5] 8] i% B] {* 9* u* {* w- 8] (! D* Y* 9a =; )= L2 W$ '[ sn b8 8< B- m^ z- u* {* H- v) l* b] w% I- /; {* A= 1* p) u* C{ h% u* m= K* p) =! 9* G9 m^ E* P* v) m^ a- h% $- W= d= 6! S^ (* v) $- x- x^ K* /; 8= J^ z* A^ Q* [k F8 g} 0% /^ :[ p| P* V* <; 9* v* m- N* {* O' n- A- P* 0* w- I- e= i= I- d= S- O= n- w- m^ O* += K* I{ v* m= r; n- <; u* d= 7' 9* 3* I- V* (* ]* C* {= m, s- m^ N- R* m^ D* A= S9 1* 3* >] +7 L$ :$ ~< m, (* C* m- @= z* (* z* += t- .} ek P* <; =! t= 1* $- w* N- 8] H- #! m- m- H- v) p) 6< Q^ <* (! l* z* q= (* C* N- b; ,0 +[ N- H' j) S^  = O= u* w- m^ J* %% iK `6 Nl u5 J2 ,! v- ,= D^ @% h; 7' A$ S^ 0* K* ]* {* <; v> I{ d= l* |< w* V7 ]n m= _= Q* 1* d* R* u* q= U* v) K* (* =! [* S' U* 5= ]* }= 2* U* S* v* Q' x* )J A* S9 -{ u* P* z* -{ V^ i3 )6 '^ ~[ `7 m= r* += t- l] F^ y] S^ |* C{ `* p) m= U^ >< 9* N* ,= A= e2 ^= 9* m= 1* q^ (* b] E* 9* l* 9* m^ w- }u >% a! %- O- W] 4! d* Rv e] &u Jt bu fx cx 6t qu Ta ~z jK ,v r| Wu *v %b kK lK 1I mK nK oK |c pK [C qK rK sK tK uK vK wK iA =A 4c ,e ax LE Ey xK fC ~v wa nu 4a R] S' {{ k& J7 _7 yK _% E' w^ @% ,= i% |* u* 8' y] 5] w{ P^ B] B] x% p) w^ C- ,= E' v^ |] 2} :% 2} S^ f/ x^ w- ;% B{ W^ )< B] %/ ${ /) k/ B[ +% r$ >^ b^ <$ L& l{ L$ 8} K) m/ ~> v) p) v- /% r$ a} 56 d* ]* /= t] ~- K* (= R* v) E* F- zK ",
"Ud 5{ s^ D^ Z- w- /= r; (* [= s- r' `; #^ P; `! ;% w* ]* i% AK F3 T: ^^ Y$ >^ o3 F' =< r$ [/ i$ :< >/ Z^ o% x% _[ N* M! '[ +5 Qm (& w^ $< L% 3] w- a9 y] B{ @% U] a, P^ w* {* t- i% 8' 3! q^ g] u* d^ '= t] w* y% l* e2 /* #/ {{ x^ $- U] o- S^ (* |9 B- |* I* v% m^ C* f= w% -% t] N- C{ si != z* ,o @% @% y% A- 1* S^ z= <% 54 !& @& y~ B[ n- <* C{ >< x- 0* N- B- 9* u* N- F* 5] Q' n- w- _* |9 d= (! u* m= @/ k* q^ @= i% 5] .} Q* C* _} C{ v* +[ %= w- |* p) S- m^ d< V* m= |* :< v) += S9 q^ N* m^ k^ q^ 80 ($ !^ D2 7= }= '= C= }= N- q= h% d= I{ d= D* (* {! a[ &= w% u* N- |* C= =! h; %! l* K* A* v) /; v) *= N* @- ,o i= H- v* TA Kn m- j- d= C{ z4 i= 5= [* 5= m^ <* =! ]* I- 0* #; /3 0% ;$ BK CK i* C* a; 1* 5] =! 0* h% b] ]- d= A- H- -% << <; e= 3] ./ <* {* $- += S- m^ A- 5] (= E* C= n- d= N- m- B{ 6* J* 9* =- 1* U] E* 2* b; m^ d= (* Q* y% {* {* %- w< V; !6 [$ Y% 8} ix %= z= }= z* C= .} m^ R* V7 j) S^ 3! S^ x^ $- 1* P* u> =!  = /; K* 7* N* $- d* J[ `= K* Y* N* /* O* x* h% 5] u* E' J* *= z* P* 0* f= d< N* E' B9 I* N- h* m^ o* G2 ,6 M!  5 DK EK +[ 1* V7 z* *; $- d= {{ w* C{ `* z7 A$ d= @% %! {{ V* w* %! {* 0* U- 1* G-  = 8] B] 5] v> N* 9* n* V* u> O; 4! 1* 9* h% ,= du l] _< fx {z 4w [u |s e] Ds w, e] [u Fy FK Xz GK HK YI IK JK KK LK ~k {C 5w _y JI MK $J NK OK fG ED DG PK (z ,e Xw Cy cx Uu Z] PD m* K] -f f] 7' R$ T9 0/ y| }5 y% P] B{ x^ w^ A^ {* v* t! B{ %= M^ E' C] i% k^ /) x^ B] S9 x% B] ./ ^) q2 Q; |* W^ :% %! W^ w- $9 $% C[ 3] 6' c$ S% p7 *& /% 7% 5% X$ n{ X< QK Pa 0* 5] m^ ]* U= C[ t! y: M4 (= 6* x* 0* l* I{ m= ]= L* q- F- RK ",
"jq lj D^ g- E* ^= 0* d= |* Y* Y* d) S; L% SK jt N- u* (* t* TK UK mq p6 64 ~^ $^ ,[ E$ l% 7/ o% (< '% 8/ x% !< VK p] [] j%  5 Y5 0/ |] t! >/ #/ (= P^  ! y] ;/ U^ P^ #/ p) I{ =& t! f/ {* @% C^ x^ q^ o> x^ (* 6* y] +[ y% C- J^ q^ R5 |* |* V* zn m/ I{ v* 7* u* *= C* h% l) U* N- B{ x^ u* i% I* B{ w- w- t] s$ H- l] :- d{ P# Q# Y; WK '= v) w^ v) S^ :- [* 0* P* $- ./ ]* 3* 9* |* v* z* C{ =9 z* v* O= m- 46 w) B* z* q^ =! z* k^ w- v) u* p) ]= 4* V* {* 5] i% <; d< z* 0* m^ h% P- ./ ]= p> vn W) )= XK X2 $$ /^ v} '^ r[ g= B- #% }= F! u* S^ ]* o- R* a* (= =- h% 0* P* A- >0 J* u* ./  = |* v* A- w- z* %= q- V* u* u* R5 {{ H[ $- t* 5= P* (= =- m, O' w* -{ =! ]* m, f= C* (* o= x: q5 @& <a <[ :/ w= C* w* != =! +[ `= |] 2* w* 9* D^ u* u* v) |9 C{ h% h% 0* :* ]* <* O[ 0* h% m- $- 0* m, C{ S9 A- P= y% << N* C{ x[ I* N{ D* u= A- ;% P* d* (* N* u* v- /* -< ;o ~] L& T# b{ F= D* d= P* I- 0* 0* p) s$ D* =! {* t] J^ += `* 5] 6* B] /; Y* H- J* B- ./ |* U^ (= :* S9 q= _= C{ /; {* /= E* 0* B* :* K* Y* H- <* F! p] A* (* 3= v^ K* 9* e- ($ #] |% D' {o <w ~; /; @[ _= K* x^ {! m, N- m^ S9 $- }= c> 0* A- @% y% `* Y* k* x^ x% p) ]* A^ '= C{ w% v> m2 C{ }* =- p) x^ v> ]* *; Ih }* G- d] 6! s* S] 4! 4< ^v W- }u )t Q- vA Uu bu du Rj 4w 16 YK Tw ZK `K Fw zz sH 5J  L .L +L @L #L $L 3y %L &L }j *L *G 8z Xu nu Cv /u x- v> t| x{ =/ e] /] b, A! .[ i] l* ./ 7' x^ N- 1* $- #/ ^) h2 h] H- x^ /) -% =L J^ p] 2} << &/ 3! C{ S9 u$ @% z= %9 B] 6! $<  ! t! K) !< =& !< ${ P% 9% T% <% n& W$ 3% l{ (} r> 0< M% 7* %! (* {- ut $< 9} .{ u- <; N* ,= 3* +[ := I- (* Q* K9 -L ",
",E nh S* B* 1* 2* V* ^= 1* V* $; i'  > %{ ~<  ~ 0< r; t] h% ;L N} /& *^ 5& )^ /^ /} K$ l% e% O% n& w3 @/ 6' G4 %% E* L! )% N& >L 8/ $< @% =& y] w- `* P^ u* 5] S9 w% |] o> w- -% !< ~0 t! _/ S^ 5] 7' h% K^ -% @/ 6* C{ N- |* ./ #/ ~! I{ |{ =! ;% N- C{ P= p) _= $- r/ p) %! t] <; H- P^ B{ B{ J^ A- Q; 5] `* A^ u* e] &] 4$ E$ =^ ,L m% S^ K* S^ J^ R* d= q^ {* K* 5] D^ |* 6* w% += U^ P* U] m, -% P* u* <; w* w% i= o- += v) -% I{ %! ^* y% u* v) -% ]- b; u* S^ 5= C* 5] V* |; <* S9 J^ q^ y% ]* *= <; Z^ ]q /^ {% f$ F2  ; k) h* t] >% += I- g] 0* J^ m^ n- N- w- K* A- l* N- u* m^ G= i% |* (* i% v) C= N* p> *; )- <* C{ u* l* C* e= t] F^ 0* A* O* (= f= |* _* :* A* {! D* P* =! i% W: M! E$ k{ cq v* `* 3* N* {* m, m^ D^ P* A- I* p) r^ p) += _= v* C{ u* N- S^ {{ |* u* 5] (* O* g< n- += p] b] d= += O= C{ |< H- =- u* H- v* @= B{ S^ z* e2 u* v* v> A- u* ]* )= R* ]& ^^ s{ .$ `} S= 0* R*  < (* G9 A- v- (* :* 6* D= 9* h; @% 9* P^ Q' 9* g= n] q^ <; o- 5= '/ K* V* 3* [* D* (! q- S' v* S* *= l* (* :* N* A= p] f= 8] s- J* S^ w* 1* a[ N* x/ W$ >$ Y$ 'L m/ <* o> i% $- 5] P* w- m^ 5] {{ += 3] {* m^ x^ += += c< v) i% u* C{ 4! h; z* o* ~; R* H- |* 8] O= {* 3[ V*  < z= a] 8] a] l] ^* t* X] )! }* ^* BC en `' G{ r] *! 0v 9] Yz 0l 4< Za #w )L !L ~L Ww uw {L %G fD ]L ^L /L iG (L _L LA :L <L [L aw }L }L !D UI gw }u ex !D _v Y= C] I^ /] )* *^ Pt w^ ^* i% p) l] w* f9 r; @% += E' x% y] ,= {{ H- c] d^ 5] z9 o] j$ l* J- ,= m] w^ %! K^ :% @% W^ b] :% w^ {{ 7/ E% _/ $< t% ^^ r3 B# M! (6 W; !^ 1! u! %9 <* I- 1* &! j$ ^) D2 pb 4* v* :* `= (! [= hb N* m- |* #& t[ ",
"1u g, N- R*  ; += B{ I- F; a; :* 6{ `; L^ |L f) 9* 5] {* F! 3s L) +5 *^ 2^ v6 d% t% p$ E% !< 0/ 1/ d^ z7 ${ 1/ 4% M) *^ F& W% bB (/ 5] C{ L% m] 2] w- ~< B- /) _< g] 8' B{ ./ W^ << c> E' %! %! 3! =- s$ p] x^ w* J^ += S9 P^ W^ a[ |< y% @% J^ {! x^ <; u* p) v> d= P* =! y% O* {* $- =- O* .} %! u* 0* v) |* b] {{ fr x| F& [$ s!  ; := 2< ){ _* N* 9* A- 1* 8] P* 9* w- C= w% d= <* A- N- %! |* *= u* 0* $9 E* -% 2* Q* A$ &= n] y] w^ z* a[ 2< @[ g< P* 1; k^ ]* a[ 0* u* J*  < (* 2] f= H- U] (* _* ]* E* ^~ ]{ 0% k$ () '] r[ *= jo Q' w% A- e= O= q= |* R5 =; w* p> d= :* u= H- S^ 3- j) p) D* 5] <; ./ /= K* n- C{ [* (* H- $- += A- g= (* 1* 1*  = S^ [* m^ 8] |* Q' P= F! J* ]= D2 y6 }] /& A0 s$ C= u= (* +[ n] q/ 4= 9* {* w= w% A- D= {* 0* I{ +[ =! B] d= =! C{ ]* g< m^ $- z* f= u* (* D* Zm F^ 2* =- `* e2 += R* %= z* D* <; S9 g= z* J[ w- P* p) N- A* B* G; R5 1L A} 9% >^ || (* $- U^ w- p) z^ h% v* `* O= S' u* S^ q^ m= w* u* <; m- m, {* v^ 0* << m= -% O* 5] R* p) /* 5] E' +; ]* u* m- c< += x^ w* d= {* 9* {* v* $- A- p] g] }= 5| g5 2% >^ 2L Bn q^ l* A* v* v* x* /) $- .} v* t] 6' <; 0* p) 7' V] ./ a[ @% (* D^ l* w% [{ w% ,% += 9* [{ v> {{ |* 8] S* @% ./ w^ v> 6! Qs z- *; v% e* S* =9 t| Y= 0l r] Sv Ht 0- bv 9z nu Wi [w av {2 Ev 3L 4L  D 5L OA 6L _E 7L 8L 9L ~F 0L aL mG bL UH cL ]j MJ dG vI bv Sv }* FK L] X] Bz 1s _< b4 dL I6 eL D% 8< q^ v> x% -% M* S^ l* ~< /) T] E' C{ i] ,= 5] D^ ,= y] Q^ ;% A$ 6! %! 5] B{ i% h] |< |< t! a, 2} t! Bn >/ ^) -/ h^ >/ Q9 #< b$ 0% )^  1 L& 1! m3 &9 m, (! ,= i^ g7 i$ C4 4~ e2 *= N* d= I* y% 1* d* U5 g=  6 qG ",
"kc .= 0) B* h% Q* -- z* l* k* }= ^~ k{ /) 1] e) g] '= ^= u* An ,1 1| X< p} Z$ 0% e7 l% E% p$ |] g/ h] ]/ <7 S% !% C* b> Z$ b4 0; ./ 5] H- </ E' ~< N- += Z^ @% ,= -% J^ (! N- y% w- C* V7 W^ 3] m^ c< u> I{ q^ -% i% W) 5] %! u% ./ 5] |] B{ J^ h% p) `* l* $- x^ y] << $- (* D* b] u* m^ t] _= v) w% *9 +[ B- w* b- E2 P# '[ 3| 1L +/ g= t^ << =! += m- h% l* m^ v* H* B{ v* I{ w% y% h% _* 5] $- m^ D^ g] 8] d< w% v^ (* N- D^ J^ p] }= D^ n- m^ 1* v* P* /; 2* e2 v) 1* x^ F* H* 5] -% (* v* i= z= f= m^ 5] /) q8 ml .& |% %1 &= i= _= `v -{ |* c< =! no K* P* F^ K* v) _* v) x* .- w- (* (! j* S9 D^ m^ |9 `* z* `* ]* w% (* U* K* )- Y* /; m- a- =; i= D* ]* Q* u* %! ]* =! &= 5= $^ Qd k$ ($ @$ v) K* 1* V* I* v- H- Q' J* :* i= $- =- ({ {* {{ *= E9 q= 9* z* {* B] J^ %! D* C* R* N* 5= P^ u* r^ C= 1* i% b* v* u* =! J* +[ J* 9* (* ^= I- (* I' |* {{ v) z* 2* t* $- }= _% i% 0% fL E4 q: [- h% o- I- Q* h% ./ 5] :* u* w% <; 9* 6! 2* n- u* N* N- x^ << m- E* %! +[ w* A- 0* &= v* I* O= v^ 0* q^ |* v^ =! I{ h% u* m^ {* Q' q= O* O[ I* 3= u$ C2 L& !% k> gL << Q' '= 6* h% c< D^ ./ z* m, K* v) {{ S^ U* C{ $- p/ S' {{ {* S* u* u* K* (* p) h% 1* w- a] *= += m2 E' 8] ~* E' v% (! |{ <; _* m, t* `] e] O] =/ =/ pw `' e] bu F{ aB yz VA hL nu Rj iL Ev {E jL Qb `I kL LK &G lG lL mL nL oL pL qL rL YE sL ]c vz MF bx `u K] tL `' S] UJ e] ;C x% wr  r R< uL u> 6' B{ {{ D{ w* 6! K^ B{ >% 6* $9 U^ 0* 7* u* m3 @% o> 6* S' 6! =! w^ x^ 5] t! 0/ v> >9 l] // x% |{ o$ %{ H$ L^ D% E% *^ K{ F' p$ I$ (} h{ p6 No e% C= S- f= t] n' K6 b^ Q: Tq p) z* R* v* '= 5* C= S^ S* h% G6 vL ",
"dv l! t] O= C= v* D* ]* D* S* (= wL S; a, 1/ s' 3] R* $- Q* (w A3 1| D' `4 K$ d% *^ 6% p$ O% g7 O% g] 1/ 0% |* [/ B= ml :$ c} .~ `% Y^ @% y% U* B{ (* =! T] |{ 2] %! x^ g] w^ b] 3! q^ B] i% /) g] m^ m^ 2} :< e% L% K^ 3! 8/ q^ h] w^ I{ ;% /) ./ <* m, 8> J! w* q^ V* 5] A$ -% P* m= H- i% 3] m^ +[ q- E' g] 0* 8'  4 o6 Z$ 2% L^ +9 += h% b] m, {* m/ i- M% C= w% j) k^ q^ 1* D* $- m^ 6* u* j) K* V* 5] v* Q' w- ~> {! N- -% {{ {* 3] ,= S9 C* P* m^ p) 5= W) x^ I- ]* U] m^ l* %! m^ m^ J^ /* F^ Q' C= m, z* }= 5& ;^ l& g& ^3 2= P* z* A^ L* N- %! 5] w* 3] 0* m^ w- {* O= P* (* b] J^ u* 3> P* y% S^ N- -% 0* p) 5] =- H* l* %! =! i= [* i% e= J* u* /; K* |* p> m, %= I* {* y; L| d% S& Hn D0 1* A- K* v* =! O[ q/ g= P* 1* d< v) j- $- d= @% P* =- w* <* (* Q^ h% += w- u* A- q^ B] 2* ^= 2* D^ w* b; y% x^ 9* x^ N- a- C= J^ w* R* E* z* P* <; {* x* I{ g= $- S^ K* p> B* xL P{ P# <$ ^| 8< P- B* u* d= k) j- 1< *r C* (* e2 S^ j] B* u* 5= O* |* n] m/ %! v* y% %; C* L* C= =; G= N* (* k* ]* m, -% I- w* 0* B- += x[ p] m= n- (* %[ |9 ]* /3 G# A5 0% yL 4% w% I- 3* w* d^ w- w% y] w= J^ n- W) R5 j- :% 5] m^ >< g] y] U^ B- h* p) S^ B* A- p> v) 0* w^ l] V7 5* I* 6* a] a] *; A= v^ ^* &q q- Z] |s t^ W- v% ~r O- s* 4a &u Uu /v bu 5y Vu MF G{ zL Sy AL BL 8D dx ]D HH =J CL DL EL FL GL HL IL @z =E JL LF KL Iv fj MF ]G Ds t| W- Jt V^ C] 4a b4 .g v$ Qu F% j] ~; {{ K^ i% S^ o> P^ w^ ,= |< R5 u* u> '% {{ t! l] @% x% L% i% @[ q^ b] |< B] w% B{ u> C9 K^ 6* =< t! L^ S% w^ V6 /% W$ l% 7% /} S# b{ i$ $p  ! LL K; v- y] ML P; F' W: pb I* z* 1* l* `= a9 z= N* O* A- K$ l2 ",
"Ud xa F^ y- .- m^ G- E* B] 0* x* NL Y; g7 1] .{ g] t] z= p) c8 B2 OL J7 +5 H$ k$ '6 l% .^ -* H$ ^) 2& $< =& !< W$ 8* >[ !& L# $t @/ y% =< >/ q2 {{ P^ m/ `* ]< 4< Bn h] |{ x^ _% x^ y] << /) B] |* z7 U] P* s$ 1/ f* m^ j] += j] E' x^ B] x^ U^ [* 9* {* S- <; i* t] n- << 3] S9 h% V7 q^ s* q^ /) #/ 6! Y* 2< B; L2 )% '^ `2 PL S9 @^ 5] [s [* =- 3] H- Q' <* Gh A- (* c< =- z* ]* 3] K* P* %! =- S9 <* A= m^ E* g] 9* <* p) v* S^ t] I- C* Q^ P* N- 2* z* m- a] d= o- u* 5] (! $- a- B{ W) c< =! 0* V* d= 5] v* ;% !8 v: X< y6 3| o> F= S^ J^ {* $- U* g= =- V7 ,* I- {* z^ 0* x^ w* 5] %! v^ H- m/ $- w* $- 3* c< g= v* w* x^ _= =! V* h% m/ 9* ]* t] Q' D^ O= @% N- ,o q- z* G= ;| 47 P# W$ >= .( w{ u* h% n- R* <; 9* S^ %= %[ z= b* <; J^ += w* |< i% _= 5] i% z* y% C{ `* v* w* P^ x* 2= n] w* 7* w- C{ B- J^ A^ $- 5] J! z= I- m, {* (* a, J* u* z* R* {* 2* O= L* =! l* _= 05 =~ @] A& )% h9 -- a[ R5 _< u* {* P* J^ D^ cp C* N* z* q^ A- $- S= g= q^ 2* C* H- v* A- B] += 9* {* 5= 9* p) <* g] p) /= n- B- =- C= U] i% 8] t] <; u= [= m, Z^ V: 3% W$ QL  ~ P* h% $- -% v) |* p) m^ ]* 0* I' 7* N* =! h; t* A$ w% R* z7 U] '= w- {! 0* |* =! Q* {* 0* S' w% C{ A= w* D{ C{ a] @% N* <* %- q* b* S' w, O] 7< e* I] {w |< }u M- Tu P] 4< an bt Yu /b mA RL Uw SL TL dx cw UL sH 0F  x VL WL XL YL ZL `L  M .M +M rv @M LE ]D 9] }u #M 5y St P] ^* Fh I] 14 K4 $^ <[ ;% 5] o- T] C{ ./ 9* << 7' L] w^ E' 6/ w% h] S^ U^ D^ |] un 2} B] B{ 7' S9 q^ y] B] `^ ~! 1] w^ 8] 7* m, t$ =< o3 !< =& @& d% +6 @& b$ K$ Y< [$ A! %{ J^ _* ]* B] w> 25 ^/ 9} l< A- *= |< '/ x* ]* [{ 2] O* k* :6 vL ",
"Bl nh 7* D* T] 1* z* o- E* M* i= a~ S; h] d! i2 h* =! h% y% 9n *1 1| I$ c} ($ b% w6 A[ F' W^ ;4 b$ W^ ~< s$ 5] `% w% X6 J# >5 T8 sj y] Gh L% -% ${  / s$ |* E' t! $9 S9 }= U^ :* t] |< a, t] q^ s$ b] >9 e2 m, m/ L* @^ g] p] m/ k/ 6* -% B] m/ F^ 3* B] N- u* q^ z* 0* q^ N- w% h% ~> w* p] ./ q^ v* ek w% w= L$ b4 ;* :] A* 3/ d] i% S' {! V* $- <; t- S^ 3* F! 5] q^ 9a P* B] <* e2 =! O* p) 2* 5] d= d= 3] e2 y{ w* y{ $% K* t] t- 9* C= J- m= F* 5] j) b* =- $- I- u> {* K* /* w% 5] (* N- ~> G* v* m^ C{ p) w* x% b- [$ i: r5 C3 up 5= E^ w- N- S9 v) J^ D* 9a S9 -{ s* W) S9 w* P= S^ A- 5= {* S9 U* ]* y] m^ 1* P* bo A- m^ 0) S9 (! O= a* C= w* _* $- =! %= S9 C= m^ {* ,= {3 q% ($ c^ $M %M {* [= (* 1* {* F= r*  = a* a; S9 Q* /; }= O* 8> S^ %! #/ 5] <* I- w- k) w- +; ~> [* 4! `* w* A- (* m, ar v* 1* S9 #! C{ ,% C= p> 9* v) v* w^ v- A- w* R5 *; h% h< p) += ]* $- A- iH U2 b% 5% {| ^^ J* 3- v* R* P* $- I- ,% _= N- K* << A- m^ O* O= S9 d= N- A- :* {* o% N* 1* &= J* =- }= J^ =; v* 3] 6! V* w* v- $- m, B] 0* N- -% y% S^ 7= Y< Z{ >$ B& &M 1/ *M {* v) p) o- P* E* += z* x* J- v* n] 5] << w- -% B{ x^ V* << o- <* N- ./ -% w* O= i* n- ,= V* z- `* w- %= K* v^ {* *; b] S] w^ += p) O- 0- Jh `' fx ri t| D{ 4! cE 1* b] A= gv }u 4} Y[ =2 AL =M -M Xu yx ]B ;M >M rC ,M 'M )M !M ~M {M >A BG {L ]M ^M uC ;C r| Bz /M (M X] A] e] b, 7* w& K9 T% R; :% V7 {{ S* ~< -% /) p) ~< x^ 5] {{ S% =- 3! @% 7/ v^ x% %! `% a] U] 50 :% g] q2 P; @/ q^ x^ w% z7 t! D^ !< F' h] ;4 =& '6 +6 )> b$ E$ K$ Z; v6 06 V^ _M m, (* 0) Mu `% n% Q2 ]~ j* r^ P* d= U] K* %- z* S9 $- .^ :F ",
":M 2{ [; o* L* 1* ]* m- g= j* w* d)  > =& M^ &K y{ v* v> q^ e8 }| Pd at Q& =^ 0/ [] 6% (< 0{ `% Z^ 3] !< L^ $< )> ^= Y0 $$ Y4 Lt <M |{ Z^ y] s$ Q; <; J- a, 3! J] $9 !< k^ m] 7' z7 B] x^ C* u* -% |* y% N- L% j] B] w- Da m/ B{ 3] @^ @% %! v* `^ {* A- l* C* 9* $- D* 2} ,= `* m, B- B{ E9 n- x^ i] l* 9* R= b{ >$ I$ S; qJ 9a (* f* |* w* 3] H- q^ |* i% t- %- n] c< o- <* =- =- L* 8] g= U* x* S) 0* += w* n- i% v- t] A- $- w* m- {{ n] N* '= w* m^ }= f= w- A- O* y% ]* @[ %; _= {* ~; 5] %! {{ A- }= 6* x^ m^ 5] [M j> s{ $& ]$ 06 c[ s- m^ `* P* *= n] S^ k) k) 1* m^ j] m- O* w* A- 2< p) R* F^ 5] m= w% w% N* D^ w- (! I- A- 0* 3* m/ 3* 8> c< w- 9* >< x* `* w- 9< Z= S| W$ >$ 7& }M S# |* =! d= 1* m^ I- =! b* b; w* ^= h* J^ @^ 6* +[ %! z* n- F* V7 m- *! |* 7* _* (* O* A- *= u* <* R- a[ U^ Y^ +; ./ u* 8] w- S^ C= (* u* `* $- {* Y* 6= S9 m- {* M* =- K= ]* q= 7> (* o] bz s6 P# y6 k> I= C* I' %! n- I- -% v) w- N- `* A- b] j] {* `* w- 9a w- {* {{ $- a- U* v% 9* 5] u* {* f= q^ :; K* E* V7 7' J* k^ $- ]* J^ V7 K* d= v* 97 N& 0% ~^ 2/ `] '= S^ A- 5] v) 6< {! |* P^ 6* h% g= y] B{ h% w- Ep *= v* 6* ,= O- 0* 7* w* x^ 5] w* H- A^ -% E^ N] m/ t* [{ w% E' S^ y] <o ri 5a =- u= T] o] T= 1* D{ du 4a v% X] R] O- 1s nu ri /u Yu /u PA @2 wI Fv |M Yw kA LE 1M 2M uz 3M 4M 5M 6M 7M 8M &x GH 9M 0M Nz OA {c Sv Zz  w QA 1s `] 9] Bz 9* +s J7 $& gj (& m, ./ 6' 5] ./ 5] h] K* 6! @% |* {{ k^ d9 C{ =! :% >< 7] I{ y% Y9 -% j] =< @% {{ d^ V7 Ql t] }= u! g] [] a, p7 O% J) <% X6 w3 i$ K$ [$ d{ `) ;G O]  / 8* e2 {* Y: -p v$ W: o~ )= p) x^ 0] 0* *; 7< 46 j) U- 0{ aM ",
";H D; j) 5; 1* s- $- ]* 5= (! v* =) S; 0< L% rp N- u* y] 4! ]u b} C5 _[ W} ql d% Z$ A[ t% x% D% u% /% E% #/ z9 8% 8' A! X$ ]% )~ t! x% Gh /) 6* @% b] %{ W^ P^ -{ w- v^ S^ w* !< 3] o> p) y% f= -% =! 9* += y% H- e2 s$ D{ Q^ Xo y] g] V7 Q; E' R* m^ y% m- -% w- |* q^ q^ z7 U^ E] P; 9* 3] J^ 3] a, A- N* =e pc U6 2% bM K$ L] m- q- N- p)  / d= v) J^ I{ k* <* A= 6< o- Y^ m- [* S9 x^ J* S^ 7* p) u* j] {! 9* C* 5]  < K* t] %! w% E* /* .= i= *= {- *; w* C* v* v* k^ w* w- |< $- A- (* `* (* (* 6! K* u* P^ B- n- R5 }8 L! W$ i5 b{ s' w! R* m^ <; N* H- N- q/ C{ p> N- j- S9 5= x^ B- A$ n] C{ {* B- w- %- e2 x^ ]* v* )! O= O* >< C{ R* Q' /; h% C= C* 3! A- +[ O=  = }] >| f$ P# M: f- {* q- (* *= D^ r/ G= 0* .} N* |* *= /* $- w- P* x% _= AI J^ 7' v) L* $- D^ {{ E' 3* Y* _= 2* S9 {* =- C= %= b= H- [* x* B- |* H- ]* v* `* _= N* U] I- 46 <* m- {{ m/ ~; I- O[ |* w* 2* h< 0* Q& ,6 q% ]& o} j= w- A- B] P^ N- += C{ W) v) J* P* C= C= V* A^ N- l* w- R5 =! +[ << v* 3* w* K* `* 9* A- S^ m, 8/ K* _* A- K* N- x^ P* $- J^ S^ H= e{ .& i5 33 cM E^ P* [k K* =! P^ ;) ^= w* u* U] Q' o- i% u* @^ <; N- w* m^ w% a[ S^ (! m^ 9* x^ x^ [; (* -% m^ ./ H- N* m, :* H- 7* x- 9* {* b* A= V* 8] V* q' `] &q .t *! Ds wa G{ ri }* ^* Rv ^* Sv ~z Sv KB 52 dM eM fM 1C CJ Nz _z xB gM hM iM jM kM lM OI mM ^y nM 1j zz Iv ^v 3C nu PD /u X] .t I] o] 6* 3| v6 5$ Q! w^ /* O* ~<  < 8] T] $- 3! =& 6! 3] f/ {{ ./ %! 3] x% ^) </ j] ~< w^ o> y% 9* y] _% _/ ^) `* s$ @/ j] C{ ,% O% W^ Q% S% _[ {% |{ /^ c& K# g{ X6 I$ $< 05 L= d= C{ h, #< H$ n: Oo ]* 1* a] c< (* `= {* ,= +[ =- /% SI ",
"dv 7{ =! 2* l* ]* ]* B* Ht c< /= _o S; D% 1/ l< u* _* m^ u* qJ Q} &] Y0 :[ .& J) v$ $^ [/ ^% <0 E% '% 0< L% M^ B[ d* F4 M! _$ Ld =< d^ |] g] q^ ;% 9* ~< 0< m^ 2] x% I{ (! 3! @% B] S^ #/ &/ j) N- s$ %! S^ $- m/ _% s$ 4< R5 /) 3] |] m/ |{ {{ Uq q- U* (* /* }= V* n- B{ N* W) (= 2= ~<  = P^  < D* ;9 m* J2 X# $$ s! w) 4! c> u> 3] 0* Q' Ep J* x^ 3! k^ N- J^ P* p/ ^= si l* m= g] x^ J* i= S' t] ~< v* p) O= {* J^ %! m^ O= j- A- &= x^ A- (* S* d= @- (= f= m- f= Y* D^ H- |9 A- 5] Q) 0* :* z* _* K* C{ v) S- I- ]- :- !3 S& ~^ )] {[ oM V7 v) S^ A$ 3] w- K* J^ 0* 3] Q* P- 9* N- 5] Zm `* C= n] b] $- 8] v> g< N* c< H- _= w* f= 7' 8] _* Q* m- u* q^ C* ]* u) U] +) S< '^ >$ c} ^t c> J* a- v) f= R* .} >% w% Q' <; k) ]* u* e2 t* *= e2 x* u* i% 3] |< 2* N- u* t] R5 u= B] =- p) l* K* H- V* 5] G= x^ v) ]* h% v* q^ w* u* P* .} n- Y* 8] `* 6! v) #% u= c< h; z* w- f] -% a] 6* pM qM W$ L& h| E* I- 5] qq y% `* J* S9 v* 3* u$ K* B* S^ b] S' w* +[ i% %! 3] {* K* |] K* $- =! 9* {{ << <; ./ _* h% C{ J- E* J^ I- %! E* |< v) M} v5 3% W$ rM ;9 I- /; 2* A- 1* _* w% w% u* 8] q- =! q- i* += {{ 0* ./ d= N- >0 5] [= 3! <; @^ w* p) n- += w* V* v* o> B] .} w- a] 9* 8] v^ _% S* y] q- y' ^= }* ~! W- 4< v> S' v% `' x- `] }u Hu fx e9 [u &u $u @2 sM tM 3K `z Zz uM ]c BG vM wM xM yM zM AM BM CM hJ DM EM yx Gw FM r| Uo Cs Hu `' O] {w |* v% 64 80 /t GM q2 {{ ){ x- @/ @% i* @% << U^ O^ $% x% q^ -% l] Z^ S^ un /) 8/ y] 5] =< s$ p] q^ d! >% 1< ;4 g/ 6! L^ l% g/ 2/ =< =} $& =} (& T% >^ E$ *& c{ >^ ll // s$ t* q= t] f, o3 b^ 9} $t {* 0* w% V* ]* V7 H- a[ I{ n- T9 ,G ",
"HM xa *; D* I* (! H= =; += [- E* G~ S; F' /% y| =! A- 5* |* IM e| %5 .  y) >6 V$ 7/ %^ +% +% &/ 0/ m% g/ q] G] 1/ (! y6 >$ j% $t B{ F9 K^ I{ (& g] |< l/ ./ S) 3! =! U] H$ U^ A$ S^ |* m/ x^ += 3] F^ w^ <; h* {{ B{ 6* p] W^ a9 M% L% h% V7 Y^ p) U* /) u* H- O= h% u> U* A$ U^ v- v) u> -% u* 7' C* 0= e3 1[ *5 D$ B| <n 6* B] I{ y% q- h% g= v* p/ G4 u* u* x% [* l* c< h< `* {* 9* m^ 0* c< G4 <; A- n- B] u= m^ 5] I- C{ += 9* |* {* C* B* *= [* u* 5= 5] f= x* =! k* S^ a- d= =! u* W) 5] =! s^ q- V7 g] <; us 9* w% |] {8 y} M$ M! O} 5< D* H[ J^ v* =! c< Y* R5 ]= _= H- u* G- A^ k* O[ {* 7' D* `* I{ 9a S^ v* }= ]* <* c= =! N- /* R* s- |* m- O= v* +[ J* a; 9; h| j% ^$ </ '{ 9% g= d= v* 0) w= }= S9 Q* 2* &= n- m- $- j] N{ @^ m, (* $- x! ]* 8] E* I{ 46 << N- O* W) 0) u> 5] V7 0* 3! Q* n]  = <* R* F! n- n- i% C{ V* m/ z* A= U] `* <* I- $- =- x^ R- {{ m^ /* L* D* 9* `* H$ r) A! !% 3$ @1 F= 1* 5] $- {{ /; 46 Z* y- B{ 7' e* R5 _* S^ S' w* W) << 7* 1* j- u* w- a- E* i%  = h% o- u* x^ h% D^ I- i* I{ t] p^ v) v- x- `3 W$ 8} 8^ JM d= -% 3! :; y] 9* n- 9* 1* 2* (* B] w^ o- #% >% `* q^ ./ A$ P^ w% c] G9 f= A^ H- ~> B{ =! w* << V* s- x^ {{ 6* D* m^ v^ /) S' O= _* v- *! 6* *! G; m2 {{ u> &q L] S] pw I] 4! lj +o (v ~z KM /u LM 52 MM NM OM 9z PM Pj /H 5w {M QM RM SM TM UM #G VM UL WM lA bx wG Qj 8v `u Py XM r] &q v% i* P] 4| >[ #^ YM ZM +/ k^ D- 6! w- oF x* 5] |{ q^ L% -% $9 A$ U^ v* p] a[ P^ N- /) vo ~! V7 t! += t! y] w] _< h] x^ |] s$ $^ J7 ]/ `% #& U% $& p$ ${ L& {9 S; 0% j/ 1/ N- }= D{ $- Lt t$ %% ^3 Jp <; i% k* v* j] U* != M* ^= t= 0/ ~D ",
"`M >e F! i% z* o* <* g< H- b- M* A| S; ,/ lr K! L% E* (* v* /p ~1 #5 v6 b4 Q% /} `6 p$ 0/ p2 k/ t3 =} g/ n% l% p7 8* j/ g5 )5 ^a m3 >/ i% ~0 5] 1/ -% J- Q^ u* U^ o] m/ `* t! h% B] C{ %! J^ x^ 3] U^ m= y] H- S9 |* b] C[ 3] :% g] L% 5] w* Wp o% (* v* p) /; m/ a] {* {* += {* v* $- I{ 5] @% ~< Y^ 1] H2 {} ~% N4 9a B] N* {{ H- |* 3] g] r; x^ *= e2 H- v* v> g] R5 7* C* 0* k) u* v* D* d= z7 }= @[ u* N- _* i% ;% u* a] [* p) 3] A- >0 v* y] w* :* S^ h% o- Q' Ql C= c= {! z* K* ^= w% 3* m- Q= l= {{ 7* m^ (= w* P* C= o^ n- B# m5 )% N< _> (* i% %- += |< i= a[ K* I* t] ]* P* I- @= u* |9 3= S' M% d= U^ H- P* R* I- w* P* =; A- F= v) (* C{ p> 0* C* 0* V* :* Y* G/ V$ f$ Rp C0 x- B9 C{ u* P* 1< v) w* w* {* K* /; w= w- {{ {* m, {{ v) }= h; =- K* A- |* 3] @% 0* m^ -[ p) m, C* z* w= w- K; g= {* n- /; V* J[ n] P* A= w* K* }= d9 -% (* u* v* (= 5] z* -{ m^ S* m^ w* ./ (* -% q^ uc z: K# (} e} 89 [* 6! d= %! t] u* m- w% += S^ B- v* E* i% w* 9* u= {* +[ @= 0* d= A- (= A- ^* =! (* /* =! +[ [{ |* `* U^ (* {{ A^ _= Xn Z; M9 <] N& d8 B] =! t- D^ -% {* 3] h* <* S^ o> E* {{ S^ w^ m, U^ C{ y] B] @^ {{ I{ b] += z9 >/ O* `* %! 0* ,= _< %! {{ t! `= w% A- u* 7' 2* ./ 0- q- s* 8< `' O- O- /) U- ~* `' BC O] ri S* R] c* ~r +C `' R] nu g' Ze dK No fM t|  N Hv .N 8F `H +N @N #N $N %N &N *N 0M =N .I 5y wj `' {w 0B Yu X] 0- Fh Y= I] `' '4 at /} dB K^ _< 6* &/ a] `^ +o G] L] w^ P^ -% y] w% $- h] |{ N- ~< N- S% -% y] m3 J- N- ~/ _% E' %{ x^ 3] #/ >9 (& d! =< ${ A9 L% w3 i$ 0/ L6 ca W$ G2 P# ml l/ `: O= F! O* i) d! $^ 7^ G~ d; )- f* d= v) A- D* X] a9 N* -N -L ",
"E| Y] gp z* +[ k) m= m- 5* S^ Y* Y! S; O% y^ R; -% u* J^ 0* @I lb %5 qc Q& X# c$ l% K$ 7% <% 6% n& u% U^ 0/ ]/ *% t] D' W$ &] 6~ !< =< E' |] x^ 2} u*  ! C{ (! 3] :% :% u! m^ i% w% |* %! 9* e2 y]  < ;% u* B] u* $- `* $< #/ x% 3] S^ ./ ,% w= 46 v* w- u* <* q^ h% S^ C{ I{ /* A- l! x^ m^ << Wo b* c{ Q# >$ y: Uv 8/ e2 U^ (! N] i% I- y] J- p) <; w= 7* C* 9* 9* x^ <* ,= P* O* U* V7 Q' d= C* E* i% Q' w% -% 7* $- h% I- @^ s^ ^< v* o= O* V* P* m^ 6* %= {* E9 `* B] 0* =; u* A- w% -% o> U] w* K* (* p] 8] W) += &= {* F* +f c{ i$ ^6 U{ f* ,o N* F= E* ]* 0* S^ w* p> h% :* C= U* 6< f! H- _% p) z* b] h% N- 2* K* A- N* S^ $- v) h% w% m- 9* m, d= N* v* C* l= a5 !^ {6 @] GE m5 '/ Q) m^ B] (* {* N* ;% p) 0* u* P= Q* {* ~> A- z* C{ a] J^ (* Q^ /* Kn 0* c< -- z* v% J* l* S^ A- K* A- A- J* m^ k* u* w* =! $- q^ w% w% 0* v* h* j) {{ 0* $- E' 9* l* z* _% C= N- w% 9* x^ m, S^ Fh ;N 6D !& P# !^ /0 ]> '/ i= S^ 0* |* %! `^ N- q- Q' += {! n] 8] x^ O= _= 0* +[ b] y% L* x^ <* U] %! C{ D* I- w* =- m, 5] /; -% 1* Q* +[ K4 >] E$ ,[ ]/ S^ 5] H- 8/ R5 m^ 5] %! =! 3] q^ %! |* ./ N- 5] N- j] [= _= A$ :* !< w- |* w% |* U* u* w* 0* |* A$ b] v) A- (! 5] V7 R* |* c< w% w* w= a] x* A= A* o- x* Qt h* _< ^* t* v% v% _* Fh Hu a] Ar ^* }* [u 3{ Ze >N iz ,N 5y yz Ey oG (y >M 'N )N #N !N ~N {N 0F ]N lA 0b pw ^N ;x `u pw Cs &q b] v> O- {{ R^ B/ Ot 80 rG y] H- %{ -% @% p) L% |* 2] _* @/ J8 C- 3] -% 6* =9 w% 3! w{ u* ,= e% !< }5 L% >/ @^ #% y% b] d! 7* U^ %/ g] c> 3! D% (< o3 l% o3 5$ ^^ A! S; >^ B# /N C- }= [; %! !; E6 /} !3 P~ b* h% K* &= 9* P* k* T- |* v) =} (N ",
"Ud !0 P* G- x* d= D* (* u= V* R8 O!  > h] // r~ |< <* T- n- u< <1 X{ A! H& A& 8} 0/ B# B[ 0/ [/ Z^ O% x% M% 4/ h] Ym #^ !^ 0$ +~ L% _% E^ B] C{ P^ g] 5] b] 8/ x% x^ W^ {{ m% h] q^ J- B] w* P^ (! |] 7' w- t- N- y] $- a] `% {* >/ 5] 6* s$ [* w* a- [t w^ l* O* E' p) t- |< %! E9 o> <; k* 2< [= n5 N/ (5 $* J] -< Y= +[ I{ 46 2] x% _= N- O= K* w* w- M% i= <; =! l* K* k^ y] 0* a] [* 0* K* 0* 0* *= D* K* 7* 8] C- a] {* N- R* @% fk P* v) =! I- c< {* E* 0* 5] 0* P* R* {! a- C{ w* u* <* A- V* C- t- P* i] w* E' p) A- =; m, _N L< ~] X$ 5! 0; j= w= j= :; ,; k= B; [= g, B* o= Y[ /= r; [= 8= p; v> a) r* G- )= o* <= 4* s- n* [= Y) b= I* c- (; R= u2 {; r= |* M3 5% ;6 x/ X! 9= [[ 0r ]* w* J^ w- =! 9* O* v) t* v) z* <; R* j) q/ p) A- A- u* d= E^ I- S^ *; Y* G4 C{ N- m- w* S9 Q* 5] [; m= O= 0* 0* x^ O[ Y* N- U] A- Q' (= H- m, y% [* N* >< u* A- p] o] 5] u* 5= v) 6* Q' ;; D* <; `= 95 }] !^ :[ t5 )} )= o= f= Y* p) j= p= `= i* f= F* (= q* i= 7= 2* 5* n= l* z= @; A* @= q= C= A* ]* 7= L* a= :* ;g [= 3= I* B* r* Y< s{ d% :N ts m, v) u* 6* m= A^ 7* {* |] *= N- V7 |* .} ~! c< 7* p) m/ n- 0* g= E* `* -% o- q^ w^ y] V* w% K* {{ ,= =- m^ y] O[ h* 2* U^ D^ {* W^ C{ A* 5] S' 4! K] S* &q x- v% D{ 9] ;C Jt Cs <N 9{ Z] =9 =/ ^N Ds nh a3 Tn Ru [N R] Lb BI Zw lF }N |N 1N @L 2N 3N wB =A uw 4N [B Xu 9z 0B 5N +C d] `' W- 8< u* l] :% +s Al ,[ 6N s$ U^ {{ w{ Q) -% v^ u* 6* ~< m^ x^ Z^ l] 2] Y^ 3! a, 2] y] u> {{ %{ g] -[ {* x^ I{ y] =< :% B] B] %! z^ =< <7 +% h] $& ^^ O% M! *^ P# d% b{ 57 !6 x% Y^  = w- @= 5> =} F' 14 O8 M* N* 4* g= x^ /= h% w! ){ m^ 4s 7N ",
"8N 9N {* v* C* f[ U* S' m^ Q* J[ a~ S; 4/ ,} 0N |< q= p] =- =C o1 V4 y6 B& h^ w3 >^ w3 O% p7 <% S% i$ Z^ @/ |{ O% {{ aN A& #] t' m] %< /) C^ B{ u* ;% p) x^ %! 1/ Q' {{ {{ &/ B] E' @% A$ M% |* %! 1] ./ =- K* i* K; {{ 5= +; U^ B] 4] y] %; fr x^ 5] l* u= K* S^  / h% 9* x^ J! y% 2< ./ ./ w% u- G2 -$ ^$ >> x8 0* {* H- x^ /; x^ %! w* w% 0* z9 Y^ x^ D* v^ `* 5] y] += m^ (* 5= i% C* n- x* o- r* $- W) 0* g= -% l* 9a v* 5] N- U^ p) S^ 2* 5] '/ Y^ << R* o- (* v* =! |* (* $- (* 46 =! Q* g] S^ ;% <* k^ K* J* '; K* C- += w* (; w9 9r S# B} :a  > Z; S; S; S; S; B7 S; Z; V; S; S; S; Z; Z; S; S; Z; k{ Z; S; Z; Z; S; S;  > Z; S; S; Z; `; S; Z; `;  > f{  > Z; u5 '^ %] Gc k^ .} 3] i= m^ 5= {* 5] I{ S^ N- .} C9 }= O= _= d^ N* F^ s- E* w- 0* -% x^ #% 3! [; K* =- t- (* m^ =- F* n- {{ U^ B] <; J^ w= v* 5] |* a- b] m^ ~> S9 C= U] 7' G- 1* 9* o- U] d* #% 9* w* {{ F* S^ v* v* 0* /) Q' bN ^3 Z& }] W: V; b{ Z; a{  > ~9 U; f{ c{ V; c{  > Z;  > Z; >> o{ S;  > a{ c{  > c{ b{ L| a{ Z; S; >> c{ S; c{ Z; Z; Z; >> c{ j{ L# '[ M! 1= `6 7k g= |* U^ B- u* 5] C{ v) ]* A$ w- J^ v* e2 =- 6* 5] ./ << B- c< 5] u! (* P^ E' w- {{ w- w% 7' S^ V* I] }= i% {{ -% y] C{ S9 j] y] b] O= v* L* {* <* [- S' H- 0- (! Fh v> `] l] `' e] -f O] 9] 8v cN fj }2 4v dN eN .t Qj `K fN Ey xB gN hN iN jN kN mG vw |x lF Dy tv A] =z f] A] e9 8] S* D{ t* S* 6* b2 oa $& ]a P^ N- a[ 2} q^ w% ,= += x^ F' z7 -/ S' 3! 8/ j] _% i% w^ B] #/ ./ @% @% x^ u* N^ `% s$ 1/ p/ x^ N^ g] q2 x% N^ a9 *^ ${ 6% $^ .^ #< )6 f$ V; ml <] z6 ]< m- A= z= 0* &/ I6 23 lN h* .} :* {; y% i* c< Y) B- h% t3 mN ",
"cB %t z* m^ K* h; K= N- 5= I- /; r~ S; !< M^ a' H- B- i* 9* B< R} {5 kl )5 X< b$ K{ 3% 7% +% '% g% $% F' '% t! J7 m- qh (6 >| U! W& B] 2] 7] x^ $- (! ./ y% #/  / 3] q^ U] 3! }/ [{ ^* t^ q^ x% V7 F^ l* U^ B] m= c> 9* 1* @% x% E^ x^ Y^ t] c9 y] [= m^ J^ x^ 3] K^ T] h* c> h% ){ Q' ^= m- K* 4| 2| A& Y4 Bh 1& /* w^ x^ z^ 8/ w* D* ./ (* u* ]* {* [* @[ /* 5] i% w- {* i= 9* A-  ! C{ 5= _* B- u* '/ 9* h* 0* [* += m^ A- |{ w% 8* S^ |* o- ]* :- Q' ]* Q* x^ m, N- P* u$ 7* d= h% [* 5] A^ @= 5] /= '= m^ 0* i% '/ S- t! $- (= {{ nN h3 oN )% '[ ^$ Q# E$ [^ (} ($ E$ v5 I$ _] :5 '[ M< <] X$ Y# ~] s{ ~] 2% >$ )^ '[ g& L4 a$ hl !6 W$ :5 Q# (} W$ '[ >^ ~^ ;* M! E[ a$ Y2 3~ -% =! a, W^ ]* d= 3] U] j- += p) n- R* m^ E* /w p) P* v) << |* C{ 0* 9* p] += g= 46 N- 9* N* m, {* {{ ]* g= p) =! D* (* x^ ]* Q' E9 [; V* @^ P* k* v* m= 0* u* W) 5= H- (* E] x% m^ |* Q' /* i* %! ;% v* 0* p) U^ P^ |{ '[ 7$ r5 j7 G5 :$ Z{ *5 !& @* )% E4 j% =^ '^ [$ '[ .& '[ {% J# S& )] :^ ~] g& u5 v[ Ss j5 *6 Z{ )^ M< :] S& '[ j% z} ~^ K# )6 @* ]$ m) o- J^ 3] B{ s$ A$ 3* (* #% V7 ,= -% 5] Q) 5] Y* I' x^ }= {! 6! n] <; F* m^ C{ i% Y^ u* C{ {{ #% i% C{ h% w% ./ B{ S9 w% q- C* w* c< I^ {{ z= 9* 5] 4! m3 l* {w =l &u 6t c9 Hu )= h* ~* I^ 1s }* Rv e] &q &a ;1 pN qN rN sN tN !w 3D uN %G vN wN xN yN zN AN FI }C KL ;z #g bt O- A] }* b, 5y p) =l v> H] 6! D2 8} ia >o K^ 6* {{ J- q^ K* y% a, S) l] c> |* += m/ S% H^ 3! _< |{ m, I{ B{ /) ]/ @%  ! x% 6! x% @/ s$ w^ U^ 1/ {! N^ l% |r <% H$ *% 7/ b^ {6 >$ 6% q{ X6 D' [] BN N- 4- C- ^= g7 #& 5| +l @= q- u* m, m^ 4* b] 4= C* D* N; CN ",
"hK _* r^ P= 6* 3= }= A- 5] O= 5] <~ S; Z^ 4] =v <* K* x^ <; My ]l D5 Q% ec <a E% =& 05 5$ Z$ Q% /% 4/ Z^ ;% U^ `6 H- }] u5 b} 1) E' }5 /) 3] q2 z7 p] q^ u* %! f/ 2} Q^ 6' W^ i% t] a, }5 s$ |* u* (* 3] q^ C] q^ R* m^ (! ;g y% B{ {{ 3* := u* $- h* 5= J* a] {* U* 2] P* W) H- ,% >% C{ y] *= Rp Ll s% X# iy E' x^ C{ a] }/ 0* un B] m^ %! J^ ;% 3] w% a] E9 F^ |* i% %! m! B] 6] z* 5] i% C{ <* @/ |* t] Ba K* (* p] *= v* w* 5] B] e2 j] 9* Y* m^ R* (= W) S^ B] P* u* g] -% 9* Q' x* 5] k) 0* i= w* D^ d< t! K* z- {* w= J] d< n- `$ *5 k$ V$ -^ J) o3 ^% -* o[  7 $^ -* A[ Q% Ca -* Z& v$ Io r6 K[ $& `6 w3 9% Z& $* b% 7/ D% A[ p$ 6% 6% 9r i$ Z& p$ %% r$ i$ -& =^ P# !& 7r R* W^ U* h; += 1* m^ n- D^ += 9a z* C* |* =! [; w= z* l* J* n] w* p) P* N- {* C* Uq *= v^ (* z* (! =! w* w- 0* Q' m^ 5] D* (* i% i% |* v* n] {* 3* =- E* }= C= S9 q= =! B] h% |{ g< S- m^ h% -% ^= z* J^ =! d= F^ 7= DN o6 .& !^ $$ d/ 9% K[ I$ {% ^$ A[ 5% w3 {% %% ^^ ;^ w3 3% K$ >$ %l b$ b$ $^ b$  7 9% L& d% P% e$ {6 q% E$ A[ `6 $* 5% *% n$ d% }] (5 J# P- i* @% 6! ./ $- w* w^ j] {! 3! w^ Gh V* w% #/ m^ H- D^ B- w* 3! y% 1* A- F^ D^ |< H- t] c< 6! h% ./ K* u* b] |r {! v* 3! o] w% @= ,= E* ]= <; x* O- ~! 1* H- i* /) O- i* A= O- X] =9 ~* L] d* 9{ l* h* -B v2 fJ EN FN FK hw Pj NG GN HN IN JN KN LN MN rC =B 9B wE  v *v ~{ ^N Cs H] =/ 6! T] V] i* c9 x- NN zo v6 ON w^ y% y- x% u* e2 S9 z^ x> d^ 2} s$ @^ I{ B{ A$ 6' m% B{ 6! 2] _% ./ f/ h] #/ z7 x% U^ p) a, %9 U^ B] _% _% s$ 1/ <$ ^% (< Q% B# pj K$ L& a{ `) Y0 %{ 2* e= m/ /; PN $< #& 04 QN 3< w= (! *= L* l* .= L* f= 3* ,/ RN ",
"qG zs t2 w% v* (* N* H- $- u= C{ &) S; w^ // Oo 2* I* 5] D* yv s} )4 Q# Y{ L& r6 Q% r$ o$ 8' #& w3 o% }/ Y& ,% ]/ N^ {9 -$ +$ Po =& 8' o>  ! 3] 8< {! %/ @% u* 3! y% /) o> 7' |] B] N- C- U^ 3] J^ P^ K* z7 H- K* g] ,= fk @[ += w^ 5] 2] S^ v> u* c< w- m/ w- #/ ,% g= %! 3] ,= v* 6* 2] m^ g] 9k s{ .! _^ S; Y] '/ v* ,% 5] w- w% `^ v* q/ (* {{ m2 B] S9 C* o> V* h% N- w- y] (* S^ 5] {* *= {* g< A- z* B{ v% 8] m- += x% %! 0* q^ {{ 7* 9< {* u* $- I- (! =! ]* w- 3* F^ %! =! K* J^ -% x^ w% s- 3! w* u* m/ l* ./ D^ V* x* 0* )= Y; F& t6 {& s: lq o4 SN 5! TN QL 03 :& w: i> ti a5 UN ~[ &> Hn (0 >> _0 V{ ]{ T; p{ VN U; {0 S; T; S; T; S; m{ `; Zn .> S; S; S; /^ >$ t{  > @; x[ F^ ^= S* ]* 0* u* e2 3* w* q^ =! N* J* i* |* %! w* << w% -% @[ {* $- c< S* 8] &= y] m, w* B] ]* d= N- N- v) 0* v- (* z* t/ h% 8] y] O* D* n] 5] <* m, 5] ]* P* K* 2] 3] %! Q* H* O* u* 3! Y* S^ 3* D^ m- 0* W- ;3 (5 ^$ :3 S; `; Rp (0 S; .> WN S; Z; Z2 h> XN X2 #> a5 3a ,> g{ o: mc mc m{ (0 @> j> S; 8G T; T; m{ S; `; S; S; `; S; d{ 'u 0% {9 '[ o} M) 0* S9 v> >/ 3] z^ p^ S9 m^ B] 0* t^ A$ += E' v* i% h% U^ N- 5] t] ]* +[ t] u* |* -[ 0* v^ w% B{ 5] 7* i] m= ,% o- m2 h% U^ m, h% += 5] a] g= v> du t^ u! s- x- b] o- =l x{ _< +o =9 e9 Uq L; 4! Z] `] ;j L| YN ZN `N nu dx Yu cw &z  O .O +O @O #O $O Mb %O xK &O mA r| +/ P] D] A= += Fh t^ J- J] v% @% ,] 8} I$ 3~ =< (! P^ j] c9 |< p) /* <* i% 3! L^ >% :% 2] L% 6* u! x^ y] o% m] :% @/ 1/ B] >/ S' e2 1/ g] c> ,= x^ x% P; @/ @% c% 7/ b% w3 o$ Z6 2% (5 Z; ,6 =^ G6 {J .= %; $- Y- `) ;9 !3 *O %= S^ x- A- z* N* _* 3* h% 4= rn ~D ",
"cB U- n- x^ h% 1* C= .= f= K; y; h, S; T% 0/ =O e2 f! 5* E* o8 -O Z{ /^ y[ %] b$ O% D% ^^ +% W$ N^ D% +% 8/ }5 w6 e] Fn !^ [% 56 /% =< _% o% >/ 0< s$ x% =& C- h] $% =& 3! Z^ x^ Q^ (! C{ p]  < p) -% @% D^ [t -% B{ %! x% v> 1< l] 0< p) E9 w- (* v- G4 z^ E' |< `% I- y] 2] I- I{ 3] %! w] et !> m{ '6 P# @4 W% k^ <* o- B] w% {{ u* c< %! _* u* Fh ;% V7 V* ./ y] u* m^ z^ Y* =! mo v^ O* =- v* i= N- >< Q* .} q^ R5 {* <; i% v) t- u> d9 a- h% $- C* *9 y] m^ y% C{ x^ B{ 3] R* B] {* |* %! l* 3* Q' U] S^ %! I{ c< <; q^ t* l* .l }^ /^ $* &~ |K +* ,$ ;O >O @e ]$ ,O %& V/ i& $4 &$ G# `/ ak 'O 7! k$ 7! V% d/ c$ f% }$ T# ZM X# p2 )O !O L^ n% ~O l$ $< w% {* U~ d| ,[ {O 7& B} k) $- =! ]* K* 0* Q' u* V* }= ./ z* u* v* E* t] v* << 9< w- l^ q^ vn =- y] ]* 3! I- 3* J^ v) b; 8] x^ %! I* J^ d= i% v* N- J* w* $- B- z^ `* v* U] I- c= K* =- h% N* S^ =- _= z* $- J^ H- ./ V* s- }= C- G- u= g{ M$ 5% -$ ]O ^O ;/ }/ l$ l% d& !< p2 S# 6% ay /O ]< Wk (O dy ~% _O Yn ($ z% 1$ *f i$ Wf :O jw 2/ z7 M$ Wf ;N l$ dy !O l$ oN p^ Z& '6 k$ <O !! H= V7 q^ <; g= 1* i% C{ ./ <; a, -% (* q] ,= w* C{ O* I- w- Q' ~< {{ 46 S^ J^ 5] '= E* ,= 5] v^ q^ {* w% :% x^ v> N* H- B] w- t] 7' h% m/ ]* H] {* ,= G- 5] x- O- M- =9 8] 4! N] 4! O] kr N] 89 )! =9 $u Q0 [O }O |O 1O Z] t| hw lA OA zD W] 2O 3O !v ]v ru ru 4O Yu cu /u Ds D] S* E{ I^ w% O^ ,= K* P] 5^ *^ ^^ &K i% ~< ./ 5] t* %! l] A- y] 1/ |* g] g] Y^ y] #/ i% L% U^ |* B] J^ h] x^ 2} >% 2} )9 #& %! q^ 2} S%  ! ;% ;4 Z^ p7 Q% ^) r$ S# 6% A6 4% d% k{ M! J) f2 C- W) @= >0 Q= !< B[ G/ 5O =! f= w% E* E* =- c= `* d* :* P: 1! ",
"s> G; E9  < w* A- h% n- B* (* K* %- S; g/ N) BE B- A- I{ B* ]O W} &] b> g4 p6 6/ /% o3 $& +% S% %{ m% 3] =& %/ T% U* .  n[  $ S! >% ${ ,= !< R5 B{ E^ _% Q^ m^ P^ 7] w- ;/ {* ;% K* n] << x% R5 9* w^ b] 8/ m, x^ I{ 3[ |{ x^ a] ./ y] U^ m^ >< N- P^ u* ]* y^ w* B] b] S' += ]* ./ e2 m, |* << y] 6O Y% '^ a$ F2 u* -{  < n] V* K* 3] =< N- u* B] =- t- {{  / ./ n] ./ U] w^ @% %! |* m/ p/ 3] i% -% Q' H- 5] H- U^ x^ I{ %! q^ S' C* S^ q^ 0* I{ I- D* u* 7' ~! e2 J^ $- S^ <* D* 5] +[ O* S^ q^ m, J^ S9 S^ h% u* u* :* ]* v* q^ 0| V$ !^ 7O `c y] A= C{ y% 3] ;g =! (* ~; N* +9 |; E* w% h* ./ 5] z* <* Q= Q= S* E] |* K^ q- D* N* 2] j] D* @= d* s^ m^ N- q- [= /) 8O S& (5 }] F2 4a vn %! m= J^ w- :* 5= w- 5] q^ Q* +[ {{ y] 5] =- t] m, a, P^ |< m= t] /) <; N- 3] ./ K* p) (= w* S^ m- <* y% R* u* b; ./ 1* [t D^ S^ -% E' Q' v* x^ 3] 5= N- O* S^ 3] e= 3! N- D* H- N- <* |< u> v) ;g l* :$ 4$ $$ i$ b} _- <; i* a] .= V* _* [{ 1* w- += H- E* << <; 1- ~> e* N- $- 9* <; <* ./ m^ +[ -% y% h% g= w= s- t] K* o] N* += K* H- ;} ]3 ^$ $* Tk >% a; N- l* 1/ w% i% l] =! Q; 9* H- p) q^ (! {* B] 9* 7' 3] V* =- h% 3] += m^ t] :* ~< y] <* S^ @% U^ w- 5] w% q- u* J- @= x^ Q; v* O* wv 8] =9 C{ C{ C= 9* C{ D] 7< W] +C 4< o] z- C] W- C{ ~r .= 6! O; a2 ;v qN 9O nu e] bu Pj Tu Ey 5< 0b ^j ;E /u K- 0O QA -b r] r] Rv 7< 1K an B{ D{ :% @% -% >% 8' K} 8} B[ aO J- U] H] {* b] $9 w- y] 6! 6* @% y] U^ J- y]  < u* y% y% o> {! $< w* :% 99 W^ @/ @% {{ Y^ '% j] (& 7/ b, B] Q% E6 [/ r$ w3 r6 b^ @& :$ C/ d{ S& Mq o3 k^ i* += S* @; '6 d! *> 55 l* D* N{ |* N* $- P* ]= d* *= J7 4v ",
";H r* Q* ~- -% G= r= v) i* `= *= 1~ S; d^ z6 C~  / S^ m^ H- (8 ]9 C} L! v} P# E$ i/ S# j$ i$ L% a, z7 3] D% }5 [] S6 8} X< 2^ E~ [/ m^ t! ,= A$ I{ B] J- e2 |] -% ~< /) x^ D^ i% B{ ./ w- V] <; I{ %! w% =! |] K) 5] E* b] N- }/ g] ;% 5] 1< j- K* L% t- B] =< c< U^ N- w* 2] p] C{ e2 k^ O* N- h% _% @/ 6% W$ g5 ([ f- |* 0* L% B{ i% Gh |* =9 |{ 9q m^ I{ U^ `* i% ]* 7* #/ p) 0* g] J^ %! '/ Q* x^ 0* G4 A- m^ u* E9 y] v) 6* q^ q^ E' m^ l* Q' v) O* 5] %! q^ -% q^ (* q^ H- 5] v* xu {! S' O* %! H- K* V7 =! N- += D* p] I* >> j% $$ J# 08 Q^ 9* J* }= `* o- Q' B* x[ l[ z* i- 4= E9 u* u* w* V7 V7 V* {* 5] {! bO 3< z- ,= 9* E* #/ 2< I- N* m- @% i* B] w% gs o] x- &% /^ X$ )% c^ r= ~- t] I' J[ D* q^ +[ 9* S^ $- A- %! `* P* 5] N- I' ./ $- d9 P* P* o- c< V7 p) P* {* m^ w- J* H= w- B] N- 5= t* u* 2] ;% J^ 6! w* m^ {{ $- += w- |* l* _= w- V* e2 B{ U^ =! 0* `* q^ m= B] '/ u* =! .= c^ s% ($ r% cO 1/ w- C* -% 8] dO )! (* V] u* <; p) @= S^ )! += _9 v- H- 3[ x^ `* 8] _% W) <; N- /* 7' w- u* A- ~< q, S^ w* n^ eO t] !r D[ n& s{ M! f{ >= B- A- N- w- O% m, l* l] m- $% B{ A- |] N- u* |* j* x^ !< w* 6* 9* w% 2} c< _= '= m^ (* N* m, 7' ]* E' G9 v) {* {* e2 Z^ '= 3] r* [{ w* %! u= 8< S) I^ P] J- 6! w- 1s l] L] |} kr 4< << *z 1s s- ru J3 fO }O gO +C 4C -u d]  v qu UI ]B hO e9 pw =/ Yz R] Zu iO 2{ _v 5a 4< v> Z] G9 J- A= l] d] ,= :t ^^ jO .9 8/ B] |* :< s$ V7 q] d* V7 x% >/ 1* h] |{ B] B] a, s$ += `% 3[ $% U^ |* I{ @% k^ 2} |< 2] |{ B] e2 /<  < 0/ o% g7 6% _[ <% L^ r6 d% '6 !6 f{ }] Ot )> #a h% A- C* c) /[ *^ 23 kO K= f= q) h% k* u* C= == %! 3* J7 -0 ",
"pp 3{ $- f= x* <; S^ =- M* Q* P* @) S; t$ E6 W! q^ N* l* 2< o< b1 g3 <] <^ P# P# )& ,[ S# g7 4/ <% F' @/ L^ 7] +% y% yE )% O# M' M% ~< L^ M% J^ C{ 3! {{ J- x% z7 w] ^O @% z* 6! %! <; A$ 1/ q2 w- 3] h% |{ y] N- x^ ./ L% /) x^ 3! p) 3! ;% v* %! c< '= N- =! `* D^ =! ~< z7 5] %! y] B{ u* x^ B] += Bt (s E$ ~] s! f* p) B] }* N- +9 (* x% S^ j] H- I{ =! q^ k^ {{ %! m^ w- 5] {* C{ w% R* F* k* }= J^ x* z7 z* R5 x^ O[ w^ A- +[ i% 46 S^ <; m^ ]* 0* 9* :* ]* i% C{ Q' 5] *9 w% U] }= v) -% C* A- O* v) |* m/ $- m- w- #= k& p} |% '6 N/ o- Q* `= d= w* B] e2 B] <; B] w* a, S^ ~< S^ y] Y^ y% Y^ += c< E* w* }= *; ,= m^ }5 p) p) e2 |9 S9 =! ]* 3] Q* D* g= |* <* += lO `2 1[ >$ !! T6 ;) x^ J[ S^ Kn a, v* V7 w* Q* i% %! p> %! m- (* P* y] $- 0* C{ 8] q- v* b] z- d= K^ m, (* E* P* N- V* =! 0* 2* += [; 6! w^ i% i% 0* h% p) << $- A^ 5] 3* -% A- C{ =! u> [* J^ m^ =! _= K* c< H* o, N} z} W$ ~^ ~! %! AC #! w- {* A^ k* w- J^ g= h; <; i* 5] D^ V* z7 F! += p) m, m/ <* N* W^ g] -% _= V* <* C{ w- c< U] g< 7* v) m/ 5] t- <o ~- J% 7/ I$ c} )] P* l] A- V* S' += += <; x^ i% N- Gh h] <; U^ V* K* q- %! (* E' ./ A^ Q' |* E] C{ R5 7* 6* U* S* w% o- Q; t* V* S^ i% e2 C{ 6* j] C{ i* l] v> 9* 4< :% L] m/ N] ov [{ S' `' _< A= z- Ds _< ,= p) (x R| r> No mO BC ^* 4a du /u Gz e] It ~v nu K] W- bv ;z fx (v Rv )t f] I] V* ^* ./ C{ '= :% V^ K) G/ 80 3% nO M^ E^ Do O* -% %/ q^ p) P^ N^ t! {* Y* y] g] #/ B] g] `^ S^ 5] @% U^ ${ m^ >% U^ D% s$ a] G] /) oO x% &/ h/ _q $^ 0{ u% p7 6% w3 Z$ !% P# d{ A! zo G: pO q^ l] $- ]> f2 $^ a} /q C= %- $- -% `* <; |* += C9 b; `$ H4 ",
"}A -; <; -{  = E* w- N* 0* |* h; V' S; =< a, ,- _9 S^ 9* q^ ,z @| #5 No k& 5% {% *% %% U% 0/ ${ c> D% N^ @/ ^) qO @% O) v5 N& ') (/ A6 J- m, L^ h] t- x% s$ x^ %! a, si $- t! #/ I{ (< C{ J- B] m- s$ 7] ;% -% |{ -% h% D{ w^ P^ y] 7] ./ i% s^ g] '/ (* U5 k^ w= D^ (* P* {{ {{ Y^ V7 v^ (* l* I{ $- *g NF .! >^ :5 (3 1* w^ v* g= $- V* m^ B{ C{ $- %! R* x^ p] k^ (* D* $- Y^ 8= 1/ C{ N- B- {{ w* q^ '= w* q^ w^ o- A- x^ 9* P* 7* J* /* |* [; #- y% =9 (* oF += o] 4< A^ s$ w- H- u> m/ J^ m, u* S- m^ C* 5] s- 3] y] }- a{ h$ E$ n: ^t 7< u* <* l* 0* v) D^ E* O= F^ Q* B* V* S9 V7 ;% =! 0* 9* t] S9  = I{ (* += u$ i% |{ J! u* S^ H- h% K* <; {* d9 V7 f= Q' u* v) y% G= B# *6 W{  > @) @% += [= E] -l /* {* M) (* x^ u* K* q/ =- d= 9* u* 5] =! E* u* b] w* I{ a, @= P* 3* x^ N- C= S^ C{ b] J! w* {* D^ |* v* =! =! D* D^ H- 0* i% D* =- a- q^ N* '= {! {* A- Q^ m= y% =- y% Do ;% O= || >$ ($ i{ rO S' S^ `= 3] ]* y% I' v* *r N- H- ]* {* v) 0* P= u= 0* p> h; ]* m/ S^ w% z* w* n- ./ `* N* 5] '{ <; x^ t^ [; <* D* 9* R5 a* =& sO g& !% Q# X2 7* ./ O* 3] x% b] |* m/ J^ $% 3] 5] e2 m^ I{ d< Y* N- s- m^ H- {* -% A^ p) A- V7 (* t] e2 m^ (* C* 0* Y= t* 6' S^ 5] |* U^ C{ m] U* $- l] << (* Q; o- $- D] r] fx C] ]w *! e] Uo X] O- r| _< 4< 5< +1 tO lu <I X^ 4a nu n; O] ~v f] Hw Rv 0l nu R] ;C ;z +C G- C] S* BC O- uO H-  w N] += 3[ b] ~; -| >[ c$ .[ O% l] S^ 7' N- g] y] d^ |{ B- (* :% H- {! q^ U^ I{ i% y% w^ ./ J^ d^ `% _/ t] += 7] @% a, f/ {{ >/ 8/ 1/ 1] l/ 6% 5$ 5$ k/ (< /% >^ )% >$ q{ =^ >^ C[ 9q u* 5= h% ^; S6 b^ :3 vO F* ^= P* P* 8= D* y% p= V* ]* v6 uD ",
"V5 I; p) a[ P= 8- <; d= ]* 5* y% q~ S; b, 1] Y[ {* $- )= 5] wO j4 -] Ks ,] P# 0% xO 3% <7 !< D% t! x% |r f/ A6 *% N- M7 q5 .5 P! !< %{ N^ U^ Z^ ,= f/ ;% A$ y% 5] >/  < S9 g] g] z7 E' B{ /) A9 Q; 3] J^ Y^ S^ K^ N- u* J^ E' P^ 8' 5] y] yO p) ;4 K^ n- |] a] w- n- Y^ 3! Wp w* `* Y^ W^ Q' %! $- x% m^ B' T2 *^ Q# N} g/ B] 8] K^ A= y] S^ f= y% $- x^ N- U^ K* $- |* w* x> x^ |* S9 ^* q^ K* N- A- @[ w- <* ;% u* {{ J^ =! 9* v) N- m, S9 {* d< K* ek I- x* x% y% R5 (* (* K* %! S^ t! S^ S9 J^ w* [; ./ H- w* D* =! U= x: :^ *] o[ 1] zO AO K* q^ 1* Q^ O* U* O* Y* D* |* %! l] =! l] q^ h< h% S^ m/ a- i= 2* <* V7 R* m- J^ x^ 2< (* D* v- 5] w- C{ += Q' E* i% J^ v) h% tF :3 t6 G5 <^ 57 [* w* K; k^ m= n- 1* c< a- J* e2 0* `* y] k* << ek @% @% a; 1* <; m^ B{ P* `* N* P^ K= += Q* += 9* m^ ,= x^ 8* o- |* <; C{ |9 ;% C* N* p) a- t2 J! d= C= w* I{ += $- m/ b; a] V7 i* v) q^ <= _t )^ :^ ~^ ]7 `6 r! x^ d= x% S^ D* 0* v* A$ X* B* v* <* H* 9* m^ A- {{ |* J^ v^ :* i% ~> += C= x% u* u* 3] m] m^ @% 6* 9* n- %! _* d= (* BO 0* << =& >[ a$ <^ c| P- 7* '/ v) 5] m^ E' p> m^ m^ P^ 5* g] |* {* I{ z* d< U] 5] {! -l {* p] `* E* w- v* k^ J* B{ v) += (! ./ l] Ql 6! 3! 0* x^ i* m3 i% q] v> -% x% `' C{ p) 1* v^ v% _* ~! q- b] S' T] lt X] 8] ya &3 K4 Y0 CO C{ I^ ~! r| dx S] .t =/ _< I] Vu Sv r] &u Hu d] P] L] i] 4} t^ b] t* O- =9 '{ {! 1/ H} o[ Y& e) 6' Y^ C* o> |< '= {* ./ v* w% Z^ m^ f/ 5] x^ w{ z7 o% J- 7] B] y% ;% y% ^/ $% |] N^ w% {! {{ t! 4/ x% [] h) E% !< 5$ r$ w3 3% t% r$ >^ |[  > [$ 'n o$ vo t] i* w% l' b^ `% C: fl P* p) e2 4! H' *; H- j; L= _= ut -L ",
"s> 6- A- {* m= 3= .= 0* F; S' :* T! T; D% K) !; %! ek d* V7  8 41 Z{ 06 d> W$ !% -* 0/ -* $< O% x% s$ #/ >% L^ T% 5] 06 V$ .5 !~ l% =< @% y] L% d^ z7 :% w^ y] Z^ y% I' |* y% C{ c< p] A$ i% (* g] K) =< v^ 1/ x^ 5] {{ j) @[ G9 w^ _% v^ L% {* 6* A* w% l] 1* B{ z* ,o u* |] p] |] N- %! Q' w- N* R* u* 4/ DO Q# d% .&  > C= T] += (* _= (! %! I{ K* =& N- 1/ D^ &/ 5] p) {{ v) D^ i% q^ @% R* {* q= 0* i% P^ Q' 5] (= 9* 9* %! 9* e2 o- '= w% ~< w* m^ a9  = w* 2< y% :* A- ./ h% n] B] P^ q^ u* v* u* S^ (* {* <* i* N- B/ !% n& h> EO (= vn B] =- 3] 8] E*  < t] <* u* H- m^ (! {* 0* m, w* S^ P^ Y* i= S^ #% ^= p) u* B* :* u* O* f= m- C- 2* x% m^ K* B* =! [s B{ %- L* ,< 0H x6 2% n$ H3 G; <; @= <* e2 %! C* S^ D^ *= -% si Q' S9 u* m, A- 0* S' 5] a9 P* vn J^ u* J* u* {* V7 u* $- 3] h% *= C* 0* {* j) w* P* G- 0* v) u* C* 5] 1* N- 5] %! ./ {* v) 3* a[ *9 a] << v% H- t] s- %< K< W$ Q# d| FO d* >< J* w^ i% w* |< <* o- q^ j] x^ p) v* j- ^* m^ I- {{ l] 5] w- H- H- C{ Q* w% 3] {* u* C* |* w% =9 q^ 9* $- 3] i% G- 7' [* y] 3! Bt &7 d% ~^ e| j$ m^ 1* 1< =! O* {* D* += H- x^ x^ =! #% x* y] t^ o] |< %! V7 C{ h* x^ K* x^ z* $- c< v* Q* 6* += 9* += %! K* w* $% l] -% 9* E^ i* I{ B{ 9* C{ =9 7* `' C{ q] #/ S' 6* H] 7< Vu -% o- P] V* GO oJ HO IO &K ){ 9> 4a O- ~z ~* ~r nu an s* BC `' /u Hu {{ N] e] }u d] 99 l] 2{ U*  ! `' :% >% 2} w& *& JO b5 -/ b] L% /) |] =< $- K) 4/ B] x% K) x% (* 9a i% += ~< #/  / KO a9 1/ (& L% Z^ ${ O% P^ %/ g] l% g] !< z7 A9 N^ $^ r$ z6 6% +% w3 Z$ 7$ '[ >> A! A! r3 O* B* T] ,%  ; [] w3 U{ jt U* m, s* P* &= S^ -{ #; K; w= F' zK ",
"9p QG S' v) g, y] u* )! O= N* q/ Y- S;  ! ~< d- |] w= 5] p) Tq 6| Ei -o ]$ )^ W$ w3 $* >[ A6 D% L% `% 8' l% ~! 3% I- =^ W$ =] u~ sj N- ~< =< B{ =% g] ~< y% -% x% K^ K^ u% v) C{ %{ y] J- w% 3! h] z7 h] }5 2< S^ q2 K* (! 2] w- %! p] u! @% _= 0* S^ q^ w- s$ -% M% m/ t] m^ I{ 0* (! g= q^ q^ =< u* S' <; v* LO !% d% 1[ K9 H= ./ B* w* {* S9 H- 3] {* %! (* #/ w* w- V* %! t- /* |* y] u* 9* x^ {* p] (! |] m, {! N- += ./ h% 7* 6* `* k* }= a- C= J^ B{ 1* 7' += _= w^ 5] %! 3] a, J^ +[ }= w% x^ m^ J^ 5* 0* A- 0! H! !% X# W$ MO KO f] P* d= S^ N- A- p] x* d= N* 5] x* x^ K* J^ C{ `^ C* R5 += P* S^ )- 2* m^ /; v* E9 u* Q' Q* m^ {* b] (* f= [{ j; t] m, p> B] Q' A^ @% v/ H! q% t6 7& 4| c= 2* v) 1* d= A- O[ t* S^ u* S9 `= >< N- J* 0* S^ U] C{ g] L% B- v^ %! `* 3] $- += m^ Q' =9 v- ;) z* B- k* 0* h% <; 5] 3] 7' <* m, p) O= A$ A- w* (* `* ./ 8] K* Q' H- N- #% n- t] f) S< L$ ^$ l} NO }5 B* 0* A- N* 5* P^ K* =- |* j] ek w* d* m^ w* h% {* C{ |< v* c< q^ =- E* p) {* y% I' w% [; P* w* [{ H- D^ =! << C= J^ ]* v) |* <; /* `% k, i$ S& q5 b{ 0; B{ <; =! |] A$ v* S9 J^ %! {* 5] m^ S- p) 3] y] s$ y] x^ w% @% 2} C* w- ,= w- ]* ;% S^ I* 2] {! 0* m] p) x^ *! l] v- |< 6! {{ f] l] N] V* v> |{ Do 5] p) 4< ~! ^* <u |< b] N* l] O] )= X= Xm Ft :q OO 89 P] [{ =9 K] ~z N9 A] ~r D{ W] l/ K] v% }} BC Rv `' _< =l =- y] *! 6! <u v% g] H- }2 K$ `t Co E7 t] &/ ~< 8< y% &/ o] u> w{ s$ U^ S* %{ t! C{ s$ m] 3] I{ }5 B] @/ ~< :% w^ $< Z^ 9* d^ N^ y% x% O% m% */ ]< c$ 7/ d% (% P% n& 0% 6% .! c{ A! .e 0{ =< p) D^ y{ (~ b^ @& T& s9 B* t] S= 5= [{ 4! N* ;; @= k) 0{ PO ",
"ic q* @[ d* 5] >- 1* D{ E* 3* 7= e) S; W^  ! QO J^ l[ x] D^ Lq ]9 v4 _[ 3$ K% 6/ _/ (< !< c$ 4/ D% &/ t! N^  ! W& i% /^ Z{ +$ H; a, |] K^ 6l B] m] 3! Q^ A^ L% ;% b] K* 3] ){ q2 L^ |] y] 2} m3 3] B{ V7 =< $9 >% _% u* B] #/ V7 B] %! C9 n- =- (* (= A* P^ *; L% o> m^ {{ u* %!  / {* a9 C{ w* I- S9 w% S^ @^ wJ >]  0 !% #3 [= B] z- B] B] D^ V7 d< p> A- g] v* {{ `* I{ 1* fk U] i% |{ y] I- a] o- C^ 0* Y^ o- u* 2* w- b] 9* Y^ i% y% d< += '= q^ P* ./ `* c< w* q^ %; w* m^ =- d= 2] J- k^ z7 ,= q^ m^ H* v> %! #& d> M$ E4 '> R[ <; y% B{ U* 9a w- V7 J* [{ J^ 5] _= C{ ]* ]* y% %! $- S' {* B{ %! a[ <* ]* B* <; (* ./ ]* =- Y^ I- 5* r! o- m- += I- I* d= O* a9 H- <* H- a, rO G& ~% (} -| }} /; qq :* g] =! _= /; O* ]* n] p) v) i= f= @% m^ i% v) /* ]* -[ C{ A$ I- A- w* O* p/ [* J* -% 6! H- E9 0* O* %! j* y] U* i% =! =! u* v* I- |* v) ek v* p) m^ =- J^ m^ `* K* v) Q* ~$ .| Y6 5$ i% Wp f= 7* v^ %! =9 3] `* u* m^ V* ]* N* S9 {* K* S^ v* /; -% e2 v) <* w- @% <; i% ]* w% =- /) $- v) v) B{ 9* |* v^ l* U] L% {* v* u* C* x^ %= RO o: !^ (6 () +| 3; p] %- ~0 += {* {{ -% vo u* <; w^ 3] -% ,= u* q^ g] I{ t] i% 2} m^ i% o- |< R5 /; S^ 7* u* n] v^ ./ 6* H* y] 4* 8] s$ C{ V* ,= x^ O- w^ B{ o] +o C] w% J] +C 7* i* S' =l nu J- }u +; 4-  1 (o kl ks ;4 L] r; 4} Yu Ds `] O] Ht ^*  v 2] 7k v> Rt a] =l m3 @% W] /) `* o] {! 8] O^ N9 AC Z; [$ !% .{ <$ x^ 2] L* y% x^ #/ /) @% w^ L^ {{ @/ += w^ P^ -% >/ K^ P^ q^ i% [] W^ a9 SO <% B] 7' h] n% -/ $< :% 2] S% =< F' Z^ ^/ Fq w3 d% d% @& [$ f{ I$ ,6 G6 M% U* E* =! M' `$ a> Y$ +! Y* I- k) A- w* Q* D* q= 2= q= :6 bl ",
"V5 !> k) O= D* `= w- 5] {{ [= .- 0; >> /% 6/ =) J* A* h* c< (8 b1 .5 Y0 #] K$ T% 6% p7 ;^ P# n& 4/ n% x% _% Z^ t6 l* zo |% &] 6{ }/ x% L% w^ )< ;% -% #/ E^ /w ./ ,= 0< ;% ]* |{ u* (* w% b; F' a9 C{ g] U^ I{ p) <n [* H- U^ V7 @[ B{ m, 5] x^ <* h* &/ 1* I{ 6* B] P^ 5] -% 6! x^ N- f= u* ;% U^  < |* -{ %/ 9% u- P: =^ v& b2 b* |* u* N- A$ H* P^ ;; P^  = S9 =! Y^ m^ J* {* O= C* {* H- E' ~> I{ R* n] A= w* R* %! 0* c< S9 `* Q' C{ f= S^ Y* I- {* ^= /; V7 -% K*  < |* U* $- V7 o- 1< 8] D^ 9a S^ {{ m/ 3* ]> R3 W$ ;] B& TO Y^ j) a- <; J! H- m- w= N- v) u* I{ =! }= t* l* /= 4* $- ]n w* {* B] <; =- H- o- u* (* /* 3] O= O* V7 d= $- q^ a] 0* N- $- w{ u* V* P* m^ S' 9* k^ w3 >^ Q# n$ :a {- <; |* p) N- S^ (* d= }= C] u$ y= J* += {! =! $- B* 2< ./ w* x^ <* o- 0* u* w* i% (= 7' @= m, Y* H[ |* A- h% K* 1* (* S^ v) C{ 6!  = .} N- O* y% `* -{ -% {* 5] m, P* S' <; g- 63 0% s{ {0 #I a! << h% C{ i% C9 {* w* |] N* ,= 5] 7' {{ '- D^ x* x* w% t] x^ E' |* K* P* $- J^ += v* w* x^ u* N- E' <* S^ u* 9* 0* x^ 5] <; |* i% 5] a[ V* &9 Lo &{ i$ t6 L) e= &= << h; 9a N- (* z* ./ y] [{ q^ p) Y^ (! k^ v> $- ./ n] o> i% v* t- b] p) 9* l* w- m= f/ =! += 5] {{ v* u= (! a] 8' _< ]* V* ~! B{ o] f] w^ v% ^* E' 6* S* C{ }* 7' x{ a] t* 6! x* b= E2 8u [O UO 8] E{ w- t^ 4! ^* 5y (7 9] t3 Uo l] 7< }* }} )! a] VO C{ f/ w^ l] K^ ^* s$ E9 5] t= B2 J) j/ s9 WO @^ t! l] B{ 3! m^ C{ y] W^ U^ P; |{ v^ 3! i% X^ &/ 6! w^ #/ t- 6! /) |] r$ g] q[  ! P^ a, c> ;% O% h] ${ )> `% _% T% t$ 7/ #^ o[ *& W$ Z; yE p6 ~< [s U* v) ;; r~ /% w3 m} j~ 5] z* !0 G- D^ i* U* A- O' 8= J7 >N ",
"XO >; u> 1* @= (* C= I* *; 1* Q* d) S;  ! ${ YO ZO b= $- =! `O ~2 T: (o 5& '[ *^ J) n& 2& d/ $9 )> <% d/ (< O^ ,[ ~< Cu .& ]& &~ -& |] 2} t! d^ N- x% ar ,% u* |] :% k^ n] C{ `* [[ C* r! ]/ w^ {{ Z^ :% V* @% ./ += w* m^ w^ s$ 5] O* |* Q' v) [t c< v^ C{ 3! x^ R5 B] x% ./ S^ r^ K* S^ w% %! @^ Q' t] s$ O* <o yp lq p6 .$ M: `' u* -[ Y* i% i% i= w- ./ |* N- B] g= K* N- w- B] |9 =! 8] #% R* += Q' V* x^ p> v* ,% 5] -% #/ S^ p^ TA C* h% P* y= C* Y* B- vn K* S^ v* w- 9* d= w* 46 e2 3] y] n] C* 5= 9[ ]* 3^ .5 ^$  7 4% v) 0* v> Q) [* e= q^ C{ C{ k^ K* <; 3] t] V= u* v* Y* c< {* ]* q^ q^ D* B- |* w* }= (* p) &= B- 2* t] v* L* (* <* %! P* k- m^ t] B] D* D^ E] ^* C{ {* 78 M: A& W$ Y$ >/ _= 0* b] (* z* {{ 3] 5] w% x^ +[ Q'  = U* R5 K* N- V* J^ :* %! F^ U] A- x% i* [* J^ I- %= i% '= 0* B- B- L* v) N* ]* t- k^ S^ c< _* m^ :* K* 0* :* |* 0* =- P; V7 H- S^ 8= oc g& 4% !& 15 `% w- N- n] v) B{ P^ m^ m^ -% Q' =! x^ w* S9 =! 0* /* N* v* B] 9* C* a, s$ I{ l* += i% D^ S^ 3] f= C{ |] {! U] %! x^ W) y] N- w* 3] 1* z* '= 7* u= b; C& 0/ 5% Q& W: M* n- w^ L* S^ $- q^ C{ N* o- u* D^ :< `* {{ o> N- << -% J-  = -% -% y% |< L* -% 5] H- g] S^ g< I- I' 8] m^ :% E^ 2] a] u* w- 2] 2] v% E^ S* g= 8] }* 6* _< Z] D{ 6! =9 o] t^ -% '= 1> v2 80 Ft  P u% -% '= E{ o] ~r 6! 1s N] 2] U* '{ O6 U* += ^* D{ {{ w% '= S* l] E' 8< |{ D{ v* Q# /] $^ ~^ er @/ {{ y] :% += 7' ,= w^ E' {{ #/ M) Q^ m] 7* p) Bn %! ./ R5 q2 6' %{ %! 7] g] ./ I{ _/ ${ !< o% C^ S^ }5 S% w3 F' l% n% #& Q% $& i$ d% $$ b{ >^ r> w^ m] (= z* u* ;- h) o3 w& Oo P* J; y% `* <* B* :* S) o- <; E6 >N ",
")L >e D* d= h% x* _= K* 8= l* K* s' S; (% )> J; |< H- D* O*  m e1 g5 %6 4$ b^ >[ j/ 7p 2/ /} l% $^ !< p7 Z^ w% -* br D7 Nl  $ <[ L^ `^ |] A$ !< D% h] 1] `% c/ K* a] M% U* P^ B{ 3! a, U] 2} B] ^/ 6] ./ U^ C- U^ x% /* 6! _= x% ~< += y% T] U^ 7* g] ,= y] m^ 8< $- y] w% i% :% =! 2* u* 6! O= |* i% q^ I- @% |* ;/ 5> n[ $^ u& #{ I* [* S^ w- |] :* @% A- w% q2 |* =! o- 5] /) =! si C* 7* 5] Y* y% 6* (= V7 |9 V* {! ./ u* 3* F! l* >< x^ 7* B* I' =! {* 3* j) q^ m^ si .P z* 0* B] K* {! {{ =! 3] d= u* %= S- Q3 Io X# v, gB Q' D* D* O= w* =- z* A^ q^ Q* *= v) %; W) 0* 1; v) u* C= O* ./ w* 9* z* x^ )- *= l* u* v) B] x^ N{ I* 5] Q' m^ v- l* u* u= V* w* w% 5] 6* C= t- `* ~> =< Q~ +P 0% $$ L2 V= O= p) 9* d= l* }= K* K* u* w% I* w- y] D* |] |* S^ >< [{ I' Y* v* t] C{ P* E* _= P* @= =! I* 9* /; B- y% f! Y* w- m^ z* 0* w* <; <; a- 3] j) R5 5* S' I- w% $- c< D* ${ B2 g& ~] Z; @P C* {* =- y] w*  = J* P* 3! %! n] u* V7 7' V* S^ A- =! w% E* u* /* 3] a] g= H- S^ 6! S9 K* 6* x^ k* q^ w- {* ){ a, b] << 5] K* u> w* _= w% bo S^ 5] U^ #P Z' L$ i5 -| |{ is 0* {* `* =! t- k^ S' |< w% y% f] _* V7 I' q^ B{ (! v* _= i* S9 j) y] <; l] B] {* 8< ,% O* 5] i* S^ J- 6* f/ 9* 7' q- i% 6* C- a] S* #/ =9 v% |< 4< 8< u= v% C{ 2] D{ 6! E' C{ g, 92 r> vb $P <% l] {{ S* %P du v% D{ )! q] /) O- N9 =9 f] Y= /u Cs *! D{ g< X^ >% @/ Q* ]* h] q{ >^ A! h& La w- B{ ~! @% ./ _% y] j] |] b] R* B{ P^ N- P^ B{ W^ w^ $- -% w^ w^ B] @% h] f/ a, w^ j$ /) 6l !< |{ f/ w3 <% (& 7/ w3 h/ $& b% H$ L< R# K9 g{ =^ /7 ZM TA Q' u* x% '- T9 r6 u: l< 0* %; v^ [; V= &= B{ 0* += k* 7r :F ",
"jq 4H N- p) h% :* =! {* w% ]* &= yn `; P^ t$ Y[ 3! 1* E' Q* /p G7 4$ 1! v5 '^ b$ K$ r$ <% h] p2 ${ r$ O% ]/ A6 9% g/ 0/ s{ V& rp 4/ p] W^ 8/ ./ h] -% C9 h] 7] A9 6* 2* q^ o% F^ 7* m] ]* =! $% |{ Q^ o> a, R^ x% N^ {{ U^ 5] x% j] E' 5] [* n- e2 J^ J^ y] |* l] ./ |] 2< 5] p) J^ i% |*  < v^ C* U^ += <; 3] <; 2] u' +$ '^ ~] h& '[ S9 &P is J* g] ~> w^ v* %! 7*  < @^ N* |{ S^ {{ g= p) |* w- y% E* w- h% P* << U] m^ _= w- w^ N- {* 3] D^ P^ S^ _* *; 3] $9 `= u* '= }= v) J^ @= z* 8] D* *= 0* w* J* P< M: j% Q# ,^  ~ P% b] n] m, p/ p> -% A^ [= c< ]* =! += (* Q' S^ D^ ]- ]* /; Y* J* m= v) n] n- (* g= 0* _= }= -% +[ S^ m= n- [* 8] C{ A- {* |* 0* h% D^ v* P* K* F! m^ .} [* <~ 83 S& Q# f5 rb P* `* (* q^ v) |9 C{ q^ w* A$ I{ bo j] `: m^ d= y% m^ [{ m^ x^ c> $- ]* S^ m^ ]* S9 H- P* h% 0* n- w* << $- }5 p) N- u* x^  = C{ 5] u* :* U^ m/ %! |* v- Do %= S9 0; l{ <$ L! )^ Rq 0% A- 0* ]* }= {* V7 C- i% A- <; c< L% m/ e2 f= >0 %! E* w= h% += {* p) y] c< {{ w= i% P* u* i* }= I* i% m/ w% p) x^ E] ~< V7 U] P^ G4 _= 0* S^ ~! v) 7* _/ |] ku K# F7 R} ]> S9 {* Y* x^ m^ E' I{ |{ l] B{ V* I{ u* p] += += l] ./ 0* C* y% B{ {{ v> $- u* {! w^ 0* /; 2} += c> 8< 1* {{ {! 8< ]* 1* -% 8< w^ f] w{ kr 6* << ,= l* y] m^ 6! `] ri 6! b] S* %- R} 57 at *P =P w- S* %{ {{ a] _< N9 v> x- x- {{ 4< S' =9 =9 b] Y= a, #/ c> g] f9 6* w% =P b{ 3% $^ S% i4 +o j] l] &/ {! i] ,= += {{ =& H- {{ {! _9 ./ [t i% m^ @/ _9 z9 B{ -% d^ g] ./ g] un %< B] @/ w^ 8' -% D% ;% Z^ (& <% =% i$ Q% ,[ $& K$ Z& Q% Z; {6 X6 h] o% D= `= '= 5~ r$ 6% U{ M4 R* 6! S^ _* v% *9 *; A= g= += ,} HM ",
".f s| }= N* P^ ){ j* )- B* [= p] r~  > @% ^) s~ -% m^ q- w* rl d1 H& ~^ N& v6 %% O% `% (& O% |] O% L6 l% '% x% `% N^ J$ W$ %5 M' N^ z7 U] i% Z^ &/ B[ _q B] =< 3] N^ Uq $9 C{ O- h] d! 8] w^ #/ ek |] u> ;% n] |] 7* u* Q; 5] S^ 3* 6l y% y% w! w% (* }< w* #a m/ TA `* Q' %! a, -% x^ a[ _= U] <* <; u* 5] C{ {{ += @% }8 o6 X# 3$ (0  - I{ :* u* S^ @% e= D^ 1* p) A$ z9 i* 8/ `* B- B{ P^ w- Q' u* C* K* v* a] ZO o- B] q^ J^ m, =- _= <* $- =- )- V* 0* B* 0* v) H- ]* U* G* -% (* z* U] J^ 1* o- -{ g] 5] || s{ 7$ x/ Ku B- /; fk S^ 5] ]= 3* a- %! H- N- P* O= I{ G- d= *9 z* 0* ]* V* W) M* >= V7 ;% o> =- J- z* x^ ]* g= {* V= S9 ]* P* u* {* #% A- K* x^ z* F! {{ $- a9 d= (* U] #9 -P %] l& '^ H! .= S9 A- S9 |9 m= J* U] P* N* J* w* 3* Y^ t] m^ u* s$ u* W) u* Y* {* 2* O* w- y% S9 p) _* m- -% }= p> b] 9* B- S^ u* I- u* w* C{ @% <* V7 y] $- 6* q^ }= j] k) 2* F& C} M! s{ {} 46 w% B] p) U^ a9 7* u* << z* k^ u* m^ 7* (* `* m, m^ <; 5= ]* $- 9* 7' %! << K^ D* P^ p) N- << %! B] n- K* E^ :* E* y% {* i% i% x^ << K* {* 3] x^ @[ J- 0* 0* i8 M2 L& >^ m} .^ w* A- {{ A$ e2 B] |< m^ <; '/ I{ @% V* S^ +9 K* m, 2] N- v* |* Y* -% x^ m^ {* (* u* F= [{ u* S^ |* C{ t^ `^ d* kr |* H] j* 8] H* C{ w- p) t! U* U* J] C] y] a] v^ C{ *! x% m2 j= 92 `[ v7 &K l/ p) {w f] E' _< C] I] O- V* w% J- O- 4< l] V] f] S' D{ N* w- += 2] v^ U* S< /^ b$ w3 z: ;P D' @% m/ ./ 2} x^ W^ o> R5 KO x% d^ u* g] /) '= %{ v* ,= c> y% m^ 1/ c< k/ =< h] U^ ;9 M^ C[ 3[ a, h] 3! @/ q[ a> j$ b^ =& $* q% '6 E[ !6 $&  > q5 ,6 3o U^ I- !* y% d, $* 6% N} E) l* R* >P C= C{ C{ u= {* u* N* F- :M ",
",P ^G `= T] m^ f= '= w% t* m= x* I= Y; O% @( 'P 1/ N- P* V7 t< <5 W% ,6 j} 6% '^ S# 0/ <% o3 (& R^ $^ `% g/ )> )P #/ dL {% -] }> }/ ]/ `: d^ c> w{ 0< m% B] $< M% D% ;% -% p] ;% L% V* += K; ,= 5] o% >9 j] 5] ./ `^ l] m^ W^ {* d^ v^ ;% m^ :* C{ V* m^ /) ek x^ N- m/ -% bo w- B] [* N- w- 1* -% 9* {* w* ,7 3* %! C{ h[ M$ {% %] s4 z2 Xn m/ i* A$ _= Q' m= w- y% 9* =- z* $- 9a |* J* B] -{ (! w* |* 1/ u* q^ 5] d9 w% w* u* K* i% Y* $- B- E* D* C* w% 5] x^ 3! h; x^ C{ =! S^ N- $- |* }= i= y] a, ^= /3 4% _^ -$ !P `% [k 9< d* k) Y^ A- u* @% D^ $- /; [* 0* q^ {{ S^ u* (* 8= q^ K* n] k^ (* 5] 4* I- B] [* m, %! v) a- P* <* n] w* I- #% w^ 7* =- s^ [* o- b] O* (* R5 R* U^ d= a* O= H# M! -& _5 i3 J! '= S^ 3] v* S9 m- 5] R* N- Q' {* d9 m^ q^ x^ d9 S^ S^ v) 0* C* w* m^ w* +[ &= Y* i% z* R* i% $- t] m, L* 2* g] *; 0* =! m^ =! S^ 46 |* p) C* t- 1< B] 3! ==  > 3% V4 5! ~P V* m^ '= =< y% }= v) <; d9 c< v^ -% += H- Q* x^ c< L* O* m] |* B- w^ o- 5] k- t] B{ j] Y* S^ w{ C* l] 0* y% %! a, v) |* q^ e2 _= w% m, P; w- B{ <; 5] O* ek '= W^ bB D' ;* [$ (3 R= {{ h% {* x% p/ 9* B] m^ _9 w* N- 7* |* B] $- y] ./ y] S' %! v) I{ A- i% m= B] M) B] w- 46 3] y% o] d^ kr c< 6' w- a9 v* @/ @% -% 4* W^ K* L% +o h* #/ x- v> ./ a] o] E' p) _* &3 {P K9 ]P 7' |< J- K) K) @% A] 6! 6! S* _< e] 5] d^ Fh v> 2} O] 6* 6* `] `* b, o] f{ :^ B# B# N& Z_ yt y] }/ -% 6/ h] 2} B{ E^ 7' S^ @% 3! s$ 5] 2] =! 5] u* ./ y] m/ B{ t- $% w^ 1/ ${ L% d^ 2L 4/ $9 e2 `^ y^ N^ H$ 6/ #< i$ </ $^ .! b% (< (6 ~^ a{ ]6 ml D7 y% D* p^ L% Y: 8' K$ {& Xe U* O* V* =! @= C{ d= 3] s, 5* b^ ^P ",
"1u k; J* m^ <* 8] 5= D{ h% 0* d= 8= `; @/ // 1) x^ a; 5= B] lw e} _5 /P n2 k$ $^ 4% #& O% p$ (& A6 =& +% ${ t! 5$ '= K$ W$ Y& .= _% i% $% D% 3! St M% y% c> L% E] 7* _% W^ ./ w^ +=  ! U] B] /* !< O* >9 x% 6* u> y% q^ 8< B{ m^ U^ 5] |] p] q- S* z* 5] c< >0 -% /) y] w% += p> |{ 3] B] J^ 9* E* A- /; m^ 0* 9* N- z^ (P _P 4^ !6 .& '3 a] +n U] J^ N- m^ $- u* m^ 1; y% /= {! I- |* n- W) -% a] 3] 5] y] V* s^ K; 0* 1< H- %! t] D* c< =! v) e= d= u* t] ]* _= {* q= m^ S) C{ ;) h% S^ D* K* p) 2* H' W$ V: t6 !% :P ]= i% 3] N- {* z* 0* {* e2 %! /; a- (= D* P* S^ 5] (* v* J^ F^ w% 1* ]* 5] I- w* 0* h% v* 7* =- p> K* y] S' v) f= w- << Q' w- 0* u* '= t^ ]* *= 0* J^ S^ v) ,= E* x^ si Vk !] (5 >$ %1 5* k) A- 5] '/ /* G; 0* w- a] D^ N- 8] |9 J^ m^ p) /; z- w^ -% 5] P* m^ 6* E* 3] 5] I' {* K* t] h; w% i% f] m^ O= 5= ,= (= Y* H- {{ 9* |* B{ C* A^ m, =- `* -$ hl $$ q% y' .( x^ {* k^ K* 8] i% v* 7' << {{ ^= m^ m/ m^ m^ Y^ n- N* v* p] N- N* B] {{ m/ B- 9* q^ *; }= C{ 0* F^ X* w* ~< Q' l* x^ 5] I{ 6* v* += @% w* += Q* .} V* N- 0* m^ 5] R! (0 V$ P# v} j% z= m/ w- 3! U] 5] K^ A$ 3! 5] <* -% A$ m^ $- 7* w% 1* S^ y] 6* 6* C{ u*  < t! S9 Q* C{ m, << ,= m^ S^ b] m= m= V* w- /* B{ u* t* S) N^ 3! #/ a] fx x- w^ t* q] o] w- {{ e* 7= i{ L! .  <P q^ g= v% B] ^) n> E7 D- S' l] E' >% >/ 6! N{ {{ '= w- A] C{ #/ @% w% b{ ~5 '6 J7 :^ [P }4 ^* 6*  ! << B{ g] k^ y% E' w^ g] @% 7* |< y] B] u* =- M% @% u* %! |< F9 3] =& v^ }5 Z^ (< L% J8 w^ R^ S^ Z^ Z^ F' <7 K# <0 <% p$ 7/ '6 !% W$ a$ B3 v5 S& #^ 9a b] q- %! p, /% A6 M& Jp $- m, 9* ]* z= 4= V* h% B] M* u6 mN ",
"ku 4- Wp [- ~0 E9 A- A-  = {* ]* 0^ B7 `% =& 8{ z7 ;{ H- U^ 8C ]9 ~5 !% Z{ E$ o3 Y& 7/ o$ |/ ${ r$ 6% 8' L% =< 8/ D* Al V% w6 s{ }P o> U^ x^ 8/ B- !< P^ y% br t! ^) @/ 7] w^ V7 |{ %! m/ m^ h% 6! Y^ u* 6! B{ /) ./ |] @% g] t- B] N- 0< y] q^ u* =! h% ~< g] c< W) {{ x^ q^ q^ d= m^ k^ J* [* -% R5 C9 m^ P* ./ t] @= @% 2& @; ~^ >$ |P S< /! S9 I{ <* 5] K* =! t! 2* n] q- e2 w* V* c< {* B- w* 3] p) ){ |* B{ i% v* K* d9 {! h% a, fr t] (* 5] N* m= j] *= d= C* V* J^ {{ 9* w= S^ V7 w] 3* w- 0* j= P{ $$ 2% T{ 1P g] B{ n- #% z* C* N- z* z* P^ s^ *= d* Q' :* u* A- I{ u* -% p> (* a] %; 0* p) N* w% w- _* z* _* ^< |* N* S^ z* 0* 9* 3] p) I- g= v* -% O[ s$ 0* 5] w* I- m] S^ v* a] ^= 4/ {! vh X$ z} J2 ]* 9> Q) O[ `* z* R* u> p) w* `* 5] J^ m, ]* q^ O* `* u* d= '= i% e2 m, y% %[ ek |* m^ t] (* C{ i* c< y% l* R5 g] 9* K* q^ z^ y{ %! 0* R5 d= v> C* %[ A= -3 3% n$ T2 D4 ,7 o- t* += 3! v> a, I- F^ d= N- u* q^ J^ J* {* y% S^ <; <* I' =! 5] H- |] v* D= ^< S^ $- _% u* -/ w- m^ w* w% q- x^ N* c< {* /; {* v^ $- %/ D* {{ q^ w- ,= Q' 9< I- w^ 2P M9 E$ u5 ~3 2* n- m^ H* |* c< -% 8] #/ 7'  < y% w- x^ |* n- {* '= K* F^ a- m^ o> S' P^ ^* += w* <; i% ~< |* y% ,= {{ 0* Q- L] f] 3] L% A$ B{ f] |< U* O] 4< 6! |* u! a] 8< f] S' cu x* c* h9 K4 ,t 3P ~/ )! +/ ,= o] _< #/ =l ~* N- p) >% |{ (! C] v> p) l] N9 E{ y% B- pg W6 s{ ;^ @$ M  0& l] @% w^ &/ :% c< J- {{ w^ s$ |< w^  < :% B] g] s$ 5] x^ k^ C* q^ /) w- L^ w^ :% $9 2} t! @% @/ x% L^ 4/ :% h] j$  ! >^ r$ eB w3 p$ d% G$ k$ !% -& e> S& b> =< r^ t* d= |{ p, c> H$ '3 #f m= Q' ]* 2* p> :; )= b- 7= 4! 06 gK ",
"1u j= 9* R* h* N* G] [* A* v* k) _> S; B[ j$ f) >/ u* 1* 5] `7 ta R$ .& +| M! 3% 4% K$ K{ B[ 0< g/ O% L^ l] U^ :% Oo k& $^ W6  > 7) Z^ @[ K) Lw I{ z7 I{ >/ a, w^ H- U^ ^) y] S^ @% }5 5] N- `: @% -% U] t! ;% w% t! U] |* _% h% s$ 1] :% x% %! 2< =! S^ {{ 6* 3] z9 9a w% {{ u* S^ {! d= p] =! =; &= <; O* 7* m^ E' w% 5] C{ f~ U; *& 2% 4P v6 {* Jq {- S^ C= q^ N- >< {{ a9 |* v) t- v* e2 0* g= =! J* _= Q* =! 9* ;) .- m/ /; -% 3* 9* ft _= V7 K* <; w- g] l) %! N* y] P= ZO B{ R* `* C{ (* J^ m- C: z} |[ b^ $< 5P {* E' +[ o- q^ z* x% w- z* o- Q' m^ A- t- p] x^ q- v* h% 9* C{ {* A- ]* I{ 9* V7 d9 3* (* N* J^ A- N* S- i% o> <; h% i% S^ A- :* %! h% U] {* H[ {! h% V7 2* K* s$ P* h% ){ Fo t: {% P# V} D- a- v) t] q^ m, }= *= V7 8] {{ A- 1; s^ B{ C* C{ <; 7* I* s$ 0* z* :* C{ S^ /; vo p) x^ O* }= %! jr 3< d[ U* B{ t- w- m- v> 3] i* 6! $- z* N* y] *0 e{ k5 D& L! }8 f% |* [* m, =- m] C* |* P^ N- =- =! |* D* t] y] g] >< =- !< 5] w- x^ D* U^ j] N^ {* 1* '= U] D^ @[ I- $- Q' i* `* m- V* m^ ~0 v- 9* m- N- B] w^ K* P* q^ q^ 8] K* N- -l s- J^ v[ o3 3% Q& Y% {* m^ B] t^ M% %! N- m, B] (! 0* v* J8 P^ x% J^ K* C9 e2 S' @^ q^ v* m^ 4] += U* E' v* U^ m^ 5] t] C* @= j; .% 7' B] f/ ~! C{ (! ./ y] {{ I] X^ c> ~* B{ E' ~! x% w- V* i- `< Ll J) b~ ./ A] L] ~! f] _< B{ u! 8] D{ B{ t$ 6! 5] 1s v> t! c> t* ,% E* q{ :5 ]^ `$ 5% 3u w$ {{ |{ >% 1/ E' c> =< O% b] {! 2] += t! =< {* `^ w- m] B] 4/ J^ ./ v^ L% @% 3! `^ i% :% t! 8< }5 L% `: $% @/ h] =} a, 6% 0< 0% ${ *% $* q% b^ T% Q% M!  > [$ ~^ j/ C9 (! J^ -{ <- )> $^ ,l K~ u= ^< w% }= m= (! z* `= p) 0* @& 6P ",
"+A P) p> m^ E* q= (* O[ K* t= K* k, S; +% a, k' O* 5] x> @= 7P g| 1| s{  5 ($ G$ %^ `$ O% w3 }/ $< &/ !< `% n] y] m~ F3 J) .& O} d* q[ %/ I{ ~< 1/ U^ q] U^ J8 -% C{ %! 3] P^ 3] k^ 3] 3! 5] 2] m^ }5 C^ ./ /) o% w^  < i% B] 5] ./ _% y% m- %! E* I{ e2 T]  < %{ S^ ]* s$ =- := $- 8] 5] u* (! [* 6* S9 w- ek S^ |< O* R* C{ 05 Uv g$ P% g5 N< Y= v* 0* O= B] K* H- H- $- 9* ]* <* (* 0* *= d= W) ./ D* w- <* A$ C= @% {* v* `: /= m^ }= ./ h% /* v* m/ K* .- <* N- u* vn 8P m^ N- =! m/ m^ (* }p l] Q2 q% _^ X2 {8 += t* s$ D^ k) =- i% [* ]* V7 {* i% P* D^ a9 L* P* v) e2 .- Bs l^ $- O* 6* $- i% *{ w- u* j; ek z* v* `* Q' C{ x^ g< y% {* J* d= C* n] {* K* 9* 6* N- E] K* I- 2* I* A^ C= a] 9P E~ X6 =^ ~^ G2 |- a[ ]* /* o- W) B] N* @[ V7 v) 0* v) [{ V* J* s$ g] w^ K* v* $- 9* I- 9* D^ {{ {* N- -{ 9* N- =- d* w- z7 C{ C* N- {* Q' =- z* 5] o] C{ S^ 6! .% 3| S& J) t& o' 9* p] << (* 1* /; qq i% _= Vv N- i% `= n- N- J* b] 1< B] += /) %! N- B] P^ (! c< |* n- (= ;) 2} V* z* '= m- h% e2 D* /< u* {* |< 46 3] i% m^ M] K* =- u* y] u* N- u* 8] <; -% 78 ;| Y& [$ W2 {{ O[ i% 9* Q' I{ C^ V* w* {{ 3] b] :* I- ./ 5] 3] `* l] f9 {{ A- m, J- ./ +[ m] w- t- f] B] b] j] w* V* {! b] ~r x% :% U* a] x% t^ 1* I{ x{ B{ w% c> a] u> 6* u* {! H- U- &3 0P ,t YO !/ p| )! t! /) S' S* :% |< r2 u! h* e* O- 9* S% w- 6' l] s* /3 W< y6 Z$ %6 yp ]& p] @% 7' 2] N- @% x^ h] v* t! '= -% L% =& @/ d^ ;% v^ B] <;  ! 5] N^ J^ =! s$ $- y% %! x^ @% ${ =} =< _% ;9 O% =< $< N^ a, $* >^ O% '% n% !% b^ <a $& *& `; ml .e Z^ ]/ '- S9 Y* >! M6 b^ ,3 b~ h% 3* C= p) 4* p) i= @- t- t] p% vL ",
"aP 3{ A- 9* u* <* H- 1* o- (* h% _> Z; 0/ x> =) |* S^ ]* $- ]s 0| g& L! () /^ u% u% 7/ S% k/ 0< S% ~< <% {{ h] ;4 <* V# *& .& ;] ,] @% w^ 9a y{ a, m^ C[ g] $< |] _q %! !< x^ o% y] H$ N* f/ v- L% 5] A- A$ u* `% t! m, w- I{ %! k^ /) x^ @% z* P^ << I- N- q^ P^ -% |* ./ &/ L* l* {! a] 3] B] 5] x% 3! w- u* 5] w- R5 I{ ]* `* u* i4 /} }] g& N/ -- 5] =- '= 5] o> v) d= -% U^ ]* *9 y] u* B- += R5 y% (* t] m^ w* ^= m^ l* t] -% g] h; P^ h% ]* p) h% {* {* w* k) O= 7* q^ D^ x^ >% 2* m^ a[ G; (3 _^ )% S& Sd =& [* {{ n- 1* ){ I{ p/ ./ S9 9* %! %= }= |* (* `^ ]- {* i* i= Q* N- <* C* w- x% v* z* 2* O[ h% 0* .} S^ w% w- V* S9 h; :* w* p) `* O* V7 Q' c< i% x^ p> oF +a f! u* [* V= 0* N- q- >= ,3 K$ {9 v} yl v) *= S^ C* w- t- H- g< t- w^ u* t] %! v^ S* =! 5] C{ p) m^ N- 2* {{ e2 -% U] o> z* K* << 0* =- {* k^ w% S9 N- _= N* =- -[ y] E* 6* |{ <; :- H! E$ W$ /4 18 L% |< C{ (! Q* m^ p) 3! V* }= I- 7' 6! v* (* '/ u* 3] {{ m^ @% c/ I- `* q^ I- q^ {{ |* 9* Y* [; += <* |* u* v* 3[ y] {* Q* *; u* ./ w- v^ $- p) i* _= ,% 5] {* Q' i% ]* t* 46 i% !< V7 B# k& L4 W: g< n] U] W^ bP I* m^ w- B] p) S9 |] 0* p) $- B{ Y^ '= A$ a] v) 5] c< m, {{ 0* S* y% x% `^ |* -% J^ u% `* %/ K^ A$ Rt ^* E' ^* ^) %! E' 6! b] h] /) cu 6! @/ += B{ u* == R| v6 qh cP h] E' ^* N* C{ ~< s$ 7' J- -% L] o] t* U* h] p) D{ 5] }= V; k& )% *% ^^ lN Dt d^ |{ C{ t! 9* %! /) <% ~< t! a, K^ Q^ Q; += W^ _% 7' m% A- L% A$ B] V* 2] 1/ B] |< ;% += /) :% e% _% t! 3o E6 w^ =< x% L% O% S% 8} $& `$ o3 K[ i$ =} ;] ja l{ /^ dP $< S9 x- :* U* P< )> g/ `} 6s '= _= ]* S^ l* z^ y] /= u$ i* =} !{ ",
"ku /k B- (! I* u* p) [; q= /; L* P! S; ;9 %{ VD 46 O[ ^= %! eP s} G& 57 v4 5$ K$ h) r$ 2/ r$ t! d^ =< <7 ;% b, #/ h^ nN .^ '[ Q# (3 P; R^ // P^ I{ 2] w^ ;% z7 `% _% Y9 p] J^ 2] |] x^ q^ ,% #% >9 I{ x^ 3] i% B] ;% s$ ./ V* I{ i% q^ w- w* V7 p) t] u*  / y% P^ u* w^ g] N- %! v* J^ u> |A << q^ 2* N- w^ 5] m/ w% 2< |* 5] @% f/ fP :[ P# '^ Q2 x- n] i= Xp q^ += b] y% S^ |* m^ 5] *M P^ V7 w- K* K* D^ Y* g= V* 5] 1* ]* 0* J^ u* h% $- [* b] l* Y* x^ 1* I- =! %! S^ i* q^ u* u* _= =- 1* */ h} :$ =^ Zn k< i= w* $- w^ |{ i* S^ I- k) .} S' v* J- I- a] z* t- S^ p] N- q^ q^ B] 0* P* x^ k* a] 9* |* S9 m^ t* m^ <; C* p) C* 0* K* V7 xn C{ R* s$ A= += ]n w^ *! i% (* t= w* H- w- -% g= p/ 5] `% gP Y4 %] -$ D3 '- u* e2 s^ $- %! l[ S^ m] |* @[ z^ d* .} 8] p) ]* :% <; w% #% N* {{ V7 /) <; {* 8* .} w* 7* v) U] S^ 5] 8] N- ./ j] u* A- w- x^ w* p) p) X{ hP P# Q# -% iP |* B] 0* << |{ u* Q) 6* m, <; 2} (! u* z* t] [* $- p) %! q^ S^ z* _< 9* F^ >< m- $- `= S^ e2 v* t] %; `^ w- W^ ]* s$ z^ 9a i= a9 `* ,= {! =- w- |{ N- 5= y% v* S^ S9 V7 w* g= <* <; Td !3 Q% W$ N} $& F^ F^ P^ |{ C{ v) 5] I{ U] P^ }= B] $- N- 5] y] ek S^ ~! `* $- =- P^ P^ S9 B{ q^ Z^ #% $- 8< C- v> E^ w^ w- u- << @% o> {{ 9* B] ./ l] V* N* u> J- w* S] e2 J] f; s* c^ =^ y6 jP %! Y* >< u! 8] j] i] Q5 C] {{ w^ b] J] y] 8< w^ i] }* 92 )4 M! >[ >^ dC ^$ P; I{ 5] m/ m^ ./ '% g/ B{ z7 @% w- ,% 7* v* X^ Z^ b] c> J- &/ 2L L% #/ =< {{ o] kP -% 0< ,= :% :% u! J] Z^ ;% !/ %< d^ N^ F' b^ S% L^ S# D% K$ m% $^ %% '6 Q# S< >^ lP %o w- p) g= p) i, yl *^ 04 *O 0* B* B* m^ x^ f= v* J- N- S^ qc mP ",
"jq /k D^ w* 1* (* M* z* ]* U* ^= 1) k{ `% z6 &~ Y* A- J* w- 1F L5 )^ r> (5 0% e$ D% $* -* e& 0< m3 =} w^ l% %{ B{ i% nP :3 B# i$ :5 I2 S= @^ C- L% H- Y^ @/ u* y% /) x% C^ x{ @% J^ ,% 3! N^ 2* o> ]/ B{ z7 U^ 9* 7* b< y% 2] o^ a, h/ S9 m] c> y% E^ r^ J[ :% m/ x^ N- :% {* <* {* m^ U^ B{ += %! p] 8/ q^ x^ m^ B] x^ u* C{ U^ << =% K* q[ &* .$ 9} ^; o- t] H- e2 3] 5] =< += -% {* m^ N- A- |] v* D^ (* w* += R5 v* 6! (* p) 5] B] v* q/ m^ m= (* h% 0* 1* D* p] U] A- w% {* J^ m^ =! '= D= N< '[ >$ Y# %8 =& v^ b] N- ]= V* K* m^ S^ |{ 9* += w% +[ :* k* +[ m^ (! q^ :* b] n] 5] H- 0* g< N- {{ =! ./ h* S^ <; (* i% i% j- E' n- f= y% 9* H- w* }= K* 9* v- (* b] 1* _= P^ S^ 0* 6* O* `* p> |9 ]* F^ g$ ^^ /^ 2^ X6 u* `= m/ u*  ! v) S^ 5] z7 -% #/ w* x^ u* 5] g] K* P^ w- 6] ^* P* << (* N- n] D^ S^ += O* P* m- =! p) J* 5] 9= x^ C{ {* v* +9 9* h% 1* #3 f% d% +3 =C K* a, -% g< u= b] $% 5] |* K; u* o> x^ ,= d= (! m/ m^ A- P* t] v* N- O* b] I- D^ A$ << N- |* << *= 9* ]* 9* u* H- p] O= |{ 3] Y* -% 2] (* ;) N- c< ./ 5= ,= m^ U* v) |{ c< '= x^ u* >< w^ +r L& |% .! p{ == Ep y% s$ 7*  / {* {{ /< u> C{ B{ ./ n- U* {{ 3! o- z^ 1* u* 9* t! w- ,= {* s$ 6* e2 8< B] u> +% (* g] U] m/ C{ w^ c] -% E' y] m^ K^ 8< {{ I' '= E' ,= v^ r* %; Q* #6 (} T5 oP #/ ~! 1] /) l* 6! `* ,= ./ s$ R% B{ b] F] V* %! 0- E2 b4 J) B# E5 pP p& 5] 2} :% %< w- /) C{ #/ 2} z7 s$ += B{ 2} :% y] 3! |{ !< 6* U^ %! t! }5 B] 2} I{ B] B] m% E' 5] x% %{ ;% y] %9 D6 3! O% @% L^ 6' p$ =} w3 |] @/ 3% B[ P: >^ [/ }] d{ X6 /^ $^ E9 Y* C= /* 0! o$ $& i4 f~ Q- ,; `^ oF  - <* :* C{ [{ `* J7 qP ",
"zK w; j) E* {* :* 9* 9= >= B* C{ (; S; %% G] r) w^ <* <* -% ]u C} n2 `[ c} 9% '^ w3 p$ %{ 4% (< q[ E% O% !< ;% O% {{ C/ q< E% E$ %r Z' x2 [s %/ '% t! /* U^ ,% z^ s$ w^ ${ |{ U^ i% 7* y] u> ./ B4 W^ -% B{ U^ ./ s$ m] y% 7' B] u* p] += w% g] ]* <* y% ~< N- |] J! %! {{ w^ w% P^ 8* a9 |{ 7' 0* <o _% S^ I{ p> |* 3] {* 3! p) N- u* /p e{ &{ q% m} d! v) m- z7 w% =< U^ I- V7 =! B{ :- A- -{ p> m, <* O* D^ `= y% |* w% C{ J* B] 46 h* 8* 0* $- a[ 5] J^ u* 3! m] Gh {* U] Zm q^ h% ./ (! v[ () ^$ QK qM A- w* C* z^ Q' ^* h] bo L* C{ I- v) D^ q^ U] F^ o> ]* O* }= C* k^ %! w% (* C{ q^ V* y] (* =- a- 9* A- b; =- R* 1* w% ]* N- << ]* w* m^ C{ <; a] u* v* Q' I- C* I- h% 0* u* [; @= O= C- S^ :% l* rP Q: 5% /^ b{ A* v* m^ J^ z* u> 9* (* |{ y] $- (* n- p) f= B] A- D^ %! |9 J* %! V7 P^ q^ /* S9 {! m^ 5] {* ,% 9* 8* %! {* 8] u* S' W^ /; 4* <* J* Z' nl |% Z{ ;0 sP w- #% %! g] J- 0* J^ Q* S^ |* V7 I* <; m^ K* ,o %! z* K* w% N- w* w* w- b; 5= q^ m^ V7 x^ =! J; += Q) w% (* `* A$ z* (* ;% i% I{ Wo m^ ./ |* R* (= `m =! 1/ @% x^ d< V7 v- q^ [* ~> 7' =; tP x/ i$ g& /& .7 At |] I- c< 7* ]/ B] T] B] 5] += t] o> R5 v^ U^ B] {{ %! S9 |* Y^ {{ U] 5] 0* {{ |{ 2} y% x^ *9 w- /) ){ 2} u* 5] u> {! d9 V7 u> x^ V* z{ N- w% H- M) 9* H- l] m- S< [^ D' uP B] W^ vP 6* 2] z* C{ $- h* B] E^ 6/ c< 5] /) )= m| p} ;6 L& b% wP S$ m^ 3] -% U^ A- w* x% x%  ! t! n] 1/ @% |] a, {! k^ K^ |< @% g] s$ y] w^ y] W^ U^ U^ w{ a, f/ s$ 5] ./ Xf $% +% u> :% -< $9 +9 O% )> ${ +% ${ =% b^ 0/ r$ d% p$ D' s{ c{ (5 ml g/ 9* /; m/ 0* h= X< A6 :[ xP '{ f! 7' _= {{ 3] {* V* L* $- r3 l2 ",
"Ud L7 Q' <; h% l* m= D= H- u* 0* 7> @3 u% `$ nO I{ k) (* A$ b: cc 1| s{ Y{ X# ^^ *& M! 5$ `% `6 C# `% <% `% 1< f/ _/ U^ u; J/ $* |% s{ D2 rJ Wo x^ {{ y] S% x^ y] i% ./  ! `^ /) 6/ |] Y^ c/ w^ y% y{ `% P^ L% ^< m^ q^ U^ 5] =% 7' P^ x% +[ U^ C- oF ./ w* $- w- w% B{ S^ g] J* x% H6  / s$ v* 3! s$ u* w* e2 0* {{ u* w* 5] $- a[ |* :v `~ v6 9% G& E2 P= w* w- m] +; y] B] /) += ./ F^ `* h% S^ p) z* a- /*  < J* 5] G4 U* o- c< (* v* %! L] m- v- J^ C{ t] 3] |< u* ;% x* v> ,% C* A- 3> b{ :$ R$ 4^ B< p^ {* h* _< f= n] t] w- a] g= w- %! -% 2* 3* w* 3] w- =! w* 5] m^ v> Q' {{ <u C* n] y] m^ k^ 0* _= 1* P* << v* 9* w* O= (! J^ J^ m, {* <; N* += w* (* $- v* 6* ]= 0* P* p) C- v* V* z* w* 3] d= +% n- s{ A& v4 Z' >! k^ {* ./ _= o> C{ q^ t] #% Y* J^ 8] n- v) 3] x* 3] -%  ! 5] @% q] U* Q' _% x% O* 3] c< *9 $n I{ 0* -% =- u* += 5] Q^ K* i* 5] #1 .& '^ '> G~ '/ y% V7 v^ w* 9* =- n] w* U^ t] V* D= -% |< t! 2* x^ ]* w* i% Gh 9= q^ w- B{ z* p) 7* (* A-  < S^ B{ m- c< {! 0* S^ H- |{ _= =! p> (* B{ B{ {* g] %! v* O* N- h; u* 2< m/ w- 0- C* 0* t] y{ Q^ b: 0$ M$ v6 Q2 B{ N- w* p) g] g] V7 A$ {{ 5] D^ @% 4* g= q^ y% J^ P^ 6* m^ z* B{ x^ 2} e2 v* |] N- %! c> p) B* q- x^ i] -% d^ u! y- |* :% += K^ {{ {* @% <o S^ E^ E' <u i% %! M- f| ml ^^ yP S% w% {{ V* B] Q' Uq 4< += L% A9 h] << T] q- G3 w& >$ y6 j% y| B5 8< |{ +/ 8' Z^ ]/ o- )> y] 2} 3] {{ L% %! $< L% `% {* s$ Z^ c% x^ g] E9 l/ w^ B{ _% E' B] s$ B4 3] %{ 2] a, @/ W^ c] m] q] &/ E9 U% o% w{ 6/ 2} g7 /} +% Z^ $* %^ W$ W$ x/ [$ zP E% R5 Y= ek ek AP 8} $* Y4  ~ t* K* E* d= B{ w% y] =! ~- p/ %^ ^P ",
"BP $u D= {{ K* =- S' w% k) U* 2= >- S; o$ %{ 0> &/ v* a] U* on T7 #] W6 Ei <$ $^ t% E$ -& b$ l% ${ l% w3 O% N^ Z^ y% 0< =& CP ~[ K$ !% #* a{ [{ y% != 8/ h] Q; S^ ;% q^ ;% 3] x^ V7 7* y% s$ 3] %! 6l g] t! h] }/ c< c/ J^ y% ,% A$ J- S^ i% 9* q^ g< V7 u* e2 8] m^ S^ c< (! x^ 9a I] d= w* I- w* K* 2* K* Y^ q^ p) W) S^ C{ t] 2] x^ 6* X! Xm K# {% z| _[ p^ DP %! (! B{ x^ e2 V7 Q; l] m^ h% 0* A- A- L* $- <; &/ n- @= [s i% R* l* %- B- R* C{ =! w- @[ 0* D* 2} V* {* ,= J^ v) t] n- 5& /5 ~] P# kr S# ^< n- v) n- G= 5] |{ Q) $- 5/ &= ){ :* v* Q' k= 2< S9 O= q2 %! {* 3! c< %! v) m^ w* v^ m^ C* v) L* /) N- =! 8] S* P* O* 0* += c< P* y% [* w- S' v* _* v* U* /* << i% 8] J* A- ;% w* @% K* l] c< <; Sd #3 z% 5% o} += .} y] S^ -% += ;/ u* 5] m- +9 t] V7 C- 9* -[ S) $- w% u= C* c< <* =! 0* v- u* z* j) .} S^ N- |* H- |{ S^ J- w- @[ ./ 5]  ; h9 W$ @] [4 EP 2} C{ s$ (* e2 P^ 6< %! ]* s, H- 2< m/ Y^ }= /) B{ =! w- B* i% S^ '/ x^ R5 %! 5] g] K* %! {{ {{ n] x* l] p) B{ v* u* H- 8] q2 m^ i* E' k- v% $- 5] c< k^ %! S^ B- v) m^ {{ o> %! {* << S9 h% j) V* c< bn @& -* 7$ {[ V= 9* @% w{ B= w- 7* l* 3] w* c< V7 V7 [{ /) >< g] P^ B] m- J- C{ {{ g= |* ./ E^ O= B] w- 1* 2] l* += u* S^ R5 U* v> B] i* A) f/ =& B{ u* w^ c9 y% {{ I{ Q* w, ~[ '^ ca FP O6 ,= P^ %/ <; ~! /) y{ B{ 6* >< g7 v* ^* GP (] i$ T% '6 ra j& @% ){ =& t! W^ &/ z* 3! k^ q] |< t! J8 x% #/ D{ L% /) (! s$ a, ,= =< g] >0 ~! _% _% 1/ w* x^ !< =< 3] 3! += c> Y^ F' [/ y] W^ >/ L^ !< N^ ]< =& F' -& Z^ c$ b^ i$ 5% d% {6 a{ P# `[ a> Wt M* v) S^ <q 8} t% Y$ K! {* |* `^ 9* 5] 1* S* K* (! N- A6 vL ",
"HP >; J* 9* |{ 2* (* N* w- n- p) Y- `; f/ Q; IP ;/ `* D- b] JP sg B: #* `# M! K$ ^^ |% ${ 3% 05 (< r$ e% |] &/ |] @% q] Q; Nl 88 )% n[ s{ ~5 &3 7] 05 |{ A$ HB B] C^ += =- y] 0< += 05 C* 2} 6* `^  / i% 2} $< 0* N- x% N^ d^ 5] t- d! G9 m] 5] {! T] C{ 2< -% 1* I{ x^ h% J9 5] E* ./ w* {{ I{ %! n] y] S^ J] z* F^ q^ q^ 6* C{ u> m^ += %9 &v ~5 W$ P# ,> B* w* b] |] B- w* w^  / B{ v* ]- S' s$ Q) U] (* o> R5 s, R* u* 3! }= ;) ]* U^ 6* w- {! =- {* I- 1* 5] 46 u* q^ |* {* w* =- ]= W2 .* %] '> @. j] *! += y- I- h% u* p] ]* Y* `* <* _= N* N- V* S' (* <; x^ += i* {! w- 3] t] u* =- 5] j] v^ U* {* 7*  / A- $- $- 9* C* l* V7 x^ /* B* $- 8] 0* A- J* w- @[ p) n- K* v) [* t/ << 7* v* {* ./ K* S^ :* `: 1F .* Dh Z{ %1 '; $- J* x^ E' %! R* ./ B] *= i% |* i% %! n- D{ '= K* S^ <* 6* (* := p) b] K* z* t- J^ <* m^ ]- L= D^ 46 R* w* += w* D* J) N& ($ S& R$ _* s^ x^ S^ 0* v) p) h% O[ ek 0* C{ (* =! p) =! S9 (* %9 =- 1* w* $- V7 q^ B{ m- A- %! B] S^ c< u> O* C{ ./ ~< y] 5] E* -% 6! N* C{ d* C{ m] S^ {* S^ G- a- -% Q^ A- %! {{ w* U^ 3] P* J^ N* -% :; V* x^ KP t: b% W$ h& Z^ c< |] {{ |* a] y] I{ x- V* $% ]* h% S* h] {{ << >/ i* J-  ! 3! #/ w- |{ L^ @% n- g] @% u= w^ /* 7' Fg o- h] x% s$ 4* ,= B{ {{ b] 2} 6! p) << {* %! S* P] i= e{ b> M! R; ^) E' 5] m, l] a] w* P^ B{ u* += U* i* O2 i} S& /^ M! V! p7 i% W^ O^ ,= @% B] B] {! Gh S% ./ L% ;9 0* f/ a, c] w^ P^ d! a, R^ B] y] y% z7 U^ U^ >< y] L^ E' S% e% I{ B] += a, J^ O% p) %< 3! @% P^ '% O% >/ D% B[ A9 i/ (< H$ B[ A! ^^ i5 c{ (} 70 D% ;9 i% g< 9* pH .! 6% <& zq w% Y* K* o- u* Q* 5] p) 0* v* /% bl ",
"8N O; S9 5] /; 4* =! d< Y* w* |* K' S; :% (< ); 1] d= 1* U] y< f1 B: {9 LP f$ r6 [$ S% S# n& F' $9 6% =< w3 )r [/ 4/ l% #/ %/ z7 L= -/ /^ K$ 44 i4 S) J- &/ N^ }/ :% u* u* @% 8' w- x% t! -p Y^ i% J^ ./ /) -% @[ S^ << y] ./ |* x^ S9 u* v* v* _} w* B{ N- y% a9 z{ ./ @[ _= C{ x^ a] S^ u* `* ]* J* w% V7 $- m^ 0* {{ w% B{ I{ S^ 5] {* != m, B& M$ |%  5 *& S9 t- u* /) 7* t] -% Q' y] @[ S^ w* v* A- +[ 5] }= p) += 0* 1* y% f- O= d= C=  = 5] I- Bn t] m^ 0* S^ N- y% |* J* w- m- $3 hl (5 =6 d7 <% m/ %! q^ a, V* m- %! z9 L* y% 46 =! 2] ,= m/ q^ v* {* 9* u* q^ _= Q' a] {* y] S^ w% C{ S^ v) %! ]* m^ u* z* C{ H- %- 3* C{ H- {* B- /; J! d= L* V* m- J* Q^ `* 3] x^ a] $- .} B- *= y] e2 S^ Q^ h* Y^ %; ,; !! >$ A5 S} h] l) W^ P* Q^ u* u* @% LL m^ 5] v* {{ u* B9 O* 0* V* 0* t] U* R* {* -% =- 5= 6* K* h% m= P* A- m/ m^ -% m^ {* G4 S9 e= I2 G& S& 75 MP #a v) w| et R5 P* I{ l* E9 A- a] q2 ]n I- i= (* J* w* v> z* V7 }= V7 u* (* 9< y{ <* J* w* S^ x^ Q* q^ @% 5] Q' 6< S* y] D* ./ j) 2* `^ 9a +[ +; S^ 5] N- `^ ~> c< m^ 8] 0* += P* R5 U^ B] O* F! 9* w- o- 4/ NP J) |% {9 Kt G= b] w% J^ m- >9 c] @% K* m^ 5] |{ u* w% U^ 2} E' x^ 3] -% Q^ h% q^ h% #/ c> 3! $% b] C{ >< p) l] a] 5] L% c< Q* 5] g] |< |* A- V* N* 2] S^ << 0* 3] B{ b* T; L< /7 ]a 5] o] E' @% oF &/ ,= L% ~< :% m3 I- a0 g} E$ ^^ S% OP PP 7] += |< L^ a, U^ |< L% 8/ += Q* {! =& += @% q2 =< $% g% z7 C{ |] @% y] :< B] ,= ./ 2} B] l] @% a, _% !< w^ x% i] d^ N^ L% B{ p^ |< :< )< '% 4% 2& i$ ${ )> l% q[ <6 B[ b$ v6 .! O< QP (o `$ E* (! Q* i- ~- o3 ,/ +$ s9 5= Y* m- E' m- {* y] d= '= S9 RP kw ",
"E| zs *= a[ 0* B{ [{ K* '- b* S^ #~ `; 0< C# ;[ 6* p) O= t! jI .2 {5 Y# ~5 3% d% _[ T% r$ i$ O% 5$ (& >/ O% L% l% <% t! F' C^ r$ {n NN T% Q# W$ h| k& S^ @% 9% U^ S^ c< w^ {{ 3] P^ |] ./ /) A$ ,% B] {! <; G4 y% J- @% @% g] e2 t! v) Uq ,= b] 5] 3] 5= _% p) U* =! += C{ N- 2< w- B{ s$ L% y] w% w* 4/ b/ -% $- i% S^ %! v* u* {{ i% _9 <; += ]8 a} P# v& `2 6* A^ h% m^ %! <* l] k^ y% z9 w* b] <; q^ R5 B] ./ g] s^ $- 0* %! += S* G4 3* '/ S^ V* '/ S^ u* 5] ]* B{ {* tq {! %! o> o} ;$ :5 S; ^~ K* A^ 3] o- {* m, m^ P* u* (* E* V* /* w- x% -{ J^ v* (* v* R* A- V* 5] m/ *! 4* {* g] w= |* m^ C* {* v> t/ 0* += P* 9* G9 `* R8 J- L* D* B{ b] x^ V* |< oF V7 a[ (! x^ m^ q^ S^ (* t! e2 {* {! <* p) S* w* u> SP y[ 0% _5 :a U= ;) -% z- 0* S^ Y^ D^ 5] H- h* _9 t] h% 0* ;% g= P^ p) m/ i* S^ S' L* E* 0* S^ w- K* a[ ./ 3] w* <* A- A$ v* [= 3|  ] S& R$ h* si B] H- f] <; {* o- A- ,= a, A- 5] A$ $- {* 0* =! -% C{ v^ =! q= 9* t] m^ p) q^ w= 3] t] A- 0* D] (! =! |* =! w^ += H- {{ q^ =- B] `^ q^ n- 5] S* /; {{ n] U] K* p) 3] f; $- ){ U] m, m] $- D^ w% U* 9* 0* $- TP 83 ~] %r Z{ #* d9 S^ u* O* t] C{ `: 2] 5] B* <; C- K^ Q^ 5] m/ =! t! R5 :% i% E' J- 3] B{ z7 d^ ./ q^ ~< x- p) P* ./ o] a, q^ w- K* :% w- a] 5] i% :% l* U* 9* H- B] z= f{ 80 {9 9u $% }5 &q a, J9 C] O% Q^ 3] Gh /* 84 $f ,6 3% Q# nh ($ )! L^ R^ F' c< ./ M% S9 <; !< -% C{ y] ~< =< U^ g= v^ ./ @% @% E7 =< L] l] 6/ h] B] B{ y] ./ @/  ! ~< 3] >% `% E^ =< ,= a, y% `% L^ t! x% k^ )> =& +% `%  6 o3 b^ 7/ t% 1& D7 b% [^ W; M! <] *& <n 6! E] ,= 3~ J7 a> H# 4~ a] t* Y* 8] N* {* H- ,7 y] T] @& -0 ",
"'* B; H- 9* a- 2* {* m^  = :* a* .) k{ L^ L^ M' 9* l* m- v^ UP #| ^q L$ q5 W$ $* Y6 Z& I6 p$ `$ D% !< 5$ d! 7% ;% ]/ 3! `% #/ B{ +% VP Oq K# %^ [$ F2 |] &/ |{ %! =& G^ 5] !< B{ 3! a9 A$ q2 z7 '9 #/ 2< :* y] x^ x^ 9* `^ S9 N- y% i% p] /* 5] %! #% g] w% 1* R% @% i% C{ V7 5] q^ 1* u* D= U] -% x^ '/ v) C* w- ./ 5] A- x% I{ D^ $- |* x% @= WP g, K# n$ Y{ ^| u* 0- l* &/ $- [; '{ a] t* t* H- u* (= 1* @= w* 1* z= )! K* [{ ]= _* [= [= V* 4- 2* q/ 6- d* 5* V* 6- x* e= S- i; `2 j% ]& `# XP a, u* u* N- ;) m^ *= `m N- k^ Q' @[ x% += W) t] R* ]* =! |* ./ m, t] O* @= m] R5 m= z^ B* A- h% {{ N* H- {! N* h% -{ 5= w* (! `: d= [; A- U* $- w* J! m- 3* v* w% Y^ H- a- a- 0* -% S) y] g< B- i% v^ 0* P^ _= 1* )< 2/ d% ^$ +| &] H- V* B* 6* S* l* 7' $- ^* S) G9 E* `' $- U* -% q- @% w- Y* $- r2 v% p) {* u* N{ t* Y* E* w, Q{ V* ,; *! C= V] @1 f$ {9 e> u8 S* @/ 3] k^ z^ s* m, i% I' H- o> o- %= h% A- w* x^ J* a- C{ P^ |* m, C* j) v* m, (* S^ I- m^ (* w* 4/ U] S- f= ./ $- YP =- h% /= @% |* I{ C{ @= w* Q* C= hb gp y% C= S9 s$ w- F^ O* |{ m^ =- y% u* z* K* >< >< 3% B| t5 K% (5 D3 B* y% y% {! -% A$ t! u* N- B] <* S^ C{ B] p] B{ Da q] |{ {{ N- C{ I{ V7 m^ q^ u! f] {* w- x* ./ q^ h% C^ ,= 7' B]  < m- y] (* y] $- 2} U* w- q] w% 9* b= Q: .! 'a Xt x% +9 E' 8] 3] t! ,= 2} v* '= 2^ K| ~^ X6 Y& ;= L^ w^ g] y] #/ @/ w- s$ E' |< }/ X^ u* 7' ]/ |* B{ >% q^ 1/ ~< ,% h] 3! A$ ~! 2} !< H] {{ W^ G- 4/ t! 3! #/ #/ K^ $< B{ P^ %9 %/ $9 D% j] f/ _/ H$ ~< N^ >% @& p$ l% #^ p$ ]< K% ql Z& s{ #{ {9 ZP i$ `P (! V* 0* ,- ^% =} i3 s9 N* S^ j] C{ m- N- w% 0* x^ m, t$ :F ",
"oA >* y{ a; y] /) |* p) %= n- V* Z- mc Z& >9 j' S9 g] G= A- a8 N8 L9 W{ V4 i$ c$ +% {6 @& d% |] P; ,[ .( Z^ p2 g7 A6 M6 }5 8' |] 3! 7!  Q f5 i$ Q# v5 ~9 %! ;9 -% u! ./ $< ;% x% L^ z7 |] ;% q2 N- C^ w^ g] V7 B{ w* U^ `% 46 y] B] t! q^ y^ i] a, B- U* m^ (! B] L* m^ e2 g] -% a, 3! x^ u* x^ %! (* {{  < w* x] j] J] x% a9 += {{ i% _* -{ S^ M% W~ ~3 V$ *6 w& a} Z; `; `; G2 V; a{ c{ q{ k{ Z; k{ G2 Y;  > f{ b{ c^ p{ a{ N< S; x/ b{ Z; b{ c{ k{ b{ J< O< f{ c{ Z; S; c{ S; c{ h} 3$ >$ t5 xu m- h% w* u* p^ (* N- 0* q^ m, '/ i% x^ I{ G- (* v* a9 v* H* n] '= u* (! g] 3! 5] P* S* 3] [* |* C{ 0* += =- C* @% I' y% q^ L* 8] H- 7* |* V7 fk K* O* B* 3] =- K* I{ 2< `* 7* w* h% l* E9 K* S' _= f= B{ N- ]- {* f! .Q 5| '[ n$ 14 Q2 U2 Y< p{ E2 %3 Kt c^ c{ J< b{ >> x/ p{ >> N< l{ :a B3 N< Y<  3 ]{ f{ #3 J< :a G2 G2 b{ G2  > c{ >> h>  > J2 Y4 S& n2 +Q !< S^ w- ~< J[ 0* (= ./ h% ^= U^ xn %= S^ ]* v^ `* =- *= c< =! 8] m^ w- N- d= ;; N- j] E* |* I* 4* w^ z= d= P* w- d< v) d= 3= *{ 0* U* w% p^ f= ek x^ << $- J* I- 1] |* D* y% A- {* E^ i* z= x^ w* v) O* g< A^ f= l* *= d$ .  (5 -$ B# 9a 7* 4* Z^ w% H- N- N- (! A- ~< D{ q] C- @% |{ 3! 4] v^ -% B] f/ t- y] #/ y% |{ [t += x^ 9* {! B] {{ E' T] -% d= v% j] J- U^ u> t- l] v% E' 6* K^ :- t: -^ Mq ;~ U% S- d^ S^ @% N- B{ o] m/ %{ In }] t5 7/ d] 6% %{ @/ c] =l z7 ~< P; y] c> B] @% L% U^ 5] 0* {{ U^ x% I{ g] 3] :% ./ 8/ 89 1/ a] L% m/ U^ >/ D{ t! O% l] y] `% =< w{ C[ !< Z^ |] o$ ./ c> t! x% /% u% x% (< !/ D% p7 %^ /% w3 o[ Q% th j% /3 !^ M9 E% $% H- t] {{ o' ;^ $^ Z' %~ m= u* y] y- 0* _= 7] d= <* '= *4 t[ ",
"1u Q* v) +[ 0* (* {* R- 2< k= (* b* S; !< t$ '~ K= ]- 6* += y< 20 X{ '^ 1| K# [$ /} *& $* %% (& L% )r 4% u% O% @% N^ ;% Z^ @% =< w- 5] @Q #Q r3 VG p7 '5 H2 -{ N^ p] -% k^ @/ 1/ i% w- 8/ m] B{ i% t^ K) q2 P; =! i% u* t] y% S^ u* B] 5] 3] A$ I{ y% x^ y- w* x^ ^* ,% V7 %! +9 g= u* q^ (! ./ 2< x^ m/ E* m3 N- 6! H- 3! w% p) B] m/ m^ g] G9 u* N- Z& N& j% z% p& ~% L4 rb :$ ~% +* >6 '[ f$ :$ U$ X$ {O W$ j% %] 7$ G% rb h$ |[ j% :5 ^6 s6 a$ n$ !^ 7$ '[ J# :$ <$ .& .& )% }% 1[ .& %] }] q^ y% z* %! O* I{ N- <; Y^ o> N- 0* w* v* 1* M% ~< =! Y* 3! P* 0* -% @% H- $- p) w- (* u* u* 9* 46 ./ (! C{ 1* u* |* 0* O= u* <; H- O* Q* w* S^ C* E9 A- 9* 3] 5] <* 5] 0* P* :* Zm 7' {{ z4 Zm K* =- d= h* 6* V* U] 0* 2{ 9} {9 M$ :$ z% i: 5% M$ E[ j% s{ %] P# R# P# l& ($ L4 !& E5 k& E$ 2% Z$ X# S& S& !& S& |% f: j% S# P# S& A& X# #$ A& ($ P# :$ ~% a{ 6- |< .} y% $- P^ p) y% J* {* 5] C* C* d= D^ J^ 5] d< N* ./ A$ 5] {{ e2 `* V* {* A- 3! u* 6! S9 {! y% R5 D^ {{ I- a- J^ {* k) l] J^ O* K* w- J^ $- |] P* -% c/ C- I{ 3! g= -% h% S^ ./ O* |*  = G9 J^ |* s$ <* F^ u* m, h; d^ D} %] 0% f* 2& y{ R* ,= u* _% %! 0* q^ H- {{ y] %! B{ ~> 3] 4/ |< w* ,= h] u* S^  < U^ B] 5] U^ -% B* C{ 8] /) {! 5] x^ += c< -% ,% :% {{ K* y% 6! o] E' |* x% B* Y< b^ L< O: >/ y] $Q :% t% }5 ./ >9 B{ U2 K$ >^ #< $$ %Q P; 6! @% L^ Q) %! c> 6/ x% 3[ x% s$ a9 3] ./ d9 t! y% /) y] @% #/ o% w^ += /) x% ;% y% J- q^ @% i% @% 1/ B{ B] G9 i% R^ E% o% 1]  ! x% 6' |] h] U^ 1/ >/ k/ `% c% 0/ L^ ${ H$ $* b$ `6 S# v5 `; '[ |[ $& C{ 8= x* Q* $v  ! j$ h& N! (= m^ b] k* 9* B{ w% z* C= {* 8' YN ",
"1u U- (* v* O* (* y] N* V7 l* t* @) >> F' ^) .{ S' m- 9* -% TK b1 () v5 1[ S# 5% L$ ]6 =< @& ,< .^ [/ H$ <% L% +% $9 /% #/ /) `% 3] w{ O% A- -& 0{ 3% >$ E} h| H- 3! y% W^ f/ U^ 3] M% I{ g] K^ K^ =& 7' 5] _* S^ 5] -% y% P* B{ P^ U^ 2] %! I' w* 3] g] S^ ]* w- g] H* @% m^ n] {* 1/ s- s$ {{ <; u* u* h; %! B] @^ 9* ;% += a- 2* @% b] |* w- w* 7= q{ 1[ (5 N/ S; S;  > >> Z; .> `; Y; S; Y; O< S; +> S; ~[ V; W; `; c^ &> Y;  > Z; S; B7 T; >> g{ S; H! `; m{ S; S; S; S; T; X; ]& P# i: Br H- z* V7 (* q^ m^ |* S9 S^ c< J* w- 5] 9* m^ 2* w% V* ,o m^ J* x^ 5] `* d9 m, d= O* 5] u* h] 5] p) J^ N* u* u* $- ,% t- O* H- S^ c< %! 0* (* N- m^ O= R* [= V* _* 0* P* y] w* J[ O= 0* j; |9 C9 R* 9* =! f= Y^ G- J* '; a5 |[ W$ ~] h{ S; Z; S; ]{ Z; k{ S; S; S; .> S; `; Rp S; S; `; T; Rp f{ k{ `; W; T; S; Y; S; S; S; S; T; S; S; S; W; S; S; d> i: A& <^ |4 ]- ,* f= <; V7 w^ m- N- v) S^ {* ,= v) 3] N- ./ a9 `* (* N- S^ J^ P* S^ i% S9 l* -% 5] x^ e2 v* x^ C{ '= Q* n- o- {* [{ (* B] @% {* Y* u* {* z* 7' I- w* (* ek 9a _= Uq t^ jn w- v) -% z* g= m, a] 46 u> u* S9 w- w* j, V; F& 9% @e w8 x^ H- w* E' P^ ./ h% V* #/ y% V7 a9 3] J^ %! B] i% L% ;9 5] {{ H- B] x^ c< w- c< m^ i] u* K* @% o] x^ {* B{ q2 S* o- a] S' L% i% g] E' U* 1* )! ,= _* {0 t5 {9 dB 1/ 8< d^ U^ {{ x^ p) P^ 7= 02 <$ $^ S; &Q Z^ @/ a, I] 3! w- l] ;% C{ |{ B{ '= @% y% ./ :% L% += u% {! t! 3! q] y] J- q] y% x% =} U^ _< N^ !< I{ ]/ L^ (< D% q2  ! t! s$ I{ L% N^ g] _% e2 1/ x% @/ m% ${ E% t! p7 [/ *^ #& =& ,[ 5% 5$ }] Y; =^ `[ 5%  / '= y% |* W' $* m% @4 *Q l! *= F^ B] Q' x* U* {* L* v* M7 vL ",
";H g, b0 3= u= U* -% C{ ]* u! a] r~ `; [/ $< i) K*  = <; u* Td =Q () k5 () !% ;6 $* 0/ y6 P% F% -Q L^ ~< t% |] o% x% L% x% t! 3! 5] |< 1* [t ;Q C4 4% -& :5 d3 Y& i% N- H- @% z7 {{ }/ m/ t! a, a, @/ C- R^ t] t^ += h] {{ ;4 w^ I{ p] 6! ,= {{ 3] t^ (! (* w% U] A- V* {! ;% h% 5] I{ O* Q* p/ B] N- <; 1* B- {* fk f/ w* += i% v^ ./ += w^ .}  = T& ~5  7 ~% dH >Q Jd ,Q Yq 'Q )Q !Q ~Q ^J {Q ~  Yq ]Q ^Q |p [P /Q E0 ^J Ic (Q Y  _Q :Q ^J ~+ ^J <Q [Q }Q }0 #n Ou y0 1' |Q 1Q ]Q )/ _[ *6 R# M: ,! J^ K* $; s$ l^ m^ += =! d= += D^ =! I{ Y^ E* n] %! _= $- e2 5] =! {* S* H- m= {* v^ v* z* ]* K* 1* =- S^ 9< N- P* q^ 5] {* N* N- w* B] P^ {* h% A- t] J[ Kn t] m, N- A- 3] m^ ./ y] O* v* o> S^ P^ l* C* 46 {* fr m} b% W$ X2 2Q 3Q +. 4Q 5Q 6Q 7Q 8Q 9Q 0Q F8 J0 Vc DO Oc F/ MP vc Nn Ez 5  aQ D0 8Q 4Q Dc %8 bQ 9Q 1p Ec cQ V  dQ #r J0 eQ NH j% >$ [$ s! P* c< m/ C- m, w* ,= 9* =! I- %! u* n- w% I- <; $- E9 V7 q^ y] u* S^ x^ Q* u* $- q^ N- v* H- w- N- q^ K; O* D^ N- A- 0* %! _* h% [; J^ #/ 5] l* M) {* y% += V* w% |* J^ D^ I- -% q^ 0* t] -% v* @/ S9 s$ q^ t] gs @= c' c7 /} !% u3 8/ -[ ,% 5] *9 _F _% -% w% w^ m^ U] Y* 5] u* w^ 6* B] @/ q^ S% 9* p] w- I{ c> |{ b] S- <% u* n- /* I{ q^ w* i% I{ |< 5] 7* u> c> B{ U* <o |{ {{ 6* )! /; a{ =^ (} fQ o% U^ gQ c> k^ 5] w^ Fg )= c7 `6 ;^ hQ :$ w* x% 1/ ./ |] 1/ 3]  ! #/ ,% :% 7] R% Z^ _9 _/ |* w^ q^ I{ s$ w^ S% 3] v^ w% ^/ A$ w3 Z^ L% ]< q] |* L% 8/ 2} ;9 3! c> f9 -% x% H$ J-  ! @% `% C- w^ B[ `% F' ,= -* t% =} (& -* */ H$ $* 0% K$ k{ [$ hq *^ WO D* B] I{ p! )> #& >| iQ y% +; x* 7* E' =! m^ 5] $- h% ;7 jQ ",
"b6 7{ _= R* m^ D= ]- w- V7 J; 0) s= S; F' /[ 1~ {{ R- m^ |] B< X} j} g9 ~x !% P% `6 >[ K$ 7/ 5$ r3 0< @/ h] g7 u% `% U^ `% f/ 2} o% ]/ si U^ T% kQ B/ >^ !^ u5 N< %! r^ 2} [] ;% {! a, 8' 2} !< d< #/ 7' x% += %{ D^ 8' i% b] g] %! p] m/ L% u* &/ p^ m, 0* S) o- B] n- =! |* w^ Q' (* -% K* C- %! i% 0* u$ n] |] w- l* 3] f* m^ ;% q^ ,o x^ i= w% tg F5 [$ lQ S~ Q* _* ~> U* <; B* T] /= :* )! _= a! R- N- K* E* l* 5* _s 6* (* t* M* O= x- _* t* V* 6! q^ E* A* ;g J; >; =! k* x^ mQ {[ v5 {6 74 o> P* K* N- a] #% l* a- $- y% << 0* %! 1* %! /; S^ ^= *= z* x^ ~! {* S' y% N* w* -% A- =! 1* D^ z* _= e2 [= ;) m^ x* <; w* Q* <; B- m, i* x* (* 2* i= C= t* (* ]* m/ C{ t] N* v^ =- += J^ {* *; H- w* u* -% *= v* S< !6 '[ {} 9G w3 2* )! .P A= B* j= 5* g= C* r- u= 8- %- s* D* m- _= e] _* m2 [{ x- _* {! %= $- Rv '= $- {{ ]*  = cv g= |s 7' w- <& ^$ d% %] p{ J; =! m^ E9 d9 |* w- =< w* v* q^ c> *! $- A- n] 7' C{ x^ N- m^ m, v* J* E9 g] p) {* 5] <* n- {{ u* (! S9 5= <; n- l* h% S^ S^ u* 2} S* 7* =! {* 9* q^ b] x> O[ _* 0* }= w- ;% 0* S9 m^ L% =- S^ q- x^ u* a] h% <; x| xp P# _0 -P d^ i% x% v^ -% X^ w- S^ 9* o> }5 Q' W^ q^ 3] m/ %{ 2] P^ @% ek U] 6* ~< w^ N- <* 3] N- u* w* 0< z7 v^ C{ S^ 8] l] m^ B] 2] P^ i% 3] {* T] a] C{ 2] << F{ X2 =^ ;* er H$ ~< {{ k^ o- _/ 6! P^ S* tc :$ l| m~ /) h] x% v% |] 3] r2 x^ 3! q2 {! x% d! t! U^ P^ '= W^ S^ v^ |{ o$ x% y% g] B{ :% += U^ x% $- _/ s$ ^/ 6l :% ^/ o% @% P^ J^ @/ p$ 8/ !< #/ a, d^ x^ m] A6 |] S% _/ r$ F' p$ [/ r$ N^ b^ $* A6 Y& Q# b{ hl 70 T% 5/ q^ (* |< 7) =} t% 94 {~ m* S) m^ g= g] @% l= a; U* #/ /% >B ",
"O7 == 0* fk >= 1* 0* (* =- C{ h% 8- S; n% D% nQ U^ 5] u* (! m8 51 %5 [^ e5 Q% f$ 5$ $^ -& V6 <% b$ [/ #& 1/ q[ [/ h/ m% |] @% a, P^  ! C^ 2* {! ;$ oQ H& E$ >$ Y# N< H' n] R^ 7* B] W^ 2] j] B{ 1/ U^ }5 s$ B] m/ m= k^ ]* l] %! B] t] += 8] c< B{ L* a9 ,= G= k^ ,= t! a, U^ y% p] w- S* 4* Q; w* w^ 7' d* {{ w% 3] u* u- w% B- B{ h% V* C{ F! a{ !& F5 P& w8 m^  / $- I{ @/ x- h% |* v> E' w- v* 5] 3! H- h% J^ C* w* `^ _* I{ F^ y% 5] H- N- v> 3* K^ v* i% N- K* i% 0* S9 Q' m- +$ `c ;] =^ s{ Zn o= V* P* N* B] Q) i% u* 9* N- z{ {{ =! J* H- 0* |< j] <* w= v) H- V* U] h% C* t- 8] q^ *; B* 1* |* O* 2* 5] E* N- J* 2* {* I{ %! i% (* t] {* O* w* `* 7' N- 0* u* '= P* J* 2* m^ 0* v) {* Y* ,= -% J^ m= U] ^) u} W$ !6 84 (~ e2 a[ 5] C{ o-  ! m^ {{ (* si vn e* >0 @[ h% ;% S) A^ P* /; $- n- q^ ]= += x^ t! R5 6* s$ 7' %! b] ;g n] d= @[ y] Uv 84 F& 7$ y2 )> `^ D^ 9* A^ $- N- {* y] {! y% w* 3] 3] #% S^ C{ B] $- 5] H- <;  / o> C* D^ J- Q' un d< c< u* M* ]* q^ {{ u* <; =! n] ]* 5] `* 9< C^ S^ <; w* o> S^ m^ R5 3] l* <; B] N- p) 3! += C{ E] B{ ek 0* p] m/ p) W= q{ >$ .& Y4 u8 pQ V7 B{ g] s$ :% w^ br B{ += 0* %! v* |* y] u* n] i% U^ V7 += |] a] 6] 2] g] /) O* x% (! v^ x^ q^ 3] j] w^ 2] ~< u* += /) 6' t! |< v) N- += w- {{ S' += 5* b{ L< .& 6N 6/ ./ w{ B] f/ %{ t] m% Rs L< p$ E} j$ p] #/ a, ~< ^) y] @/ A$ B] 6' t! y] J- t! =< 6' _% U^ x^ =& t- w% y] B] {{ f9 1< s$ y] oF |< @/ J- x% L% W^ q2 t! 8/ `% 2] un B] A$ ~< $< `% xb @^ h] 1/ S% !< g7 $< S# P; e% ZM S# =& Z$ V6 =^ Q# `; I$ .! )> S^ /; *= q^ d, C[ P% C: Nq {! 8] '= %! C= %! t- p^ 0* F= ;7 qQ ",
"rQ .= z* 3= l* w- m= K* I* R- <* |> O< f/ C# (; Gh 0* b= {{ sQ ea y) !^ }6 0% L& 3% @& Z& J$ /% 7/ _/ |] D% A6 _/ 4/ ;9 =< ;% y% s$ =< x% g] z* E' /$ O8 -* >^ E[ p} z2 p) U^ 8/ Q' =& |] t! J- Q; &/ k^ _% 5] << E6 Q' -% /) S^ k^ @% w* U] c< @% 5] y] G9 u* I{ t- w% t- 4] 9* L* N- K* y] S^ h% q^ w% 46 P^ (*  / m= k^ k^ 1* m, w* `* B- H$ w& ($ Q% S& H- a] 3] b] i% |9 w% u* o> $- 5] b] |* {{ w* oh 5] 5] w{ 0* z7 w- F9 ,% +a Y^ C{ .} 3] q^ e2 b] -% N- 4* B] 0* 5] u* x^ C* +e c^ b> M! Z' *^ 9= q^ i% (* _= B] /* S^ e2 v> S^ p] f= 8] y] 0* m, m/ u* E* c> += m^ [* U] D* R5 I{ q^ I* x^ :* 0* B] p) |* @% -% J^ |* 3] 2* P* U* P* 0* }= :* H- K* C= 1* `* ,= 3! h; O[ 8] |* Q' z* A= S' m- V7 {{ ~- N< X# q% D$ 5Q |] 0* S^ 5] 9* -% 0* N- y{ D* P^ E* N- w= _= B- p) -% _= `* 8] U^ K* w* U] 5] S^ E' b] H- |] %{ 2] 3] {* p) h% Y* '= m] Q* B# '^ |%  1 w= V7 t- P^ v) S^ w* P^ %! 8] A- 5] p] P^ P^ n- u* =< N- 0* K* m, I- S' 46 3] d= R5 p) {{ |* >< =! I{ p) {* I- p) 5] k^ v* E' B{ w* k^ 8] y{ =- N^ S' O* p) p) += j] S^ u* ./ _= w- -% q^ g] {* B] w- *= {^ x2 t5 s{ ;| Z- y] i* 2] ;% 5] U^ m^ |* |] += |* ]* v^ P^ N- y] R5 |* @% ,= =& ./ v- p) K) A^ 5] o% ){ 3] B{ += K* =- @% c> 9* 7* @/ 2] {{ C^ += S^ @/ >% 3] 7* ./ w^ b] Q- U; S& M$ tQ z7 l] m^ P^ J- t! x^ ]/ := Ks E$ V} E' r2 c> W^ c] t% 7* ,= 3] h] :% 89 |] J- p/ _9 B] 7' {{ @% g] /) m3 :% U^ ,= Bs L% t! ,= _9 h] 2] g/ c] @/ >/ Q% W^ B] 8/ M% |] Z^ a, 2} ;% L% s$ ,% @/ #/ 2} L% L% 8< p$ <7 S% A6 Z& ${ f$ >^ '6 ;] S; [$ p6 _7 p/ _* )- V7 U~ b^ ^% H# Y5 Y* a[ U^ m^ $- S' |9 (* S' ./ :6 :F ",
"uQ 4H += u> u* l* U^ e= x^ _* q= j= `; j$ L6 vQ r! v* v* u* y< l3 j% G5 k& ($ ~] {% *^ )> P# $& )r B[ O% (& +% W^ q[ r$ |{ h] C{ x^ a, J- =<  / m^ B] >/ L& @& P# Q& {3 zE -% 0* q] &/ y% d< A$ f/ :% 2] 2} += @/ w- t! C^ P^ e2 _9 B] `* p] R^ += (* P* Uq v* B{ e2 D^ 3] $- i% V* B] 50 w* N- {* |] y% 3] (! ./ |* `* <; 3] B{ -% 2< v^ g-  > *6 3$ o: b8 p) {{ D^ b] |< 5] g= B{ {* G4 Zm g=  < 7* O* i% i% m- H- |* 0* 46 x^ i* a] U^ |* S9 K* i% |* k* w% S^ 7* U] 5] U^ q^ S9 S* 2/ $8 Z{ )% f$ Y< w) ,= u* ./ U^ w- w* 9< <; Q' += t] E9 w= t] h% m^ R* K* 2* 0* d= D^ A- w- i% x^ L* a[ q/ S^ n] q^ (* y% a9 w- 0* v* J* =! E* @[ d= =- w* u* R* `* O* #% ,% 1< V* S^ y] +[ %! E* %! .} {* J^ (* @[ A* y[ _5 #$ -^ ^$ 1* B- 6* `* {* V* w- R8 d= `= q^ y] P* S^ w* d= ./ <* ~* N- K* a, R* m^  = =- 0* P^ |< U] {* :* l* ./ #/ q] K* =- {{ =- u= xh d{ K$ :5 v} j% (* <* C{ z* =- v) c> {{ ./ o- u* 1< 3* u> S^ t] {{ }5 x^ 3! += D^ S9 K* ]= =! >< J[ P^ m^ {* |* P* z9 <; V* l* e2 P* =- P^ y] 3] w% S^ K* u* (! :* t] J- i% C{ P* W) g] I- ;% 5] (* 6* |* y] )! [* E* `2 -$ :$ B} jH U^ w* |* B] (* ~* i% I{ C{ 2< C* S^ w* h] ){ d9 ./ v^ h% g] &/ C{ 5] C- |] ,= @% |* w% ./ w* W^ (* x^ t- w^ 6* b] w% B{ @% w] m/ t^ ;% S^ 6! Q^ += |* y] ./ E* E2 ~^ .5 e! _q @% C] U^ h] '= b] $* v- (} /^ J/ L% t! ./ S^ Y* Uq L^ B] v% D% `% O% @% -% y% x% S^ %{ /) |]  ! @^ !< ,% ./ B{ A$ :< x^ a, W^ @% P^ (< b] 1] u> '< $% |] F9 |] =< `%  ! {{ s$ 2] @% 0< /) !< =& 7/ m% g] +% 4% c$ F' #^ K$ k/ *& K$ !% f{ J) hl `$ o^ /; C{ S^ 7) n& #& B} Bi x* v* 2* S* w* (* x^ J^ F= |* #< *K ",
"'* ~) I- U^ R* 5= u* &= p) (= D* wQ O< J- ~< *~ 8/ D* t/ i% xQ ]9 U: ~^ .$ Q% -* <$ ^^ l% 5$ Z& $^ P% '% n%  ! :% r$ <0 =< L% m, O% x% o$ z7 `% _/ /* a9 48 .> (} a$ k& G2 ^= o> S^ a, (& P^ B{ o>  ! |{ << j* ~< L% I' y% C*  ! I{ '= /) Q; )9 n] J] w^ [* B] u* %! J* o- j] o> l] y% 3] +9 5] d= J* 2} E' 2} v* /) 3] B{ 0* n] O= S) I* )] y[ Q# |% yQ KO ~< I' p) S^ m] 3] |] w* {* S9 ;/ |* d< %! B- =! z* 2* hb C{ (! V7 }5 N* W) a] 0* B] ,= Q; o] 9* B] 5] x^ C{ =< t* ,= d= {{ I* [{ V# {6 P# U: /& O' N* F* {* fk g< G- 5] m- P* |* u> J^ (* @[ += C{ m] ,% z7 {* 5= O* 5] y% %! %! v* /; U^ n- `= Y* w* += D^ S^ 2* z* x^ 7* y% 9a K* |9 (* %! V* (* U] @% n- ./ q^ _= z* t] A- +[ L] P^ C* :* 3* D* Q: q% v5 a} q8 <; 7* K= t! m- 2] |{ B] B* ]= I- 0* v) n- 5] $- t] B] (* A- w* D* (* v^ n- w* A- += 3] U] /* a] C{ P^ u* w- x^ I{ 5] %! C* B[ 9k {6 0% zQ ]{ l' m^ x^ y% u* z* 3* S^ m/ d< w% {* g] t] ~! O= h* e2 K^ 7' s$ += x^ K* S^ Y^ p) x* u* P* 9* H- 3] n- 8] C* n] != C9 w% {! R5 += p] %! m] v- <* B] (* g< =; (* m^ K* z* ./ [* {{ 5] $- += P^ v) a; C: X{ >$ L< $^ bo w% =! m] |{ G4 ./ 2} I{ i% y% N* w^ v) i% g] >% b] g] <; t^ x% 9* O% I{ 5] g] J^ 3[ q^ K) j] i% A- e2 {{ #/ z7 E' p) ,= p) H] B] v) -% ,= {* bo |* ./ %{ r* 1> h> S& /7 =O n% -% v^ g] @% I{ << ;% )! I$ >^ '4 n% Q; V7 a, |< %/ H- d^ C! -% y% |] 2} x% a, Q^ Z^ C{ S% 6/ %{ P; J- ;/ y% 6/ I{ ,= /) |< |< m] B] A6 z7 B] a, K) (% >9 P^ 2} i% K^ C^ %< I{ ~< += t! @/ _% :% x^ 1/ S% P% <% 5$ p$ <% !% >^ B# W$ :5 c{ S& QK i$ S9 p) 0* &/ L~ -^ #& 4^ A< 7* p) w* a] A- $- a] ]* /; V* r3 D! ",
"Ud r- S9 q/ <; e= u* m= 6* 9* i= b* S; `% |! AQ v^ k^ O* <* xP ]l )] S& G%  7 #$ W$ Q% $* *^ $< _% 5$ g] #&  ! 8/ Z^ =& _/ B{ {! J^ ~< g] B{ =% 2} J! j] $$ BQ j% K% z} i3 [] _% B{ ;% 3] ;/ c> S^ += C{ 3[ y% *! 3] C{ =< ,% w^ J- 7] x^ @^ D^ v- w^ J* P^ += V7 x^ |* 3] @^ N- 6* U^ N- |* << a, += {* t! S^ N- H- m^ t* R5 p] {! p] B- #3 T# S& S; CQ {! m^ =! 1< e2 += I{ ~< A- w% 0* 9< +[ << u* Q' t- S^ U] += _* ;% !< 1/ B{ I{ m, S' q^ y] H- $- v) @^ 5] v* t^ N- 5] S^ i= '= =! 1/ DQ i4 Y# !6 x| V* *= @% q^ v) 0* U^ |* <n o- V7 9* {* K; FE =! O= 3! h% J^ V7 >9 v* w] p] w* n] %- *9 {{ t] h% m^ m, w% |* B] =- h% t- a* _= C= w* g] S^ K* F^ 9* P^ x% J^ N- O* >9 A- #% 6* (* g= 3! s$ |* +- C3 v5 |% '^ Q* Q^ w- z* |* N* Q) oF m^ C{ t] $- t- P^ -% += += _= Y^ a* K* =9 u* j$ C= y% ]* m^ V* S= <* V* 3! I{ 1* C= P* d= p> v) P* -% 6] 0* _! bC '[ M$ N# 3| b[ P^ 8] 3] w% -% p> 5] i% m^ y] m^ f= V* w- $- (* E' +a K* v) 3[ $- $- 7* i* i% x^ |9 5] h% m^ y] v* W) Q' V7 v* 0* O= |* a] N- z* (* +9 a- P* 5] B] 1* f/ |* x^ x^ d= t] F^ d= S^ 9* x* U] -% E3 >$ /^ Q2 Eh =& g] [[ m^ @[ U^ ,% j] m/ U] C{ }= t- ~0 {* (! m^ x% P^ y% )> B- w^ ]* k^ Q^ 3! q^ y% %{ O% 7' C{ f= P^ 3] $- B{ _< @% l] E' o> P; 0* i% P^ B{ N- ~< @% J- += W= c{ ;6 j7 e! e2 w^ #/ +/ (! u* E* o% H- G5 J) `2 ${ a, L^ z7 (7 6* !< s$ x% 3] %{ t! w% @% x^ l] :% 1/ c> h] C] t! 4/ 1< H$ '= l] >% m] 3] S^ f/ U^ $% B{ @% w3 !< v* %/ x^ L% y]  ! W^ @% /) x> t! k^ d^ a, -/ <% O% x^ =< t% g/ h] $* 7% *& K9 3% :5 +> .! 'n 6/ R5 V* v* <; .~ 0/ d! r% EQ m^ {{ Q* 1* J* H* U* V] S9 @[  r EN ",
"'J xa h< &= @= B- R* v* K; i= <; @; g{ !< F' FQ O* C= K* 7' p< Pd 1[ D5 @] }] GQ ^^ $^ c$ 5% j/ p$ k/ 4/ F' ]/ _/ '% &/  ! m% d! +% ,= W^ 2} @% x% @% >/ @% -& 1& 8} A& '[ h> p> P^ |< m, +a w^ W^ Bs |< c> y% C- ./ si #9 x^ ,% i% {{ q] N* I{ l] Y^ 3] w^ c< %! h% a- |< U^ =! 7* p] A$ h% 5] u> V7 |{ 3! V7 S' q^ `* H- 6* %! q^ 8- x/ !& Q# )^ 7Q 05 3! Z^ i% :% {{ V7 S^ 7' =- w^ 5] H* E* w- {{ 7* {{ C* ]* m- q^ (* B] =! u* J] S9 v> =! w% 5] {{ 5] ]/ O= x^ x% 0* 0* w* +9 N* w* |* Fq W^ >^ A5 *5 {3 e= |* B] y{ U] m^ %! {* += J* 8] 2* -% J] O= m^ v) S9 ]- m, := A- p) R5 _= i% m^ h% w- J^ N- m^ b] ,% u* <* << i- $- P* m^ D^ 0* {* .} Q) p) m^ _* m] 5] Y* {* #% =! 8* R* (* q^ {! 6* =- d^ k} f$ j% /3 La N* N* u* ]* S^ 7* A- 5] y] S^ 9* ]= J^ H- ]* += `* O' K* (* q^ u* <* Q' ./ N- |] /; x[ ek A$ w% U^ J] U] U^ D^ 3] t- 3! v* {* Ep K* rl r% h$ W$ D2 <* [* i% 3] {* K* $- 5] +[ N- D* `* k^ u* g] h* %! K* v) 3] u* N* <; D^ P* A- 7' Q' o- E9 w* d= %! u= ./ q^ a9 _= -% K* v- v* 0* S9 w% *! v) 9* J! i* q^ u* u- n- 5= S9 w% -% U^ F^ }= n- :- ~[ v5 2% K4 4~ [t y- g] /* b< q^ Y^ -% 0* <; l) {{ U^ {{ ~< ./ 7] w^ f/ u> 3! m^ g] 5; z7 V* a[ m, a, B] d^ &/ i% U^ y] 8] G4 =< ;/ /) 5] l] {* B] a, I{ p] &/ ./ 6* B] ek 6' ,* ]* :P !6 zv V! WO V^ p) N- #/ x% y] S% a] B# =^ T2 q2 '= k^ J] $- L% t! @/ z* y% ;% S^ 2} h] C- #0 %{ x> 6! {{ d9 t- b] {* w^ y{ d^ 3] q^ HQ ^< h] B{ ,% c/ %< u* &/ i% @/ w^ |] A- ./ w- 6/ Q^ L^  ! F9 K) _% L^ g7 L% @/ `$ H9 p$ r6 l% o3 4% b^ >$ Q# S; Y& #* B# }< q^ 0* t= 3; p% .^ 4| d6 l* K* z9 A$ 9* w- -% h% 1* }/ D7 ~D ",
"fO lj =! U] f= 5] %! E* {{ @- R5 d= S; ^) T0 nO d< Uq N* N* t< ta b4 17 -$ [$ (5 -* S# L$ +% (& $< T% =< f/ N^ E% !< x% @/ &/ C{ B] O% U^ 2} ;9 p] 5] w^ ,= 2} IE S3 3%  % B} U* >% J8 J- ;% ;/ C{ I{ @% d9 3] m/ C{ u> P^ x% d^ d9 !< /) J- U] I{ 8] y] I{ /* 5] d< 2] {{ C{ 7* h] t* s$ |* u> |{ b] Q' %! /) f] 6* H- m^ ./ n] I- H$ 7} .& s{ 6^ ~> B] S9 J* c< y% a] S9 9* Kn S% 0* h% {* V* 5] 5] e2 v* O* P* '= p) I{ q^ m^ 0* |{ %! {* w* K* x^ 2] @% v* /) J^ x^ w% P* %! u* l* x^ $- N] IQ gI .& /^ 7} D% D* `* (* N- b] C- |9 Y^ j- d9 (* U] d< += _= 3] Y^ v* x* Y^ 0* u* :< P* -% 9a 5] p] a9 q^ t] B] |* B{ (* {* =! S^ D^ v^ o> v* z* *= += h% B] a] 46 u* v) 0* 5] {* *9 k^ h% c< {{ [* 8= /3 W$ E$ R$ lN JQ a] @% E* t] D* {* q^ u* B{ u* c< l] K* C* <; {! c] t] J^ D^ |* K* x^ U* S^ `* a- /* ;% b] x^ w{ A$ (! P^ S^ w^ a] c< 3! y% u* 5] 5] 9*  ! V$ R# r5 ~9 *0 5] I{ q^ C{ 0* 5] m, q^ A$ d= A- S9 A* p] 0* S' |* {* V7 $- B] w- }= |] <; 8] c< H[ F^ w* {{ E9 C# A= U] J* n- m^ M% $- i% S^ S9 k) |* 5] q^ K* 5] 6! t- =- E* i% {* 1* o> x- S9 }= 4% `} v5 y6 s! I4 t! m/ m^ v^ 2] ,= l] t! (! 2] v* *; (* N* 0* i% ,% u> 2} -% {{ o> I= 0< U^ B{ z9 i] w- {! k^ u> ek vn 5] 0* $- b] g] V7 |* w- j$ U* m] t^ o> U] i% C= << U] L^ ./ a* W3 [$ jk =~ I{ {{ 3[ w3 u> 6* i% L^ _* 7$ y6 (3 q2 |< 3[ 5] w% y] d9 ]* K) h% (/ E7 =& /) G4 (5 h& V/ Ol 5& #] G& N# N& v& 3$ G# 2% R& v[ Y# W$ u5 .$ W% W% `# /] v} >] Q& Ei G# V& [$ Q) n] C* F' y] '< ${ c> :< W^ m% S% M! KO Q% r$ L$ J) 7/ $* a$ q{ i5 hl v6 N- I* -% u! KQ /^ S% ;| Ci s* q^ ,% .} u* w= w= u= << S^ #< H4 ",
"'* r- U] @= 0) Q* ]* *! u* i* v* #; Z; A6 E6 !o ;/ ]* I- x* *C 61 Y{ LQ {] 2% K$ '6 )& 7/ K[ -* =} H$ Q% ;9 =< L% %< !/ s$ |] 3! @/ S% x% B] u% ;9 N- =&  ! y% b% /* ~^ i: 1[ B% S^ R^ B{ U^ V7 _% w^ 1/ s$ x^ e2 d< z^ 5] 5] <* x% 6! i% 3! q] U^ n] |* S^ @% U] u* K* /; 0* J^ m^ |* k^ e2 n] {! |* E* ;% %< U] ~0 z* /* B] O* G- a{ .& j% 04 MQ t! C{ {{ L^ c> |* w^ |{ p) }5 C- y] j] t! y% y] 7* ~> 3! q^ (* 0* H- $- J^ -% E] -% C- m/ t! m^ {* m^ p) |< S^ y% l* {* {{ N- D{ |* {{ A^ ]* {J ^~ Q# W$ V$ S< z= 1* H- S* m/ B] g] N- J^ += m/ <* {* d= $- 0* (* v* =! <; x^ e2 t] |* E' N* h2 9* F^ D^ Y^ u= u* C{ $- 6! W) t] 1* P^ 46 0* $- J* u* {* v* J^ 8] 3] x^ Bn {{ w- 2* %! z* `* C* h% s{ p} Z# >6 a} {; 9* A- 7* w- :* S9 L* 9* $- d9 N* w* @% += d= U* m^ v) 6* D^ m/ H- m- ZO v* |* K* `* x^ x^ ./ {{ $- w- -% 6* N- u* 6* w- 8] -% a] H- m- ,* hc Na !6 q% V} E6 =- 8] `^ S^ |* c> v) &/ c< C{ x^ 6* J^ B] += P^ Q' s$ @[ 8] V= m^ C- v* 1* R5 K* w* $- S9 a, n- [{ @= 2< w* Wt Y* w% I- C* }= 1* %{ G4 C- w- /) += u! |* Y* S^ i% (! o] :%  / N- ,! S< s{ )^ k5 $8 05 =9 += W^ $- += k^ a, #% O* v> U] m, -% q] 0* y] 7* x^ 0* 6! g] Y) w^ 0< y^ A$ y% a] t! S^ ,% @% j] `* w- v) 5] w^ g] bo w{ U] =% Z^ v* ,= Q; J- S9 q2 %! |{ $- /* y* c{ }] t5 .m 4/ P^ x% p) E^ J- |< }/ 4! ll !% O2 Gh :% R% =< l] t$ i% :% c> x% 2] i% w* /] S< j{ /3 #3 c{ p{ S3 a{ S< S3 S< S< E2 a{ b{ S3 02 b{ 02 N< L2 S3 /3 N< @1 H2 R3 N< C| W2 S3 E2 )> x% p] S% u! L6 L^ d^ F% g/ 8/ ,} 2/ $^ p7 >^ ,[ @& '6 M! V; !^ No D7 FE 4* l* o> d, B# u% m4 NQ J^ d= Y* 0r i* |* v* =! y] w% ^% ;G ",
"tu G; t] S* K; 0* 0* A^ t] D- Q* l' mc S% D6 0> u* ,% ./ a* +f 7} !& #o )4 e$ .! J) [/ ${ /% 4% o3 A6 h/ L% ;9 O% o% L% _% =< 4/ h] i% p] ~< g7 t] S^ C9 V7 y% 5/ 0s  $ e$ 7$ O< x- g] |* w{ =< e2 s$ q^ a, K) J- ./ t! -% -/ p] x^  < ./ Q; 2] i% x% 5] %! $- %! -% V7 x^ V7 -% 7* N- -% ${ ./ v* m^  < a, h* O* |] m, O* l] {* s4 d> X# }] QG %9 p) 9* v^ U^ 3] e2 x^ 3] s^ 1* U] q^ q^ l] 3] V* m^ I{ N- ;% w* e2 += B] C{ -% n- @% 3] n- }= *9 z* 0* <; ]* b] t! (= m^ {! w- ;% K* E* U^ c< 3* @~ 8s J# (5 G# OQ =- D^ K* w* m^ x* u* e2 v* 5] B] v) S* Y^ 9* O* w* d< S^ :* z* s^ (* ,* h% 5] $- p] Q' #% c< b] q^ m^ k^ w* p] /* i% j] u* C{ v* I{ P* Ep i% u> w% ./ ^< B] a[ x^ 2* U] (* k) Q= @1 ($ @] ;| 5p N* p) w- +[ 5] %! .; S^ H- 9* 8/ m, w% V* P^ m/ N- S9 2* a] H- _= d[ G4 7* $- m^ {* C{ V* J^ Q' U] N- << m^ 0* o> w^ &/ -% += a, v* 1* q^ I- 8/ /~ =^ $$ '^ G2 H[ += v* u* t] o> {{ |* 5] u* O* g] Q' 3! m^ t] z* {* H- N- h% 3* 7* A- -% x* p) d= y% w* y% =! |* J^ V7 m/ t] -% $- y% N- z* 3! w* =- R5 y% `* &/ N- y% m^ u* R5 5] 7* 1*  < x* u: .5 n$ !% Z% ,; P^  / PQ %! J^ t- ,= x% %! |{ 7] w- 9* Q' |* $- Q' a, *= s$ 3] Q* $% >0 q^ f/ U^ |* R5 t! bo B] j) 0* += @% 0* C{ e2 /; N- h% 2] 7' =- ,% C[ E* f] |* v> q^ *! n> v% s* Y; (5 kl o~ w^ o> y] g] p/ << !/ `% {* c6 J) I2 ,< y% Gh ~/ <; E' x^ W^ J- w- 8/ x% S% L) .$ *5 |% &] i5 D& #* -$ X# =^ Q# P# 2% %] D& (5 X# %] V$ '[ F& ;] ~] >$ t6 !^ '^ :$ f5 }6 b4 s} W2 K% 7* 6' E% r$ t! D% ,[ H$ @& 2& `% ^^ w3 i$ b$ @& 4% >$  > b> No L& e2 w^ v) u$ (~ K# w3 4^ V! s; w% <; 9* 0* K* =! =! E* w* 7r Cu ",
".f a) }= z{ {* m^ ~; p) j] S^ }= ~-  > a, P; n= m^ x* b= e2 1F h3 =] )] 1| s{ K# '6 @& >^ t% o% 3% %/ ^) !< *< d: _% =< |] i% Z^ ,< L% 3[ a, 0< {* p] 0* _% g] E' H; 3a 'n Q# 7^ Q- P^ {{ T] >/ A$ 5] 6' un w% u* m/ '= {{ ;% {{ 0* x^ U^ |] F^ 2] a] B] U] =& %! q^ {* d^ S^ q^ a, 7] B{ 8/ =! b] ./ x^ E' B{ :% U^ %! $- A^ ~- b{ Q# @$ W; lo z= ~> x^ 6l u* |* B] p) {! A$ 5] := &/ 1* 0* t! 2< =! -% B] w* 0* L* ;% P^ 6* C{ O- B] w* =! 3] $- ./ N- p) ,% S' Q' w- x^ 4* %! {{ m^ u> p) 3* 5* <n Bt *6 P# )6 43 l* e2 s- m^ v) S^ N- v^ [* w* =- =- @[ }= (* N^ 0* J* += q/ v) W) $- w* Q' +[ x* ]* h% &= K* u* V* 8] #- w* += w- %! t] o- E* <* /) %! |* A^  = N* v* n- N- n] $- N- C{ V* A* Z< V4 .* s6 9* )> w- -% C{ w- q^ k^ {{ {! K* += $- b] ,% x^ 3] l* h% Q* u* m= {* S) 8/ W) O= O* m/ v) %! I- 1* w% P* :* p] m^ x^ I{ 2] B] V7 m^ w^ t] o> -% h% x% 8= QQ [$ >$ >] :5 ;) V* c< C{ i* w% t] I{ x^ -% g< ]* K* w% {{ B* q^ B] *! P^ j) h; {{ x^ v* O= .} 9* 0* =! u* U^ BN =! .} 6* h% y] << N- S9 3! 9* H- D- {* 0* (! g= C{ $% w- p] p) s$ m^ p) &= S2 j% '^ i4 3q o% =! C^ I- -% 8< v^ |* 5P g= a, V* :% $- p] x^ w* <; Q' m^ Q' K* w- w^ y] O* d^ m, S' m] Q^ S^ u* c< T- K* B- ./ 2< E' P^ ./ x^ %! u* += C{ a, $% ./ t! += o> 6* 1/ ./ D* V; r> #* 7J L^ 5] C] 2}  / |* B] )r A= `) {9 `2 += I{ ]/ y] t! 6* a, d^ P^ O% q^ ]< c| .! Z{ W$ @$ E$ ~^ {9 -$ E$ M! ~^ ;* _[ zv A& K$ !^ /} 0% d% i$ T# S# J# L& 2% ,^ P# Z{ #* !^ _^ V4 s4 h* a> 4/ f/ <7 &/ n& ${ C! G$ b^ B[ +% $< P# o3 ]^ 4% $$ g{ {9 <] A! h< h* N* )< p, '6 S% r% RQ S* _= u* o- p) _* 0* b= x^ <; <a ,G ",
"'* l! ]= *! t- %; {* v^ }= J* @% 2) k{ (& !< AQ %! w- P* F^ Un j|  5 il z} E$ '[ $* b% b% r$ u% 2& r$ l% K^ N^ S% }5 A6 U^ #/ 1/ 8/ O% Uq w% s$ U^ x% P^ ]/ D^ Ql Dh 2$ /} .& V& xa K^ R^ J- ./ !< t! I{ 6* H* += |* w^ B{ r2 U^ J^ y] += 0< %! =! m, M) 3! t- |* ,= B] J- S* /) C{ C{ {! {{ $Q V* C{ |< z^ 2} {* J- `* )q _* V2 k& '[ .* 2p f% S% @= 4* Uq 6* S^ Q'  = m, F^ s$ $- 5= &/ z7 n] M% A- N- h% |* 5] t] p) i% i% S^ a- 5] u! ./ w% x% E9 3! Q' k^ %! 9* Q' l* C* |{ j] J* += _* c< w* N- %! A% 7$ >$ &* =p E* 9* y] c< R* [* 46 _= 5= 0* A- m^ 5] >< $- V7 w* J* u* x^ 46 q^ y] :* ,= {* J* S' o- S9 vn ek D^ {* N- 5] |* J^ -% v) 0* v) @% h% 5] si w* += o> 0* x[ 5] x^ ,= 9* A- T^ Q2 2% Q# G2 wO u= 46 <; -% {{ w* o> h< k^ A- #% I{ =! {{ m^ 9* y] 9* S^ D^ B] v^ q^ v*  / 1* 0* @% n- `* H* 5] m^ B{ D^ S^ |] 9* %! += %! a9 U^ B] S* :% [[ |] u* f9 mQ /& ~^ W$ c{ `= E] v* B] S^ N- Q' x^ N- 0* 2} R* q^ ./ S^ x^ 5] J* J^ $- Uq D* @% h% C{ B] m^ += p) 9a N- 0* d9  < [* U] {! B{ i% N- += v* v) (* b] h* /) /* x^ m] 1* u! u* e2 y% -= D* L2 r5 F& E$ x* .< /) U^ %! H- i% #/ ,% m/ N- z* x% B] 3! ./ q^ w- 3] m^ $- S= n] 3] q^ 1/ G4 z7 i% |] 7* p) N- u* p] Q' N* A$ -% E' {{ u* B{ u* L* {{ << K^ -% t! U^ B] >/ A^ ./ %! w- N* x* p{ L& ~^ rp K^ -/ v- /) f9 t! ,= u> l* s{ '6 Q2 V7 i% += += 6/ |< `% d^ ;% |{ b, O] 04 n[ >$ K# /7 ;] (% #& O% g/ ${  ! J7 <% S% /% h] F' <7 [] (% H$ 6/ S% Z^ 0/ N^ -^ o$ W$ :q a$ Q# $$ /^ Pa Wf Y9 @/ 6/ |< =% !< @% +6 *^ <% w3 B[ !% <6 `6 K$ A& Z; s{ !6 Al 5/ u* D^ c] O~ E$ E% 3^ m< A= (* x^ y] |* H- P* x% L7 w= =} SQ ",
"cB ^G ]* u* w* t- k* K* i* $- d= W! S; N^ %{ 5; x^ Q= V* 9* *n y} y) '[ %5 K$ 3% S# 5% #^ E% 7/ d! L% F' <6 Ca O% x% =< >/ h] N^ a, 3! x^ ~< o% @% q^ += d^ =< _% %% 3* -6 Y6 :$ b* =% 3] x% N- q^ z7 =< w^ |{ ./ %! l] 9a U^  / Q^ h] {{ p] u* x^ B{ H- N- x^ N- 3] B{ i% %! U^ 3] o> 8/ P^ u> w{ += 9* @% y% I{ O* 46 0* /) F3 f$ ~] h> R! h% a] A$ d9 o> g] `* y% ./ ek 7* x^ S9 N- C{ t/ v* S^ w^ 2* P^ 6] ^* @[ I{ a9 s$ q^ s$ ,% q^ B- J* 9< 5] P^ J[ 7* ./ t* f= i% y] =! |] }= z= o> n- 1< w% 3< Hi {3 9% }] q: a] I' %! L* 2} y% a- S9 o> 6! |* K^ o> z* w- V7 q^ 3! u* V* 5] ;% t- v* 3! 8] E9 {* ~> ;% $- 5] m^ U* R* /) '= V7 q^ %; K= |* 3] P* |{ R5 m, $- (* C{ v^ }= Q; {! B{ h[ p{ 3$ i: D& tj WO T] m= D^ 2* 2* B] |* x^ w* %! (! K* 5= P* K* 3! u* B] -% x* A- {{ 46 A- J* $9 h% 6' x* m^ J^ ./ {* {{ |9 =! 5] ]* K* s$ p) U] w* {{ v> E* Q' C{ =! =- k^ s6 P# |% H& R) q= $- P* K* U^ S' l* 3] C- V* (* v) n- S* K* {{ ,% V7 U^ (* 8] u* P* += J^ w* {* 5] <* 5] h% h; |* .u O* I' y% S9 /) 0* v) 9* {* S9 6* D^ D^ 1* a, =! t! w- x^ w% V7  / J5 t6 Y4 U2 9G -% 3] 0* 7] I{ e2 V7 x^ y] |* v* B] H- x^ 6! 5] w- x^ m, f= S^ 8] ;/ x^ x^ i% N- -% q^ {* [/ 1/ 2] @% u* U^ w- a] N- #/ g] 6] 5] 9a 5] y] =< {! p) o> ./  ! += ,= d9 7' K* l* 43 Z9 :^ W! K{ D^ ;< <; @% B] l* W^ u$ hl ~^ a} *; o> <; i% h] k^ 6' 2] 6/ +% q2 w3 /^ P% *% !& Wc TQ UQ VQ WQ XQ YQ *n q< Hi 2o My Zc 9n 3s ZQ 9n Ro `Q 9n Nq CQ MO bB b' @{ {n K9 E$ f$ }] 2o '% W^ S% 2} B] X^ @% ~< _/ O% +% $* ${ 6% $^ 6% -* S# S; '^ <] [^ v) a! R- {{ q~ 0% a> A} 9k += Y* u* 5] -% ^= b] w- '= 0) J7 gK ",
"Bl d; ]- '= Q* Q* j) l] C= [= D^ Lt S; +% t$ |- R5 m^ (! h% Fo 26 1| () =] P# P# $^ w3 r$ E% Q% H$ =< L^ b^ n&  ! q[ R^ 4/ )< x^ O% $9 x% g] 4/ W^ J8 -% 1* L% D{ `% d= o$ ($ !^ s* JQ |] a, U^ =< 8' y% 5] |* &/ |* 1/ f] A$  ! ;% |] 9* B] 2} p] D{ y% x% 3! $- v* {{ J8 += p] %! m^ g] v^ k^ 1* d* @/ g] V7 5] 7* v> K= /3 n$ U# E5 48 0< C9 N- m^ h% V7 ek U^ @% w- Q) u> C{ y{ h% U^ += H* @%  = =! l] Q' (= =- /* N- -% @/ += B] y] |* S^ w- K* i% -% `* 5] H- {* I{ x% }5 m^ m^ h] (! J^ -% bo O* 46 #; A! ($ |% `2 i= w% k* z* x^ B{ 0* i% }5 {* m^ (* >0 9* q^ u* C* %! v) 6* B] x^ w- 0* 0* 9* L% ]- U] (! <; x* /* 5] q^ m, P^ y% S^ V7 z* U^ I- y% {* C9 #a ./ m^ |* C9 R* z* k* .% 4^ 0% |% Y2 6> {{ t] p> N^ w- w* d= P* J^ O* E' =! x^ h< @[ u* 1/ a] 9* N- g] h% $- t] ,= 6* C* A- e2 K* _% v) {* D^ S' |* v- 1< w^ ;% c> k^ << m, {{ w% x^ 0* %9 B{ y% =- Uv Q2 %] $$ $3 A] 8P w% Xo =- v) E9 P* $- m/ t- =! 3! q^ N- 8] v) c< U* $- U] N-  = q^ -% l) t- 0* =- m^ t- A- P* 8< -% k* o- q^ N- c< @^ += {{ |* u* 7* F^ << a] w* t- J^ B- @% P- m| ~] *6 d% N! U% |< y% o- h% t] z7 ./ 7* x% N- 5] m- 4/ xu N^ B{ {{ u* *= B] L] |] u* 3] 3] u$ {{ -% 0* W^ P^ += ~! #9 ]* $- {{ 3! t! 3] c> E9 b] 6! x- x^ h] x^ P^ /) 5] @/ 2] 1/ += @% r* @; p{ K# kl Pt m% J- [{ Y^ 5] K^ 8] t! @= A! K$ x/  R {! R5 5] R% a, m^ l] J- a, u! c> w8 B/ Q# ]6 <& 14 J/ V} w& 8^ 5^ t: ,3 8^ t: S0 C4 3^ T{ 4^ P& 34 #A v, H: n: 04 a} $3 a3 Q: v5 E$ !6 83 O! /) C[ z7 ,< F9 -& $< Z^ 6% <7 Q% <% $* p$ ^^ *& r5 <a  > b> W6 X6 #% @= q^ g] q~ ,[ N^ :4 2p M) 9* d] 1* 0* :* $- l* =! q- fO H4 ",
"45 O; v) {* N* (* K* i= v* q| x^ u2 S; `% #< t; (* <* /= C^ ^o [2 k&  % g& A! Y6 @& o3 '9 N% `$ <% @/ $<  ! u% `% F' |] +% g] c< N^ {! =& z7 B{ 5$ A$ h% S% =< U^ $* h% e/ )% E$ [{ =& P; &/ 3] `^ K^ t! q^ B{ J- B] U] 8] @% h] ./ w^ U^ E' #% V7 z7 5] Gh s$ ~/ =- 2} 0* Bn w* w% $- s$ Q^ _* N- B] x^ ./ K^ g< S^ c< !% j4 {} K$ tr C{ U* Q' B{ B] s$ E^ m^ U] x^ z4 w% I{ @% %! 8/ << O% A- {* A$ Q' w- %! p) 5] q^ l* l* ,= -% U^ N* u* S9 m^ i] Q' S9 V7 A$ O* 3] v* u* y] k) A- w* A- I* A^ S^ _* (* hu Hs o6 2% i4 a> (* d= O= =! 5] O* 5] i% C* += m^ y] I{ V7 x^ P* $- f/ w% t] |* f] 0* x^ q^ m/ 5] {* w- p) f= k^ y% E9 I{ =! N- x^ t* u* y% b] 2] P* w* v) g] 3] B{ =! N- ]* I* f| ja w5 )4 ]x '% q= k^ F^ i% >= n- [* '= 2* v* ./ x^ y% B{ << |* ;) 9* y] A- i% j] %! |] 8] @% S^ Q* b* l* '= '= E' << 0* $- P* 46 <* m^ v* x^ N] o- u* v> k^ q^ <; {{ }= P^ ]< B; ;] z} :^ N< P< 5] '/ N- F^ U^ |* {* a[ ./ |* V* J^ 6! Y*  / S9 0* w- m^ w* L* Q' g] v* q^ v^ i% 1* `^ 3] m, $% @= O* w= y% (* I{ |< i% i% %! S^ 3[ m/ q^ 3! U^ u* P^ /* J^ Q& y[ j% o6 (4  ; p) m^ 8] {! P^ ;/ D^ I' w% $- S^ k^ :% D% /) e2 B] E' @% m/ 3] W^ $9 s$ u> u> N* u* 2} V7 {* ,= ;% @% 2} g] -% l] m^ 5] D* :% t] =< O* u* 5] i] += g] P^ u! >% 6* C! q^ -% w= 5* q{ s{ ;] .R x% *9 p) v> D{ a] {{ L% S' r9 {% Q2 U^ ^) ;% u* ./ u* -% @/ w^ P^ 7/ y] P% Pc Y2 T6 '6 4% X6 0{ '^ J7 0/ J) f7 b^ `$ X6 W$ /} i$ 06 06 G: *% M! c6 F' L^ /} *& J7 w3 +R %6 S; @R _& j$ t! ~< C[ l% #& #& _% (& w3 <% D% '% w6 $^ *% .& L& V; )% 87 :$ #R n] 0r y% a~ '^ l% S} I4 |< 0* q- '= u* /) R8 (* 6* @% *& 7N ",
"$R %R P^ G- h* -% O* s* 3= z* D* 0; +> w3 &R *R =< :* a] D^ =R N8 v4 v4 g& .& L$ ^^ V$ m% 2& A6 a> (& (< `% o% x> z7 3! t! @/ J- A$ d^ 3] y] ${ N- |* K^ L% |* h% `% (* ^% K$ S& n; e% x% V7 z7 U^ x^ |] o% u> |] t* S9 br C{ W^ 3] t! B{ y] k^ q^ x^ v^ 3] A- q2 %! C{ ^/ z7 9* U^ e2 @% 7* V* |* y% p] 5] u* J^ m- po B3 !& -$ y: Vk H- C{ K^ p> U^  < m/ 3] w- x^ <; 5] m, 3! << I{ c> 7* D{ ./ Q' 3! w* q^ R5 {! A$ n] c< i% w% (! e2 S^ S^ /* w% ./ U^ z* += N- vo e2 {{ w% `* {* 1* y% 0* =< v* Y^ _* /) jI U6 {% do N<  - k) Z* l] i% m^ i% +[ d= m^ 0* B] B{ m^ w% i% v* T] m^ += U^ Ep w* U^ L* |* x^ U] A$ ;g @^ &/ J! m, ,= q^ $- [{ D^ _* v* v) i% R5 Q' w- R* u> R5 5] g] }= {^  $ =^ ml m5 I- B- S9 ~! n- :* v* P* 3] n] 8] %! C{ ./ 8] C= B{ v% i% S9 +[ m/ += V* Bn e2 5] 5] J* o- 9* 5] Q' w- -% i% v* m^ (* 5] w- 5] `^ O= ]* += U^ =! n- u* K* v* E' h% o- 1F 43 7$ s{ g} v7 B- G4 m^ V7 c< q^ J^ m/ t] *= B] '= m^ K) += S9 C- |{ w* <; v) N- :% w* S^ 3! {* N- A- += K* A- w* *; 5] y] t] o- q^ N- V* x^ a9 S^ n] 1* g] C{ -R 5] U] V= b{ E$ V4 ;R q8 s$ 2] w^ g] m- i% 9a ;% U] I{ 0* %! N- ;% 5] S^ e2 5] `^ n^ S^ a9 m/ B{ ./ P; ./ b] R5 g] 46 @/ k^ $9 _% x% (! @/ D% w*  ! %! 3] ./ N- L6 x% m/ P; a] V7 5] N- #% w% y% N- <; |* 5* x/ Z$ I$ &4 g] 6! =l {{ |* |] h] [/ G{ L! >$ G/ ./ |{ w- w% W^ c< l] &/ w^ R^ << 3! i] (^ Q, i# >R ,R 'R r@ Aq {' )R Ho `( !R ~R {R Yx Q@ '_ ]R *m ^R /R a+ t# <( (R K@ _R R. R. :R {  Xc }$ P; t! ;% j$ 1/ B[ !< h] {{ w3 *^ [/ *^ Q% f/ ^^ <6 J) @&  > >$ G5 K$ YP 5* Y= 1/ q! $& t% /] +Q w- B{ @% ~* v) '= m, w^ <* w^ v6 ~D ",
"b6 Q- ;) m^ ]* o- m^ [= m^ %= N- ]; U; d! F' Y) =< h% x* m^ Jw ea _5 @] g& #* Q9 b% i/ p$ c% |] Q% n% (& D% e& l] t! P^ t! 5] y% 3[ N- h] 1/ ]< C^ 3] C{ w* 1< f/ m] t2 '6 E[ d% 8= L% q2 1/ t! 7* `% p] m] F^ w^ @% P^ a, @% y% 3] g] 2] p] S9 J- J^ V7 B] g] C* si 0* @% !< 5] y% !< v* K* y] a, 3! o> 0* 2< Q) P* [% 7& P# .! := L% v- (* K^ C* w^ {{ P^ D^ A$ V7 <; p] q^ _% -% 0* m^ n] j] 1* x^ N- y] y] t- =! u* O* U^ q^ w^ t- g] m, =- H- p) H- %! =< A- p] p) ek <; H- C{ U^ {{ w^ S^ |{ 9* 1* g] (* H= n: s{ Q# H& '[ <R Q*  < 5] V7 3] B] v) w% S- o> -% P^ t- V7 |{ 8/ w% B] w% 5] P* B- 3! s^ '= A- n- A- h* $- m^ =- P* u* _/ m, @= bo I{ u* J^ i% x^ q^ t] w- o- |{ D^ f= N< '^ v5 T{ [R 7' {! b] g] i* t] /= `* |* /; S* <* J^ x^ l* I- x^ y] %; {{ 0* B] p] [{ 3! L* (! z7 Q' +[ ^= m/ w^ n] K* B] (* m- D^ += s- K= ~< m^ 5] i% _= += Z^ {! ,% u* x^ 3! 9[ '% eH k5 -$ *] H! I* 3! y% x^ B{ {* {{ 0* 9* -% l* q^ P* v) t! H- -{ Q^ 1* z^ Q* 3! I{ v* |] t- P^ =- S^ f= w% C{ K* S^ -{ J- S^ 1/ y% b] |* f= q^ 0* 5] F' y% S^ N- a, 0* c| q5 @] P# #^ |] p] i% Y^ ;% t] E' 5] y% ,= x^ 3! 9* y% 1/ 3[ ,% 9* @/ K* ./ 1* I{ N- y% w- L% =! t! @% /) o% 9* U^ 5] w^ P^ v> a9 s$ 6! x{ z7 w^ o> %! %{ J^ p] B{ ./ g] x^ B{ q^ w- y% %! a9 H- 5* e{ ^6 =^ }R  < #/ K^ 1/ m] y% @/ 3! S* |R ,[ |3 si -% %< =< u* @/ >/ t! |] n] 3] ]/ g] $- 9% P& 1R 2R 3R 4R OG w$ Ga 4| V{ <& C& V# Ga O/ _$ i4 ;| |4 N/ t& %* 5R 0& {& *> n: V& y$ K$ @% 4/ t! t! L% m/ Z^ N^ (< L^ ;< $* ^% k$ @& @/ b$ Q% _7 >^ d% Z; [$ b> ~^ q^ I* *; t- &) ,[ r$ y[ Xt j* p) 7' w- 5] x% {{ A- H- m= %^ bl ",
"O7 p; '/ A- L* D^ 5] u* G- 0* <= j= .> )> _[ >~ a] _* 5; += 6R 7R 1[ e5 &] 2% ;] P# $* 0{ <% <% F' $^ 3/ =< L^ 1/ 1/ @/ 3o H$ _% +% Y^ ./ x% s$ :< I{ B{ 1* 2} x% ;% F= B# I$ W$ b* 4/ B] =< ~/ h] 7' -% D^ p) L% 3] w* fk V7 {{ x% |] t! w^ x^ ,% @% u* %{ 7] j) i% ;% x% u* %! E' J^ U^ C{ =- ,% S^ L^ n- t]  < P; C2 )^ L& h> wC Q; v> I{ `^ V7 <* R5 m^ a9 w% ss {{ y] A$ =! C* w% 3] 5] B- {* H- i% |* S' y% ./ }5 5] w* g] 7* Q) x^ q^ B{ (* D^ S^ |* P* N- o> u* S^ /) m- w- /* u* e2 a] e2 U^ |* <* _%  / Y7 W% 8R ;6 k{ f; C= p) {{ z7 I* i% c< d< =! {* t^ w- e2 n] m/ u* a, =- B] m, *9 += w^ Y^ C* &n u* m^ V7 9R (* '= w] 5] -% c< m, @% t- =! a- 3! h% V7 a, :% |* o- t* VN () $$ #*  ; S7 P^ (* q2 a- H- J^ q^ ,% K^ w% 8] w* K; 9* v^ J^ %! $- 46 V7 Q' 3] {{ {*  / C* n- (= j] L% v) =! ./ B- `* ~< m^ C{ m^ 5] W^ m, y] 0* R5 m^ m^ S^ p) B] S' n] (! K* 0* << M' Hn a> P# R:  $ P4 y^ P* gs 0* y] 3] }= j) {* /* N- u* $- =! S^ z* P* =! N- p> /; d< 3! c/ w% x^ h% c< J* A- L* J* %! q^ |* v* a] 9* P^ p] _% |* 3! Q' x^ w- 3] [r 0* A2 *6 W$ 0R I7 @% %! {* v^ @% 3] E{ 8] {{ 9* N- I{ 1/ ./ x^ x^ 3] w- m/ y% y% w% Q' B{ {! 2< %! x% _% s$ /* :% ;% 1/ d^ B{ ,% B] $- |] a] += i%  / B] 3! v^ 1/ 1* c< e2 ,= x^ N- V* 0* x% 6! m^ b] M* U2 (} <] O8 3! '= i% H- t! E^ U^ I{ A= ,6 I$ S2 m/ 1] Uq x^ e2 -% d^ L% g] C{ _% 7' M% ./ j$ 9< W^ |F v^ B] N- 8/ =- 5] %! 7* C] j] P^ i% 5] |< si 1] u* =& `% 5] f9 i% =< Z^ @% `^ d^ }t %! w3 d: @% 8/ 4] h] o% r$ k/ <% r$ `% `% $^ $^ O% '% r6 J) `; [$ <] o$ 3[ m, H- Y* q! K9 (& T& fv @% m^ F] w= <; z= q^ B* S^ P* ,6 aR ",
"X5 R4 7= 0* I* I{ 8] <* R* |* a, 3~ S; ${  6 J= 3] 1* v* q^ 7H 10 z} L! =] >^ Y0 Io P% B[ $^ $* f/ (/ |]  6 <% w^ 1/ &< U^ e% 6! 1] 3! W^ B6 z7 a, a, %! s$ |< 6* t% 2= b^ 2% L! L7 %% 1< z7 s$ L% z7 F' =< =< t! s$ 0* M% q2 c> a, P^ un y] @/ @% ,= -% B{ {{ 5] g] w% P^ i% %! -% Y* 9* !< P^ {{ C{ $9 A$ E{ _= F3 .$ 7$ Q# lN 7$ %{ x^ v^ =! F^ {! h; (* -% U] R^ S9 p) Y^ e2 &/ 3] n] v> O[ P* += k^ U^ u* e2 |{ B{ R5 w* u! %! S^ ./ += ./ l] R^ z* |9 y] Bn z7 B] ,= S^ B{ `* U^ S^ q^ 5] B] q^ d< 3] p^ A- ;% <$ X6 {% ~5 =e m- q- y% g= J* [* 8] a] P* ./ x% v* ]* w* w% `= q^ m, J- 46 g] 7' (* N- y% {{ J! E' U] V* x^ <; i% P^ u* R5 A- w^ V7 C= {* k* h% ./ 5] A- w- 9* 6! !! 2% 2% `; bR u* q^ P^ i% l* d= m^ u* += /* =- 5] p] #/ ./ l] @% 0* t] 3] u! l] v) {! t] $- 2] B] h% {{ i% F^ <* |* 3! l] 5] a9  < m^ |9 i% x% S' &/ ~< m^ |* {{ S' p) X^ A$ P^ E' 8] u* B[ q8 v} o6 F& S3 q- a[ S9 3] m, 9* <; 3[ H- 2] M% B{ <; @[ n- /; J^ m^ v* ,% w^ u* m^ y] u* S^ A* v* x% =! V* p) N- K* p) 3! s$ J* >/ E' B] -% |] B] w- G4 U] =- R- 53 u5 )6 .& *) %% B] ./ c] `* -% i* w^ R5 9[ =- y] i% %! {* 2} g] ;% %! _} 3! 7* U^ N- Wo U^ S^ 3] _% /* u> += =! 3[ y] 8/ c< N- 5] g] ./ u* .} ,= I{ 3] w% G] w% q^ 8] =& C{ y% m^ |* h% @% U^ B] C{ {>  > u5 n$ cR <7 $9 x^ j$ }5 w- 8] Q% ~* X6 E$ {& ;4 ~<  / B{ 5] y% B{ u* ;% E% {{ h] ./ (& t! 6* P^ U^ z7 x% J- =& A$ @% 4/ 3! u> I{ |* 6* p] |< '= ;% c< << ,= 8' y% @% Z^ =< {{ {{ ./ ./ `^ _% ^) |] q^ @/ B{ !< O% /% t% (& p7 a, 7/ ^^ p2 t% W$ >^ `; A! {9 K# C- V* w* C* dR d% +% h& eR ./ C{ |* := _* E' 5] d9 D^ C* 9C Cu ",
";H u= j) *= 0* 5] :* p) 3] *= V* j' `; D% [5 7J x^ P* h% v* 7P sg W< 67 -$ >^ >^ v$ Y& B# Q% #< r$ |] !< :< =& =< H$ ${ 4/ t! $^ =& g] u> si |] s$ m, 3! 8/ x^ |] e% W' /} j& ^^ G; D% |] w^ @% ar U^ %/ e2 3! x^ 3] f/ v- w* ;% 3] :< ;% C* /) A$ y] |< v^ o> x^ s$ k^ :* }/ :* a, G4 #/ b/ M% B{ t] `* 0* ~> 8' m} '[ V$ fR J= S* |< P= B{ C{ h% D^ S^ M% 1* c< #/ 4* |] S9 S9 w* w- d= fk c< ,% h% z^ a[ {{ R5 N* P^ y] 8] s$ I{ }5 %! !< 3] N- U] 6* c< J^ k^ 5] q^ -% z* 5] `* D^ += w* z- m^ l] a] R5 ;% C{ += 78 h| >$ n$ =* j] fr w% j) c< w- m^ y% V7 v^ += w- P* {* 7* K; i% m] w% C{ 3] b] y% -% x^ 5] m^ /) += A- x^ C= 5] 3! S^ n- 9a A- w- a] i% 0* K^ 0* N- 2} =! A* D3 .$ A& 5& gR N^ S^ C9 Y^ E^ 0* 46 `^ u* w* B] y] q^ J^ x^ B{ %! S^ J] w% ;) ,= Gh @% w- q^ q^ B{ y% 5] Q^ y% K* P* g< y% m/ 5] V7 y] x^ 9* v* 0* A$ 3! B{ |* 6* v* 3] /* A$ Bn w* C{ += A$ w% (& x% Z$  % R$ a} Q* D{ L* c] $- w* y% 6! Q' =! N- (* H- v* w- :< s- +[ S^ U] 7' q^ h% t! p) m] h% B- 9* w- $- K* /* x^ Y* w* u* N- 5] x% 5] q^ /= R5 B] u* p> ^% e4 ;] '^ 83 X~ h% /* ./ s$ {* B] $% J[  < S' z7 $- m/ g] v^ H- S^ y{ y% s$ b] n- f/ R5 @/ Z^ ,= t! 3! y] B{ @/ d9 B] U^ u* z7 B] {{ 2< g] S9 k^ B] J^ <; z^ i% N- ./ k^ 7* q^ /; y] ~> N- h] :% s$ t* x* F2 }] u5 P~ ${ C* B{ -% U^ p] :% W^ d* J) Q% =e d: |< <u @% B{ 8< @/ $9 C- |] %9 w^ ;% {! J^ $- |{ I{ ^) D* w- v* ;% a9 B] |] x% B{ M% ${ |< ;% 0< L% q^ p] {{ += U^ B] m^ _% P^ x^ |] &/ c< p2 @/ {! ;% >/ o^ Z^  ! 8' r$ +% r$ w3 c$ 0/ q[ 0/ 9% W$ S; [^ M9 6/ b/ (! M= |{ Z- b$ '% {& I4 ~; [{ {* A^ <; u* C- 7= Pp t* J7 ~D ",
"O7 G; <; {* D* S9 u* l* {* K* F* <= `; Z^ 0/ =~ ~< {* h* ]* hR h3 &] iR &] K# S# Y6 @& w3 ${ Y& =} H$ =& +% y^ N^ |] t! ,% E9 /) =< =< 8/ |] #/ U^ sF =! B] a, u% ${ q= D' W$ /^ J= h/ B{ t! U^ t! 2] %/ B] 3] S^ R5 C] i% 3! 9* g] $< `^ J- W^ E' x^ =& t] g] u* {{ w* D^ w% y] U] @% B] P^ += s$ &/ -% o% [= n{ v5 '[ v, jR ^) {! @% B] 5] *9 %! B] &/ S^ U^ d[ 5] /* <; K*  < m, {{ p) Y^ kR @% u* v) p) N- e2 m^ S^ 6] w- x% u* @% S* C{ m^ y% << o- m^ L* 5] e2 ./ y] p] C* k) D^ V7 p> S^ b] ./ i% K* -% x^ L* #& == @& X$ v4 H2 b- A- W^ B- g] 3] z^ g] x^ y% ./ 3] 9* B- C= =! U] j] ,= E9 z* 6* |] %! e2 I{ >< N- 4= p] C{ u* j) b] 3] S) P^ q^ V* P^ x%  / %! /) ,o =- !% K< Q# !^ B/ I= u> 5] P^ << ./ y% {{ z7 k^ &/ T- k^ 9* t- I- U] v^ 5] %! w% @% h% J- ,= J! q^ += o> w- (!  < J] :% d= 9* d= b; z= d= |* Q' 0* e2 t- I{ += d= j] ]* -% C] Q' 3] 7' v^ i% I{ (* v* u* lR B3 s{ a$ !! w% jn ~< [* w* v) i% u* t^ x^ %! (* =! A^ D* |9 c< [{ x^ w* N- k* %! p) m^ N- v* %! u* y= @a g= x^ @% B{ y% Q; _* k^ Y^ 1/ 3] ,0 o- g] U] z= e{ G5 1[ 3$ e8 7/ x[ i% ;9 /* m^ += s$ y] {* h% =- K* o- N- v> {* {{ {! u* a] t! =! <; y% I{ w* p/ o% C- y% u> w% {{ y% ./ ./ s$ @% P^ 2} w- [= B{ ;% 2] U^ y% Y^ x^ q2 B{ 5] {{ V* a[ m^ 6! a] |] i% b] t/ B3 !^ kl jt |] /) =! Uq Q^ (< z9 N% )! +7 0% ap w^ @% 0< P; x^ N- t! :< 3] f/ $% 3! u! [t c> -/ q2 N- 0< @% @% N^ m^ C{ @^ 6/ f/ K) !/ =< @% a, `% N) B{ @/ |] P^ ~< _% L^ @/ W^ p7 P; )> |] &R si y% w^ N- ;9 J- 6/ #< /% b$ 7/ E% $^ q[ n& $^ K$ J) V; Z$ 87 !% += u* Q* u! 5> *^ l% M& +Q s* c< {* y] t/ u* 1* Y= *= ,= Q% bl ",
"Ls !0 N- t* 5] f= P* `* {{ /* i% i; Z; <% =} 5n |* R* C{ l* 65 W} G5 g& )] E$ $* K$ P# Z& <6 Y& O% +% =< x% 2}  / '% F' L% @/ a, i% ;9 h] O% @/ |] p^ |* U^ C^ 2] 2/ #; D' :5 o[ 2; d: y] b9 ${ @% 7] ./ x^ g] u* y] Q^ n] %! B] 2} B- f/ L% N- e2 =< w^ N- e2 ;% I{ v* t] ${ &/ 4/ ,= x% I{ U^ 2} C{ |* c< k& :4 U# ~] (* *% %{ y% v% w^ y{ g] y% $9 x^ /* 5] m, B] %! w* t! S^ =< '= %! i% d* 5] Bn 3] D{ 1/ m, 5] 3! e2 46 << 5] w% v) a9 V* z7 $- y% m^ H- N- w% g] 3] fr Y* m^ R5 l] I{ p) h% 7* m] h] ~< {{ H- v% NL _0 G5 .$ :4 *^ [s I' t] w- m^ q^ x^ c< U^ (* 5] /* C* k^ %! |* w- <; mR 1* C{ y] w% D* @% v* U* U^ u* C* o> S^ 5] x^ 6* $- A- 3* N- *= z* t] m= t- t] e3 G& g& ]3 ,u t! P* p] -% |* ./ v* _* m^ n- |* s$ b] b] L* J- |* A$ I{ l] /* <; f/ *9 N- += {* @% i% B{ Y* |* n] y] ^= u* ;% p) h% u* V* D* B] d= {{ c< q^ 9* S9 J^ f] |* m^ 2] %! m, f= 2* S^ {* N- @/ n< M! 1$ !& Z; (= E' W^ 3! %! S^ @/ @[ << x^ u* u* v* 6* ./ S^ 5] x^ 5] w- x% S' 0* C* @= -% o- j] |* d< (= A$ -% |] V7 ~< p) x% (! p] -% i% #% n- u* +( }^ '[ A& Y$ G= *< g] &/ k^ 3! u* n] g] q^ %!  < y% w{ Uq (* I{ o- k^  < S^ w- w* 3] x^ z7  < s$ `^ m] B] U^ &/ 3! 8< J8 B{ 5] @/ t] X^ -% Q^ g] |{ {! 8' /) c< @% %! S^ d^ L% B] K* %! m, b] V7 u* {* E* '{ &3 S& il nR w^ V7 7k g] += a, B] P^ R* 07 {% ^3 (& 8/ u> f/ <n i% #/ L^ l* =& y] _% s$ P^ ,% M^ f/ g/ x% a, v^ o] -% g] _/ 7] U^ B{ j$ /) |< @% _9 |< m^ d^ L% $9 t! Z^ N^ N^ u! ~! |] y] S% %{ M% B] _% ${ L% h/ ;/ <% $^ D%  ! d/ L% g7 <% *& 0% Q# c{ y6 xp M! `^ K* N* p) 7y $* l% U{ lN n* 1* u* d= $- n- J* {{ V* v* X6 ~D ",
"hK fz j; N* P* {* C{ P* q^ ^* B] H; V; *% =} %) U^ (= B{ k* zx oR v4 g3 R$ $$ qc ,[ @& r$ Q% |] <% t% g7 o] `% |] d^ q2 l% U^ Q; ;9 '% t! 6l a9 0< K) (* P^ U^ m, /% H' M7 0% X6 '- -& B] w^ I{ h] t! t! ;9 `% H- 5] m^ :% ./ A$ v% 1/ q^ 2} i% C{ /* N- w% 7* q^ P* q2 /) 3] ./ 8< 5] t- u* m, g] g] h] s* S3 Q# R$ T; pR 3] x^ ek {* |] {{ 9* N- 0* $- ./ 3! ./ /) q2 += :% P; c<  < 9* v^ v* w* {{ @% {{ w* V7 {{ S^ g= P^ b] *; +a @[ $- 0* 9* @% u* 9* C{ 9* I{ o- {{ I{ 5] w* C{ v> 7* O= p] 3! 6* 6! C{ P^ 6* S9 L% 58 .& $$ 3$ 43 == A^ w* s- 3] E' 5] m, {* v> w- P^ N- y% h* ./ #/ I- 8* x^ @[ p] 5] <; N- v> H- %! {* _= =! p) ./ ./ N* m/ A- v* {! 1* =; 9* 5* H[ :$ ,| !^ s{ 2< KO `* v- 1* B] P* A$ x* A$ <; P* 7' u* V7 w* |* q^ 5] l* w- t! w^ =- x^ D^ i% U* ,= x^ 7* ./ y] s$ v* q^ w* w% $- S' D^ E^ D* q^ J* O* t] W^ D{ i% ]* += -% P* S9 x^ o> += K* m^ 1* {{ {* P* c; ;| [$ s{ k3 I6 j- 6* V7 ./ .= E' U^ {* |] <; m^ u* x^ C- K* w- u* o> 3] p/ @% {{ += 5] W^ v- /* k^ 8] 2] 9* B{ e2 -% J* ./ u> %! j] y] N- q^ p^ S* O2 j% 1[ TN qR %< B{ x^ $- %! t! |< x% ,= w^ U] 5] x^ ~< N- c< _% 2}  < J^ n] 4/ R5 {{ C{ ,= W^ 3] y% |< oF y%  < 2} 2] {! |] 3! t! U^ += V* U^ I* B] j] B] #/ @% g] Gh 5] U^ |< U^ !< @/ u* w- ,= u> H* u* ]- %1 V$ %6 A| B[ q] _q h] s$ 6* w- >% j] 8} M! o: $% u! ~/ 2] u! |] 6' %! u! D% 6' 3! R^ p) <7 A$ J- I{ #/ _/ x% 7] <u 8< t! @% w^ l% p] :% xC Z^ L^ '% 0< =& |] t! a, B] a, o$ g7 H- g] F' d^ |] f/ _% 1* `: L% 3% =& w^ L^ b% 3% $^ @& o$ $^ *^ >$ P% Z; <] 'n A! 3] G4 v- h% 5) *& K{ &7 +Q R- [* U* l* {! P* C{ b* t] <; D7 rR ",
"T9 z' 9* << h% S' h% 2* u* V* M* :;  > !<  ! s' y] H- `* C{ sR T7 G5 ]| $5 {9 P% 9% /% ,[ 2/ .% T0 Z^ f% 99 6% 3] <% '% B] `% %% 8/ >9 t! L% ;9 _/ x% 2} /* _% &/ D& tR o[  0 hl 7= B[ =< m] Z^ >9 ;% B] k^ Y^ U^ 7* q] w= += P; g] 6* ;% -% q^ N9 P^ (* 7' d^ v* y% u> C{ a, 5] 3! @% #/ W) C^ C* f/ }= (3 >$ t6 Q# o< eB '= w- %! N- B] |*  < P^ 0* v) (* I- B] %! i* $- {{ ./ y% 3] w* 3! P^ /* 7* 9* P* m^ P^ x^ w^ y% m, += =< ^/ m/ 5] h] y% j] (! (* P^ q^ y] V7 C* l* Y^ 7' s$ g] -% `* B{ {* K* x^ h* B] D^ s$ 3* 4= ^0 3% '[ 1| Y{ uR /* 5] K* =! y] |] 6! %! {{ 8] v- z^ |< <; {! LL 5] s$ $- K* D{ A- B] {* y] =- I- K* h% += x* Q' w^ B] m^ y% S9 @% u! m, H- 4* D2 Z{ E$ Q: p8 D] += += @% =- e2 d= i% 3] u* 8] v^ C{ ek ){ 1; si L% w* {{ S9 ${ ZO J^ S^ K* m, 9* w% i% P^ -% U] w* c< ./ a- +9 w= w- 0* C9 9* c< R5 y% += b] A$ ;% += w- 2* j] {* t! 7* B] K* N- *= q^ m, m, 08 S} ~^ ~] P{ ~- Y^ 3[ += P* D{ z7 v* {{ q^ s$ A- :< x^ =! 1* D* u> (! l] E' m^ i% 9* v* K* 7* w* x^ x^ v) i% y] b] 5] o- -% w- 8< v) j] @/ p> N/ ]& S& k5 -; r$ ~/ t] z7 P^ 6* &/ p> o> %! U^ <; &/ <n {* 9a m] L% c< |* #/ |* l* m/ P* s$ `* C- @% C{ 2} R^ S9 05 m] (* o> (! z7 |* 4/ v^ P* s$ p) w^ w- 3! e2 V7 w% |] E' h] ${ y] t! 3] ~< q2 8] ~< ,= 3] [= H! ;] %r I~ 2] 7' N9 ${ |] a, >< z7 A= /^ '^ c| x^ /* }5 |] d^ s$ Q^ /) `: $% c> @% /) =< u! &/ y] a9 K^ R^ U^ B] D^ w^ _% 2} L% Gh  / w^ @/ s$ ;4 Z^ @/ B{ s$ ${ i] I{ |] L% W^ ]/ k/ 3! P^ ~; g] /) m% %{ +% B[ 05 p7 T% =< )> m% K{ E% t% J7 K9 B# f{ p6 .e J7 q^ K* V* T] vR U% K9 y[ SD Y* j) u* [= H- F; w= u* }= a* *^ bl ",
"Ls 8= m- c< D* v* (* -{ B* m, ~; k,  > o3 o$ u' 46 w* Y* {* wR xR =5 W% =] S& K$ T% -^ B# )> !< o3 h] p$ 8/ x% 3! L^ !< t% @/ f/ b^ )< ;% y] d^ Z^ a, :% =< /) f9 g/ c= Z6 A5 M! y' l% J- Z^ M% K) P^ !< x^ p7 =< |] u> :% O[ v* %! /) w^ %! q2 Y^ $% d^ #/ u* 2} |{ 6' P^ m= @/ 2< B] t! g] ./ ,% I- g] L3 s6 $$ '} !) =! 5] y] 5] p] @% x^ 9* H- {* R5 7] U^ {{ y% 2] c< y% Q^ y% {* i% s$ 3] G] n] S^ J* :< E* i% yR y] i% E9 Gh k* {{ n] u* p) {{ @% D^ o> E' q^ A- S* q2 t- z7 B] m, g= v* 0* ;% i% S^ K* ;% 5] J^ ,= q2 zR c} )^ '[ #{ `= (! m/ /; @[ S9 v% N- 5] 3]  / o> %! m^ += y] ^< k^ {{ c< J* D^ 3] J^ m, (! 5] ,= Q' |* 5] ,= (* K* h; (! 0* 46 b] w% m^ u= Y2 $5 rb d% AR D% O*  < C{ h% 9* N^ w- _< V7 ]* %! 6] C{ ;% P^ {! += o> j) ~< a, w^ l] S^ += J! `: 3! c< m^ 8< y] U^ m= %! D^ C{ ]* m- w* q^ Q) #% ./ ./ {* 8< m/ 3[ 8/ m^ $- $- E9 [* y% l* N* U] |* _= (= B{ }= ;/ /) >^ n$ p} .$ %[ {{ F! /) p) '= R5 ~< N- y% <; x^ 3] B- {* t- {{ B- 5] m^ 5] m/ q^ i% :* << @^ x% B] o> w* u* y] <* 9* J^ R^ y% N- -% J* A- K3 {} L< S; bB D* -% y] U] x^ ;% |* V7 |] -% k^ p] %! 3] v> B] 1/ o% ]/ |{ -% i% (< j) H- /* S^ =- :% ./ w^ U* t- w* y] E9 i% j] ,= b] -% =< m, @^ d9 `* B{ y] l] r2 x% E] |] J- 3! 6* {! b] U^ 0* =& t! u> {{ h% ,> !^ L< =~ q^ N^ J- W^ {{ >/ << H$ @= ,6 K$ {[ a, |] 8< J- @% B] B] ,= t= N9 b] q2 -% 7' t! U^ =< |] -% Uq P^ -% s$ d^ @% w^ ~/ o^ y% 1] ~! '% @% L^ @% x% (% I{ m% (< 3] =& L^ |] 1] h] d^ Z& J- g] 7*  6 (< P; )< !< !< $* o% <% S%  7 ,< I6 d% f: S; p6 87 06 $% |] w* U* BR *^ t% CR DR l* {* K* o- J- w% %[ <* 5* Kn u6 Cu ",
"'* d; k) 5= $- $- D^ D* m^ h% A- #[ `; 0< K) G! q^ K* R* H= ER Lu z} ()  5 y6 Q% -& 9r p7 n[ (& Z^ ;/ B[ h] 2& '9 $^ a, 1/ j$ 1/  ! x% J8 ~< d^ ~< +% |{ L% B{ @/ ~^ 3* FR s{ J) == _% |] a, L] a, x% t! w^ j$ o- *9 |] i% {{ U* |] += 3] |] %! ek D* e2 q^ ^) v) ;% e2 l] p] 3! %! %! I* y] C- Q' a- O2 ]& E$ V{ GR <% K* c> k^ y] `^ e2 c< Da E9 %! @% +a C* f/ g] S^ d^ += y% -% v> z7 HB C* V7 `* 46 n] -% |* y% m^ ./ B] n] x^ >% 7' S^ y] L* o% @% N* o> v^ a] v^ @% Q^ ,= t] Q' zn w% C{ $- << I' -% o> (* q^ 0* m^ H- P^ ]< {6 '^ [^ 7^ 8- 9a ]= v* U] U^ v) S^ J- w* N- 3! 7* 6* ;% O* u= O* S9 H- U^ J* 5] u* P* <; *9 V* 0* P^ m, C{ B] S^ @% u* /; z* d= V* // G/ Q# !%  A HR ~< v* K^ m, U] q^ |{ 5] 5] a- k^ 9* 5] -% R8 I{ I- Q' |* ./ k^ -% V] i= 6* 3] x^ S^ |* x^ i% z^ S^ C{ w* _= N- i* w* C{ (* w- h% @% << H- 1/ B{ B] j] U^ p] x^ n] n- Y* %! |< << =! F^ B] Y^ S^ S^ i* yp M: :$ :5 N< 7= 3! S' o] U] S) ^) o> -% N- |* t! #% J^ w- B] N- J^ (! @% o> 9* u* m^ V* w^ << P^ Q^ @% i% %! 9* H- N* |] B{ `^ y% y] s- F2 g& .& }] 2p %9 x% J- x^ << H- I{ 7* B] W^ m^ 3! (* N- w* v) H- x^ q^ G- u* w* += V7 t] w^ |{ @/ x^ |* C- |] p) w^ V* y% E' 2] 5] M% C{ J- @/ 0* -% J^ w- y% p] y% A$ 7] E^ U^ _/ %{ H- 0* a] /) B{ 2] w- B{ i% G= Y; !^ {9 9k d: O% {* B] c> g] #% KO S] p6 >$ g2 s$ @% a, g] :% Z^ o> w% @/ )< N9 %! P^ |<  ! 1/ @% C! _% `* o^ I- P^ t- h] 4/ P^ +9 y% t! U^ += B]  < x% C^ q^ 1/ ${ /) &/ %/  / F' d: /) N^ !< O% L^ B{ 2] p$ 6! *% >/ E% `$ 1/ ,[ p7 (< 4% $^ d% '^ S; `) 87 ($ V* '= E9 #/ }! @& p7 4^ x< y] w^ i% 8> x^ (* J^ h% m- k) :6 kw ",
"IR A' |* .P 0* Q' D^ *= J* 9* K* 1> U; +% D6 0> w^ m- 9* |* iQ x7 &] L} W{ d% s{ Dh J) %% /% E% =< r$ h^ ^) `^ 1/ `6 =& h] U^  ! a, =< X^ `% =< P^ WO `% Z^  < P^ ,[ .u J$ b% ,[ 4a s$ L^ `^ bo !< c> |] L% {{ R5 7* N- a] t] &/ <* U^ P^ w^ u> B] =< B] g] &/ S^ M] u> l] += w- p) b] Y^ 9< <; q- M! d} ;] B# y% B] c< m^ g] N- k^ $- g] 1< {{ @% N- S^ t^ u* S^ |] [t l] %! U^ S^ m/ K^ 5] m, %! y] a, `* B] m, i% u* ./ S9 /* V7 V* %! ,= V7 2] m^ B] m/ K* Gh 0* K^ $- u* 5] Q^ K) m^ 2} :% B- k^ m^ ./ 5] ]* |] o- d9 x^ ,= 3s s! {% !6 N} F' N* 8] B- |* c< {{ ./ A- S^ v> h% 0* +% p) +[ I{ h% ;% |{ D^ 2* m/ fr n- V* m- >< n] += |* b] S9 x> f/ o- $- 5] u* AO x/ 2% V$ v} JR kr ){ w- :% (* += C{ v* J^ u* A$ h% << %! %! C{ 5] (! 3! (! y% q^ u! ,o U^ @[ S^ I{ P^ g] 7' y% w- {* `* I{ m, t- <; w* O* B{ y] C* H- o- $- -% '% ~< a, w% U] i% 5] %! 7* K* v^ 3] 5] E' {* B] A- $- _< -< KR v5 2% b4 o} j= m, w- E^ B{ V7 u* g= @^ w* m^ w- <; v* 2] += w- #% |< q^ j- u* ek += 7* ./ :% ,= x^ P* E' 5] 3] 9* x^ w- u* p] m^ }/ f4 #$ ;6 ]0 3) e9 ./ d9 Y^ += ,= E' {! {{ L% z7 3] v^ (* m/ g] S9 3] {* W^ $- H- x^ 8] 9/ u* w^ P^ ,= #/ DP z* x% a] J^ g] t! |] 46 ,= 8* 1/ ./ =! o^ _* w= t- P^ i% f] &/ s$ y] x^ {! L^ |{ a] 7* a] #/ $9 7* C{ 2* E2 .& F& t' @/ x> 3] 2} f/ ./ un x% M- <] '^ +3 LR `^ P^ 5] -% :% I{ x^ 2] {{ a9 5] x% 4} _% %! C* a] 0* +[ V* M) G- $- w% H- w* g= S' w- b] ~> {* m^ S* S^ h* {{ |* z* A$ <* %! l* i% W^ W^ a, :% =< '% '% L^ g/ :% `% $* =< e% g7 /} Q6 >^ h) E$ $^ c{ !^ 37 @& %9 7' `* w{  - $* 0/ $| Mo '= =! w- x* N- {* P] u* a, u* /} kw ",
"$q F; )= A- N- h% m* h; m- O= :* !; k{ JO (< h, t! h% 7* d< MR b7 =] () U: /^ 4% $^ K[ L& P% $^ r$ t% g7 u% g/ ${ L% D% 4% )< P; U^ f/ 8/ $< L^ r$ ./ !< L% 1/ R^ ZM z* O% ;* J) == =< B{ L% 0< m% <% a, w^ L^ J^ D^ w^ s$ x^ D^ y] B] x^ w^ P^ U^ |< &/ {{ y] 8< $- ./ I{ S^ C^ y] #% C{ B] C{ u= n{ A& P# S< g8 J8 ^< p) q^ K^ d* x% B{ N- 0< %9 %! z^ {! z7 i% w% x^ s$ u> q^ U^ Q' C{  ! B] f/ x^ <; += U^ n] K) |* B] z7 u* I{ :% ,= g] Y^ `^ B{ I{ x^ |< k^ y% += -% w- V7 p) &/ z^ w- += m^ =! S^ ./ U^ v> @% w% <; D^ m- ,< H; J) Q# L< c^ p) }= K^ ar 6! xu n- {* n- m^ V* T- <; j- .} S^ x^ z* B* v- =- ]* s, `= +[ *! Y* ,; E* f] d, U* b0 K* A* d= <* 8= v& y[ NR Y6 hP @/ q^ m^ =L 1* (* N- U] g] m^ I- -% U^ Uq 0* g] C{ |* -% C{ ,= 7' w* q^ N- p) J^ K^ A- y% 0* y% %! S9 B{ D{ E* p) o- Q* $- v- {* p> u* z^ i% w% u! Q^ g] C{ 5] w- t! s$ w* 8] B] H- A- w^ i% m/ V* #/ i% C{ t^ ]> `2 '^ ;$ y2 `% a; _< N* p> 0* S' J* V* R* |< w- w| I- R* m/ k* <* 8] (* v* 4< Y* S* @= V*  = /* |* ]* K* <* u* %; +o m, 4! v* l* Y< *$ f$ d| OR sj q^ i% =! m^ q^ Q^ s$ 0* N- S^ 3] v^ s$ {{ ./ q^ @% ,= d^ HB a, <; w- 5] 0* N- S^ >9 6! 6* v^ >9 3! =< K) @% %! 5] 8< ./  / 2} U] H- {{ V* S* _% J- ,= B{ h] c< m^ y] N9 6/ i% p) 6* {{ :% k^ w^ q^ {; f{ B# ,^ PR 2& &/ #/ B] P^ U^ a] $9 H- p6 X6 {& si B] W^ =< 5] N- g] @% w^ y] 2] J] J- c< 5$ '4 7^ -3 oc O3 A2 O3 ;3 H2 a3 9} L) 73 Q2 Q2 P{ C| G3 C3 C3 L2 x| J2 J3 F2 &3 H2 ;3 b{ ;3 B# 3] >9 f/ ]/ Z^ `% @/ =< $< :% L^ ${ D% m% =} u% N^ h/ 6% n$ L| @& w5 ^% Bn M- F! += G~ Z& w3 3^ La H- [* f= C{ v> (* V* 46 J! v* `$ nj ",
"QR Nu y] ~-  = w% $- #/ $- m^ (* $! S; e& H6 .{ w% w* H- Q' gu W< ~5 W< v4 ,^ (} ~% f2 3% b^ 2/ =& K{ L6 r$ g7 d^ P^ t! h/ U^ ~/ |{ p7 z7 ;% m% c> U^  < _% C^ i] [/ (* /% E$ /} R- |] u% 4/ a9 L% c> $9 B] Q; Q' x^ 9* i% 0* a, C^ ek x^ i% -% x% {! Y^ w^ z* U* -% S^ |{ x^ K^ q^ K* {{ (! v* y2 *5 @$ !& ') 7/ )! t! V7 N- *9 <* -% g] p] q2 /* 7' ./ {{ P^ 0* /) p^ |{ B{ ~< L^ p^ 7* c> #% a, i% /; s$ m^ s$ $- %; 9* d9 g] S^ {* H- I{ n] 2} u* ;% P^ 3! Y^ ~< << [* m^ %! A$ a] c< 5] `: D* p) <; p/ I{ M% y% 5] C* |9 y] <* >o Z; >6 j% {5 !! C4 '4 _3 a} C4 g2 +3 b2 S| S2 g2 y: a} =p {1 9} o: NN n6 5! T2 02 d3 M: L) (3 a5 ^3 ~3 (3 F2 M: o: %1 J5 A2 !! %} >$ Y# Q: $8 1* += 5] V7 ;% p) I- /; m^ Bn ;% y] << (! ./ E{ B{ 3* 6* @/ 9* =< i% (! /) ./ -% a] k^ t! U^ C- @% :% B] ;% 5] w% c< I{ (! *= |] o- (* C{ N- v* x% p) m^ 3] c> p) @% x% @% p) }5 -{ i% @% C* V]  ! w* 3! a[ T] 3! @A )5 }$ @$ RR |4 m} -| 7^ ^3 a3 M: M: s! Q: (3 o: :P L2 R} $3 b2 L) 84 x| C: ]3 U{ M} $| %1 =e !| d| G/ Ma {[ !! w& B} y2 V# C: Y4 ~] ,^ S# C- {x 5] 2} m^ :% q^ m] '% x^ h* c<  / B] U] h% V7 &/ w- -/ x^ ~< q^ v^ U^ |< N- m^ C{ -% z7 (* B{ U^ += B] h] g] c> 2} m^ |] =! ;% q^ B{ o^ {{ n] y% 2] `^ y] Q' 3] s$ m^ :% <* y] 5] L% {{ $- U^ o- ,= m= n6 _^ %6 SR  / Wp e2 7' m] I{ I{ M% u- Zl <$ O2 q^ {! 3] B{ }/ @% Z^ g] x% [/ c> vo t* #3 S3 12 x| x| _t e3 Z| C| oc *3 a3 Q2 b2 Z| TR L) N| 7^ %1 /3 x| Q2 ,3 +1 !! H2 UR a3 +3 {3 *3 #3 )^ B{ 8' g/ m] g7 N^ 0/ c% A6 E% g7 J9 >/ $^ %< +% N^ /% qc V; A! 80 $$ I{ |{ q= I{ q~ `$ b, =e VR (! n- += ;) u* B- <; {* t- o-  r RK ",
";H o) ]* /) K* I- |< )= v) p) {- 6> S; E% g/ W! m^ H- n] <* v< WR y) =] .5 L! !& $^ Q% r3 Q% q[ H$ #& B[ $% t! un %/ 8' *< ;% p7 @/ L^ /) C{ }/ ${ (< B]  ! t! =< @/ 1* K9 s{ V$ Q- 7% A$ $< ./ |] ZO A$ g] `^ n] w^ N^ ,= x% t- B{ 2} U^ 3! s$ @% &/ x^ ./ %< S9 {! ./ y] G4 E' B] -% 5] 2} 8] ;3 XR W$ (s 1F w* ~< v* %! w* y% C* g] d< :% %! w% 8/ q^ @% (* 6* J- ,= B] =! U^ 3! t- }= C^ q^ y] q^ P* i% v) ek L* q^ 6* o- a, @% X^ x^ y% '/ U^ 3! 2] P^ N- s$ x^ S9 y% << E9 S^ h% p) g] 2] @% J* H* m] w% +[ B] y] t! m, (* (* &/ YR D5 ~% f$ g& Q# _^ *5 z} 1[ ol _5 s{ G5 }$ Y4 Z{ D$ )] :$ z} @$ X$ !& j% *5 G5 ~^ ,^ g5 '[ '[ {} v5 :5 .$ q5 g& Z{ Z{ R$ k& N# 3$ Z{ 8< (& Q; x^ t] C{ $- q^ $- Q^ N- << (! 8] S^ f! 5] y] x% 3] @% ./ $- << N- @% Q) q^ 7' %9 += B] d< t! t] C{ ]/ u> ]- K* I{ += =- x^ |* C{ I* E^ y% (= m/ 0* Q) << -% B] h] B{ 9< S9 E' ;% t] v* $- {* B- 9q k^ $- x^ b< %! :4 -$ ~5 .& |$ 4$ `# f5 `# =] @] 1| z} z} *5 V4 -$ () g& y) k& 2| )] )] L8 p5 !& /& j5 &] '[ v4 _5 v4 !& @* 1[ )4 W% 5& +5 n2 >$ d% B7 [9 u> m= 5] ./ t! U^ {{ I{ R^ 4/ -% m^ 3] y] C{ L% z7 m/ |] I{ U^ |{ %! f] &/ B{ K) <* ^< H* >/ -%  ! l] s$ g] x^ i% N* m] w^ 2} L% g] w- m/ 3! R5 (! P^ @/ -% M% Wp p] i% ~< =! C{ B] J- {* P^ {{ t- ^* /* q= h> ;6 A& s2 (< p) a] y% u> 2} m^ ;9 += (} s{ [3 B] S6 sj g] (& p] q^ U^ =& d! ZR %! )& u} 7& 1$ #* }] zo ]& !^ E[ !6 K# F& E$ b> a$ ($ X# 3% Q# V$ nl |% j% .$ .& ]& n$ .& *] P# !& (5 ^| Z; -% XM f/ g/ +% '% W^ !< S% @& ;4 7/ $< Q% l$ q% a$ '[ a$ mc }] ml {9 m^ 5] E' |{ >= ,[ <0 $4 %~ 7* += 6! #% v* ./ s- =! K* V= <] !q ",
",E P) t/ f= v* m, *9 i% E* L* D* r= .> [] |] /~ q^ b* R* l* uv q} g3 #5 (5 0% Z& -& K% F6 2& +% r3 c> ;% </ r$ 2} #/ 5] Z^ m% z7 f/ N^ a, =< C^ `^ 2] x^ L% ~< `^ 0< v) $* $$ .& r;  ! o> _% E' /) 3! e2 << (! ;% /) @/ S' $- I{ 1/ 1* z7 Q^ a[ P^ S*  ! v> += a- y% q^ m, :% E' N- K* `* S9 3] g2 t6 r5 H# *; u* $- v) x^ z7 <* @% 6! U] m^ P^ w^ I' B] x^ y% c] @% N- {{ p] |{ 0* C* l] 5] 0* U^ ./ x^ S^ t- << i% <; (! u* 8] x^ x% ./ p] A- i% x^ F^ C* i% {* S9 c< Y* P^ {{ q^ P^ B] w* E' 9* a] 3] C* |] %! $9 v* w^ 5] t] Q* 5] P: >] F& :$ >$ '^ /} b^ R$ !% g& W$ E4 Q# =] )^ V$ a$ A5 )% $$ o6 p& .$ 2% :$ '[ j% }] f5 V$ 1[ !^ -$ S& !6 (5 [^ j% /5 -$ Y& 1$ $$ :5 O2 %- B] h* C{ h] 0* y] %! D* 5] u* ,% {{ f/ =- i% 46 -% m/ 7' ;% p^ J* ;% Q' y% K* $- c< G4 @[ !< B] J- ,% >0 a, 0* m^ 9* 5] E* m^ P^ O* d< 0* H* n- S^ w% {! ./ :* d< /) y% u* y] U] h] D* |] f] U^ (* P^ S^ x^ =! h; D* (3 v5 i7 }$ ^$ j% #$ A5 2% >$ i5 !^ A& s6 ^$ g& '[ =^ s{ :5 {^ g& =^ 5% s{ -$ P# :$ ~^ j% .& q5 )% )^ V$ @] s% S& (5 {^ V$ n$ -& .& g} V* n] y{ y] W^ y% 2} R5 {! 5] i% h% u* B] y% t! N- #/ w* 3! v) +o I{ m, *9 O= V7 S^ #/ L% |{ u% ~< ]/ 3] :< P* t! x^ =< w^ P^ B{ J- ~! @% 7* @% C{ U* |{ y] 6* s$ K) x^ x^ c> N^ 0< ~< i] ./ K{ @% 8] L% ]* 1* B3 -$ +5 NL N9 S) W^ {* w* B{ ./ g] m* u5 r6 D2 mR T^ q] o] Z^ w- t! c> ~/ ~0 ]/ << H! X< %] 2% S& (5 w6 0% kl l& n& K$ /} VG #< w3 o3 {9 Z$ $* S# b% X# !% {% .! d% }] @& .& 1$ m5 2% j% Z{ w{ -& u$ >% `% F' ]/ '9 @% +% h/ @/ p7 0/ [] U% p$ ^^ n[ V; v6 b> K$ E9 :* Gh u* 5) #& $* Z' iQ w- p) 5= l) h* += N* 0* t* x* ,6 W5 ",
"#C G- {* S' e= N* P* ;) a] d= <* ]J S; j$ G] &) 5] C- 1* O[ N! .| z} =] _5 9% 4% '[ ^^ -* %% p$ #& '% b% H$ -N F' U^ 5P 3] _% p7 %! {! v^ =- d9 x% 4/ h] ^/ ;% xC k/ z* K9 F& +% g, W^ 3! B{ W^ x^ <7 }5 a, k^ f/ y% m/ {{ 3] N- ,% g] w- 1< T^ _% '/ i* k^ (= A$ |] g= ./ KO J- u* j] 5] u* !/ N' ,^ {} y[ F3 7[ S) DP h% |* C{ C- &/ B] p) Fg '9  <  / i* (! m^ S^ s$ I{ j] {{ [t |9 P^ U^ 8] {! y% $- a, %! m, ./ 46 D^ y] y] K^ t- 2] <* %! V7 w- J^ 6* v* f/ u* w% L% S^ 5]  / &/ B] A- w* s$ 2] w^ u* b] ;% w- j) 9* 5] t- t- h* b{ 1[ z} Zd S; S; S; g{ S; S; Z; S; S; `; `; S; S; `; S; S; S; `; S; Z; S; S; S; c{ S; S; T; .> S; >> .> Y; ~[ c^ Y; `; T; S; y: K# ;6 :4 J) )! 8/ 3! 9* m^ v* q^ 3] $- 0< 1* %! s$ Wp 2] x% 5] 3] S^ ./ w- w* i% S^ 7* C- U* P^ (* W^ V*  < ar `* d< {{ 2* (* p> =& v^ J^ <; J^ 0* /) c< p) p/ d9 a, v* 5] y% E' {{ |* += v* 3! d9 ;g 2} p] m- $- w^ Z^ t^ Y= s% I/ z} {% m{ T; S; S; T; S; .> g{ `; j> `; +> S; .> `; S; Z; S; S; S; S; Y; `; Pw G2 X; g{ U; `; S; Z; #6 U; +> +> g{ T; S; Q& P# S& .$ @$ fk 6* 5] m] 9* B] m, u> t! &/ a, $- S^ w- d9 y] U^ w^ x^ y% ./ N- f/ M^ {{ {! oF w^ q^ q^ iP c< Da ;% {{ e2 Z^ w% 3! n% $- z7 ;% L% S^ Q* j$ '= *9 |] q^ h] 1] |] c< Q^ I{ J^ Z^ t! u* _% b] D^ j] |{ i] X= Y; }] ~^ Ms 0/ n> y% l] _/ f/ 2] %9 6! 7p kl Q: K^ /) ./ s$ %!  < A$ c> u> 2} B] y] D3 d% *] )^ I9 n9 *e @$ O# .] *f m5 W% ^6 U# Y$ +$ B} c} N& c} /] i4 :[ B% ]$ 95 ]5 j% `& :[ [^ }] (} K$ Bh W& x> 0< A6 |< !< Z^ 6/ p7 d! E% o3 $* b^ 5$ _[ 0% E$ `R '[ hq 0/ c/ P* >< $- i= {9 o3 C: f~ 0* /; T^ 3! C= << _= +[ o> {{ j/ t[ ",
" S T= $- =- j* c< E* 5] 8- 3* _= U! `; F' >[ .~ p^ [* V* ./ qJ oR k7 @7  5 l& a$ J9 7/ i$ %^ <% H9 H$ Z^ %% )9 =& [] 6' N^ $< y% @/ Z^ (& h] O^ /) N^ Q^ 5] o> g] d% 4< ,[ &] F' M* .% j] Q; /) |< t! o> #% x^ B{ R5 5] p] U^ /* B] N- a, |{ B] I{ =< a, b] ~< v* ,= S^ P; N- I{ a, i% U^ |{ :% :~ b{ *5 (5 h| >% Ep A- v* += m] 9* m^ |] D^ V7 p] {! x^ m] `^ m/ c< m/ J- w^ n] += 3] 5] J* B] O* ;% %! {{ <; 5] m^ C* e2 J^ 3! y] w] b] w{ Q) /) u* V* %! w- v> J^ A^ 5] /) t* x^ V7 u* m^ {! |] |* @% $9 6* =< j] w- 5] p) S^ J^ 0$ )4 q% h$ QJ F/ W7 .S lO f8 +. SP +S $. yo CE r8 @S b8 #S Rc Vk tA `o TO TO $S x8 <8 %S Vk sr k. &S ]7 =C  8 e8 Lq b: *S =S -S ;S g5 3% ~] H! -% ;9 o> b] e2 K* m^ ./ q^ S^ t] g< B] /) V7 /) `% >< x^ [; a, B{ i% += i% ~< p= I{ I{ ;% S^ N- a, B] B] 8] h% -% E* 6* (= A^ o> 9* /* $- D= m^ += U^ N* ./ 2} H- m] ,= y% Q' }5 S^ N- +9 8* 3! @% =& (! v^ C* @= /3 Q# 1% o: :Q gB ]t #r nn >S ,S `o X7 X7 g8 gB #I Vk 'S f8 )S XP !S _w F8 ~S q8 {S &S 6Q M0 gB {8 oo D8 2+ ]7 ]7 ]S ^S xc |o /S y) E$ }] @> U- t! U^ _% Bs z7 3! 8/ u* n- ){ |* 8< =& B] += t! %! << a, {{ J^ A$ a, /) b; Q^ i% x^  < t! P^ 2] B] Gh i% P^ d^ @/ q/ t! ~< @[ m/ @% 8] _% O* I{ |{ 3[ *9 P^ B{ 2] -% x^ p$ 7* -% I{ 1/ u> v^ !< {{ r; e= D2 q5 Y# G! B] L% H6 =< P^ |* _% R^ l* 06 >$ S2 P^ q^ m/ i% W^ I{ :% x% K^ B{ O6 c/ L] o3 v$ r6 O: e! `c `c Bt <8 `7 (S _S .o Op #( :S <S $. Xc a8 -4 $. [S }S |S 1S PL 2S 3S ]q =] @& r$ C4 MH j] L% s$ L% !< $< p$ g7 U% '% f/ r3 Q% B[ L^ K[ *^ ~] p{ }] L8 J$ ]/ m^ 9= C# C) *^ =} J/ s9 h% B{ w* C* D^ t- q^ x% ~< w% t% 4S ",
"X5 u; I{ <; j* {* K* l) |* 5= D* }; S; S% j$ Xk %! q- x* :* iI B: nl p} )] ja <a JO )6 7/ 6% n% =} <% p$ z7 &/ q2 ^) L^ U^ |] <% a, =& $< 6' @/ t% B[ $- R5 p| N^ 2& y' V6  7 W$ ]; $9 /) @/ e2  < t! |] z7 t- vo I{ 6! t] {{ e2 p) i% Y^ B{ 4/ g/ 3] @% y% R^ q2 g] P^ |* m] w- N- C* s$ Z^ Y] ca <S |[ :5 G5 N< _* C{ m- |* d^ y] p] `* 7* t] z7 k^ {{ x^ e2 += ./ ./ C- w^ _% ./ N- 3] w^ %! 5] R5 H- |< /< 5] 0* q^ y] `% {* x^ A$ P^ Q^ a, 9a $- i% e2 V7 a9 U] D^ += -% ./ q^ 5] c< y% E^ B] R* B] t! L^ p] 7' S^ a[ g= R5 w% R3 3% d% B3 gH 1* d* h; 3* 5S <; ){ $= i* += t- m, n- z= ^* H- <; i* ~; t] B9 v* w= 1* {* #0 << a- S' := n> b; n- ]* :* d* <* l* mp NN P# f$ () x3 _= ~! =- |* I- 9< S' y% 9* =< `* P^ u* |* y] B] w- %! k^ z= S^ ./ =< u* o% 3! Q' L% x^ 5] 3] B] @% $- {{ H* w* K* x^ O* n] 6! S^ (* H- C* H- o> B] 8/ C= |* q^ $- |] P] |* 5] u> |* I{ $- d= O* m^ 0* t% t/ y: -$ !& )] Xe ^$ ~< q- y= )= 9* k* ;g ~; <* K* S' E* (! h* '= d] y{ V* t- S' N* ./ 9* (* t* $- += n- `* ,* 0* w% 3] s^ B* k* U* B{ Y/ L< ($ {^ %} 2* w- o> B] @% L% '= z7 j] 6* I{ V7 L% U] 2} p] V* 2* y] += i% += q^ C- x% y] =< U^ += ./ {{ ./ a] x% p] 5] b] {{ a, U^ B{ R5 fk E7 %- N^ m, y] 1/ W^ g] h] j] #/ _% a, u! 8] z7 B{ a, I{ w^ E* 7' (! C= (0 e5 &$ 6S O% o] s$ &/ ,= {{ |] 2& e] .e {6 /4 L] `% q2 !< %! W^ 5] {{ Q^ I{ B{ #/ b: 7S $* 8S a> /% o$ 0{ [] 0{ (% M6 <7 f2 K{ ^% _/ C6 v6 `$ K9 G6 D7 !6 q% *^ .! /^ _[ *& ;^ K$ 8} g5 $F Ga b, t! o> w3 !< =& `^ q[ +% (< *^ F' S# Q% ,[ o3 4% >^ `; ;] %6 /% U^ 5] 1< {! r= a$ `% T& iI U* ]* {{ m, $- m^ ,* n] Y^ S* o[ EN ",
"0' F{ B- .} E* q- w= 8- w- x* O= =) Z; %^ ~< 1~ 7' C= G- C{ <v 'r .5 A} j% K$ -* Q% l& B# w3 l% )> L% r$ t% ]< L% $9 U^ =< L% +% Z& !< L^ h] Z^ q[ &/ ,% R5 w] I{ ]< F! !a  7 B# 1> @/ _% >/ 8/ B] E' U^ I{ q^ U^ @% y] ;% S^ '= 2] |< y] t! B] S^ q^ o] {* A$ s$ 2} s$ C{ ./ 3] w% !< z7 H- b/ s$ 5a qp >^ P% N& b$ D^ B{ U^ C* y% %/ q^ w% C- 8/ y] {! S^ a, a9 m, 5] P^ += %! u* -% J- 2* ){ {! x% a, h% m^ B] R5 t! y] y] 8] u* 3! ./ p) e2 y] i] {{ {! {{ 7* y] n- %! C{ ./ ]* 1* m^ Y* B] w* J^ N* Q' %! k^ B{ J- N* E' B* C3 Z{ t6 :$ =8 o% K^ Q' t! N- n] x^ C{ S^ 3] u* P^ m] i% B] =! x^ c< 2] ^< w^ w^ =& I' x% w% q^ 5] v* @% ./ p> u> V7 << =- 0* jo w% x^ CE i3 ($ X$ B/ C] O* u! *9 $- t] 3! Q' B] 5] C- S9 9* h* V7 {* {* k^ V* O* `* n] 9= y] m/ N- ]w 8] 5] U^ <* _% q^ m/ d^ `* R5 += P^ ]* S' %! J* c< q^ [; b] B{ u* 4* N- w% V* h% {{ p| {* {{ :< O* m^ m^ 0* 5] N- |* 9S 6/ k6 Q# /^ =e 2k V] @% e= |{ i% E' B] S^ += {{ `* A$ D^ a, R5 B{ (! :% s$ z* y] x^ Q' u* y] m] << ./ q^ %! e2 /) v* {{ J] m/ P* 3! L^ 39 !4 2% b> J5 |< Q' x^ L^ ;% ./ ]/ 6! B{ y% A$ q^ N- 9* <n a, B{ l]  < @/ x% U] a] t! x^ w% B] k^ s$ @% N- t^ -% @% C* x% |* z7 5] B{ ;% K^ 8/ c< a] L] H- E{ 8' /) T] N9 L^ u> M* g< 9* |< += %! j] >/ L% v> @/ -% b; c{ %] A& Xt 1/ 3] q^ 7' !< @% D^ !< S* c6 ~^ #{ J9 i% P^ Bs 6! v> L^ w^ f/ 6* @% t! t% 0S B] ,J h{ U; S; S; T; X; c{ T; m{ X; %> S; S; S; S; T; S; &> e> S; Z;  > B3 S; S; g{ S; S; ]0 Sp M& B{ P^ 1/ @/ (& '9 x% *^ =} H$ o[ g/ T% D% 5$ +% .! 0% d% S; M! Ks M! R5 O= A- |{ n, X< th 84  t B- u* 7* Y* ]* w% <* c< m^ U* Ot uD ",
"f^ L7 m^ <; k* I' v- <; Q* m= b] <! S; T%  ! s' P* k^ 7* [* [q x7 .5 X{ z} Y& K$ !% B# <$ $^ 5$ O% z7 [/ S% +% J- l% F' l% =< `% U^ @/ }/ R^ J9 9/ L^ !< l% 4/ t! K[ 3* r$ 0% K$ W= 4/ A$ J- U^ 1/ `^ a, A$ t! x^ A$ W^ C* s$ -% |* ;% 4/ V7 a, p) U] g] q^ c> +a t] y] C- `* y] U^ M% R5 7* N- c< si aS O# .& '[ `2 G; 5] V* << g] C* '= c< S^ 2} t] *9 j$ N- U^ t] l] (* q^ y% E' ./ R5 u* t! 3] 5] B] += |{ C{ Q* O[ >% m, S9 s$ I{ y] w- P] y% S' I{ P* P^ w^ N- ,= y% 5] o> <; m^ I{ 0* b] N- %! D^ I' %! w% u* p) (! 0* (% !! '[ !% &7 -{ v* w- p] P^ w- N- c< U^ :% y% I{ C- @% y% 2} u* `^ {! a, y] u* D^ L* ;% q^ q^ #% 2] y% !< e2 P^ S^ 5] 5] b] p] =& w^ @[ S# f/ @& &] Z{ Q: '- |] <; %! ;) y] @% G9 o> %; D^ S^  / u* {! A^ E' m/ %! %9 N- C{ N- << m] h% x^ p>  ! A$ t- {{ 7* V* 9< Q' q^ N- (* 6! += C{ z* .} (* << m^ D{ k^ 5] m- %! 5] C{ S9 0< 3! I- 8/ y] 5] v* u* `* J* 3; P{ (5 %] 0$ B| n% C{ += += x^ C{ s$ {! 5] ;% S9 %! g] w* m/ p^ w^ 5] L% m^ u> U^ q^ u* o% << 5] m^ B] N- M% p) U^ ;% tq i% 1* VK p> 6* $% <> L< {% :$ F2 j- ,% si i% ./ z^ h] @/ m^ |< H- (= 5]  ! v^ |< 5] f] x^ U^ t- x^ n] e2 6* W^ _/ o> Q^ B] V7 $< X^ _< w^ n] B{ N^ += k^ S^ /) K* E' w* %! S^ c< i% 6! `% w^ w^ 6* j$ o> :% 1* B{ @% i] u* q2 @% e2 9- e{ ~] Q# Z) !< B{ 3[ t- !< C{ C{ 7/ v> X6 ;6 ^3 un m] <n '= !< L% C- @% w^ y] U^ _/ s$ O% U- %8 YC bS cS Qo 1p dS eS fS b8 Ic gS i0 pM Ec hS iS 9Q r8 jS kS lS mS nS Wn oS ~P pS e< 5* qS ,* @/ x% B[ x% N^ `^ B] 0/ M% -& t% <% l% *% Z$ O% ,< X6 K# V; ,6 ,6 6% %! 5] (* J! dR B# Z^ /4 /9 E* V7 x% K* N- w% t- a] S' z* v6 =4 ",
"s> @= m- =; V* `= D^ I- e2 M) D* Z~ S; r$ q] &4 ./ k* (* 9* /~ @7 T: +| )% y6 $* ca q% g/ r$ S% r3 r$ ${ w3 !< S% 7] 7/ x^ t! ]/ _/ k/ t% 1/ !< `^ _/ a9 S^ ;% #/ ;9 z* _7 K# D7  - g] %! r2 m= 8' }5 += N- l* <; C^ %! p] V7 V7 U^ fk y] s$ m^ k^ @% @% x^ C{ I- 7* C- q^ :% u* #% U^ B{ Xo 3! 1< 7] +9 !O 0% }] /& p} 5] v) -% >< z{ [* X^ C* (* F^ =< w* |{ w^ |{ p) C{ 5] y] S^ |{ 8] u* y] Gh {{ u* N- P; 3] |* n] {! =- C{ += FE S^ J] 9* U^ p) g] @% 7* ^* B] N- |< E^ S) '/ x^ 8] 7' Lw I{ S^ R5 S9 <* N* y] b] #% o* b{ s{  5 5^ 48 w*  < Y* q^ R5 y] E' g]  / ,= m^ vo 3] g] 0* U* 9* v) E' |{ 8< :% q^ 3] %! =! #/ -% m, K* P^ x^ w^ 4* -% i% 3[ K* ){ R5 3] =- mj m} s{ @$ '| ,} is 2} c< N- 5] -% *9 o> q^ -% {* |< [* =& S^ g] V7 {! Q' '= 5] V7 p) *9 u* 4] K* y] 5] y% x^ u* += q^ x^ -l &n Q' << '< 5] j] /) I{ 1* O* += J^ w% $- ;% e2 t- Y* x* ;% /) _* y{ 6] %! /) 9* m, a> `} m5 >$ Q# U^ e2 w^ w- d= i% n] w* 3! -% S^ ]* s$ -% @% 9* 0* {{ y] I- %! {{ U^ b] J- C{ I{ C{ t- B] S^ O= 3! 9* i% 3! ./ N- m^ 8< Y9 ,= Gn o: b> %r h} /} I{ %! 0* a, $- 46 y% I{ d= I{ S^ Uq i% @% u*  < )r q^ x^ '/ L% g< ~< g] }5 w^ E^ W^ l/ C{ s$ c> ,= m^ J- x% K* u> B] += h] w- 6! D^ ./ B] q^ }/ c> P^ W^ K^ C{ |{ 6! << h* q^ #/ y] x^ 2} B{ (! k! b{ ~^ L< fl c% 6* Uq  < t! B] B] N^ w% ,6 B# 9} P^ u! 46 {{ 6' B] @% w^ un 0* @/ v$ V* j$ 8] x> y] S) O= m* O= B- =- D* w- _} =9 y] -% h% s- w% I- m= i* K* $- d* `* QJ Ym j* 0- y] S* 3& d! =< #/ |] s$ }5 h] -/ =& :% 5$ h) &/ r$ U% -& 2/ A[ 3% .! g{ }] _^ `$ eu {* N* q^ Y[ }] W$ V& >o M- V7 S- D{ Q* d= ek D^ {* I- =} nj ",
"5D >e -% 2* N- w* D* j) {* {{ C= 1= U; 4/ x% @) :% w] =- O= A| Pd nl c} 3$ 3% <$ r$ A[ %l T% 7/ f% l% %< e% O% H$ #& z7  ! ${ U^ =& #/ r$ 1/ g/ '% T] B[ 6% B] Z^ %! h; /} 5% E$ o, m] ;% m^ _/ m] @% &/ ,= G4 p^ i% q^ 5] n] ~< ./ E9 s$  < 3] x% m3 ;/ V7 m/ 9* |< ./ {! U^ $9 t- k^ x^ t] ~< _= ,= I{ rl W4 0% j% x| ,* t] ~! g] 7] A$ 5] B] 3] }= p] l] q^ v^ j] q^  / (* %! C{ _% x^ %! -% h% U^ %! += @% c< w^ p> Y* w^ += 7' N- Lw t! =! q^ C{ y] j] p] x^ P^ >/ t] S9 N- 8] t] ,7 w% (* z* #/ I{ w% i% J^ w% $- (* !& +| 2% q% l] ;9 b] ,% 3] v) @% J* B{ B] 3] o% k^ Q' ;% L% vn |< i% w] N- -% S^ y% 2* U* J^ V* c< w^ += |< B{ {{ U] y% #= %! N* o% E' h% v- /) 05 V' K# ($ 7& f{ 3; g] 3! I{ m, B] += v) {{ H- '/ v^ %! B- ,= 3] q^ :% v> y% -% m^ p] += E9 d9 += n] c< {{ `* S^ {{ m- K* S^ ,= B= C9 T] Q' u* 1* x^ t] 3! w- ;% g= v) 1* S^ ~< _= ~< %! += :< z7 P^ z* -% N- (= f{ >$ A& QQ F< e2 (* d= p^ m/ U^ S9 C{ %! p] s$ s$ B] w^ p) C{ $9 n] w^ U^ m^ @[ @% m^  < m/ u* Q' L* k^ ./ ~! n] U^ {* $9 P^ a, }= m, B{ += p2 lw #] >$ n[ E2 `= `* 3! u% 5] z7 ./ 9a w] ~! |* I^ x^ k^ g] E' m- 3! I{ M% I{ m^ _9 w^ U^ 8/ }5 w^ y] M% d^ y% 3] b] e2 x% i% += t! x^ p] %! S* 8/ =! += 2} U* w{ g] `% U] X^ ./ B{ {! t] {{ _% t! O% 7' =< |{ *!  > /7 )^ -} ./ c< /) h] x^ =&  / _M ri 06 L! s! s$ d^ oF 5] P^ J- J- B] l] =< o> _% a, w^ ${ x^ -% 6/ C{ si 6* 4] c> |{ s$ R% S* S9 t- A6 ,= g] |] g% >9 h] y% y] B{ !< x% P; 3] |* `% (%  ! >9 4/ l% L^ /) (& >/ =& W^ KO <% F' B[ 6% 0% =& @& b$ (6 +> M! w5 @& J^ K* 0* y% 0[ Q# n& 0$ 55 5] 5] 6] o] {{ V7 y] v* g] c= p% EN ",
"HM )- z* h; $- d= h% h% T] /) V* Y' >> Z^ t$ rG 3[ m^ M* J^ rS h3 T: {] r5 A& A& L$ ;^ |/ 3% '9 Z^ L% #& D% x% <% `% 2/ 1/ w^ x% =< =& D% x% _% '% w^ @% L% @/ Q^ O% K* o$ _[ B# ~- */ 5] 5] 9a 6' |] }5  / o> t] P^ V7 I{ E' |* W^ B] N- N- x^ L^ C- B] t] w^ ./ i% t- *9 ./ :% I{ w* y] 9* << |* S9 x^ h$ i' `n Q# 2^ 9} j= j- O* ]* _= W^ 3] w* 3] y% e2 U^ S^ :< 5] m, %! 3] D^ n] <; y% ./ K* 3] |] =< U^ s$ a, B] g] -% S^ L% h* m^ B] {{ U^ b] B] w- z9 c/ -% S* ./ E^ {* o> x^ S^ 7' #/ Y* P^ s$ I{ z* B{ S^ `* M* C3 f$ {% 5! lo S) v* v* a[ B] B] y% 9* B{ D^ x% Uq @% p) ,% 5] s$ B] $- o> -l V7 t!  / |] U^ 5] ~! += v) y% v^ u* 2} C{ += g] K* V7 v^ w% 9* a] K* D; 5! K$ P# .5 q} y] += v) B{ |] c< {! B{ %! t- B] R5 J- 0* m, 3! P^ w- m, g] 7* F^ K* Y^ N- V7 h] u* C{ 8] i* @% 8] R* 1* {! 0* 3! ./ J^ {{ 0* 5] 5] v* o- I{ q^ @/ += |] @% P^ 5] 1* D^ =- ./ m] c< |{ w- :[ .5 &] Q# -! m% q^ D^ |{ Q^ B] A$ /) i% x% 4/ ./ R5 w- {* %/ 3] S9 V* g] @[ Y^ J* += Z^ h] ./ C{ S9 J8 E' O* I{ t] 0* 6! !< !< {{ P^ P^ }= 5] A$ v* sS l& A& v& Y4 .} (! Gh l] S^ ;% i% (! X^ m, N* I{ += C{ 3! 2} K* @^ f/ 1< B] 7' a9 @% x^ -% s$ P^  ! 3!  / 0< l] v) 2] tS U] y] 5] N- 5] v^ B{ d= += &/ w% <* m, :% d^ .t += P^ >< @/ U] s$ B{ 9* ,= 9* 0< y' ,> 2% k& uS nb |< Bs m^ _/ x% u* U% i* r> i$ `} '< y] w- 6* #/ 6!  ! w^ E' o% g] /) w^ B{ += w^ L% U^ 3] += D% 1/  ! v> F'  < L% p) %! p7 C{ x% P^ _% 2] d^ :% @/ t!  ! q2 [/ s$ $< g] :< r$ _% [] p7 B[ ;< W^ B[ +% !< f/ /[ H$ o[ 5$ p$ +6 Z^ X6 '[ c^ /} ;] '[ d9 M* N* <% i! }] ^^ J/ `Q m= ;g |* w- ]* <; x% e= y{ N- [] H4 ",
"pp Q{ j- D= /) l* 6< K^ [{ {* h% ,- c{ @/ Z^ C~ y] z* $- N- vS %5 g$ {] )] Q# {% *^ P% $& '% L^ Q% +% g/ x% L% #& !< )> U^ )> D% p$ ;% S% h] {! 2} ;% += _% w^ B] L^ N* ;^ :^ %^ 7= :< 8/ p) _9 a, p] 2} c] @% B] ./ o> &/ B{ c> n] z7 y% t- :% w% |{ $- B] t- 5] C* v* += N- J^ 0* H* V7 (< 3] C{ V] << C{ &) o: E$ )6 !4 r$ vo /* C^ w^ m^ t] u* m, /) @% C{ M% e% A$ {{ y% 1< <; y] D^ A$ m^ U] {* W^ p) N- 3! B] >/  / R5 %! m^ B] U] %! q^ -% S9 n- *9 K) J] m] >% x^ {* C- w- <; h% w* v% Z^ M* D^ {{ +; K^ t! D= Q2 :5 !& ;* gj e$ d= ./ $< S' {{ :% w* 2] e2 =- B] e2 |* 3] b] S' t! w% E^ %! J^ m/ k^ J^ k^ w* 4/ E' C{ U^ 2} 9* N* += A- {* v) S9 B{ += m^ v> `= 0< #/ 7E 2a ($ !^ ;3 <* ;% Xf += @= {{ {{ S^ s$ 5] h% {* U^ E' w* A^ /* y] u* b] P^ B] |] |* x^ _= z7 3] gs s$ m/ U^ y] -% ;% N* 3! ;% @[ q^ %! p] += R5 v) += g] 3] g] (* B{ t- a, w% v> ,= U^ w* B] Q* %! B{ @1 P# Z{ g{ +l V* m, '/ w^ [{ v^ ,% u* /; 5] P^ C- V* B] 8/ y] w- B] w^ 7* C- u> `: << 3] I{ C{ *9 b] u* ;% 5] U^ ;% y% |* 5] z7 A- y% y] U^ -% B] 8< 3u Hn A& L! '3 :* a9 h; y% x^ I{ c< U^ 8< (! u> B{ s$ q^ g] 7' @/ %! v) %! 3] << v> a9 {{  < 2} 5] B] S^ ./ E' v> y] 3[ N^ |] 3] |] {{ C{ m^ t! i% ~< E9 _% B] ,= &/ |] c> ,=  < @% a, U^ t! l] u* P^ |] y% l= U; s{ N# _~ !< #/ ./ ${ _/ R5 {{ _% v% I$ i$ B/ 5P -% c> '% L^ s$ (& |] s$ 8' C{ |] ){ 2} 1] O% z7 f/ s$ H$ J- I{ |] 6* 2] 6* {{ F' @/ -% U^ i% B{ a, %! 7' K) x^ Z^ B{ `% !< :% 0< n] =< @/ d^ U^ _/ &9 '% 0< h] =< +% ${ =< -* )> ,[ Y6 6% P% e$ ~^ a{ J) [$ K4 R5 h* d= B] k, E$ /% u} *O hp '/ >- K* y% (! d^ w* e2 /) d! wS ",
"xS rA p> (= m^ ;) <; {* 6* x^ E* s' p{ E% =} .[ >/ ]* 8] I{  p L5 C5 p} U: i$ 6% b^ p$ Q# >^ W^ $* =< K[ C[ r$ D% m% $< C! @/ L% `% J- `% H$ L% L% _/ P^ f/ ,% 0< H9 U] @& P# $& K= x^ @/ x% Wo HB u! -% c< |{ p] _% ~! @% %! u* $- =! A$ a9 w* m, B{ y% q^ I{ c> 8/ c< J8 b] %! x% u* |] |] H- U] q^ Q^ q^ L$ yS j% )6 =^ (0 5* 5] x^ -% )! 3[ |] R5 u> S^ -/ {{ p] w^ W^ p/ `: =! |* ./ g] {{ O* .} %! H- !< y] t! f/ y] C{ q^ += H- m] y% -% m^ (* =< p) y] o- g7 m, 8] E{ J* 5] i% L% /* w% 7' 5] m^ g] {{ c< :* )$ V} v5 Ll j> zS S' l] f] x^ y] Q^ U^ x% x^ v) ;% B] c< -% B- ~< 8/ V7 S^ x% =- L% @% P; N- m, %! c< q^ Q) c< p) (! fk A$ e2 1* D^ [* }5 C= ./ 8] (* =- 7* 8/ n$ $* M$ A& 7^ ;{ i% S9 >9 k^ `* b/ A$ K* J- <; m^ q^ 3[ 5] C{ 0* h% U] y% q^ P* x^ ,% J- J^ 3] q^ @% AS 5] @% {! 0* s$ <* i* x% ,= y% U^ =! |{ N- y] H- P^ 5] o- N- B{ o> += |] n] -% 6! x^ t^ A* (3 1[ &* @$ _S 2/ {! {! I{ ;% y] S) @% i] q^ S^ c< |* /) w* S^ B{ b] v> w% B{ {* U^ |] x% u* x^  / x^ N- w* =! S^ |* @% 6! S^ _= <* p) ;9 V* `^ += L% m, 'O Q- -$ $$ W% f| j- P^ 6* 3] q^ 2] {! 3! i% q2 3! :% t! b] Y^ Q^ :% 3! y% N- w% I{ g] |] u% <n y] N- 5] ~/ }5 c> w% B] J- @% %! U^ ,= p) x^ w^ E9 5] x% L] B] v> u! |] K* b] D^ 0< a] S^ K* o> x% #/ x^ y] )= k> 57 97 AQ f/ g] x^ y] )> i% x% =< y{ !6 ($ D2 |] L% 1/ u* /) U^ >/ 8/ L% :% W^ x> {{ @/ f/ q^ s$ y% ]/ 3] ${ i% c> 5] H$ t! x% &/ /) 3] -% L% P^  ! O% Q; L% :% E' |] Z^  < t! F' =< <% g/ x% @/ S% ;9 a, <% H9 [< r$ L% @& 2/ b^ $* S# +% p$ E$ ;* Z; S& L! .! ,o I- 6* b* 9; c6 $& Y% BS '- K* 5] I' 5] += 9* u* ,= 0* Z^ BB ",
"cB 3{ B] C{ |* H- i% (* =- K* B] !~ `; n% 2] l, e2 _= S* w- 3s CS 1| +5 >$ s{ S# ^^ l& m% A[ F' #/ &/ [/ L% L% m% A6 B{ */ )< |] S% =& F' m3 L^ 5] q^ @% =& Uo I{ 7/ P4 #^ 2% J7 U= p2 ./ A$ un B] g] I{ I{ ./ %! {! ./ q^ U^ ./ w- (* w^ e2  < I{ N- $- ./ 5] Xo %! N9 L% y] %! I{ += y] 7' %! += u* Q' |{ << (* U{ /^ Z$ p} :5 d9 5] s$ 8* u* B{ y% =! g] V7 B] B{ `* !< |* A$ I{ 5/ Y^ += 3[ g] =& A- C{ $9 2] h% {* S* y% ;% y{ V7 9* ~< w^ |* v^ S^ w* Da n- |] A$ {{  / w- I{ m^ R5 B* I^ += N- h% {! n] L* G= R3 F& -$ /& DS H$ m/ Q; Uq m/ q^ +9 t! ;% 3! |* |* l! I{ k^ J* x^ b] |9 += v* =& P^ Q^ R* 5] x^ x^ d^ 5] U^ 3] u* m, `* b] N- ./ += N- -{ q^ 0* U^ B{ u> E' /* wC Q: |% }7 b2 N^ +; /) g] %! p^ 0* w% =< N- x^ I{ i% 6! >/ p] @/ m, {{ |* I{ V7 7* -% D^ U^ 5] x^ V* m^ u> t- t- w^ t! J^ 3] 0* N- a, x^ @[ 3] C{ W^ t! J^ 5] e2 j] U^ 1/ e2 O* S^ $- `* h% Q^ x% L) P# ~^ 8^ [- 7* 9[ 0* B] {{ l] <n ./ {{ @% x^ c< w- 3] n- #% Q' x% D^ @[ ,% w- w* g] 5] _= h/ O* 1/ R5 ~> q] S9 @% B] w^ ./ x% w^ 3] B] V7 |< 3! {{ w- P^ j~ gI ;] S& b} P; +[ v> y% =< =! w{ V7 v* |{ s$ J^ g] I{ |] x^ t] p) $9 N- o- c> a9 ,% %! =< P^ |* W^ t! o> ;% ./ f/ %! A9 B] %! ~< B{ $- Q^ =- P^ h] ^) :% x% W^ a, H- C- A- {! ,% z9 $- /) 0* ,= O- w^ ,; L2 :5 7& rG :O ;9  / &/ 3! L^ |< )< d] _^ E$ %1 ./ 2} #/ |] /) #& Z^ j$ `% `% 9* L% {{ 8' w^ m^ 2} a, B{ @/ B] P^ L% 2} 4/ `^ ]/ y% y% 4* L] y] @% s$ t^ ${ y% |* _%  = 3! $9 += 1/ K^ _/ 1/ @% h/ >/ (& L% 4/ L% o3 !< O% '% r$ $^ b^ )/ b^ 6% 0% !^ $> {6 A! K9 |] )9 S^ t- -- y6 U% [4 39  < m, B- d< E' z9 G4 .} '= A$  ! ES ",
"b6 7{ S^ [* _* a, Y* D* K* -% G- i! c{ b^ _/ Up w* _* {* J- @A FS () dc l5 !% L< P% ^^ S# J$ +% )> A6 @/ S% S% ]< (< 8' 7/ Z^ h] @% ;% m% q^ @/ @/ B] '% W^ 8/ a, g/ N* V6 /^ *^ }= [/ w^ t! @% B] `% ./ $% Z^ B{ 2} B] y] 3! e2 y% |] y% #/ P^ ]* o> z9 U^  < S9 y% m, s$ B] V7 3] h2 U^ 2} m^ -% C^ y] D{ y% 2] qo V} ($ :^  > I* y] h* T] e2 3! c< t! /) 3! -% 3] 3] += q^ {{ m, y] s$ 6* 3! =; f] U^ #/ `^ |{ -% -% ./ &/ =% x- 7* O* {{ 6! P^ t- B{ ;) t- g] B] w- m^ x^ |* x% I{ 3! `] P^ y% x% 5] m^ Bn 5] ^5 ,| {^ q% +( A* (! p] w^ p) 6* i% u* L^ U^ x^ q^ S^ /) 5] S% y] C{ ./ Z^ 3] L] 1] I{ O[ N- += $- S^ i% q^ ,% x^ {{ t^ p> (* s$ y= ./ N- U] += i% @/ r2 D^ P^ C{ $% *) .! 7$ M! N< := J- H* b] a, C- 2] w* v* %! += x^ w^ c< C{ Q* %! u* w- += I{ P^ 7* 5] ^= =! ]/ {* G4 A$ w% u* w- y] w* += B{ t! 7* i% j] m^ q^ 2] x% a9 u* 5] u$ u* p) q2 1] C{ 5] |* i= u= n{ P# :$ 2^ GS i] a, m, w- `* 3! e2 5] P^ S^ x^ B{ 6! 2< x^ 5] B] @% u! a9 ;% -% v* {{ += B{ ~> e2 (* 5= c< S' y% |* P^ u* 3! -% {{ |{ {{ d^ p) e2 P^ 7* N- ./ s$ s9 {^ a$ )^ S3 O= w% q^ +9 u> a] ;4 x^ p) g] N- -% 3] $9 k^ @% P^ `^ w^ w^ n] 3! B{ @/ un l] `% a9 m, 6* += z7 m^ y% >/  < W^ a, += q]  / V7 3] @% h] S' W^ 2] }/ w^ D^ @% |* O* 5] d^ J] 5] y] h] B] x* b{ :] #* <! ;4 ,% y{ 6* u! C{ R5 4/ N] hl /6 7^ U^ @% 3! $9 &/ `% s$ &/ <% |< o^ ,= i% s$ /* /) w^ a9 z7 ./ O% @% |/ m% a9 x% w^ =& h] h] y% >9 t! g] R% L% |] z7 (& w^ w^ S% x^ %< :% S% S% !< 05 @/ #& _% D% +9 D% P;  ! (< <% ,/ r$ a, .^ $* ^^ a$ +> b> zo Q#  / Y* 1* 7* c= .& 3% :[ U! += 4= <* v* J- 0* P] :* d< =9 -o >B ",
"b6 4- w* J* C{ u* I* w* a* *= m- 8= Z; 0/ ^) r) I{ c* I* U^ u~ (1 .5 v} () X$ !% c$ Z$ u% -* +% #& <7 E% <% 6/ W^ =< @/ 2} M% !/ ;% |] x% '% l% x% Z^ I{ x% Z^ L% A6 S9 7/ E$ >/ == &/ #/ &/ A$ ;% =% 9a I{ ~< 4/  ! Y^ 3] g] $- C- s$ x^ y% += 1/ -% y% z7 :% d< U^ += ,% g] 3! J^ I{ 3] U^ += w* |* ]* q- w^ s$ p7 b0 i5 q% &] y[ D= C{ V7 =- Q; J- b] 8/ x^ E9 x% q] 1/ x^ B] e2 ;% w* o- += x- B] $- N- `* w% I{ Ql m^ |] P; 6* *9 S' @% m, J^ q^ u* 6* m^ m/ t- 3] t] N- U^ << V* #% w* c< P^ ]= :% $- x^ R- HS T# 1[ g6 28 x{ z{ u* w- Do B] A9 3] N- k^ >< e2 g] {! U^ J^ P^ |{ c< m, f/ Q' N- U^ g] 7' $< _* si 5] 3! (! A= z{ m^ y] p^ @% m/ t] U] n] `* %! -[ {{ `= N- i% 6* V' 9} '^ Z$ Z{ L# (= ,% ./ N- c< 2] x^ 1* =- e2 w- 1/ 3! |* S' =- `* w- |* +9 m^ U^ 9* )> /) q^ i% y] h] C{ $- o> %! x^ P* e2 v^ i% += @% -% K^ w% i% J* d^ ,= S) x^ N- B] z7 M* c< W) x[ M! `} X$ 4% p% 0< <; u* 5] B{ c< B] L% a9 Zm z7 <; @% N- t] += Y^ u* i% q2 D% q^ a] w- ~< y] |] `^ w^ 9* 3! C{ j* ,% q^ R^ Y= f/ ^O =! V7 m/ z7 x^ u! x^ 3] x^ P; J- O* .5 S& S& g} +5 g= :% sj (*  / 5] @/ A$ w^ h; w- N- |{ :% B{ w^ a9 p) y] y] C{ <u a, ~! v^ @% {{ a, :% N- $% L^ y] 0< I{ |] c< L% 5] R^ v* U^ s$ |{ 1/ W^ i] 9* u! ./ += U] u* q2 i% ){ Q; U^ ,= ^) E* g{ u5 PF .[ t! {! u* {! =< +% d9 T% -% b> I$ W: mR ,x ^/ c> |< :% E' =& S% #/ s$ :% 8] ./ ~/ h] b] B4 += L% w^ y] f/ 3] j] !< y] t! x% |{ s$ 6' 2] d! y] D9 _% |] 4/ t! u! L% w^ 1/ U^ A6 n& M% #/ P; L^ J- $^ Z^ $^ _% O% S% @& b^ K$ A6 K9 '[ 4% ^$ $> {6 kl @& 9q $- 0* <* R! `) i$ ;| 9k ]* w- 5] ]* w- p> m, {{ g] D^ 0{ op ",
"HP a) d9 d= y{ =! G= e2 O= 5] (* ~~  > E% g/ )~ C{ w* x* C* n< 'r mq ,] ~5 |% e$ Q% P% %% F' Q% 7/ d% =} 5$ t! '% H$ I{ |< J- Z^ 0{ y% U^ =< A9 @% B] U% |] u! f/ %^ q= K$ y) !^ >; D% p7 v% a, !< ~! y] g] H- h] N- @% |] -% |{ x^ V] i% L^ ./ Q) 2] x^ t- 1/ =< p] @/ m] U] += 3! 2< R5 m] x^ I{ y] `: #/ C- C{ 5] kv G/ ~^ )% *3 J] [* p] 3* Jq J- +% B- Q* -/ x^ q2 {!  < 5] w- g] @% y% p] m, O[ ./ ./ ;% {{ -% y% -% |< c< ~< 7' <; m] 9a '= m^ S* n] /) w- y] @% E* ./ 0* a[ %! O[ 0* fk w% y] p) =! O= =| .$ j7 L4 u= IS w* B] x- v^ A^ i% w% g/ v^ Q; B] -% 5] 5] 3! y] $- |r {{ e] 3! I{ B] @% += d< v) $- ,= :% z7 S^ ;% U] {* a9 C{ D* w- += S^ w% 7* 5] S' t] Xo |* ./ J- _9 -K +| L& 2% b{ (! t- @% i% m/ m^ += l] =! d< += p) E' L% ,= C* P^ 5] s$ C* ,= R5 w% x^ d^ t] @% (! K^ 7' N- 5] |{ -% h; H- q^ H- += w^ x^ y% C{ B{ #/ q^ q^ ,= v% ek I{ 5] 5] A= n] p) f{ L& .& x/ JS L^ oF 3! A$ w^ m/ w% b] |{ ./ q^ z* i% _= 5] R5 o> q^ x^ N- %! d9 Q^ x^ `m m^ i% h% Q^ q^ 7* S9 (* K^ 9* i% C* !< B] 1] :% #/ s$ S^ C* -% U^ a] C{ -% #% Lo 23 f$ )% j{ m- d9 1< 2] w* x% a, V7 2] c> I{ z7 P^ L% ;% (* x^ v^ x^ 3! @/ d^  ! ./ I{ i% u> a] s$ N- A$ x^ U^ J- `^ 3] h] += t- L% w{ -% ;% #/ /) B{ d^ [/ j] K^ C{ ./ h% 3! >/ i% B] C{ A- }5 R8 b{ (5 ]| <[ <% B{ 0* 1/ ~< '% t! !< H* X6 ~^ '4 4/ |< ;% @% ./ 3! %{ R^ L% m/ m% ./ B] a, U^ m] z^ ~! |] L% u% U^  / 6/ @% S% @% }5 @% d^ $< +a `^ c/ |] $9 y% )< |] |] W^ S% 3! 8/ C^ D% p7 |] 3! L% |] 8' 3! F' D% 2] S% ]< g/ Z$ S# >^ 2& K% 3% 06 S; Z9 a7 ZP )O -% x% x^ c) zo >^ s! ;~ Y* O[ -% +a l* 5] 5] y] 7* c] .^ l2 ",
"KS 2{ Q^ E* m^ (* 8* S' $- P^ ]* ]; a{ <% -/ ps */ j- O* 6! Jw sg LS R: v4 0% n$ K% E% ${ -* r$ (< p7 -* (& !< p$ ${ w] `% @/ m^ d! ./ u* g7 :% `^ 2} Q^ y] 2< ;% $^ MS *^ !^ NS 7= OS _% f/ tq U^ += =< :% K) {{ _% q^ x^ R5 |] x% x% v* -/  < x^ Q^ %! B] 0* 3! w^ 3! -% m^ Y* i% I{ f/ (* 8< 3* E9 j] -% i% s$ %< t% MO [$ Z$ _5 j{ /= (* 1* %! w^ {{ ./ >9 K* 3] B{ y% 5] g] &/ ;% oF {! E' u* m/ += y] 3! l] ;% B{ h/ /) a, N- #9 i% On l] %! {{  < Y= w* += |] a[ a, U] z9 3] t* x^ x^ z* h% g] |< u* 4] 7^ i: F& k> iQ x% B] V7 D* a, e2 !< C- |* _% |*  / I{ %! 3] -% 3] U^ 6* :% C* V7 I{ Gh y] 3! [t N- 7* m^ -% << 2} W^ t] m/ =! O[ H- w- B] += t- #/ K* Kn m, += 3] 5] 3] B] w{ F$ s{ K% v4 |3 .} J^ I{ 0* K^  / B{ m^ y% o- 5] E* B] v^ 5] =! V7 ./ g] a] w% 8/ {! 9* o^ I- m] B] u* q^ m, $- y% P^ a, -% (! l] $- >9 x^ |* e2 5] '/ n] 5] I- {{ a, %! y] 7* O= k3 Y4 U$ b% Po c& += PS H* 8< B{ C- v^ d^ :< s$ i% P^ q^ += x^ 8] S^ @^ ~< q^ @^ J^ e2 3! B] i% ./ O* H* 9* |* J! m^ u* W^ y] v) s$ V7 q^ R5 +[ C* |] m, += c> T] 0* g] P^ ;< w% L$ s{ U: 7^ Ep w% _% g] a, x% Bs ,% 4/ `^ -% 7' E9 i% xC un y] Q; Wp S9 3] B] 1/ {{ @/ |] a, m] A$ y% J^ |* V7 :% @% 2} J- m^ t! L% 2} ./ :% {{ t! ;% y{ {{ += A$ ;% 6! ~< _% w* a] z* T] w* D* /3 [$ G5 dB (& C[ @/ 3] -% Z^ z7 =& 89 Y& /^ h9 S9 d^ }5 p7 x^ |] P; 2} 3! d^ q] 2} bo P^ |< |] 5] |{ 46 x^ u* ,= @% {! N- a, u* ,% |< U^ {{ P; [t J8 u> c< g] x^ @/ 1/ }5 |] 9a '% _/ (& U^ Vp I{ L% O% ]/ 0< B[ h] H- d! q[ K{ 6/ #< e$ r$ K$ B[ s{ Z; i5 b> o[ U^ a* K* e2 Z- P# J) 4^ O8 H- [* l[ u> V* l] << }5 5] h; $& PO ",
"cB #0 t] b; V* O* h% A- H- C{ I- V' Z; u% )> <! P^ m^ /) z= 15 QS 1| l| )] 5% B# 6% P% p$ 3% w^ c% 3% K$ 06 (< R^ <6 E^ =< 1/ _% ]< 2} c> L% t% _% :% ;% 8' S% ,= ${ jn #< S& ,t 2; @/ x^ ]/ >/ ./ =< g] %! 2] E' w* 5] s$ y] >/ x% 4/ 1/ P^ r^ m% K^ @/ t! N^ B{ L% t- <* 3] w- |* n- 9* |* U^ D^  < J- P^ {* 3] I{ a9 J' :3 W$ {} T4 T% m^ +9 {! A$ E' x% J* F^ y% += U^ E' P^ |* w^ v^ |{ h% m/ p)  ! g] P] q^ w% '/ @% 5] 4/ 2] x% ;% 1/ =- t! ./ o> }= ;% w- |{ o- ~! +a x^ 3! p) U] $9 q^ =- g] C9 Y* U2 r5 ;6 .$ RS }$ w% n] |{ 2] I{ 3] 5] b] ${ N- x% v^ V* P^ m, B] _% t! ./ B] %! ]/ o- W^ U^ q^ #/ i* P* 5] C{ ,= $9 += B] J^ =! (! j] G- ./ x^ t- R5 u* |< s$ u* m^ -% 2] 2] {! =8 i4 v9 Y# y2 6! ({ 3! R5 w^ ./ x^ z^ A- U^ t] C{ C{ h% {* t] w% ,= Y* c< I{ A$ H- i% h% K^ e2 3] |* V7 y{ B] y% p^ y] h] u> K* i% i% m] m^ K^ u* O* B] += 0* ./ U^ @% k^ J^ ]* }2 n$ j% S; i< :% _< =- ./ ./ {{ &/ u> w* @/ y% I{ {! S% += q^ +[ o> 6* |* {{ f] (* N- u* x^ y- B] I{ E' R5 w] @% 5] :* ./ %! x^ m/ :< p) =< =! 2} u! I{ q^ %! .% 5] q^ N- 3] <! /0 (5 r5 Y% o$ o> t- y] }/ w^ q] U^ s$ U^ x^ Q; x% y] Q^ _% X^ B] 6' 2} #/ -% u> x% W^ t! B] B{ J- i% $% m^  < g] C{ w% 2] I{ B{ D{ w^ ;% 8/ 7* q2 w{ B{ 9a 5] 6* b] I{ x^ |< D{ B{ g] ,% n- C= E2 !6 2% t' <% Rt 2] P^ H- s$ t! m% B{ p6 L& %1 =< 5] f/ O% i] |] m% l/ o% d^ 1/ ./ o% I- $* d| :P a} 9} q: ;p |4 r% <| B/ m} (4 -| B2 %} y2 E} -| =e Y% '| 23 h| (3 W: L) !! B2 m} g& ^) Q^ B] =< O% N^ t! g] O% D% 7] =% ^% Q% @/ ,[ Q% 5$ 6% B[ X< V; }] ll B# I{ p] S^ g] h, A[ 7/ v: Ii (= y% h] [; E* w% j] u* 5* l* >[ a6 ",
"QR -= q^ i% E* 7* w* u! |* (* D* &) S; $^ $< ,4 x% N- }* I{ m~ a| 1| b4 :$ 3% L& ,[ ~^ i$ o[ p2 $< .^ 7% B[ ${ N^ |] [/ |{ |] _% `^ +% ${ ]/ &/ {! s$ y% ]/ 3! |< h] (= `$ 7$ [$ p) a, $< %! I{ ~< m/ 7* ~< _% 8/ y% |] d^ y% ~/ ;% }5 b] {{ k^ B] Q^ V7 m/ ,= I{ @% {{ ,% {{ /) B] U^ s$ %9 A= U^ z^ ;% u> B] y] x^ k^ )& )B D} s{ _^ M: *= -R Q' y% 3! q^ ./ b/ Q' =!  / N- /) P^ t] P^ |] B] 7* A$ y] 2] S* 2} Q; Fg B- -% H- 6! += P^ z7 x^ w^ h% 6* o- H- N- N- a] &/ L] w^ 8] $- >< w* u* c< |< o- s{ V} :^ A& o} [= Q^ p] U] @% 8/ w- a] ,% x^ =- z7 I{ >< q^ x% @% s$ u* C{ k^ W^ U^ @[ t] #% i% 8< a, v* q^ ./ m, i% ]* 2] H- G9 Q' w- w% D^ -% 7* q^ << x^ x% =! 8] `^ m^ /* g< g] N^ 7* /^ !% P# #{ `= x^ 9* m/ m% B] V7 m] 3]  < -% w{ i% {! c/ C{ ek v* 8] v> {{ Y* << g] S^ N- << C* e2 J^ @/ t! ./ w- fr n] k^ g] ,= y% y%  < q^ @% {{ @/ 8] Y^ q2 y% z* 1> x/ :$ j5 .$ y8 d% b] g] m, x^ w^ Q* 8/ H- V7 C* C{ f/ v* q^ V* 7* 46 D{ -% {* K^ 2} g] >/ $- #/ (* x^ y] y] X= a, %{ P^ w^ x^ += J8 J* z^ v* B] y] A- U^ Y* $- @/ B] E9 y] 3] E' `% U~ C5 0% 7& p{ f- %! @/ @/ ,% f/ I{ h] 3] @/ %! 3] a, ./ e2  / {* += |] w^ |] k^ $% m] x^ 3] Z^ 3! i% m^ '= w^ 2] }5 q^ x^ =% E] C* :% =< W^ t] 7* @/ J- S* o] @% 9* |{ H- t! C{ i% L% ~< e2 @= U; J) |[ gj X^ z7 U^ @% P^ <7 5] L^ 7' >$ E$ W3 f/ |< :% D% @% j$ f9 E% $* {! q2 C^ .; b{ R3 U3 E2 g{ 73 Q: E2 h9 E2 #3  > ;3 f{ /3 N< #3 %3 @1 ,> S3 C3 02 E2 Oq 32 /3 S< /3 $3 #{ H! S3 qc 8/ !< u% 0/ 7/ =& o% }/ F' 6/ =} =} 0{ '6 g7 b$ @& ]^ s{ V; `) Mq ,[ =L V= A- l* E~ E$ 3% =| O5 ,= /; w% << Q* B] {* v> Y* C* d! SS ",
"cB c2 U^ v> S) [* v* c< l* f= P* n' 3a L^ h) C~ @% m^ l* ]* pR (l V4 Y{ .5 P# i5 a$ $^ 5$ c% r$ o3 6% ${ .( =} L^ =< Z^ _% <% $% #/ #/ z7 x^ L% Z^ >9 |] w- Q; L% 6l (= #< Q# }] 0- Ea I{ !< q^ g] O% 3] -% 2} 2} |] ${ y] U^ N- E7 2] @% 3] x% I{ A$ m/ ]/ 3! w^ 8/ m^ x[ @% o> U^ B{ 2] B] $- u* b] |* $- w- 8] z7 w^ g] `: -$ s{ .5 W% g4 $- u* x% Y^ U] Q* u*  < Q^ i% 3! k^ g] N- $- A$ bo /* v% i% i% U^ |] 6* x^ x^ d9 W^ b] |* /) b] p] 5] 7* b] -% j] |< 0* V7 U^ v* w* P^ y] B] 6* q] v% i% *; Y; '[ A& d| Z7 n% i* D{ {! $- =- =% v- n] -% U^ @% w% M% S9 u* B] >% m^ h] |] (! u* += @% =! !< q2 g] |< y] 3] 7' Y^ %! t^ %! 6* -% += g] C{ 3] a] (* x^ t] c< ;% ]*  < q^ u* r! G- >< 't h> A& 5% @4 Z$ J^ x^ %! U] 7* I{ 7' =! B{ x% n] d^ (* x^ /* g] 5= |< K* X^ w- e2 |{ w- m^ m/ {{ <* Bs u* |* 6' B] {{ ~< |{ S' -% w^ w^ N- 3! q^ B{ H- @% i= =l H- n] L6 z2 D& )6 y$ +[ m] U] $< {* ]* x% |* w- %! a[ {{ ;% K* m] @/ 4/ J- y{ a[ ;% y] y] |* l* 0* %! |*  / Y^ {{ %! ;% %= |] 9a x^ s$ y% {* &/ @/ H- D^ t] %! |] e2 8/ L% B] m^ u> /) 6* x^ *= h| B# 2% c} )% C9 U^ x^ y% 6' =& Y^ @% I{ /* B] U^ -l _% [{ %{ J^ -% !/ }5 B{ g] #/ O% B{ x% f/ d^ Q^ %! w^ `^ c] B] S% x^ v> g] 3! |< B{ a, f/ 0* 46 t^ l] 6* N9 2} l] 3! d! |* u% V7 D{ 0* M: P# W$ K! j$ cu w* g] q^  ! #/ }5 E{ X6 0% ~3 r$ %< 0< l] t! S% u% ]/ c> /w z7 O% -$ U:  5 n5 'n $$ E$ !6 L< '[ g& (} P# ^6 _[ E$ J) ,^ V$ ~^ )% :5 )% -$ G% :$ 2% W$ G5 ~] A& ]& b4 C} R3 L% S% d^ =< g/ H6 8/ S% `% N^ %< n% r$ Q9 D% W$ *^ B# X< V; B# ml S& 1r ]* v> {{ >- >^ `$ 3^ Xk S* u* s- S* 8] N* y% n- 2] |* <{ t[ ",
"Bl -; R* %= 7* {* 7* S^ H- J* D* j, N< (& <% ,~ 5] }= 7= L^ bB TS *] W< 1[ Q# A5 n& K% 3% _[ =% h^ _% (& @& O% L% e& &/ W^ `% N^ S% $< |] ;% 8/ (< 89 C[ a, C- 0* o^ 2* n& M! .& G; Bn t! |* 2} ]/ ./ ;% =< :< n] g] @/ x^ F' `^ g7 W^ $9 z7 w- D% 7' N- ,< y% x> 2} ./ /) o> {! =! d^ W^ 4] c< m^ ,= C* =- w% J- y] q^ Ba Uq US G/ (5 ql v: v% %! w^ C{ |* e2 H- P^ W) U^ >% @% 3] 1/ W^ t! B] $- w- l] d9 H- @% @% I^ z7 %! t] B{ n] t! c/ U^ 3] g= x^ :% N- N- @% B] q^ y% U] s$ |{ 5] %! w- i% <* W% p} g& E[ '{ '< C* >/ s$ m^ !< :* L% m^ 3! g] e2 x% z7 &/ 0* += += I- I{ %! V7 x^ K* s$ &/ @% w{ x% '% a] P^ B] 5] @/ Q^ {{ i% s$ {* m] u* =< += w% y] w^ x^ P^ w% x^ w* n] h] E' y% S9 l% T8 >$ 0% VS `2 {* 3! }5 I{ 6* v> a9 y] ;% b] V* 1] &/ w% 3] U] @[ z- B{ y% A$ ./ S9 c/ B{ += g= 3] P^ t! }5 c< t] P^ += w* B] ,= w- w^ y% -% {! A$ N- y] B] 1/ p) 4= ,> '[ z} C: r8 ^/ ,o U^ 3! E' 5] u* %! O* ;% v) W^ S^ 3] V7 B] S^ P^ K) V7 m^ n] 8/ V7 ./ k^ J^ 2] D^ k^ B] C* B] =! g] x^ B] =! << x^ 3] 7' |] p] 0< z9 B{ Y^ m/ += K* ,= (* 3! %9 |] z7 eP b} '^ !^ L2 u= {! P^ _% J- @[ w^ U^ @% y] t] |< 3] B] ;% p) w^ e2 I{ x% si ;% _/ V] =< =! ./ 3! L6 2] K) a, x^ x^ 2] u* c> -l o> v^ (& 8' w% y] 1< u* j] p) y] a9 ./ t! z7 {! 7' |] i] =;  > _^ F7 WS ${ p) s$ {{ C- x% $9 ~< B{ !6 d% H: :% P; >/ )> D% i%  ! z7 `% y] !< += {[ '[ v5 *^ 5% d% i7 B# Q% P% V$ L& <$ %% 7/ M! q% '^ b^ W$ -* o[ `6 4% ]6 ,[ i$ i$ q% E$ M! S& X$ -$ nl p7 x% a, (& %{ b^ t! 1/ r$ (/ '% 0/ $^ e% #< Q% !% s{ q% S; ]6 `) `9 $% %! n- z{ 8> @& Io XS O4 Y* << n- '= x^ c< 4= V* ,% {{ *^ uD ",
"KS L7 |{ i% S^ 5* N* ]* |* 8] y% i; S; </ A6 l, p7 {* J] B{ eH ~| YS Pd )% 3% 0% -& X# c% .^ r$ o3 0/ _% ]/ |< b% e% !< W^ 8' 1] &/ N^ |] '9 ^) :% 2] p] %/ {! `% m% +n `$ D' W$ A) Ea !< a, x% d: %! x^ N^ |] 5] m/ += #/ 1/ w^ 9* B] 0* p) u> /) a9 !< C{ )9 t! += I- M% U^ z* 8/ _% o% w^ -% $-  / g] y] :* P^ -% O- m^ |{ ZS @; GQ 0% W% 73 l* 3] o> 3! 9* 5= q^ 5] y] Q^ :% %! E' =& E9 3] U^ S* 0* 5] P^ x^ g/ W^ $% >< P^ {{ 5] U] 3! U* u* 7D m, f/ u* 8] e2 x^ s$ w* B] 3! N- S9 ^* $% y% x* C3 .* () B3 D4 O^ {* /) P^ l] @% |* 9* I- p) z^ 3! g] |* q^ B{ y] ./ x^ {{ ;% 2] 5] += 6! e2 [t ]* P^ u* 3! += S^ 8/ B] u* {{ o> |* %! h% v^ ~> J8 m, |< ./ x^ #/ m^ x^ g] x% B{ 9* P^ w% D^ ,~ 83 ($ =^ k& `S <; p] a, B{ U] n] k^ (! h% /) S9 S9 U] N- ./ {{ u* 3! y- R5 N- 5] C- i% x^ fk |* y] u* ./ D{ += B{ |{ Q^ {{ V7 :% N- |] %! g] w- |* /* v> ;% N- !] @5 @$ ^$ 9* G$ v) E9 3] z^ x^ H- `* A- ./ z7 q^ u> y% += k^ m/ I{ S9 m/ D^ += p] t! v) i% L% -/ i% m/ g] 1* w{ P^ t! A^ N- o- !< @/ `% q^ B] I- u* 5] P^ q^ N- B{ ;% {{  < += v- S* +9 }/  T $$ 06 ^$ .5 3| {* |{ 5] R5 y% R5 x^ |] B] o> |{ w^ >% U* x% q] y] N- A$ 0< `^ :% /) 2} B{ (& U] @% B] w^ w* |{ O% #% D* t! S* L% |] E^ P^ .T a, x% y{ @% G- 9* @% 3] B] ./ ~< += ~< |] H- ~[ {6 il FQ A9 y] x^ :< t! y] E7 @% K* (} _[ Z| $% j$ P^ =< !< @% @/ @% Q^ :< s$ K) $| -^ I$ K# ]% >^ :% ^^ L% d^ #/ 8' L% r3 L^ l/ _/ ~< t! r$ q2 f& L^ w3 F' o$ [] /% n% 7% .^ d% ~^ =^ zo `$ =% ]/ p% p2 W& >^ Z^ I{ k/ <% f9 u6 B[ ,[ Y6 /} q% Q# Z; !% =^ `$ KO H* A- q^ V' @& /% '4 uc (* >< 1* N- h% += t- ~< <n |{ /[ nj ",
"s> !z l[  = w* |{ z7 A- v% u* ./ ]; c{ <% o3 1) $% g= u* -% +T /a Z{ d> [$ .! G$ `6 $& 2% %^ Z$ l% _% =& @T p2 _/ l% t! ]< 6* P; D% 3! Wf :< D% |{  ! z7 =< _% '= .( T* *^ L& J) j= t! Z^ D% J- |] 8' 8/ x^ |* N- L% A$ 3! U^ J^ W^ H9 2] ,= N^ 1/ =& t! V7 ,% s$ !< w* {* ;% {* %! B] o] ^) +[ (* m/ ;% q^ ./ S^ L% @% 5] 3] U^ d~ `2 W$ W$ T& $* bo d^ A^ |* =! @^ #% B] K^ 7' >/ y% m/ f/ #/ q^ E' C] ,= 2< x^ t! 50 C{ J- P^ $% ,% f/ =< C* i% U^ U^ c> |{ q] :% `* |] {{ t] A$ h% 1/ ,= Y* V* !! G& &* j5 2o -* U^ C{ r/ ./ =! _% _9 U^ B] @% }5 ~< (* {* z7 w* vo h] z7 {! 46 }5 A- w^ Gh v) p) B{ C{ B] u> 3! m/ 5] x% a, i% y] ./ ;% s$ +[ += w% m/ B{ %! h% u* |< w* U^ N- 3! ,= w- K^ l] c> _S  5 #T ~^ =* M= [t u* x^ `: (* w^ &/ m^ |* ]* += I- 5] B{ $- J* p/ E9 ,= x^ Y* -% H* #/ q^ v) H- B] 0* p] @[ 1/ I- ,= Ep 0< t] o- x^ l] m^ V7 Q; x^ U^ O* b; K5 1[ g& m{ $T K) V7 {{ o- p] S^ R5 x% @% x^ (* V7 |* m/ x% z- ;% q^ D^ f/ B{ #% B] R5 5] 8/ {* `* w^ =- w- %! +% w% J^ u* B] u* 3! m^ 6* P^ x^ C- >0 c< x^ y% {! |] fk E' $- A$ m- B] z7 :% =< %T d| >$ *6 M: w% O[ g/ `^ 7*  < ~! B^ w% K^ 3] _9 a, t! H* P^ g] o^ %! %! m/ >/ _% |] x% B{ Z^ w^ }5 _% =! A$ V7 c< %! ;% y] O% t! O% 7' U^ `^ x% z* =< U^ m, N- @% P; |* S^ t! += #/ P* d{ j% j7 t7 ~< ./ i] |* z^ K^ ,% 0< D] hl .  ,3 I{ o> << |] ~< @% d! B{ l] B{ l/ h^ +% #& (} b^ WD :8 &T =C :8 TO *T =T GR -T ;T x0 M0 f0 @r s3 Vo z0 >T B8 ,T `7 -4 'T pM xQ =S T% &{ [$ A! NL T/ 6% %! D% D% I{ &/ (< <6 7p f/ g7 <% +% `$ /6 d& f$ Z; M! 'n >^ R5 a] N- |{ V' }] B# (4 X: B] q^ %! S* J* t- `* 2] s$ 7* ;^ !q ",
"Ud j= O* v* B* 5] K* << u= '= t] '~ +> <% [] ,- e2 O= <; V7 Un ~| 4t E} @] #* :$ d% E$ Q% `6 S# V6 4% o% ^) O% l% L% R^ F' x% P% <0 a, @/ |] ^) +% |] ./ ]/ L% |] g7 D= *& V$ .! [= H9 @/ W^ s$ h] `^ a, P^ x% P^ L% I' w^ ./ f/ W^ V* 8/ '= B{ P^ |* v^ Z^ `^ U^ x% ;% %! ]* w^ 1/ w* U^ 0* w^ ,= -% ./ Y* D^ -% h] 5] *9 j] S^ 5P eC )% %] i: G2 7= x% x^ (! u* l* U^ y% w^ {* B{ a, B] W^ E' u* g] %! P^ q^ $- ~! k^ 9* @% =< S^ m/ f/ 5] N- 7* (!  / 9* Y^ m, -% ,= 6* }5 C- {* O* b] N- c/ ~< k3 *] &* ~3 /> x^ ;/ o> N- B{ P^ N^ K^ %! x% (! 2} %! b] @% 7' v* Y^ m^ B] N- B{ i% y% S9 B] )T Q* 8* q2 q^ {{ K) w- i% 3] y% =! |* w- 0* {* E' x^ p) x^ J^ x^ i% :% J^ B] B{ += x^ t- Z^ Q^ w* 3! S9 X$ j% Z{ /& L) S^ x^ B] y] %! I{ U^ += m^ p] 5] u> N- m= ./ u> ,% S) m/ w- |{ q] w* p) y] u> w% m, @% 3] `^ @% p) S^ 3]  / -% += h% S' C^ A^ i% m/ @% A* k3 j% n$ {9 sQ w6 %! u> V7 1* 2< 6* 3[ U^ @/ o> B{ B] g] <; @% u> N- :% ,= C{ B{ t] U^ += k^ S9 8/ 2] S^ z7 N- |] q^ a[ x^ R5 l] p) += t^ u* 5] 6* |* w- t! {{ {{ y] 1/ f/ u* Q; q^ V7 << ~< g] |* p2 D; !% =^ ;] G2  o 1/ m% ;% u* >9 B] y% 3] w^ t! B]  < J- |] =! 3] x^ &/ |* ~! s$ 1/ |< 6! |] f/ ~< /) 8] w^ 2} a] {! 1/ V* t! w% B] t! $% ~/ b] t$ 3] (/ @% R5 X^ -% Z^ ~! B] %{ += x* b{ n$ A& !T +% P^ 6! U^ y] A9 ,= z7 1* <] J) H: c> -% z{ e% g] k^ B{ !< z7 s$ +/ 8/ h' ~T ${ o3 M# J/ '4 t: g2 m} g2 5! o} =$ &7 a} m} G/ *o *> (3 Hn gI H/ q: #e Ga N} v: 84 Ga d% .! w3 04 [p /) ${ m3 A6 :< F' )> D6 +% 7% O% 0/ m% 5$ /} P# 0% -^ S; [^ 87 $& {T /* ]= w* d, i$ E% d| zi ^= w* C* P^ 7' u! C{ s$ `^ p) )> 3H ",
"#C G; =! J* h% j; w- c< /* ~< n* (; ]{ +% !< M4 I{ =- w* P^ wO 'r y$ j4 [$ ~] d% {% i$ w3 .^ L$ <% =< '% q[ $< d^ ]/ F' +% 2} Z^ `% p] B] i/ |] C^ L% _% ./ 6/ 3] ]/ H= Z$ X# b> >* b% |] %< >/ ;9 ;% @/ @% =! |{ 1/ C9 z7 U^ y] q^ N^ t^ s$ t! @/ L% B] T] u* !< C- =< L% x^ n] J* |] J^ C{ /* V* Q^ I{ q^ N- 8/ 1< K* 8] x% j] q^ *= $4 d% !6 )| D} ;) 9* G] C{ B{ ./ :% =& 6* E' 5] U^ s$ Z^ x% {{ Q^ I{ x% s$ ,% ,% W) Q^ S^ 0* m- I{ o> x^ D^ x^ #/ u* i% w- N- o% }< Q^ %/ S^ C* 5] N- ^= /3 g& @5 84 ]T >/ $- g] i% V* -% q^ += ;% U^ y] s$ 8/ {! 3] -% p] ~> t- w* i% w{ ;% m^ 3] 1] 3] _q p) q^ -[ K^ |{ |* t! B] l] -% p) V7 =! t- m^ m] H- ./ w^ U^ Wp =< |* ;% u* N- /* s$ <; (& 1< Uq ^= .< xL %1 K# S& d| ,* B{ (! )> {! =! m] Q^ B] y] 0* 8] N- #/ /) z^ |< B] H* e% S^ si I{ K^ (! 3] {* /) w% B] g] ./ m- a, {{ J* }5 A- 1< z^ |] g] P* z7 N- %! S2 T# )% h{ ^T i% y% y% 5] T] 3] %! k^ B] g] a[ 7* w* ;%  = 5] 3! s$ N^ N- 3] 3] A$ m/ |< a, t! i] E' 1] C{ m] S^ C* U] d:  < l] R* -% {{ {* ./ 5] W^  ! i% o% A9 a, ;% m/ ,= |{ n- q^ -% U^ i] w^ P^ 2) H: X$ f$ /T $*  / f/ x%  < w% $9 |] =< {* 1* L% `^ %! t] 3] 2} x% =! 7' x^ x^ O% Z^ >9 L% 3] w% =& I{ &9  ! H- y% t! h* @^ C{ x{ 7' +9 V7 P^ E' u* 9* -% ;% @% =< O- n] @% 6* 5] Q* e> -$ {| T~ =< P^ f/ p$ x% /) 6/ L^ Y= !6 @& '4 o% B{ %! x% L% d^ x% _% ~< F' 3] f& @% &4 |$ O2 +s 04 g6 U{ I9 h&  $ t& N& F# ]$ N& `# z} !5 #] #] F# :[ J/ '| b} [4 &7 hn '5 ,& H# (T F' MP yt F' 1s g/ ^) 7/ $< ^) b^ t! g/ :% l% F' E$ p$ Z$ 0% /^ S; }] 80 =} 8/ <= d9 N- l, V6 i$ B/ s9 A- e2 J* p) 9* m, B] 7* z* ./ kc H4 ",
"Ls U- '= <= w% 1* 1* m, <; V* J* M' S; @/ 0{ =v S^ m, P; w- #f ec Z{ S} S& 3% 0% !% >^ Q% E$ $& 0/ ${ F' n% $^ H$ p7 <% /) 8/ $< g] >/ !< ~< O% -/ (& g] y% i% ;9 M% H- *^ Q# Q# 8= D% un d^ z7 2] |] L% d^ u* Gh 5] c/ =& d^ {* L% x^ >/ #9 W^ U^ D^ |] t$ w- 9* 5] k^ @% U^ j- S* m/ =< B- {* 3] |* x^ :% ;% w- |] x% 6* S^ {{ %! K) +Q /] b> _^ L2 D* |* B{ 0* 3] i% y] P^ {{ 3] B{ p^ 4/ 2] @/ m^ B] C{ U* 2} 2} m] B] |] 3] v^ t! E' m^ t^ '= y% N- H- V7 w% f* a9 1* ek B{ 8] k^ [s v* i7 p} R$ P# 6' -< P^ {{ += 5] m^ {{ P^ ./ ;/ =! q2 P^ q^ |{ i% {{ o- v) 6! |* &/ m] e2 @% =% g] i% w* q^ {{ ;% w^ =! 1/ 7' |* h< a, {* 5] N- $- '= w% E^ a, J^ ,% B] B] ;% {{ v^ g= #/ q^ &/ +9 |] 6* H- += c$ f= |R (5 g& D3 3= @/ /) U^ 9* m^ {* s$ u* 6* v^ 3! s$ 5] q^ K^ w^ w* << |* $- x^ R% v* u> w% w- {{ 3] u* l] 5] Ql U^ x^ 0* x^ _% {{ ~< 3] {! xC R= S| U: zQ y$ _T )P w- m^ m, o> ;% x^ =! 3] j] I{ E' ,% *9 v^ 3! B] h] 9* A$ `^ ./ |{ 8] m^ vo 5] P^ m] |{ [* v* u% w^ }5 3[ x% un %! w^ x^ 3! B{ @% h% >/ 1* &/ |{ L% W^ t! 8' u* z7 += C- p) S% 3! ~< k^ :T *8 C5 g& u5 F2 == B{ P^ Gh 3! 5] U^ `: g] v> N- U] g] 0< Z^ 3] q[ g]  < g7 C{ ,= /) K) ,* 7D I{ Q^ U^ /) 8' si |] d= B{ 2] i% H- y] b] i% l] I{ e2 Z^ -% C{ ./ x^ ~< T] _/ I{ K) A* c^ *] @] <T [< |{ L] s$ s$ :% 3! f% ,= c6 /} s! g] %{ l] ^) M% *< ${ L% :% ./ t! o% q2 B4 <~ [T }T |T 1T 8( 2T /_ 0( 3T 4T 5T Dx Q. D. S@ 6T '@ u7 7T 8T A( 9T 0T aT Jm i( )@ V@ bT V@ w% <$ w3 O% $< D{ '%  ! |] L% $< S% =} `$ ${ B[ 7/ ^^ .! V$ $$ q{ (} ]o j/ m/ 3! d= .= _! i5 $& ~$ b~ x{ 3] 4* 9* =! {{ /) _= H- ./ ^% BB ",
"Bl !0 J! 0* -% 7* I* d= /; {! G= ,! S; H$ t$ '~ l] ^= K* {{ d~ |n {^ g} z} q% )6 W$ >$ R< n& O% +% K# g7 ^/ ${ 7/ +% m% O% )> s$ c/ `^ S% V7 &/ z7 |< t] &/ A6 v> !< o- )/ $$ W$ [= =& |{ ;4 =< ~< >/ N- m/ @/ {{ t! b] C{ 3! y% U^ q^ y% B{ m, {! s$ 6! m^ |] ./ I{ A- w% I-  < B] M% {{ p] e2 U] a, R5 U^ I{ x^ d* 0< m^ E' 8] g/ |* `$ p$ Jl X$ Y{ 23 D= o> KO |] u> P^ 7* D% ./ ./ += D^ g] @/ J^ g] +/ 3] {{ ,= x% N- m/ K* i% t! V7 C^ 3! O% B{ x% p) 5] |] L% y] %! }5 `^ ./ 2} t! /= O2 v5 #* U2 Bi w^ x^ m^ N- @% c< A- =! P^ S9 J8 ./ m^ v* 5] m^ {{ C{ si 3! /) y% %! w^ S^ $- C* U] ./ 5] w* x^ x% u* S^ C{ o% |] x^ C* m^ 3[ q^ /) ./ B] T^ |* 7* 7' ){ 0* w* 6] F' += m] M% %/ E7 q^ q2 E' N- U! GP z} X# B/ ^^ 5] 2} ./ |* ,= oF x^ g= w% z7 5] v) |< <; 2} ){ += b] q^ y] |{ V* O= k) @% S^ 3! S9 a9 += 0* x^ $9 ,% ~< C- D^ 3[ u* u* 2] R5 ^) (] :$ E$ G% |] 2} V7 C- {! ./ P^ w- 3] {{ x^ i% V7 0* p) 5] z7 |* p/ (!  < q^ S9 B{ |* n] x^ 6! <* u*  < R5 z7 w- 9* B] <* x^ :< |< w- 3! |* << C* c> -[ {{ {{ W^ c< {! ~< {! 4/ -% a, 5] C{ B{ @% P; x^ 5] 8] ,& {9 P# Y4 #] }v 1/ B{ x^ m/ B{ @% ./ W^ %9 o] ~! >9 ~< 8/ g] {! {* $% b] Y^ |* @% f/ 4/ ;% m] !< 5] I{ w^ Z^ %/ |A B] a] w* J- += 8' B{ a] I{ e2 ~! x^ =l {{ B{ |< w^ |< y] := {0 2% G5 Po g] Q^ n- N^ .% j$ #/ Z^ O- zo b$ J5 l% a, B] m] 6' L% @% :% x^ 8/ x^ P] $% B{ j$ m] g] o> k$ sj s$ i/ `% +% 4% H$ v$ 6' 6% |] R^ 2/ ^) `^ Wf Y6 L^ o$ }F <% =< @& ^$ @/ d^ h/ p2 |* S% Ea w^ x% @% H$ '% D% F' ,< F' /% p7 %% L& [$ d% [^ f{ _^ 'n J7 [t <* w* {! Q4 A& $* 3| cT *; 3] w- w- C{ p^ 2* P* /* 9* ^% op ",
"=u /k 46 t- {* N* w) <; Bn U* |9 5~ q{ $& 6/ dT $- v* ./ @% eT fT k& S} -$ W$ j% Z& Z$ b^ r$ -* /% *% ]/ $* F' f/ d! m% :% x% Z^ Q; @/ A9 L^ w- x% h] g] `% d^  ! <% P* *^ ,[ !^ G; Q9 ,= &/ q2 I{ o% c/ @/ /) B] q^ 2] w% P^ C{ W^ P^ ./ h] Gh !< B] t! += E9 p] 1/ A$ E* c>  ! u> ./ 7' [* y% u* V7 += U^ g] m, m^ ./ P^ m/ ./ +; {{ =< o8 G3 1$ k& 23 T] w^ {* p) 2] %! I{ A- 3] 3] ,= Q' I{ $< q^ {! %! h] y] -% c< z9 9* B] I{ B{ e2 C{ v^ {! 5] 9* h] m^ B{ W^ m/ m/ 7* 3] [t Q) O[ `S )5 g& 0% )~ 6l |* 8< Q' != D^ B] s$ += |* N- ~< 6' ]* x^ Wp t] |* C* B{ {* /* B] t! w% t] d^ p] += w] A- Wo |* y% !< 5] 3] x^ ./ w= z7 B- %! {* w^ K* S^ << Y^ n] P^ hb e% w^ N- M% @% s$ ;% u* %! V7 u> N- += q[ wp j% 7$ i5 E2 V= V7 ~< N- /) ^< L% C- g] y] a, A$ 2} y% B{ Z^ |* m^ {! m/ m^ B{ B{ I{ u* a9 K* -% B] 1* S' y] m^ L% '= _9 {! x^ u* :% -% A* c{ A& V4 M: Wc w^ &/ q^ @% ;% 3! R5 V7 5] R^ (* 3] C{ N- b] B] t^ U^ B] i% /) m- g] g= i% |< y] t] q2 2} C{ $- %9 Gh {! p) l) g= 3! p] 3! w* I{ |* Gh @% f/ B] >% s$ 3] h] 9* %! |] t! ;% S) c> _% }/ I{ H- 8/ B[ jI 3| s{ '^ @1 X] p] W^ u$ L% a, P^ C{ S% ]/ B{ *9 Q^ {{ z7 L^ a, J8 J^ {{ |< >9 {* L^ ;4 R5 =& H^ U^ J] u> _/ 5] J- %! += t] }= h] L^ 6* -% B{ 0* u! s$ v^ 0< =< ~< j] w% ./ w* Y3 u5 )^ e~ u% t! :% w{ q] :< E' -* 6' GQ -^ H: c> j] #& ~< 3] x^ L% g] u% c> #/ Z^ @% w% t! -% !< _9 q] :% {{ ^) B{ U^ :% ,% bo %{ t! 4/ p] x% L] c> x% t! l] 2} }/ l% w- y% t! n& _% 4/ L^ H6 _% O% =&  ! l% }5 +% x% =< `^ #& $< 6% B[ ^^ (} Z$ A5 Y< }] #* %l %9 V7 m^ v) }; i$ @& :[ <P S' <* m= 3] I{ B- )! ./ Y* S^ >[ gT ",
"jq CB B{ << E* w% A- w% B] N* $- f) c{ >/  6 hT p> =! l* d< K~ ^9 L8 K< s{ '^ L& $^ ^^ B[ P% O% ,[ $* %! m% F' ~/ =& E% 1/ n% a, N^ J- '% c> 4/ l] g/ !< x% =& h] p$ P* 6% IS .! ^- ${ <% d! A$ w^ s$ {! d^ u$ |] N- 2] L% =< 5] x% q2 _% q^ {{ t! U^ H- w^ y{ A$ iT %! %! ${ |{ @% x^ w^ _% V7 I{ k* 5] <* i% ;% k^ I{ |] a, a] ~/ C{ 3! 49 Z- !6 X$ 3$ T2 O= w^ j$ S* q^ H- `* Q^ y% t! }5 ,= w^ x^ q^ w* U^ R5 /) m^ w% n] q^ t] w* x^ A$ @% u* p) `: /* +9 ;% <; f/ a, g] V7 E^ %! Y* S3 ~] g& Zn i! 5] {! -% }5 a] `* k^ 5] U^ P^ m/  ! g] 1< @% %! 5] C- {! 5] %! V7 3] 5] m- `: P^ w- h] Y^ l* 5] a, 7' P^ q^ B{ C{ N- i% 5] $- ./ 0* N- w% e2 i% v* U^ 3] 8< u* k* 2] m^ x^ g] `: g] 5] B] A$ $- x^ C* ./ W$ J$ j% Y4 Z' 9* 2= w= 8/ {* 8< k^ @^ @% x^ u* w* C{ q^  / z9 K^ +a E* -% >9 (* i% v^ k^ N- |* U^ V* L% I{ S^ W^ 3] += {! += x^ C{ w^ :$ g4 Z# )% !> f% 5] 5] n] 6* |{ &/ C{ -% S^ V7 g] S^ t- %9 i% m] u* |* {{ e2 B] u* ^/ y% J^  < C{ Q' t! w^ }5 3! B] J^ U^ 3! V7 C{ t* q^ U^ P^ q^ j] x% i% x^ 4/ E' L% @% 5] g/ t! {! l% A$ |] &/ _% -% g] g= /* 2] .( 1/ {6 Dh *] /0 w* p] y] e2 `% H$ |] @% k^ m^ 8/ -% Da g] |* v^ &/ N- =< y% w^ m] ;% B] s$ :% '< v* t! *< `% -% 1/ t! #/ |{ ./ x^ @% w- |] %! U^ N- w^ n% j] B] :% x^ 6* a, O= c{ A! a7 .[ t! @/ x{ |] U^ m] t! #9 t^ (} ,[ o4 _% I{ =& Q^ b] h] Z^ u* ;4 :< a, $< x% ]< U] U^ y% +9 a, >/ Y^ x% ./ s$ f/ -/ 6! Q^ x^ ./ 3! -/ _/ .% |] C^ ,% jT xC |] w3 ,< E' $< W^ %/ q$ 6% t! $^ B] O% %9 O%  ! h/ L^ w3 S% _/ 5% d% b% p$ 4% (5 `; J) I$ #& A$ B* %! {! f- Q# d& x2 zi o> u$ p) >% w^ ;% y% 0* B] 5] l6 ,G ",
";H !> k* x* r* 2* {* v* h% y] {* l~ c{ Ea <% C~ t! =- p) 8/ Y5 2| *5 w} M! /} s{ >^ w3 n[ $^ L^ T% g7 $< [/ F' !< t! L% $9 2] $% L% m% Z^ $% 1/ t! Da @/ s$ v^ h] p$ f= $& V$ 3% 8- (< @% !< =< |{ g/ p] fk :% J- 5] }/ x% |] &/ 1/ %! P^ @^ {{ =< N- 3! y] 6' 0) %! U] @% ./ U^ -% R5 x^ 6* {{ U] i% x^ 0* q^ @/ @% q^ x% z7 x^ t! {{ 6* m/ o' %1 i$ y$ E} /[ v) '/ o- U^ _% {* U^ y] s$ y% +a ,% += e2 K^ I{ 46 -% =! w- l] %! J^ v^ A- += {{ -% Y^ |] E^ A$ u> t- 9a -% 3] B- s$ W) O2 (5 %] Y% C< [/ i* h] t^ 8] 5] a, u* |] S9 |] q^ +[ g] z- m/ w% w* o> z7 i% #/ a] B] t! 3[ %! I' k^ m, V* E' P^ b] o> 5] 0< 5] _/  < z7 |< I{ S^ -% v* C{ 3] m/ P^ x^ u* c< S' {! o% $- w^ w* w- 3* x^ {* u> p] j] 0- U^ Ps s: (5 )^ In ~< a[ y] @% ./ A$ @% g] P^ 2} P^ N- += b]  < y% q^ q^ v^ a] v^ u! S* i% B] |< E' |{ S^ S9 2} 3! /) ./ ./ 0* c< C] P^ k* 73 !& W$ kT lT w% I{ y] b] U] B] t! U^ =& z* R* k^ {* ./ g] m/ a] p] ,% -% ./ q^ q^ $% @% w^ S9 ./ t] w* >% S^ o- m, e2 KO x^ 46 |* =! H- B{ %/ w^ m^ J^ %! s$ c< q^ P; _q B] W^ C{ B] {* &/ y] |{ 2} @% g] 3] U^ o- @% YR mT P# u5 '3 N9 yR += |] y^ ~< _% << =9 s$ y] @% ./ f/ ;% @% x% N- U^ B] x% q] ]/ -% m, w^ P^ B] |< 9/ B] -% |* L% p] i% @/ w% 5] E' :% f] J- U] I{ B{ /) L] /) u> h] E' M= D3 '[ g5 -} (% w^ U^ a, L% k^ s$ {% Z^ {9 Q# M: `% G4 m/ 6' 5] |{ P^ q2 t! |{ c> u* !<  6 |< Z^ O% x% L% N^ z7 _/ P^ y] @% a, :% t! 3! !< u$ s$ L^ k* E' 4/ n% J- Gh w^ {{ 1/ #/ $< 2} !< 4/ 0< L% 2} P^ O% 4/ 8' P^ @/ D% q[ i$ g7 d% ^^ /} Io Y# s{ .> s{ =^ g/ 9a -% u* += $; W$ .( Z4 2~ H- [{ h% &q << `* h* 2* V7 D* E6 kw ",
"cB 6- S' K* (* O* p] V* O* 2} u* l, S; j$ ^% 4~ E* <; _* #/ iI W< o5 j| j% /^ L$ f7 r6 b% n& o3 ^^ j$ F' <% '% O% U^ _% e% &/ _% |] U^ @/ Q; =& s$ _%  < &/ B{ w^ 3% u) o3 {9 ,6 >e _% #/ @% N9 |] y] M% s$ |] 9/ c> x^ |] _% =< a, z7 N- D^ P^  / L% _% S9 L% t! @% =- Y* |* P^ R5 E' l] 2} P^ t! m, :% j] s$ B] q^ {{ -% 3] Q^  < |< x^ S9 n% 2p g& D& a$ F2 :- B{ m/ I{ 3] {* c< 7' =! /* R% ~! l) n] B] k^ K^ g] 46 a[ p) p> =- -% i% N- m/ 5] J^ e2 {* U^ A$ |] <M x% 3] @% @[ F' A} !5 2% f$ %9 j] E' q^ n] C{ D* |< R5 U^ += ./ z^ 5] =- w- wv 5] y% @% 3! -% 2] |] %! << ;% +a O* e2 += S^ B] {{ N* u* y% U^ 5] &/ {* 3] g* -% u> #/ g< 3! =- N- J* q^ '/ U^ U] Q) C* a, 0* a] B] j] m, -% += 3! S* &/ p/ q2 iH .5 <$ @$ R3 P= =! y] += q^ C^ ^< @% 7* b] q^ #% ./ C{ B] w- {{ o^ #a J^ $- &/ S^ y% 6* w* q^ 5] m, Ql {* x^ ./ -% ~< -% c< j) =p )] n$ 4$ nT 2& m/ -% q^ v^ p) E9 a9 S^ p) <n H- $% |* d= $9 n] =< L^ Gh h% w* q^ %! [; 1* /) H- 6! J^ <<  / S9 @% si P^ <; B{ ^O y] Q^ {* J^ M% E' -% w% y] i% m^ E' c9 w% i] S9 +% V7 U^ W^ 3] U^ g] c< x% L% v% 2} y% 05 A| Q# j% Y# Q2 S= w* {* q^ << a9 m/ 8' {{ z7 L% a, t! ~< I{ -%  / |* u% A$ @/ y] 7* z9 Q^ /) !< 8/ C[ 8] q2 N- ,% 3! @% B{ l] $- p) /< L% -% R^ A$ q2 |{ /) >/ P^ T] m/ B* c^ {9 ;] ra c> /) s$ a, !< 2} {{ L^ Q; X6 -& 7^ ~6 =a d9 l% 3[ ~< M% H* 2] L% !<  < L% ]/ d^ Q% `% w^ g] |] /) O% s$ =& J- d^ 9a x% 2} =< a9 8/ `% 2& z7 ,= M% @% @%  ! s$ !< c> 6' h] O% >/ e& D% 4/ (& M^ r$ 7/ B[ %{ L% -/ S% ^) p$ >$ D% th W6 W$ Z; zo [^ *& E9 h% N* M) Z- ^^ w3 d| ;~ @% D^ y] += ~< 8* 9* {! <; c> p$ l2 ",
"oT 6- ;) 3= &= w- w% j] D= B- 6< Z: +> o$ @& _~ *9 d= Y* ;% pT fT G5 X} v4 M! L& K$  7 ca 5$ )& N^ n& *^ 7/ p$ <% #9 h] Q; '% (< S% t- s$ F' ,= &/ B] +% i% 1] W^ i7 {; *& !% [$ j= $< @/ a, t! `% o> d^ x^ ,% += U^ I] <% &/ L% q] @% x^ 3! U^ -% ,= x^ &/ 7] h] 2}  / a9 g] y] ~! m] C{ B] 3] >9 _% U^ B] z7 3! ,% ^< |{ K^ y] m] n] w^ R5 B] '= !] L$ m5 >| :^ G= c2 s- F* R* B* V* ^= d* (! H- 8= 3* T= L* a* C{ := ~; M) j* p) d* x* j= N{ (! 1* E* P= q/ {* 5* ^= <* h* U* )= 7^ -$ j% E2 a8 6* _% #/ z7 y{ x% U^ B{ 9* += i% /) ./ P^ C{ g] A$ a, += B] += o> 7* |* W^ y] J- |* |{ |* !< |* >%  < m] @% a, t! 5] I{ S* J- 3] B] m^ w- V7 H- E9 5] w- e2 ~< x^ u> =! R* p] q^ v) v) h% C{ B] += :% q^ j] s^ v) a; U{ E$ V$ ,] d% :* J] V* ~* := l* V* M) n> d* 9* R- g= x* m= -% '{ Y* y] (! b] i* H- O* C] m^ d= w* 5] 4* H- i% v% U^ 5] ^* G] !! ($ ~^ tr 7; w^ %! I{ {{ _9 j] =! `^ %! y] c< 3! {{ V7 p) Q^ 6! m] C- 6' 5] x% Gh x^ E' 3! u* |* C^ 7* %! $< o- ;% /) += 7* H- H- e2 z7 |] s$ x^ |* L% S^ w% J- x% s$ m^ K^ h% @/ S^ m, _% g] |< h] 2} i] t! Lw 3] a, t$ ./ F] =$ (} }] C} /^ x^ n] :% S9 =& =! B] b/ %{ g] $9 U^ =& ./ m] Q' B] 3] @/ 2] 8/ S% 3] %! @^ ,= v> m/ 0* u% 6! C{ {! 7' @% )- H* B] |< C- @%  R 7* L% Q^ w^ U^ N- {{ a] b* V; L< v4 jt S% `^ {! y] qT L% !< =< QJ [$ $& `2 x^ g] $% C[ I{ L% L% :% y] r3 i% @% u! E% h] A6 %{ P^ N^ h] J- y] !< C{ A9 x% m/ Q; ${ 1/ 9* t! s$ U] 5] g% L% b] w^ w^ B{ ]/ V7 !< !< w^ l% <% u% t- ${ ./ ${ !< Z^ %< (& d^ #& 6% Q% r$ S# p7 K$ >$ Z; 80 zo /} vo $- x^ h% 8) .! #& :[ +~ h% N- B] E' >% 6! 3! `* /; L% D7 )x ",
"9p /= C{ D* {* I* v* (! {* (* K*  - O< |] o3 <! a[ :* C{ m] Qp 1| D5 V} G5 |[ !% w6 '6 +% p$ Q% +% 5$ 7/ H$ 0/ =& +% l% 1/ |r y^ t! ${ =& {{ Q^ ,= 8/ =< R5 ~< t! b$ A* oa v5 3% g, 4/ H$ h) /) ^) `% :< l/ h% ~! -/ M% N^ U^ 2] U^ 8/ |] y% 7' 2} _9 w% l] |* 2] t] U^ |{ w^ q^ U^ J- h] B{ y] B] I{ x% }/ l] !< <* A$ $- E' I{ %! q^ T] {{ %! m] o7 S} ^^ '[ 4^ a{ V; a{ f{ a{ N< a{ Z;  > S3 +> a{ f{ f{ p{  > k{ f{ a{ a{ V; f{ `; S;  > Z; c{ a{ V; c{ `; c{ b{ q{ C3 c{ l{ a{ s4 )^ E[ 7{ -& &/ A$ 0* 5] I{ C* ]* B] V7 B] t] U^ K^ @% j] S^ |* y{ {{ p] B] $% Gh F' S^ p] C^ g] << x^ w* R5 `^ e2 m^ w^ R5 o> I{ %! Y^ p] i% D* >9 0* H- x^ A$ a] E] N- @/ 7'  < L% ,= S* |* p] l] Q' 3] -% D^ m, N- O* {* 6! R5 '8 !! UG Q# ^3 >> c{ >> S3 f{ p{ b{ a{ b{ N< E2 E2 V; a{ /3 c{ c{ a{ l{ p{  > c{ l{ a{ S3 b{ k{ p{ V; a{ l{ k{ p{ c{ @1 f{ a2 rT /& Y4 sT B4 J^ /) l* a, H- e2 q^ I{ C{ v* {{ B] $9 7* z^ -% x^ 6* t! m^ x% 8/ >/ z{ !< y{ R5 s$ e2 8/ ./ _% Q^ s$ $% B] =& t] g] /* t! u* w* {{ |] |{ 8] w- ./ i% U^ >9 U^ t! ,= J- q] F' I{ }5 &/ #/ w- x^ 4/ 0< x^ #/ D^ =% D4 g} ~^ !6 @> _= y] $- V7 %! R^ x% ,= @% S^ B{ 6! ;% @% x^ sj `^ 3] A$ l% 1] U^ i% =< V7 P^ m^ 7' ~< x% l] ./ 8< w- Gh =< y% t! >% %{ 2] g] {! ;% P; @% X^ B{ m3 J- q' +> S& @] WS S% A$ B{ #/ /) t! E' c$ d] K# ca @3 c< :% B] h] w^ !< !< P^ z^ Z^ h] u% a, i% r3 $< S% O% x% +% }5 /) P^ ,= {{ B] ;% ;/ C* L% ,=  ! a, $9 8/ u% 2] -/ 1/ I{ I- |{ !< L^ m% '% o> t! +% %9 a, 0% m% bn )> 7/  ! r$ 5$ +% /% 0% b^ a$ b% v5 q{ [$ %6 L< V7 (* u* &/ tT ,6 0/ ;| n< j] 6* 6! C{ += @% Q^ A- J- H- o$ >B ",
",E e- m^ q/ i* h; N- >< (* E* R* ^~ Y; +% g7 C~ y] 3! C* q^ _~ uT U: L} .& .( Mq ;* K# b$ b^ /} D% n% !< w3 #& u%  ! p$ |] e% 1/ m% B4 [t _/ o^ ]/ oF |< k/ {{ #/ 4% 4- B# >$ hl !* +% 0< 1/ t! 3] {! t! S' U^ N-  ! 5] |] c> ~! I{ #9 3! ;% |] K* Q^ +% @% 5] += o> a, h* [t (! 9* ~< x% |{ i] >/ c<  ! }/ m/ /) g] @% C{ @% x^  ! u* A$ %! 3! q^ B- )^ 7& g5 $$ :$ &* A& ^^ !6 /^ Q# |7 $$ d% s{ )^ /^ X$ {} A& !& v6 $^ .! V$ g& E$ =^ W$ M$ #* s{ s{ ql vJ y6 _^ )% $$ ~% D& )% d% Z$ !& S% (* U] 4] 6! a] g= x^ m^ V7 K^ P^ ~< 3] J- t] 8< m] C{ w* y% 3] p] v) t] x^ J- i% U^ R* y] k^ =- 9* `^ w* V7 B] 0* U^ B{ -% Q' 0* i% (! += >/ += x^ w- A$ (* B{ P^ H- I{ ./ Q' y% m= H- m^ z* S9 m^ `* /* y] I{ x^ 7* k^ e2 e} G5 i[  5 ($ -$ Y# 7$ m5 Ks v& f$ A& 1$ ($ !^ k& X# P# K# M!  5 =^ )% $$ %] /^ ^6 E$ $$ ;6 P# ($ S& /^ 1[ )^ g& :5 G& .* a$ Q# 0| 4= K* '/ w* @/ P^ C^ m^ i] i% 2* 2] |* k^ 5] Q' J^ |] d= *< Lw K) 7' 3! P^  / x% KO b] w- y% l]  < m] 6* @% d9 2} ,% S^  < %{ w* I- |] ~< 7* :% P^ Z^ 3] y% u* x% >/ B{ 3! B{ 3! E' &/ `% (< |] R5 `% c> y] g] i% U^ J8 b* K< )% !^ <| j] B{ #9 Uq C^ B] ~/ L% ,% C^ <* o^ ./ y] I{ P^ N^ P^ ~< D% 5] Q^ |] q2 x% w^ :< x^ E^ C{ l] -% y% += ~< C] ~! ./ @% W^ %{ {! @% J8 q] m/ :%  ! ~! u! w- e{ ll j5 4~ j$ w^ |] 6' w% |* l% L^ v> .^ =^ g2 P= p] U] :% I{ w^ 1/ t! 3! g] #/ d^ j$ 8/ c> %% u% +% e% c] &/ a, A6 |] S% 2} v^ t! P^ y] !< J- |< 1/ W^ q2 :% l% >9 B] @/ h] l% =& `% =< L^ <% [/ += 4/ B[ Z^  ! L^ +% B[ u% l% K{ -* S% y6 `$ P% z} Y; $* ll b^ Wp A* 9* t! Z= (} $* W: Ii z{ w- q] -% y% 3] L= w% C- =- i$ Ju ",
"+A nh V* =q C* ]= 5] m^ C* p) =! ;=  > #& o[ =) !< <; ./ *; hu |n k& Y$ 'n ^^ 4% f7 -& $* E% *% @& +% h] 0/ $* L% p7 z7 2} ;9 z7 |] =< ]/ C[ `: 6! U^ <% :% O% x% `6 l* O% $^ !% I= '% t! ${ W^ |r _/ 3! += v^ y] (/  < L% :% 2} &/ 7] t! {* z7 ^) 8' Q; U^ y] B] c< 2} }5 t$ P^ E' g] x^ $9 R^ @/ B{ z7 I{ %! 9a q^ P^ U^ q^ -% =< ;% p) -% q2 vT O= Bu Q% !6 $^ $^ E% O% ^) (< '% E6 <7  ! =& l/ t% u! N^ =< 99 &/ (& !a B4 0{ 8' L6 !< S% ~< G6 ${ %{ cu L% T% jw Z^ .^ )> b, |! *] ^6 ^6 S< 5* 9* L% w- {! 8] i% o- R5 L% x^ += B{ ./ 2] n] m/ C{ b] {! x^ :% ~< l] `^ _% t- 0* g] |] a9 q^ 3! 8] x^ t- k^ b] 5] q^ x% %! 7* Kn H* A^ B{ v> |{ t^ 5] n- `* z* w% J- A$ N- += S^ B] d= C* E^ m^ (! y] u* a] S^ y% ]* 7* S} >$ (5 6% o$ r$ '% P; 6/ @/ P6 F- S% >/ 0/ Z^ 6% I8 #9  6 )> A6 Ea ~! +/ C! K) :% wT A$ q] w^ >/ L6 c] |] @/ c> >/ #< b$ -& P# H# (% .} t^ 3! v) v* <; m^ @[ |* y] s$ a, =! <; 0* {* t! {* x^ B] [t J^ A$  / n] E' |{ i% y% P^ i% u* 3] R5 m^ R^ -% N- %! w- |< =- $- B] B] J- @% x% %/ v^ y] w^ y] w^ un S^ d< w^ r3 ./ P^ U^ @/ C{ += _% @% u> !< B{ V= '[ s4 0% .& 92 }; S9 :% ./ z9 q2 z7 ./ @% #/ w^ 8/ t! /) |] /) 6l 3! W^ q^ B] @/ I] 2] >9 2] 6/ E^ j] 2] x^ D{ ~! 2} f/ 8< B{ R% I^ B] d9 c< 6! K^ @% m/ S^ x^ |] 0* j] z: ~^ ib YM '% 1/ P^ p] D% 8/ %! [< y' 1% L^ y[ z} I{ t! {! 3] g] )< w^ m% >% `: f/ W^ a, h^ <% B[ d! a, ;% :% k^ U^ B] 3! @/ s$ x^  ! :< (/ S% o% VK ;% ;% v^ 1/ e% 6/ W^ Z^ $< |{ z7 F' L% @/ S% =< Z^ ${ g7 l% w3 =& u% p7 $^ $^ w3 <$ .  B# Z$ L& S; b> @] q% d9 r* C{ ;% ~- F7 @& V& t7 =! o> R* x^ g] {! p) U* xT 4* A6 yT ",
"KS 3{ E9 2* w{ h% <; <; xn '{ (* Q!  > F' 0< Sd h] u* p) C- zT OL N# h} @] G5 5$ E$ '% i$ ^^ F% D% /% p7 ^% @/ 0< x% (% U^ O% ;% F' W^ a, @/ q] 8/ 3! L^ %! 2} 9* Qq 5* r3 f$ Ll .) .( @/ S% =< 0< 1/ I{ 5] k^ 2} g] g] n] d^ K^  ! %{ ;% g] O- x^ `^ B] k^ t- <% |* m/ t! Z^ w] V7 7' ;% ;% 5] P^ o> 3! @% p] [t ;% c< P; d^ << B{ m^ $- @% E' B- E} ]& V$ -$ ${ /{ AT C  BT `> CT DT ET FT GT HT .a Wx P8 IT BT JT KT `> X+ X+ LT Rm MT Xl NT OT u# PT QT ;B RT k  i  Fi Ix %, ST a{ 2% &] y[ &* _* o> c< Y* ;g ;/ N- A- :% B] 3! -% o> U^ w* w% p) k^ k^ |* W^ (! B{ m/ 5] ./ C{ 3] 3!  / 6* 9a 3] <* 6! m^ w- 7' A$ {! V* m^ 5] 1< 9a |* ;% w* w* T] m] Y^ =! 6* C{ N- @% H- =! $- i% %! 3! 1* Q^ 2} 8< 7' 2] n] 3= (4 T: K$ b% Xk d. TT +' e. Z@ +' UT ;# i  VT WT ,+ E# XT YT ZT f. `T  U .U Y, ,_ Z.  y 7@ +U @U %, *@ FT (' #U }# $U E+ m@ Y* >^ <$ q5 q{ h; 5] N- {* {{ B] `* 8] ZO B{ 3! y] P^ y% d< {* 7* S^ V7 w* w- S^ a9 Y^ c< x^ V7 z7 S^ 3] p] A$ %! P^ {* S^ ]* w- @% N- @/ H- B] B] V* +; h] B] J- y] Y* u* x^ @/ p] L] =< x% |< B] z7 m, B] B] q2 B] 3! W^ |] m^ e2 $3 !^ {9 V$ jt N% (* 5] s$ g] Q^ m] ./ B] ~/ *9 ./ 4/ ~< |] 2] a, z^ @% w^ h/ v) i% a, j$ t! 2} v* #/ 6/ K^ u! d^ <u R5 >/ Q^ j$ C- P^ {{ 6' E' f/  ! ./ >9 ./  ! {* N* E2 s{ {^ &4 #/ y% }5 ./ w^ _% 3] |] _* W: 3% K# .4 ~x w- |{ U^ o] @/ g] x^ D% `^ z7 w^ K) _% 1/ x% C[ t! _/ K^ %/ 2] += qO ~! 8/ %{ B{ {{ c> 8/ n& 7] R% x% |] l% J- N^ +6 U% |] l% |] !< |] :< =< q[ L^ &/ D% n% @/ `% `% l% _/ =} E$ $^ K$ .^ -$ S& q{ L< hl B# vo H- w- 2} N= X6 %^ w& #f E* N- /) 0* z{ $- V7 z* :% e2 g7 >B ",
"pp !0 _= {* N- w* p) P* F* J^ r- 0> S; -* ${ Sd +a q^ S) 9* o< {] 1[ Z' [7 E$ d% }] i$ c% 0/ 7/ K$ $< u% F' `^ 7/ a, O% |] m] ;/ (& -/ F% |] W^ x% >/ x^ y] D% z7 -& o* $& )6 Q#  - p2 8/ `% b] N^ y% #9 E9 U^ u! |] ;% '% ;% h] %! m] B] d^ a,  < =& h] B] 0* d: u* A$ 5] N* K^ U^ }5 P^ w{ ,= I{ 3! _% %! 3! ;% I{ p] |] C{ U^ ,= y% f] e2 p) {! G} :$ W$ M2 %U C4 M& ;& _$ <& y$ H# l: ;$ &U V/ f7 ,& Y# *U 8$ 8$ [% s% >& =U ** n} O/ O# <& yr -U 0& X% c' ;U N/ >U ,U ,J V{ 1R 'U Q& s6 '[ l{ ]* K^ J- *< u% 3] E' Y* m^ >0 x% i% U^ p] b] @% y% B- A^ i% ~< U^ S^ 0* R5 8] }5 a, S^ {{ x^ t! s$ {{ P^ W^ ~< S^ N- p]  < w% u* i% 3! V* g] w- w- I{ K* U^ s$ J- p) 3* ./ 0< @% A- s$ 3] c> zn b] /* /) z7 A9 $- b% i3 V$ P# Y< K= 1R T& G% `& G# s% +$ _$ |$ %* X$ :$ J% K/ `& !$ W# D$ m5 j& k% B& `# 2$ &% Z% Z% :t r{ [4 C/ T$ U# 7! 7! a% Lt M: *6 W$ (] g& =! -% 3! U] K* 6l m/ %! C{ N^ m, u* w- 0* =!  / `* p> A- |] &/ 9a y] 1/ w- w{ 2} x% @% z7 x% 5] >/ v^ 9* m/ O* %< a, {! v* @% ;% w^ @% &/ I{ %! ,= q^ =- Q^ w^ 3! B] |] U] d^ 5] y% c> << w^ B] y] @% I- ./ P* M2 F5 '[ >6 $4 n, v> {{ a9 Lw B{ 5] f/ B{ 2} $% `^ {{ t- #/ N^ ;% {{ `% N- M% a, Q^ 1/ ;% U^ ,= {! P^ |] ^) y] K) J- o] 9* (! a, f* z7 B{ j] C- -% J- t! L] D{ t! d^ 6' :* f| ($ g3 )U _/ {{ @% 0< w% L% _/ >% w3 !U ;& X6 >^ G3 1[ {! }/  ! P^ x% n% P^ L^ 3! x^ L^ {{ s$ `% n% g/ :% &/ _/ P^ 2} S% t! =< i% |] @% N^ O% @/  ! C^ >% W^ %< =< N^ P^ }5 L^ @/ =& !< =& p7 W^ ;/ n% l% .% l% +% 0/ E% </ $* H$ f% *& >^ L& $* L& S; (} ;] .! 3] += R* _* }; (} *% .] Ci A- *= -% )9 6* w* =- v> N- (! M6 !q ",
"Bl fz 6! *= 5* S^ i% $- w* != ~; R! V; Z^ ^) NL q^ v* 7* }= gu ,| {] w& ;] i$ r6 p$ K$ b% b$ r$ (& w3 '% b^ O% &/ o^ Z^ C^ p7 x% ]/ w3 S9 [5 B]  < ~< +9 V7 d^ P^ $* [; S% ^$ |[  - H$ M% a9 g/ `% v* S% ;% ;% H- w^ P^ @/ C] br -% C[ m] x% x^ U* 5] ;/ m^ i% Q^ '= |* W^ 5] z* C- %! B{ a, i% O^ _% U^ 3] %! y% ~< L^ o> u> =! u> I{ v^ C* ^= a} &$ [$ R$ 5q $* _% 6* B] 2} ~< u* |{ @^ g% w* |* w] B] P^ {! a, d^ q^ S9 C{ T] w- C{ p) Y^ 6! t! t! 7* I{ `^ U^ *9 3! q2 }* u* m^ 7] O# ;] ]& r5 i3 }= p) ~U u> 0* u* m/ 6* w* 5] B{ v> y] /) E' P^ 46 -% a, x% I{ L% {* 0* E' Y^ C{ 3] b] x^ v^ B{ J- ./ g] ./ i% $% /* C{ w^ B] y% m, 6* x^ N- S* l* s$ A- 2] J8 5] `* 3! 3] -% l] m, L* 6] (* ,= 3] ./ q/ += (= B3 .5 S& )| {U N- c> u* v> m/ |* m^ m^ C9 *9 A$ S9 %! y% |< si 3! m- w% ,= /) t] s$ S^ |* C{ y% v^ ;% ]/ q^ i* y% 46 |] J- _% M% ]U !& ;] >$ U2 5a J* {! P^ c< B] b] m/ 3] B{ I{ b] g= w% w- `% ^* o> p) b] x^ w- 5] q^ K^ Q^ i% p) C{ k^ c< B{ x^ e% v* 6* x% I' P^ |* u! N- {* @% P^ 5] ,= 7* S' C{ 8< C{ 3! I{ 6* P^ s$ _% s$ S* -% w% ./ ,= += R5 v^ `* H6 G/ .& ~^ i3 Xc >/ >< vo g7 U^ y] C- 6/ E^ 3] t! t! B{ |] 5] q^ B{ L% %{ P^ s$ B] ;4 B{ Y9 %! 7] g] 2] 8' _) Z^ a] U^ y] L% 6* g] -/ J- t! t! {{ E' 6* 8' ,= u! j] +/ I- e2 w& }] /3 s* /) X^ {* ,% =/ b] A- {* %! w$ 9k *] .& Q# D2 }] x^ |< C] U^ 0< %{ P^ #/ q2 t! Z^ R^ q] D% :% Z^ @% ${  ! w^ U^ (< W^ _% @% 3]  ! 1] m% N- ]/ S% |] #& D% Z^ ^U u% w^ =< 0< a, h] t! `: D% s$  ! R^ h] `% $< t% r$ O% w3 =} 6% 6% ^^ 5% /U S; ;^ (U h$ _U E' p) d! == ,^ [/ g} :U B] E' w% {* q^ H- v) N- <* 8< ^% )x ",
"Bl p; d= (* m= K* 8] B] h% U] ]* iw `; )> !< cR I{ v* u* {{ xg <U *5 X} _5 '6 b$ >^ %^ K$ p$ 7/ <% t%  ! H$ t% =& _% L^ f/ F% [/ o% y% ;9 a, S% $< @/ Gh f/ S% |* R# +[ G: %6 4% Q- =& u% $< E^ Z^ t! 1/ |< B{ B] W^ 8< g] }5 w^ '% |] y] 6* m, [[ w% Q^ u! x^ 3] m^ A$ a9 t! $- i% %! w^ P^ t! ;%  / I{ o- z7 P^ p] v> I{ :% -% w- {{ Y^ h] 7D h} L4 (5 5! |) _/ ;9 u> c> /) x^ p2 [U n] -% 5] I{ ~< n] 3] |* x^ |] w- /) ./ S9 q^ w% d9 6! x% u* K^ >% ,= U^ $% c> x% c> P* N9 3] 1/ 7Q y2 .& _^ C2 3] w= l] u* %! {! P^ &/ += m/ 6] :% A$ v^ U^ D* x^ ,= B] 7' 3! 2] y] 8/ x^ e2 S% += %! S^ y] V* q^ g= t! w^ t- C- 7* m, |< y] ]* p) U^ a, m, q^ K) z* ;% U] m^ 6* u* L% g] B{ o> E' n] ,= a, C{ i% A$ V* J^ D} @7 NR L& 99 o^ P* c< w% U] J^ u> w- :% C{ p] l] `* 7' o] x% z7 K) x^ `^ ;% P^ 6! t$ S^ U^ @/ <; ^< v^ f/ i% R5 L% S^ |* 5] |] o> E* QL !% W$ H& #2 3* '= h; t] m^ (! B] u* $% m, 6' J^ x^ I{ 3] += g* P^ C{ %! P^ %/ y% e2 B] x% I{ #/ w* ,% y] K^ %! `* 5] |* C^ J^ (* Q' w- ./ 4/ ;% P^ 6* ~< x^ ./ N* @% x^ |* @% {{ E' W^ u* B] ./ {{  < J^ {! I{ S9 :* b{ (5 n$ 4% ~* e% 5] x^  / :% _9 S^ 3! 1/ >% x% $9 Z^ |] 5] g] q^ @% E' x^ e2 y% >/ Z^ @% %{ A9 C{ |* -% 4/ )< x- ]/ U^ y] N9 @% 7' 0* >/ <% B] j] L% E' #/ 2] x- L% q^ j= 92 .  X6 /} W$ V7 L] @% u! q] x% h] L] P^ |{ Io &) .  >$ 2% A3 G& r^ c> ,% ~/ n] W^ O% l% A6 k^ t! |] h] t! F' 3[ 1/ L^ _% P^ U^ 4/ ./ W^ 3! d^ ${ |] !< &/ L% H$ h] '% M^ h] w3 d^ h) U^ n% ;% b^ (< @/ R% R^ Q^ W^ L^ F' S% )> p7 >[ v$ 3% b^ ^^ >$ G5 V; [7 v5 !6 ]/ V] -{ e] En -$ <% y[ pb S) _< {* F* y] ,= ]* h% h* /) 2L vL ",
"O7 D- }= p) h% b] '= S9 0* z= <* c! a{ #& 7/ _~ a, N* q^ H- Kq #5 z} E} )^ !% 4% r6 d% K$ L^ <% w3 !< T% =< x% 3! }U x^ _% =< 8/ $< =< 3! U^ C^ L% !< !< :% a, H- i$ w* r$ ~^ >$ 8= d/ h] y] &/ 4] |] ./ ${ L% m^ 8/ U^ U^ (& U^ S^ @% >% o> s$ @% t! w% c> m/ h] 2} b] ,% I{ |* {J p] B{ '% )< -% E^ B] x^ x^ ,= z9 z7 B] S^ /) i% i% y] 8= Q: g& ;6 -] eq 6% c< z{ 1* $< A$ i% h% S) V7 _% Uq y] y] n] }5 w* E' |{ w^ q^ g] R5 $- |* S% ~< B] {! E^ $9 6* 5] z^ O% c< u> 4] Y^ p) t-  0 C= L8 g& =^ _3  ; d^ ./ ./ 4/ 1/ w* 9* a, <; {* %! E^ x^ w* $- >< /* t^ 8] ;% += _q J^ V7 #/ =! t! &/ y% << P^ p^ V] 2] t] 2] e2 += u* v* a, C{ t! S* U] #% @% 3] H* x^ {* += +a 9* %! B{ H- m^ D^ u> |{ f/ C* u* -% f= j{ T# 3$ /3 %8 @% |* >< %! D* i% I{ 5] g] 1/ E' #/ H- B{ += += A$ ,% {{ ,% H- 3! += Y^ 9* P* x^ q^ += t! B] Y* m/ {{ {{ ;9 |] v* }* y] yI B} 0% s{ (3 h* ^< %! |* N- y% {{ 1< {! += @% u* C{ G4 g] h; x^ -% S' L% e2 K^ 9* v^ y% H- m/ w^ p) 3] @% q^  = w% u* B] q^ ,% 6* 5] m^ x% y] %! m/ K*  < N- {* p) b] 9* ;% b] U^ m3 w- m/ K^ _/ m] S^ B] B] 7' D^ }] @4 _^ 7$ &3 wp @% t- c< s$ @% 4/ |{ B{ @/ :% 2} p) A$ y% ,% v^ i% ;% B{ 8/ d^ I{ >9 w^ L% B] z7 C{ @^ q^ g/ f] p) {{ E% t! E' g< B] $% t! J- `^ =l i% 6! ./ ./ U* {* h% m} OL '6 3| 6O S% g] c> f/ B{ += x% t! b]  R '% u! M! #; K4 '6 ml -| !6 Wo ,% $- @/ h] B{ f/ x% W^ '% _/ w^ B] @/ ./ z7 F' B{ S% U^ }/ L% K) @/ `% d^ 8< $< a, 7] [/ U^ `% L% q2 h/ R^ `% j$ $< /) O% O% o% #& `% {{ l% F' B[ O% O% +% 3% r$ i$ ^$ v6 -$ f$ S; /^ L! 8} z7 -% B] M) D* '6 W& =e $P K* H- -% 8/ V] m= u* v- ~< ~- .^ yT ",
"E! q* *{ B* B- {* h* u* /; D* D^ g[ S; o3 _/ Po 3] {{ += a, cl q} %] V} '^ s{ hl <6 W$ r$ Z$ d: ^^ 6/ p2 5$ ${ 4/ B[  ! U^ s$ (& o% H$ l% g]  / |] 8/ B{ :% r$ B] *& d9 r$ v& 1[ $; =< si %{ w^ !< ba 3] w^ s$ 2} =! u% }t N- l] z7 B] v^ 7* `^ a, ./ U^ 9* t- J- B{ m, C{ K^ (! ;% p) _q _% {{ ./ t! 5] B] I{ u> y] s* I{ x^ B{ B{ += K^ >[ j3 i: {6 )] 5/ x^ P^ -/ a9 S^ L^ t] U] w* .} #/ ;9 z7 {{ x% L] y] U^ H- z7 y] k^ G4 =- =- R5 /) P^ I{ w^ V7 u> |* P^ !< 3] 3] ./ N- A9 y] N- Ii +> Q# f$ 24 D6 p> 7k 5] S9 1< w* y% o^ >9 q^ =! ;% %! $- y] D^ B{ u* {! += 3] J^ |< p] R5 R5 {! Q; Y^ D^ q^ U^ _% N- u* 5] $- p] m^  < m, >< N* /* w* -% u> w^ x^ m/ |< m/ H- %! ~> >% H* $- 3! @/ x^ w- o> q^ C= G/ @] S& d% s2 2/ << 9a %! Q^ Gh P^ a, }5 B] w% p] U^ a] m] _q 7' r3 |< c< 5] B] 2} S) a] e2 `% C{ $9 C{ {{ 3] B^ G4 B] V7 m^ V7 x% J^ v% 05 a9 >[ uh k& K| }= B] w^ 9< $9 U^ Q^ g] x^ 0* w* R5 += )> w^ w% C9 6! I{ S^ y] y% 8< s$ S^ i% i* N^ x^ l] S^ [* x^ += %! -% 0< d] C9 (* |] J] 2} V] J^ i% {{ %! {* U^ y% e2 f/ {{ P^ &/ += C* N- y] 3! u* c< I{ i* Q3 :$ o6 /& 3u )$ %! x% x% y% ;% #% |* w^ @/ -/ 7' 5] y% w^ w^ U] P^ >/ N- P^ C{ x^ w^ _/ l% z9 m/ J- ,= {{ w^ i% w^ x^ w% =% 1/ i% g] 3! x% 3! y% w^ 7* t! ./ C! Fh =9 v& (2 i$ S# M' &$ C{ B] y] h] x^ '9 :% 3! ,/  ! d^ h] :% l$ b; >^ '^ A& F3 =^ ~B `% %/ l% o> x% s$ `% [t I{ U^ Z^ P^ z7 h] #/ 7] f/ ${ -/ P^ g/ g] 6/ <% Z^ }5 !/ |] [/ 0/ 6/ 6' w^ O% D% s$ w^ F' F' =} L% =& ~< ^) p$ x% _/ 05 b^ #< /% r3 b$ K$ (< L& ^$ ~^ V; (6 57 t6 V< {* C{ I{ 0= M! 7/ S0 +l 8* n] A^ l* w- 2] q^ u* i% 5] <% -0 ",
"jq |U {* A- 0* P* n] <* z* `= c< G! mc i$ 8' V! D^ {* x- b] on 1U g5 B/ !6 S& b% )> $^ 0% /} Q% O% S% U% n% t! A6 W^ D% S% ;9 @/ !< d^ }/ &/ O% Y^ L% ;% {{ p] >% H$ S^ ^^ 4% ~^ F; [/ y] g/ w^ ]/ w^ w^ x^ w^ g< ;% Q' 6* U^ z9 4/ U^ &/ ,% A$ J8 B{ 6! ./ B{ E' A$ o- 1* ./ o>  < /) P^ %! 2} p$ G- a, I- u* += y% c/ x^ @/ @% 0< 3! B* f{ :^ )^ v, [R N^ /) |{ a, +[ o^ Q^ B] {{ x^ V7 B{ +9 w* g] o> w% N- N- si >% B] E^ %{ C{ L% m, 6' k^ -% S^ k^ k^ g] P^ w^ P^ D{ @% 3] y% ./ w^ '6 Xe i5 j% h5 V; <= v^ 2} ./ Z^ z7 i% C9 3! 3! x^ 2] $- 9* B] Gh x^ P^ m^ ./ @^ x^  < 9* a- u* B{ B] ./ (! B] 3] g= q^ L% |] {{ z^ q^ {{ N- 9* t] w- 2] o- 0* t]  < p) ~< w- P^ @/ S^ w- m^ w% {{ S^ ./ ^< m^ #% /[ J5 n$ |% ;| l' 2] P* B] {* m^ `* v> _% += D^ @% |< 1* += M% 0* x^ U^ e2 A$ i% m, V* p] u* h% w^ 1* ./ m, B] q^ B] t] e2 9* y] i% 2] @/ @% U^ yp (0 z} n$ C: d^ += y% B{ =!  < _9 /* y] |] q- y] y% }5 A$ P^ B{ %! o> {! y] @% N- l] g] g] R5 |< $% u* B{ I{ !< z7 += _/ 8/ +9 2] C* u> B] W^ C- ./ A^ P^ i% B] _% |] %! P^ I{ m/ d* k^ 3! 7* << +[ 3] =- _* _$  5 #* )% 0$ ~- g] ./ k^ f/ E' p7 x^ w^ #/ ~< 5] z7 y] Zm += J* 3] E' /) t] m] w^ q^ {{ ]/ [* y] y% t* ]/ @/ y% 6! >/ 6' 8' <7 p) !/ d^ /* 6* @/ _/ kr :% _) u* >% O* ^) C| 3% $& }^ r) W] ^* J- a] l* q2 q2 |< |] j$ g] E' :% K{ E' =< `* B# L& M! m} @$ p) s$ Q^ :% |] Y^ R% P; (& |] {{ B] K^ N^ D% c> d^ 2] U^ y% %{ 0/ >/ w3 ;% `: @/ $& n% t! t! C!  ! w3 E% S% d^ t! D% `% u% L^ }/ Z^ )> O% 0/ K{ S%  6 u% .^ B[ ^^ Y6 o3 X# a$ S; M! Um g7 |K d= U] h] h, [$ p$ V{ 2U += J! 9* `* s$ N] Y* @[ P* 3! o[ pr ",
"pp >* us V7 w% z= x* K* e2 d= 8] s' P{ w3 +% &4 {* 9* p) v* qF u9 _5 y} ^$ v5 i$ b$ Q% $^ A6 L$ 7% o3 #< n% H9 _/ =< I{ <6 F- _/ @/ @% K$ -/ ~< :< y% h] x^ a, g] 4% _* P: 'n _^ Q- o3 B{ o^ t! Z^ w^ 0< {! ,% s$ B] 3] w^ u% L% )< m/ B] 2] {J |] C- 50 C- +9 8/ {! t- l] ;% `* |* y% U] w% B{ v> g] |] C* -% Xf u> {{ g] w^ @% += E* >] 3U >$ A! l* 3% @% i% !< {{ n] W^ o% A$ w* y] x% m/ m^ P= 4/ p] S^ w% P^ {{ ./ t] q2 U] w% {! N- U^ q^ @/ |* A$ v) h% s$ |] U^ i% @% p] @% Q^ R^ @% M* 83 )% 5% R: _4 H[ O* p/ &/ g= W) ,= x^ u> {! B{ -% x^ ~> 0* @% g] `% x> m^ B] C* Gh ./ E' V7 E' w^ o> D^ Y^ %! `% o> w- l] a, k^ (* ./ u! @^ =& 46 u* b] H- y% L% B] P^ B] w- R5 N- G4 c< Bn u> I^ w^ += )7 #3 q7 a$ `& b8 #9 5] 1/ $- J^ 5] 9a J- x^ Y^ t] S^ P^ V7 z7 K* ./ 3] S9 {{ U] *9 p) x% a] a, 5] w^ >< S^ 6< x^ 3! 8] v^ c< z* m^ U^ U^ q^ w% V7 ^^ 6> ^^ {% ~% +3 <- }* 6! b] y] m/ |* I{ s- y- |{ 0* B] w- 7' g] ./ w% z7 C9 B] w] |{ 5] fk $- P^ o- y% R5 {{ w- }= y% P^ &/ ;% $- ~< p] P^ E' B] B] m] !/ ./ C{ N- t! x^ L% a] N- 3] += =! N- v> L% i% 1] v> 53 :$ :^ [4 'z S% A$ `% M% s$ ;% m] S9 Y^ c/ M% u> m% $- {* L] w] S9 S% m/ ~! @%  ! @% U^ `: B{ b] y% u$ L% W^ m% W^ Q^ o- @% q2 L% Z^ G] >% J- E' 5] S' >% J] ,= J- 4* c{ s{ Y0 G2 'T h] ~! ~! 8< (& O% w% c> U^ ./ C! L% v^ @% h] Q^ _/ !< B] J7 .& !6 F3 '^ a9 u> a, |] U^ !< 8' U^ _% Z^ t$ ;4 x% m] ]/ 3] =& ^) O% `^ D% (< @/ @% L% %! h] X^ (< )< -/ =% r$ _9 D% $& ${ t! >/ '9 _% #/ w3 u% f/ u% H$ <% n% F' p$ 5$ q% <% P% q5 I/ c{ I$ W6 r3 5P K* -{ O= +- q5 5$ 5^ 0C 5] Ql 7' u* I{ A- <; t! ./ V* #^ !} ",
"45 >; b] y] i% ,= i% ./ t- <* 4< p, U; /% L^ ]a L% k) m= +[ [} 4U S& ^| v5 d% 5% B# 4% K$ F' Y& o3 n% 7/ Z^ U% 0< f/ S% (% s$ =< WP A$ =< bn +% @% U^ `^ z7 I{ E' =} a; E6 S& J$ U[ L^ Q^ '% O% 5] @/ _% ;% @% m/ ;% ~< K* @% Q; ]/ 8' }/ x% B] C{ `% S' t] B] N^ u* B] ./ 3] q^ ;%  < f/ @% x^ p) 5] A$ -% D% |< A$ 2] {! q^ y] << (! D2 ($ |P U2 5U -% C- t! _< k^ /) r* g] x% 8] @% !< 5] 3] K* -/ @% I{ 5] P^ @/ m/ /) 9* z7 Q) m^ J* :% 5] }/ x^ 2] m^ J- E' a9 _< ./ y] e2 ;% |< 6U %! y% 7U 64 A5 W6 I2 i* x^ I- =! x^ 3] p] u$ g] }5 ~<  / A- g] g] k^ vo 3] P^ _% 0< F^ I{ |* P^ ,% i% D^ B] u* Wp @% K^  < =< g] 9* q^ S^ `: I{ -% ,o 9a @% l] (! {* A$ x^ I{ 5] m/ p/ n- /* 1] 5] 5] S^ y% R* .5 +| .& !^ j7 xC v> v> ./ y] 8* {! R^ o> L* %! i% |{ =< Y^ |] :< ./ 3! w^ V] r2 y% J- w^ B4 S* w- @% (! q^ {{ e2 /) =! 6! ]* P^ t- v* -% @% Fg i* 7* T! t: $& P# $1 j% L= }= d9 7' x^ O* -/ a9 I{ C* 8< U] g] t! p| C- w% =! N^ z7 c< {! t! += ~! j] t- C{ m/ g] J8 =- <; C{ U] P^ @% H- U^ ;% L^ ^) o- @% t! += c> h% |< t] t- t] C{ +9 S^ L% 6! %/ x^ W) K* L2 )% ;] e5 `% C- ./ =9 L% c> y] 2] -% |] s$ t! B{ ./ 2} m, t] a, C[  < U^ :% 6* 2} B] I{ 5]  < N9 B] {! #/ l] x% ;% x% O% q] I{ :% 1/ 5] E] h] |] f/ %{ S% 6' 2} L% i* e{ L! (} a} I0 c$ ~! o] &/ C] ,= U^ _/ J- l] x^ C{ {{ ~< J- h] S% x% p) a] )/ w3 X# (} a3 !^ Gh $% 7* @% f/ ;/ =} =& j$ `% ~< 1/ R5 +% s$ Z^ S% t! L% _% >/ &/ c> `^ %! |{ a, Z^ =< %/ x% Z^ 8/ x% d^ ;9 t! @% (& =& `% B4 [] r6 a, %{ <% r$ i$ '% Q% p7 V$ @& Q# @] S; J) W6 `$ 05 B* A$ ;% ]> K[ $& x: nR t= n- -% /) y] u* 2* E^ 6* v* /} Ju ",
"O7 !0 E9 ]* w% P* |* N* C* E' P* 8- O< t% 0/ 2~ v) C* {! 9* Zc ~| :5 Q} _5 $* @& {% $$ 6% n& !< /^ ^^ =& 6% *< 6l x% )> a, S% [/ l% t! &/ t! w^ h/  ! ,= {{ S% $- -* '/ p$ J) 2% #) +% c] +% Z^ N^ &/ 8/ #< s$ s$ N- ./ ]/ s$ =< x% u* $% /) Z^ ;9 Zm z7 w- a, += x^ |] V7 b] J- l* i% |] w^ w* p] V* ./ Ep g] q^ t- ./ |* U] 3! (* h| v& .$ B# 8U IS 4/ I{ y] U^ x^ 3] d^ w% 5] 8/ x^ s$ x^ ar K* u* 1/ |< ~< y] u* H- N- 5] 7' C{ x^ B{ x% N- U^ :% y% H- |* y% 3! A^ B{ 3] B] 3! x^ |] ,% K^ m^ n[ h$ >$ #* /3 l) U* g] U^ U* i% l] w* }5 <; x^ i% w* {* U^ t! m] p] U^ y% B] += K^ L% N^ V7 w- 7* S^ c> $-  < x^ C{ w% B{ y% A- =! B] v> J^ D^ -% 3] U^ m^ x^ y% P^ p) I' (* 3! m- w- N- 2] 2] G* ~; b{ |% b% C4 RS P^ x^ u* 6* %! D^ x^ Y^ ^* B{ E' k^ $- y% $- y] E* y] o> y% p) z7 v% B{ %! t! 5] m^ Q; Q' S' ~! s$ y% |* /) _/ y% I{ w% 3! C[ `^ :% n] _% gR Y{ -a v5 D3 H= Y*  = B] #/ q^ S^ 5] c< S9 R5 1/ a] P^ U] |{ y] :% 3! ./ |* _% `* x^ w- g] N- m/ 8] i% ;% K^ 9* B] x^ S^ 5] u! B] w* |* U^ =! 7* t! @% Y* 5] L% N^ I{ a, @/ d^ y% {{ w^ ,% w- {! e% >| X# g5 M: -S ;% @/ 8< e2 C^ 6' I{ @% 3[ Y^ u> }t ./ U^ h] U^ a] B] I{ m^ W^ @% q2 2} {{ Z^ 6* P^ x^ i% += w^ B] 3! @% x^ y] |] 2] 5] K^ i% u! _% Rt q] w^ C] Z^ `= x/ )] j/ *] 9U '& Uo  ! a] /) ^/ s$ _/ C] #/ ,= << p| 8< w^ @/ ~< {{ N^ `% x% M* 0& 3% d% _^ C3 *^ @/  < y% @/ `% g] a, E% d^ w^ u% Da L% g] /% $% Da 0< <% w^ L% h] P; a, U^ /) Q% `% @& a, !< k/ <7 O% @/ f/ `% Z^ N^ `% ~< m% 7/ A6 =< c$ !< r$ $^ H$ 5$ $^ 0E d% n$ Z; P% }] v6 =< y] << e2 5- )% ^^ d| ]P S) 9* 5] S^ C{ t! u! m^ U* d9 .^ 2t ",
"0U 3~ 0* t- S' p) w% w- _* x^ fk !~ x/ 0< D% &K g] O= /) C- iI oR j% k} )] Nl M! <% Io F% r6 b^ e% +% 0/ `% j$ L% b^ 0< =& (& b9 `^ L% L% P; r$ o% |{ /% X^ t^ e7 N^ -{ :6 q% _^ h= O% `% '% 3! U^ }5 O% f/ I{ @/ =% E' ./ /) =< s$ %! E' @% y] x^ q^ I{ |{ x^ U^ B] v% w^ i% i% i* H$ i% ]/ S^ 4] w^ k^ {{ -% KO w^ C{ @% 3] V* 89 Q2 ~^ '[ Hs l, v^ _< @% U^ &/ C[ |] {! x^ /* w^ 2] E' {{ l] L% {* 2} *9 |] 8< 2} w- g] R^ ;% c< x^ 2] -% ,% L% m^ p) _< 3o Ep P^ B] 5] 6! L% K^ w{ ;/ m] J] si >8 C3 k& .! I} Dg .} h% u* <; E' B] N- k^ $- I{ i% u* |] 5] B] z* %! q] x^ 7* B{ z7 I{ y% W^ 8] U^ a, |* {{ si N- P^ /) B] |9 o] f* b] |* A$ $- P^ B] w^ w% 2] U] +[ K* ]* 5] -% C{ 8< {* v* $- /= {[ f5 17 /} .) B{ K* K* J^ -% z* a, b] V7 ~; E' =! S^ Q; 6! |* u* E* }5 x^ @% {! << (* n- 5] x^ x^ 3! 3] 3! 2} m/ 3] s$ B- u* w* w% e2 C{ u* $9 m/ P* h] t- '% Wf ]6 #* &] D} I- =! 2} v^ y] 0* t! =- q^ K^ x^ ~/ N- m, ,% W^ B{ ;% p] R5 P^ S' Q^ i% >/ q2 u* `: 3! L% |* >/ a] c< ./ += S* U^ 3[ P^ :< C^ y] w* Y* l] c< U^ >/ x% x^ 3] z7 3! >% u* ./ Bs q= @1 :5 &* W$ u' -* h] P^ X^ %! {{ w^ _% |{ s$ a] L% O% f/ U^ 4/ |] %! y% C{ ~< += q^ p] i] 8< E{ += {! f9  ! B{ %! += R5 A$ -% _% y] y] |] +/ y] >% t! q2 L] t! /) r] O| a| X6 T% 8o A& X^ ./ m3 A$ j$ t! L] w^ x> >% 1s s$ v> B{ x% h] J- 3! 2] #/ 2} i% 5; 5& *& B# '[ Q: '^ q^ =< %9 _/ <7 Q^ `% `% @% l] h] O% B] !< `: w^ M^ L% S% d^ m3 U^ |] x% =< 6/ t! ^) D% o3 U^ +% _% `% t! x% p7 ]/ 8' `% n% -/ %% S% t% Q% [/ D% Dh '6 Q% b^ F7 |[ S; kl b> Z$ aU N* 0* w^ i! _^ D% Z' Tq 8] -% w- m/ |{ l] h% w% $- w% ;^ t[ ",
"ut O; $- v* T] p) R* $- C{ -% ~! -; ;3 )> /% 1~ S^ R5 H- @% aC 1a bU 5| @] A5 d% 7% %% $* 5$ w3 `% ]< +6 T% L^ L% O% -/ g7 4/  ! +% }5 I{ |]  / B] :< _} z7 Q; %! /% %[ p% {% j% R= F' #/ |{ R^ u! =< !< Z^ a, s$ /) p2 s$ S^ /) ;% |< t! O% d^ C- A$ %! z7 B{ 3! w% A9 5] }/ ./ 2] z9 ${ p) J- z7 x^ p] x^ d^ U^ u$ I{ w%  / 7= q: q5 y6 l} y8 '% S9 U^ += }= w^ t- #/ #/ B] o% w* |< m/ S) `* z^ t] B{ %{ {{ m/ u> E' V7 y] J- g= 1/ w- J- 5] C{ x% :% N- 5] a, s$ K^ |] s$ |{ 0* m/ ,= u* %! P^ N$ j, L< Nl )^ G2 Z5 2< -% I{ D{ ]* @% y% B{ O* w^ I{ W) s$ /) K; S^ ~< m/ B] u> U^ B] y% N] 3! x^ x^ [t C9 1* l] J] 9* 5] w* ~< B] t- &/ :* [t w% w^ /) |] 0* h% ,= A$ }= j] (! H6 '= m^ q^ v) V] Z| d% 2% Hn iI C{ ZO w^ =< V* |{ w* i% E' #/ |] c< 0*  < << x^ ;% x^ A$ O= g] 3] B] 2] 5] x^ v) |* d^ B] W^ {{ E' L% |* ;% b] B] {{ #% f] (* Z^ w- s$ y] += a, cU [4 ca t{ o} p)  < x% Q^ F^ B] 5] m^ N- p] }= y] /* E^ t- w- @^ f/ @% p/ B] w^ g] B] c/ a[ 4/ N- +a -% t! l* k* g] @% @% w^ w^ Z^ m= N* R5 k^ H] 7* y% @% C* $- %! v> i] {{ a, |] K) 7* f/ X$ r} )^ z} 83 E~ y{ 2] 6! B{ 4/ l] J- &/ t- A$ J8 0< L% =& s$ g] |< J- Q^ x% t] c< |< J- @/ x^ ~< Q^ u> y% B{ 5] h] )> -% x^ 2] J- 2] =& w^ 3! 7' m3 v> c> =l 8] l* Pd !| {% G6 i* $Q G] H- ){ L% =< 7' L% H- m3 f/ W^ w^ St B{ 7' 0< =< ]/ v> @/ 8< |] J- :% Z- =$ `) 0% s{ #{ J) 5] z7 // o% $- m] k/ !< t! Q^ U^ ]/ x% @/ 8< (& @/ D% Z^ 0{ U^ t! ]/ l/ 0< $< >9 s$ =< L^ Z^ l% b, Z^ %< c% L% !< g/ L^ +% 5] ^) A6 6% H$ !< ^^ )/ Z& 9% L< ^6 T; dP Um *^ )< i% {{ 5] Z= 17 #< !] #Q 7' q^ U] <; #/ e2 E* 1/ l* 9< ^% !q ",
"Ud 3- ;) D] i% 9= {{ A= =! g= {{ Lt V; ^) Z^ i2 S^ H- t* N- {~ OL z} j3 a$ i$ 3% ,[ 6% Q% D% Z& o3 (& 5$ >% Z^ #/ S% >/  ! >/ (& =< o% X^ 2} L^ @/ d^ B] 2} O% ,= 2% $- <% #* L< n= =& f/ a, x% @% &/ s$ O% W^ B{ B] :% -% 2} )> 3] q^ U^ w{ K^ -% n% ~! |* -% 3] B] k^ 8/ g] o> A$ w* -% z7 ,= %9 H- >9 s$ @% 1/ 6' k^ x% D^ P#  $ )% {9 )% Gh I{ ,=  / }5 a, _% N- w^ v> L% Q^ y] |< Y9 g] 8] ./ t^ >9 E' @% t! s$ %! $- P^ |< /) |{ S^ x% H- %! 9* e% 3] {*  / %! C- |] B] (! W^ K* B] A$ b] B{ |] $t Rp v5 '^ 24 No %! 3] 6* Bn p] $- U^ 3] /) B] `* w% B] 0* B] W^ /) d= 0* ./ 8/ _* b] -% 3! w% R8 a9 D^ w* A- t! 3] 2} y] y] g] u* l* :% B- i% {{ e2 w] w- 5] k^ h% |* S^ C{ y] y] 5] y{ y' b{ w5 C/ G& fv t% D{ S^ N- G4 {{ != ~! i% N- g] ,= 0* x^ %! 7* |] _% Q^ ~< B{ m^ R5 2} C* q^ zn -% g] j] -% |] B{ ){ S^ d^ m^ 5] v* y] l] c< w^ w% y% n- C[ s$ +9 P% F; !6 P# :5 a3 :* 7* Kn 5] $- q^ t] y{ C{ y] {{ u* B] y% o> += x^ ;9 %! y% C{ I{ 5] y] B] C- w% $- #/  / '% |< @% l] t! |* B] x^ L^ 2} s$ q^ y] W^ P^ z7 u$ N- y% 0< 4/ =& C{ y% J- g] += I2 Y6 j% %* o8 D% L% 2] x> KO &/ 5] a, B] 2} u! ;% B] U^ %! ~< @/ p) J- D{ S' y] z= y] v^ 2] u* x% L% w^ w% |* h] W^ s$ 3! 8/ w^ E7 w^ !< y% p2 B] B{ d^ B{ I^ G9 +g !1 i$ /[ P% H- 89 |< 2} =l w^ t! l/ dU E6 8' q] (7 J- N9 Fh l] c> A9 :% B[ 6' f/ 8' t!  ! 89 xg s! o3 Z$ }] C3 #& k^ ,= h] h] ${ h] 4/ P^ A$ 6' f/ B] C! @% h] x% h] _% q] `^ ${ =& m] ${ 7/ h) sj ]< L% ${ =& y] u% `% _7  ! Z^ m% /* `% L% A6 p$ <6 0< b$ K{ i$ B# S# zQ #* S; B# W6 l& C9 _% {* ){ f< Z$ -* ;| fv B* J* T] [{ h% p) ~< v> m^ &/ <% EN ",
"eU c2 (* J^ h* +9 <* d= E9 p) (! @; a{ +% t$ P! 0* H- V7 ]* vD uT _^ N} fU 6% d% b^ #< H$ q% ;4 &/ B# )> B[ N^ D% N^ 1& &/ <% t! l% o$ u% B] >9 L% s$ !< L% f/ KO $* A= /% j% xp B; L% _7 >/ }/ #< @% t! o> =< n% Da B] /* m3 |] :% ]/ gU ,% @/ 6* '= N^ ./ l] Q; |{ {{ 9a 2} y] f/ C^ I{ B{ 2} V7 B{ !/ Bn 2} B] y] N- t] A= D3 F& :5 7O hU x[ 5] >/ x^ l] B] {{ @% P^ a, x^ i% i% // c/ 3] $% 5] B] -% x^ D^ t] @% B] B- k^ x^ K* 5] g] o- y% g] w^ 7'  ! p] j] Q; }5 @/ 3! U^ |] i% m^ -% /) =! U^ '< v< '[ :$ ja Q3 I* J^ Y^ Q* (! Z^ |] x^ y] |] S^ H- z9 3! $- C* c< B] -/ B{ 3] m% @% {{ K* 9* /) S' Q; K^ J^ U^ (! C* B{ y% N9 U^ Zm U^ g= M% %! 2] D^ D{ #/ E9 x^ (* m] D^ += 6! b/ i% d% s4 SJ L$ @$ !B m, V* R- U] 8] =! ,% A$ w- q^ S* G9 J^ 0< fk q^ {{ ./ m/ -% K* t] _% u> |r y% 0* 3! U] v^ i% 3] I{ `% y%  / a9 @% %! q2 $9 B] t^ I{ 8/ J* 6' R5 -/ y{ iU 6^ ^$ jU S} C[ d< h] v> 3] ./ U^ B] 9a -% `* += U^ += a[ B{ ,% oF 3] -% s$ 7' @/ B] 2] t! b] .} L% 6* ./ a, m/ t! w^ += << C^ 5] :% 1/ V7 {* x% t! y% 8/ |] B] ./ !< {! W^ u* c> 5= x& Z{ j& /^ #& N^ 6! x^ c> x% Wt x% m/ I{ ~< -% R^ 6* u> ]/ =< Y^ @% B] += |] N^ 5] 3! b] @% c> C{ w{ y] a9 {{ y% t! B] w^ t] @% t! (& X^ h] @% E' u* l] H- >% G] S6 `3 S# o[ V} u' ~! P; J9 O] #/ c] D- E7 8< x> v> O% kU %! v^ S% Z^ `$ 3] ~0 d^ p| @/ 8' +/ 4/ Y9 @& `Q +3 A[ Q# !6 U2 W$ C9 W^ %{ j$ ]/ L% {! |] $9 W^ =< @% w{ $< U^ A9 x^ ${ x% m3 l% h] _/ Z^ )> 7/ N^ |/ Y^ @/ D% [] !< =< @/ += (& %{ H$ K{ |{ ^) ${ w3 l& ]6 d% Z$ ^^ t6 v5 Z; d% u5 ;^ L^ e2 w% u* d, n$ (& ~$ l< |{ B{ B{ A= p) S^ u! b] -% R* u6 *K ",
"~q r- =! f= i% $- {* h% ]* m/ 0* i; q{ F' E% Q7 ,= O= {* C{ 0C uT v4 ^| :^ ,[ >^ l& t$ >6 F' Y& $& '% +% R^ (& W^ `% F' |] !< w3 +% O% c% &/ D% U^ @% |]  ! 7* %! $^ s, [] 0% .! Y) +% q^ J^ _% |] u> H6 _% $% {{ _% h] @% += B] S* i% 7* h] g] g] C- N- B] G4 3! U^ S^ E* o- A$ D% |< += B] 3] /* ./ t! 3] 6* {! !< S9 F= i4 Z{ j& |7 y; '% $- 5] %/ l] @% x^ _% @/ B] a, |< x% += x^ m, i% x^ 6! ;% f/ ;% I{ U^ w^ w% @/ k^ x^ `^ /) @% P^ |] -% @% += %! g= @% 2} j] w^ A$ C- C- U^ B] |* z^ x^ e2 P^ R= %1 M! f$ lU N} s^ w% 0* P^ =! i% 3! |* o> y] 3! g]  / /) #/ N- << V7 u* g] Q' y% s$ E' w* /) i% N* ./ Y^ B{ 1* i% i% 3[ g] f= {! m3 h* U^ B] I' p^ m/ _% %! m^ y] `% |* w% w- {{ y=  > s{ R# /4 mU w^ @/ [{ 0* B] Z^ V* S^ 3] {{ B{ B{ B] @% |* E' << |] z* 5] g] o> P^ %! x% v* 3] x^ -% _% R5 w^ J^ @^ U^ %! a9 m^ m^ {{ |* y% y] @/ V7 U^ q] /) B{ {* Q^ N$ bS j5 L< Q# x/ 3> =L += 3] g] q^ }5 s$ s$ a[ 5] a, fk ./ B] m/ zn P^ y% y] R5 q^ @% q^ y] ./ S^ {{ !< y% += {{ Z^ 2] 4/ ./ h/ o% h] 2] U* 8/ j$ w% e% $< {! w^ &/ >% K^  < 7] <* `^ x| .& ,^ S; h8 1]  / @% 6! w^ U] N9 E^ w^ |{ |] 7] C* |< HB c> t! C{ 5] {{ t- m/ y] i% p) i% p] _9 =& E' -% w- e2 !< ,= x^ O% U^ 7' j$ L% >% ^) v> J- u> t! b] I] 02 '6 '6 *> D) o] )! 2] 6* N9 2] %{ c> =< F' =l j$ /) c> 89 6/ c] c> Bs P^ 6! <u L% x% X^ @/ U^ R^ C^ ,/ My j> a$ >6 A& o} =^ _= ~/ S^ `% U^ L% _% y] Z^ L^ 2] +/ ~/ F' !< s$ t! W^ Z^ c% O%  ! >/ c> ^) @/ t% P^ 4/ _/ Z^ 8/ `% e& L% `% +% g] c> x^ ]/ :% n% Z& /% .! <$ i$ ZM :5 Z; i$ QK /} %9 {* 7* 7* n' _^ b^ 2^ P~ {{ {* 7* ./ V* %! I{ 6] (* N* 8' W5 ",
"T9 nU i% x^ Y* 4< J] =- <; J- D* 5; .> i/ S% r~ j) w* V7 l* O: oU =] 5^ #* L& !6 d% Z$ t% `6 c% 7/ -* -* S% 2} H$ _% 3! C^ l% w^ |] 3! 7/ C^ 6' /) !< a, J- x% ]/ b$ d[ }F '[ u5 )= 8' s$ 3! 8/ N^ 3] y] !< $< #/ U] f/ @% `% ~< @/ o% L% I{ 2] 3! z7 e2 5] ;/ J- Y^ ./ Q' S^ w% 5] 2} A$  < w^ i% J^ -% :% q^ E^ 5] b/ w- G3 q% =^ ~9 pU S* t^ B{ N9 x^ ./ -% B] K^ %! g] C{ m% L% m3 /) 5] 5] h* A$ h% S% x> ~/ C* R5 P^ ^< `* x^ I{ /) L% #/ C{ Q^ t] |{  ! A$ H- a9 s$ Q^ &/ x^ |< 6* C* q^ v^ %! ~* w^ {8 _4 Q# 4% 0| =/ ;% u* w% {* q^ S9 d= 8] `^ N- m^ {* Q' y] w^ Z^ (! J- 3! != f] =! Z^ g] ek A- w^ y] @% 9* w% A$ B] m, V7 m/ c< g] K^ v^ (! 6' {! g= B] {{ x^ U] 7* z7 u* 5] z* F# :^ j% +7 l* -* o- 3] @% h% z^ w^ q- e2 c< @^ K^ += w- B{ w* o% x^ Q' B] w- 2] u* y] @% 3! w- C^ 3] S9 -% x^ 6! k^ B] I{ o- u* 2] -% f] {* m^ R5 a] u> t! P^ %! @% i% w* c] -% :t 0% ~] /] /] v) I{ s$ u> P^ -% ;% {{ U] =! B{ D% 8] L% %! -% x^ B]  < C- N9 B] y] a, z7 2] n] T] x^ P^ B{ ./ l] w- w- d= ./ L% c> 1/ P^ 5] ek += I{ L% |] |] 3! o] e2 >9 h* D3 `9 P# F} 0C 5$ =! H- |] t! &/ _% F9 g] |] R5 ;% =! o% g] 0* z7 x% @/ |] U^ v> }/ m] N9 1* 7' @% V7 w^ %! =< |{ :% P^ S' t! T] @% a] S6 Y9 C] !< j] w^ kr 7' =9 z3 80 S# T& ]~ qU E' ;C ~r S% l/ =l 5} B{ c9 /) c/ 8] Y9 L] 2] Z] u! 99 _/ x% U^ Z^ l] ,= s$ x^ d! A$ x% J9 m% rU sU W$ K$ '[ ;3 #* z* z7 (& o% L^ @/ t! c> y] @/ `: 8' %/ I{ =< R^ L^ @/ f/ 0< 3! o% d! =} 0< L6 N^ W^ g/ [] )> !< )> L% Z^ l% h) _% d! /% r$ (< /} 0/ .^ /% i5 !% .! S; -^ L! X6 ,o 6* V*  < n, n$ $& @5 +! K* ~! 5] B] x% -% w% bo S) >% A6 tU ",
"V5 uU [* u* U^ ;) B] c< m- m^ q^ n= >> 0{ g7 &K M* U^ t* `* A< 2| 1| y2 :$ K# >^ P% %^ d% #< e7 P% c% :< 1& *& /% !< _/ u* m% O% p7 B] u% a, U^ t! t! 2} |] H6 y] /% N* *^ ,^ !^ d; (< #/ h/ 8/ C^ ;4 j$ 0< ./ 3] _% q^ |] 2] q^ y] U5 _% @/ ./ ~U  ! }5 @/ q2 += y] p) -% s- m% ^< @% c< ;9 E' #/ WO n] <; @% U^ x^ K* N< ;6 Q# G& vU +% C{ |< g] S* w^ A9 N^ B{  < v^ Z^ t! B{ d9  ! W^ F! >% Da !< y% q] 7* {{ @% R5 /) ./ x^ y% |{ S9 _% J- _% a, 1/ <* {! B] 3! {{ L% Q^ {! |] N^ '= l] f/ p^ 3! -% fr a, `% V$ <$ ~] l{ V= y% ,% B] <; Ql g] m^ I{ V7 t! <; L% 3] C^ b] g] f/ y] w^ ]/ v^ E9 U] q^ x% N- B] K* R5 f/ x^ B] $- q^ B] P^ V7 m^ v* E' a] 1* 8] L% q^ e2 N-  = ;% i% S9 1* L2 @$ a7 a{ qF p| 5] T] 9* h% q^ @[ @% k^ n] {{ S^ V7 6! x% N- n] w* E9 @% &/ y] }5 s$ 0* += U^ E^ w] ./ J- 5] a] =! a, #/ {! k^ n] z7 x^ y] ./ z7 P^ x^ B{ L% j$ m^ o> 3! 3! s$ +e )5 U6 s{ !4 r] m^ -% :< s$ N- v* I{ q^ s$ t^ a9 a9 x^ l] ~< J- A$ b] Q; B{ @% t! M% m^ 5] B] X^ 3! a] Q^ 7' ^< N- 3] U^ w^ B] I{ += %! V7 3! s$ t! %{ v^ x% J- Z^ (! -% b^ }| 3$ S& `2 ]> E{ 9* $% g] 3]  / @/ e2 K^ h] Z^ B{ e2 s$ y] t! u* w^ {! %! R5 w^ U^ A$ t! A$ |] += f/ 6* C{ $< x% i% l% |{ 5] 2} k^ m3 C] :% y] v^ i* +/ fx e% x- R} QK o$ YO =} 2] 5} q] |< ~! T] L] K^ C] I] ~! <u >/ c> +/ u! j$ L% |] A9 w^ j$ kr L] /) m^  ! +% m% @% (& $9 `t Ro H! *^ M! )% 43 [^ }v w^ =< U^ L% |< F' =< 0< d^ c% &/ M% L% ./ _% =< $9 ;% !< s$ h] 99 =< Q^ -/ w^ !< H$ 5$ Z^ ^^ 5$ =& ;9 t! H$ t! !< 0/ -< 6% 7D <% 0% b% E$ Q# S; `) yE 8} )< :* 5] P* V= %] o[ S8 uc o> d* 1* N- $- J] Z^ m, }= B] 6/ @C ",
"wU _{ _* += N- x* x^ m, %! S9 v) 4> a{ T% o3 k, x% {* %- d^ m< Kk 1| k3 $$ Mq >^ 5$ ($ ^^ *& S% o3 0/ w3 O% @& l% !< ^) s$ )< `% O% k/ ;% ${ S% P; l% ;9 _% U^ %! 4% 3] (% ;] K$ G- +% L% g] B] |] |] x% h] |{ s$ xU B{ &/ z7 B] C- `^ U] i% S^ n] ,% @% x^ I- R^ B{ Q; 7* y] J] @% L% H- 5] y% I{ |< W^ ,= 5] A$ S) D% ;| f$ E$ $3 l) ~! >9 :% += w% |< L% U^ W^ L% u> 3! Bn m/ += @/ w^ {! V* @= U^ q^ 3] -% !< v* =< d< t! t] y% %/ B] y% c/ m] S^ @% w^ U^ p] p) s$ k^ v* a, {{ C* b] g] v> N- Y^ 3! U^ 0< `7 O2 #* 2% 24 _7 w* B] J- 0* A$ w-  / z9 5] $- $% m^ q^ i% x% #/ x% a9 U] ,% #/ %! l* 3] |] V] 3! v* n] %! b] a, [t i% W^ N^ C* E' a, y] u* B] Q' E' @[ i% I{ =! K* y] f= Y2 )% !& .& ]x .( x^ m^ x% =! )< u* l] P; U^ |* N- B- {{ #/ x^ x^ m] x^ w% C{ y% W^ Y^ =9 I{ ,= t!  / N- l] o> a, 2< w^ t] -% w^ a, x^ x^ ;% z7 M% t! h% 7* @% t^ 1/ $% g= m, ,o w^ 2& Y^ E$ Z$ ]% @1 @= 0* C{ w% C{ s$ I{ X^ ~< w^ `* 3] x^ ./ 3] C{ @/ 3] :% 3! 0* ./ :% .} U^ q^ y% N- Y^ P^ 2] @% %! m/ ;% I{ 6* 46 w% v* 3] V7 !< @% +9 W^ R5 ,= $- m^ A- V; '[ v[ |4 yU 5$ 8/ =! }5 B] t!  R d^ -% d9 {{ =& o- t! x% G4 |* 1/ '9 :% &/ %! N9 f/ Q^ @% g/ U^ L% E' 2} W^ c> i% w^ 3! a, g] o> *! x% B{ 2} ,= Y9 ^/ C[ ./ C] )4 aN D' l| w, {{ _/ 6' v> ^) L] v% C] e] I^ I^ S6 D{ 6! h] zU e/ ./ @/ 1/ 6! ^) ~< t! @/ Uo 8' w^ ^) :% %< _/ [] ^/ w3 Op i4 @$ L$ !6 /3 !a x% |] }5 6' y% t! ;% t% _% <% B] t% S% B{ =< 1] +% =} 2] W^ 1/ C^ m] O% '% :< S% [/ 2} S% $^ Q^ %9 W^ f/ C! y^ '9 k/ -* w3 Q% K# 0% AU f$ (}  > M! <] D' ]< 8* K* %! M~ j% D' 0$ O8 @% u= m- K* i% y% {* 7* h% g] 6/ E- ",
"pp ~! h% H] K* 9* I* y] [* 7' S' <q @> Q%  6 Pm ./ w* H] C{ kO Jn .$ BU (} Q# ~% Q% !% I$ q[ N9 !< =& =< |] S% =} O% F' %9 ,% 4/ &/ d^ L% L% <% F' t! :% }t y] 8< O% oF @& a$ s{ b* <% {{ B] 3] a, /) ~< J- t! 8< a, z7 =< ^) 3] t! !< E9 ~< >/ y] x^ |] s$ += O% I{ !< U^ ;% {{ 7* h] L% 3] %! y% t! << C{ {{ 3] M* ;3 g& (5 ~T MQ |] {{ n] I{ v) V7 `^ t! B] a] b] o> w^ U^ i% U^ y] I{ x^ K^ y] m3 @( @% -% t! |< 6* B{ y] 5] N- B] $% B] P^ @% 8/ 8/ u> C{ C- I{ t] %! B{ v* 9* i% t! ;% U^ ,= @% k^ m^ S^ [/ a~ u5 !% v5 f{ C= C^ u* W^ B- U^ /* e2 q^ ./ |] S^ w^ B]  < |] W^ C^ T] /) }/ J] l] q^ S^ y% D^ P^ y] L^ m^ |* L6 V7 c< t] += Wp += 2] m/ D^ += x^ L% D{ 5] 7* {{ 3] ^) 5^ :$ No G/ o; v> i% w^ y% m/ 1* u* S^ 2] D^ |{ N- x^ i% p] C= C{ N- (! 7' S^ 3! g] |] v) y] -% 1< x^ e2 p] += ,% B{ W^ |* U] a, u* 5] q] C{ i% B{ J* D{ `: x^ J- ,% a] ){ q^ L% CU L% 65 E2 k$ ]& 0} /% R5 S* :% 3! c< W^ 8] ;% ./ y] c< x% w^ |] f/ v% `^  = U^ += I{ ./ z^ k^ {! n] y% K) q^ L% u* S^ /) i% 5] f/ 8/ d^ B] w% %! |] 3] 5] P] N^ m/ b] e= &] )5 v& #* h] W^ (* c> f/ B{ d< t! o> m/ t] |] B] #/ s$ ~< d! a, f/ c< u* _/ y% K^ w% I{ i% I' `% q2 B] s$ w^ L% ./ U^ q2 {{ T] q2 S* !/ p) /) 0< |* += l] /) N9 |{ h& +P v6 Z{ #/ pu 8] DU +/ !u zU pu Hu 2] E' EU A9 E' FU c> ^/ ^/ N9 J9 J- D{ 8' 6} m3 B{ X^ 7' <u c> Z^ c> U^ |< x% B{ P# ;Q C: d% M! v5 S< S6 |] GU h] (& N9 @/ t$ h] #/ Z^ B] 7/ M% h] sj 0< 3] B[ q[ @/ =< >9 2] '% t! S% d! B] w3 _% <% |< m% q^ )> 1] 0/ _/ w3 K{ J) H$ Z# @& i$ n[ S; B# No ^) Io F{ Q' T^ (> E$ 2/ U{ HU u* -% k^ |{ B- /) H- w^ l] n- /% nj ",
"'* 0] R5 f= x^ ]* %! .} t] -% (* B; p{ w3 p% VD h% 2] C= 2} e! OL Z{ 7| d% >$ 0% W$ ${ $* (< #& -* A6 0/ `^ Y9 n% $< n% (< <% L^ +% O% _% &/ =< l% '% x% _% y% {* 2/ c< i/ :5 =^ +) q% $^ 7* ;% |] /) `% q2 y] K^ 2} 3! m^ xC .% L% j] =< =& u! p] K) O% 3] '% x^ !< B{ y% U^ -% 6! t- ./ |] += @% N- %! h] {{ s$ F& b} y$ s{ C{ ~% =9 c> 2} E^ u% {{ ./ k^ V7 e% a9 E' h] ek o% J^ w^ {! v* 1/ B] a[ v^ y] u* ,= @[ J* -% l] 6! y% 5] x^ g] q2 B] |] P^ u> &/ U^ |{ C- -% %! Y^ &/ B{ y] q^ =9 |] 3] C{ o> L* a, /~ S0 '[ y6  5 2^ J* M^ x^ D{ %! U^ g]  / -% #/ C{ V7 k^ ./ {{ B{ i% @/ |< a[  / x% S^ 3] ,% L* B{ fk m/ 2} J- 5] a, C- =& g] p) += =! 7] O* 0* {{ S^ `* t] -% g] w) Z; Q# &* `4 pM P^ t!  < @% b] /) w* 1/ @% 3! u* c< vo D^ Q^ 6* v> U^ <; += J* fr u* 8] =! w^  / z7 q^ A$ t! ./ i% `: p) #/ e2 J* m^ V7 j] F^  < |{ h] =! a] U] += %! ~< 7' I{ `^ ~< =< @/ !/ <[ =^ f$ 7& .3 X= #/ z^ 8] w^ |] B] y] 'O 9* V7 H- z7 vo c<  ! a[ 8/ w* o> s$ 4] ~< p] Y^ E9 w^ @/ z7 x% B] c/ {{ t! N- U^ x^ %! B] B] B] P; %! o> f/ =/ P^ $% S* }2 .& j%  > B< N^ x% 5] {{ ;4 K^ L% @% 6* >% =< 3] 2} e2 d9 ~< y% w^ g] @/ Z^ w% ,= v) ./ L% =< E' /) y] B] y% += {! a, H- u> D{ Rs t^ @% H- P^ j$ v- ~! E] n> IU 6' '| !{ $6 (7 R% M^ E' 0- +/ ;C 7' f] =/ 4< L] A] L] W] A9 %{ Ht U* u! h] E{ F- N9 6} S* B{ #/ 1/ _/ 2} _/ `% u% )> _/ #/ S% >$ A0 >3 !% *6  5 @> P^ `: =% A$ Fg <7 W^ j$ U^ !< C] !< t! O% L% a, t! $< u> _% #/ w^ Z^ h] W^ g] U^ L% p$ _% R^ h] l% Z^ 8/ U% p2 K6 L^ `6 w3 O% #^ -p R# .! S; .! Ft {% JU 3] m/ )! g- (} 3% 4^ KU C* S^ L* ^< <* @% _} 7' G4 w- E% tU ",
"ic QG S^ {* !< m- c< j] u* B{ (* l' 43 >^ o3 `! ){ u* @% S^ m< zk Z{ *3 ,6 '^ 4% 3% 9% %% b$ 5$ h^ </ !/ </ o3 $* t! ${ |] Y& _% </ %!  ! B] #/ z7 c> U^ s$ x% W^ P^ ar aN q% A[ o; '< W^ =< t! U^ 3] p7 t! L% o% E' C- B] ./ @/ =! ./ N9 ;/ a, ;% S^ -% B{ @% |{ |] B] =< K) i% S^ @/ K* ,= {* @% {! x% g] F^ q= @1 #* S& M2 LU 7' y% }/ %/ s$ w% !< B{ :% `^ w^ O% x^ E9 B] /) A$ 1] |] _9 f/ &/ i% x^ N9 x^ C{ B] U] v* x% 7* K) 1] ,= H- R% N- B] @% u* (! /) L% l] D^ E' @% S^ ~< y] 2} t! W^ 3] i% ,= `^ =< ]/ rl !] ;6 ~^ Q: :* P^ C{ E' y% S^ I{ (*  ! -% @^ o] 9* }5 $- J^ q^ |< {! S^ 3] J^ U^ 1* S^ S^ -% z^ U^ 5] ./ :% x^ y] G- I{ 7* |* u* {* q^ U] D^ 5] 1] R5 y] =- D$ Z{ >$ 0% !% 8/ 3! E^ g] 3! p) x^ C* {{ 7* q^ x^ E^ B] -/ t] q^ P^ x^ w- 3] a9 8] 7' w^ b] N- T^ q2 o> =! B] S^ =< q^ t- |< y% u* v> u* E] i% |{ =! I{ q- ./ m/ 3] U^ e2 E' x^ H] 3] #% ${ +[ Co c' ~] W# U: @$ K* q] N-  / Q' g] D^ B{ a9 o% B] 2] N- #% u> x^ &/ Z^ l] &/ :% ./ Y^ += -% N- M% s$ C{ B{ B{ 8< 1/ |] 5] m^ C- Q^ @% x^ y% J^ g] c< 6* ./ d* G/ .* J# n$ ]~ )& R5 Q' !< 6! /) q2 U^ E' A$ P^ I{ @% L% `^ U^ g] -% 2} += J-  / Z^ ./ {{ W^ /) x^ y% c/ >%  ! L% E' c> P^ J- y% w^ <7 %! L] += !/ M^ 5] Uo Ht x{ <; 6* <2 MU `t C] +/ u$ I] e9 lt =/ {w wG %P X] =/ IU NU w{ .t o9 A] x% E7 8' W] 8< N9 C] u! l] !/ C] v% p7 >/ ~< f/ W^ J- A9 X^ C] i7 OU N& >^ Q# )] c{ p| :% ./ l% ,% 8/ i% /% 1/ @/ @% t! L% w^ L% 4/ o$ x% 1]  T w^ t! X^ m/ 0< &/ B{ F% ${ @/  ! $* 8' S% 1/ s$ h/ n% ^^ 0% O% i$ n& w3 #* c{ ^^ 5C *& Gh (! A^ z7 P= M! w3 |$ zh j] {! V] si !< E* 6] v) n- 8] r3 t[ ",
"PU n* a- i= |; v) _= S9 P* -% 3] l, G2 b^ M6 Z: w{ 7* N- g] I4 'r $5 l3 >$ [$ )6 F' Z$ D% ]< H$ 7% +% n& 0/ /% `% g/ L% P^ s$ |] F' P^ I{ j$ =} `^ {{ m] @/ 3] D{ 4% j- *& q% K$ )= 7/ U^ 1/ c/ q^ B{ _% e% -% |] _% B{ N- m3 _/ d! ,% l% p] w^ i% >% %! B] 7' f/ a, !< D^ g] A$ 3] 1/ e2 =< ~< g] _% -% E' |9 Z4 1| J# j% Y5 2/ /) N- ./ N- v^ =< 8< E' y% P^ U^ x^ l] |] |] g] y] |] s$ h% #/ ,% B{ U^ n] m] )> ,= 3] J- B] |] B{ 9* 3! I{ 6! 3! Y^ += ~< %< C- y% $% m^ v^ }5 i% I{ 3! U^ N^ $- =9 l] t] 3] =- ~! ,= >^ (} X# e5 I5 I- -% TA u* i% W) {{ U^ {! p^ x% y% ;% 2} g] $% C] L% #/ w% s$ {{ {{ x% w* I{ y% V7 u! P^ @% p] I- C] }5 o> q^ B] A- |9 << ]< $- R8 a, u> /) S3 .& g5 n{ w8 (& H- C{ B{ i% _% |* %! 0* B] %! -% n] _= e= L% ){ I{ K* u> oF {{ += {* J* B]  / E9 ,% Y^ S9 ;%  / 6* &/ Y^ w* a9 q^ U^ Y^ 5] k^ Da B] 9* m] |{ |] @[ @% '= ./ B] 0* += J^ m^ ,% >9 QU y[ R# V$ Y2 8* o% U^ V7 m3 {{ /) P^ 5] 5] 3! 3! P^ g] N^ v% '= w- N- g] t! ,= p] ,%  < c< (* ./ Y^ y] {{ x^ Q^ S^ -% (* Z^ x% .} += y] A$ i% C^ D{ i% =< m} n$ ^6 s! q! ,= += {{ ${ f/ w% J^ s$ M% x^ =& += &/ /) $< w^ |] x% P^ F' a, ~< Q^ z7 x% e2 &/ u$ 6/ 5] t- ]/ p] %{ 7* X^ u* x% @% H] ./ V7 {{ 6/ -% 8< p| lv ,= C[ x^ N# I$ D' Mq O^ W] N* du 4} Cs K] wG nu O] RU vA zU L] Rv A] 6} o] 5} >/ f/ m3 6' 6! f/ @/ C] 6' 99 P^ _/ S% q^ >/ |] :% e% B{ |] k& 98 i4 Z& .& &] l{ t! C^ |] %< @/ c> k^ u! R^ ;% ;% B{ W^ $^ w^ o^ K{ p2 ~< |r =l 7' h] j$ |{ %{ M6 W^ t% !< N^ $< N^ Z^ u% S% v$ n& r$ i$ Zt o3 3% S& Z; K4 r> *^ C- '= g= @^ :- /^ o3 64 $t t* m^ |* w- I* t] -% y] /* J^ .^ lP ",
"'J >* m= y% 1* <o Y^ 6* <; w% <; h' V; $* Z^ K' 0* d* 9* g] #f B: g& o} i5 0% K# ca +% 4% q% |{ `6 c$ /} n& p$ `% ;9 m% o% I{ 0/ |] :% u* $< m% =& R^ B{ ${ =< !< k/ u* *& .& x5 ~* N^ _% t! y% :% z7 ${ L% j$ |] U^ q^ @% g< P^ '% L^ :% _% #/ z7 d^ w^ x% A$ E9 o> s$ ,= V7 m^ B] {* -% J- -% B] i% U^ 2} i% ^3 ^6 B# sn a~ K) B{ t! P^ g] z7 K* z7 _% ./ 6* t! 1/ t! m3 k^ /* f/ :% |] V7 m] =- i% @% C* 8] /) :% E' [t #/ @/ N- c> q2 U^ PQ o% t! W^ y] K^ P^ @% ./ p^ =L N^ m^ w% 2} 3] K* n] 3! y% U^ u* l] n] 2] 8o ^3 R$ s{ q4 /) 46 k^ b] y] $9 N- U^ _% ;/ w- =< x^ ~! U^ Y^ 3! J- U] 2< ./ |{ a, /) J^ a, 7] t! 4/ b] @% N- {! y{ c< x^ a, Q' m, n] N- a[ w* ~< q^ p) ;3 W{ ^$ /^ r~ z% p) c> x^ y% ./ $- N- m/ ,* {{ p) N- v^ x^ B] q^ n] %! F^ y% m/ k^ i% i* t! >% %! A= 3] p) w* s$ 8] {* 5] t* {* I{ q^ y] {* @% ;% -% W^ x% w] ./ `^ V7 U^ |] ./ 2] ;% V* Q^ j] (! y] I{ :$ L< #$ Z{ C: ek u* 3] 7' V7 #/ U^ $- /) O% E' 3] B] D{ y% w* #/ -% ;% ;%  < z7 C{ 8/ P^ ,7 C] q^ |* P^ @/ v* S% E' y] =< y] B] e2 S^ B] r2 t! `* h; D3 z} v5 @5 5p N^ I{ 5] B] p] ,= u* B] u> h] X^ m, `: U^ x% -% j$ B] B] |< [t 3] y] @% $%  / s$ ;% x^ B- |] q^ 6' t! -% L% c] 8< E' @/ f/ m3 !/ C] += m3 P] T] 0< o] g= b, {| Ot #^ Um $% SU =9 TU wa P] UU VU QA ;z WU cx Az 4} J- 4< XU m3 O- ^N M^ L] c> M^ <u ,/ v> _< ^/ >/ j$ |{ v^ d! 9/ @/ j$ 8' ./ su Y# gt {^ P# A& .$ ;3 I{ ,= !< Uq t! S% `% B{ 1/ 1/ a, !< %/ h] w^ ]< `% ./ k/ x% h] ]/ |/  ! -/ +6 =< O% `% g7 L^ #& 1/ @/ 9/ o% w3 D% F' <% Q% 5% (6 Z; _[ M9 {6 l$ {! 5] |* ^; F7 7/ 3^ Gr K* += L% v* $- w* |* u* 7{ *; 7r 8J ",
"Xb xa P* D* m] h< z* i% y] H- |* K' `; ${ N^ hT |] K; p) y% 9k iR (5 #2 '[ E$ j% Z$ 5% E% $^ D7  ! n% e% o3 .% +6 7/ O% O% 8/ s$ A9 3! N^ :< `% _/ O% ~< '9 x% /) e% +[ 7p L& K# AS P% c< _% h/ @/ z7 y] 3! W^ @/ s$ C- u% |* ;% f/ D^ x% m^ {{ 8' 4/ k^ 0< c> B] e2 y% w^ x^ x^ Vp @^ w% J- U] 3! B{ B{ c< x| e5 X$ Q& ~8 '6 i% U^ 2< E' C9 B] |* B] ,% V7 d^ n] a, Uq P^ z^ 3] S^ J^ s$ B{ o> %{ s$ {! C{ B] |] s$ {{ t! 9a =& `* U^ Gh x> 2] w^ l] ~< w% w* += ;% v^ >% 4/ |{ L% @% += V7 ;% B] A$ t^ 4/ 1< += J- w* 9/ H; .! )^ G5 %1 }= Bs /* m^ 5] N9 t! @% |* q2 :% ^< i% m, 3] C- %! ./ @% {! {* h% ./ c< x^ q^ w- {{ K* |{ N- m^ |] @% 0* q] x% 2] Q* R5 N- S' Y* J^ y] 5^ .& (} Rp Yf v* s* 3] 3] U] d9 |* o- '= 0* R5 C{ 3] S9 |< 2] y] 0* u* m/ {* B{ B] Q) t] ./ B] A$ y] 3] 3! A$ N* w% B{ _= /) U^ y] 5] w^ 3! |* << x^ z7 5] l] W^ 3[ s$ I{ 3! 3! y] += A$ C{ C{ ,= @% x^ *n 23 2% j% o} G6 t] C{ J^ R5 B] i% `: D{ g] m^ `^ y% B] }/ fk |{ ./ Gh 7* v^ R^ ./ A$ 1* 2< |] 6! c] B{ 5] 3] 4/ ~< c< A$ P^ w- m/ d^ V7 i% `* v* $5 E} '[ Q# S# #% >% k^ `% 1/ x^ Z^ += ./ p) ]/ 2] /) @% ./ }/ {! t! s$ |{ f] 6' -/ -% V7 w^ l% y% C{ =< 7' %{ a, 3[ K) W^ 8/ w^ 3! p| w- J- h] @% %! x% 6! X^ Vu B{ l] Fh >/ |n +P No Ck u| Bz 9z .t Uu Hw KL YU du Xz aB /u 9z ;z Y= JE XM j$ ^N A] 7D ,= E' M^ c] E' 99 L] {{ %/ i] C[ k^ (& v% D% 8' z7 j$ V7 G] '5 ZU .5 Z$ -$ :^ L3 V7 E' 6' '% 3! ;9 S% 1/ d9 %< x% L% w- !< x^ g] U^ 6' R^ /) `% 4/ @% `% .( p$ `% E% Z^ [/  ! n% _/ #& S% c% 8} K% b^ <a Q# W$ f{ >[ `U @& )< G- S^ Ba l' E$ o$ :[ `c o* ZR &= Ht {! Q; H- ,= [t S9 P: H4 ",
";7 >e F^ A- += h% H- 6<  V S^ 0* ;=  > '6 o$ T! t! 2] N* B{ 9k )5 n2 23 W$ 5$ >$ Q# b$ B# ^^  0 q% 2} t% T% #< 0/ h] !< L^ S% D% u% B] p] h] !/ h/ 4/ Z^ h] t! Z^ A6 =- V6 ($ b> 6- O% %! I{ y% x^ %{ A6 U^ ;% _% 4/ P^ g] i% }/ S^ Z^ ~< J^ j$ L% ,% 8/ C^ B] u% w^ g] ./ P^ g] ^) ;/ v^ =& q^ T] w- P^ E$ W} .$ ]o w} q^ E' ;/ w% z7 U] @% g] ]/ 5] B] s$ C{ Z^ W^ J- _/ 3[ ;% {* 1/ E' ,% 3! d^ w{ %! g] i% K^ ;% 2] g] @% w- o% @% ]/ p]  < i% C{ c> @/ /) U^ 2} 2] )9 m] g] @% a, u* S^ x^ x% 4/ J^ B] u> 6* ek y% o] U! h{ )^ %] v} >[ gU C* += >% J^ ~! B{ U^ x^ X^ {! a, u> !< s$ 1< 3] ./ S% w^ $- i% D^ B] @% {* n] {! @/ t] c> 8] =- += F^ x^ A$ |{ += B] q^ {{ B* N< Y# [$ `{ _P |/ p) ./ -% x% E9 z7 t] w* B] B] 7* :% w* |* 7* {! A- j] |] 3] l] B{ 5] U] z7 J^ k^ u> @% e2 {! U] x% 3! w* m, 1/ v> |< w% L% y% &/ e2 u> Q^ B{ |* u* m/ Y^ a, x^ y] 3] 2] << x^ C- 3[ L% n] $$ 1) h5 i[ U: ]{ T] 3! %! #/ ]/ B{ U] m, U^ w% %! N- t! x% 3[ B] L% ;% I{ y% ]/ K* L% 6* >/ B] z7 m/ o^ y% S^ (! s$ w^ 8' E^ :% {{ y% @% P* m/ p) 32 |% G5 g2 .V j] 3] x^ h] e2 m/ N- g] w% 6* z7 U^  ! |{ v* _% j] ./ 5]  < w^ |] B{ s$ C* 1/ w{ t^ $< x^ U^ += S% a, {! I{ 2] O- /) _/ !< L% i] pn 6! /) P^ c> q] A9 S* }* u$ )| aN K4 *K E] en au ou +V WA RU cx qu !w fx =l Bz Vu Fz E' NU 1s =l 3} N; u! _v =9 v% <% l] N9 N; t! @/ 2} >/ !< %/ 89 6' U^ 2& d^  ! 6' :[ q< |% a$ !^ {] S3 4* Z^ t! I{ n% P; =} D% x% `% g] !< S% `% =} W^ 1/ t$ !< s$ p$ F' 4] *< =& U^ |] '% o% u% c] w3 n& <% r3 W$ 7/ %^ *& '^ P# Z; ^^ ZP ${ o% 7* m, -% o' !^ E% E} #f C* E* `^ Ht (* 4] u* J] w* 3] o[ Ju ",
"@V U- =! '; C* (* $- k= S^ L] R5 Q= `; *^ +% 0; m^ h* U* (! G~ ^9  5 e} zo 3% )6 H$ b^ (< b^ ^^ $< p$ P^ `% S% F9 '% (& h/ H$ =} >/ F' f/ 0/ '% ;9 a, `% S% _% x^ 0% Wo .^ ^$ B# <=  ! B[ ,= `% 7/  ! n] 8/ g] t! x% B{ U^ S9 V7 &/ f/ @/ ]/ +/ Q; f/ |] J- w^ O% 5] S^ t] q^ N- y% k^ c/ o> ;% E{ v^ S* H! ]% Z{ 9} pM B] b] l] P^ D^ += a, x% C{ |] 1/ $< y] s$ U^ a, 7' Bn a9 I{ x% x^ W^ 3] ba x% z7 o> w^ Q' 5] += M% u*  < 2} #V @% 6* B{ 2} 3] Ql 3! B] (& x^ B] u* t! h] Q' O* i% ek S' ./ u* o] K^ s$ x^ += @^ g] <$ 6D !& -$ Y# f| F! 3! += z* |* i% u> g] g] G4 P^ B] t! p^ I{ |{ ./ I{ Q^ ,= i% ,% @% m^ 1* J^ << 9* A- x^ I{ += e2 C{ =- 9* 5] F^ += -% N- C* u5 L} %] S& <& O[ N* 8* %! B{ A$ {* 9* 3] L% w^ v^ A$ N- I{ =! W^ x^ t! += V7 u* u* n] -% =- w^ {{ v^ {{ o> $- S^ x^ I{ S^ U^ s$ S^ C- N^ ;% ./ @% {{ m, g] =< ~< I{ %! u> y% #/ +a @% U* J^ *< =< x% += m] J^ |9  ; oc ($ ($ +5 *6 m/ |{ p] s$ x^ 2} B{ |< I{ ./ t] I{ ./ |< /* m^  < y% f/ ;% #/ I{ U^ a, #/ e2 x% -% B] :% -%  / B] B] B] v> #/ `% q^ +9 N* L) () :5 W$ )7 i7 U] #/ %! '% ;/ |] g] :% U^ K^ `* ,= !< m/ 6* 2} ./ m/ 5] si ;% J- N- w^ @% V7 _% l] q^ a, #9 %! P^ /) |< w- 7* i% f/ 6* !< s$ x> c] {! $V J- p) j$ N9 %V =9 v% 4l `U lu (o $/ !v 8] VA cx tv 5j &V vz *V =V 1C -V ;V _v K] O] >V dx 4} _/ Rt cu 6! 2] ~! A9 _/ `% c> ,= =} 0< 6/ f/ H$ 3! _/ L^ a, !/ =& W^ m5 j~ _^ [$ &] N# O2 << `% Z^ k/ Z^ d! U^ /) L^ O% =% 7] P^ |] 8/ o3 a, %! 6l %/ p) 0/ c> S% L% `^ d^ |] +% F' e$ d& <% 7/ (< f7 $* K$ f$ t6 c{ *^ L< $& )< B- w- w% <- Q# $* Y{ /9 ]* ;% /; `* t] }= [* ek 7] O= o$ SS ",
"PU 2{ *= t] 3= N- (= N* S' w% D* ~- c{ $^ )> ;= i* 9* j= #% #f Rd V4 z2 :^ '6 T% Y6 n& +% '% )> 7/ r$ Q9 ~* t% [] d: w^ ;% d! Y^ $* ;4 0< x% D% Z^ P% E9 ~< =% &/ p$ =! r$ L$ '^ R= n& _/ =& =< |{ $& B{ m] _/ C[ /) K^ s$ :% I{ N- x% -% E% L% ~< += !< sF _% K^ v% c/ U] -% 2< 2} B] =- 1/ j] ,= P- '} ]& -$ A! t* ,V a] t! 8/ w^ 3] ./ C{ I{ U^ 3! 3! J9 I{ @/ B] J^ %! 2} 2} k^ Q^ B{ $- 3] b] P^ 6' s$ ./ #/ 7* m, S' C- 5] i% B{ a[ B] w^ %! U^ {{ G4 ,% L% :% 4/ A$ 4* %! <; =< :% y] += B- += @% 1* B] 3[ y] 1* `* 46 [/ G# ml 2% D$ #] w% M% C^ k^ p) m^ m] =! ,= z7 S* h] g] Q^ e% U] R5 C- m% ;% t- y] w] Uq z^ N- t! l] u* ,% L% K^ w- R5 U^ Q^ j] P^ $% 5] 5* `2 !6 R# D2 JS r2 B] B] ./ 3! C{ m/ |] N- n] y] |{ (* m/ {{ {{ p^ /) U^ q2 =! P^ x^ S^ Q; t^ B] ./ 3] z7 z7 y] 3] m/ b] 5] h% L^ U^ ./ ,% += B{ ;% 6* w^ 3] K) B{ :%  ! 8] t! x^ B- f/ B{ m3 ,= 2* Y^ p^ l* ;% m^ '% xP ]$ f$ r5 ~9 K* m^ 8< u* v) /) h] S) v> ^) `* g] 3! FE $- y] z7 E' 9a 8/ |< z7 ./ C* y% z{ s$ f/ 3] U^ B] |* s$ I{ jw Y^ += }5 u* S9 E* =p $g ~^ {0 j~ W^ 3!  < y% w% P^ J- D^ t! %/ <n g] =! v% U^ %! I{ B] +a 3! a, q^ W^ >/ oF #% y] 7* |* {{ W^ E' ,= ,= x% g] d^ @% L] X^ l] M^ K^ 7' E^ I^ t! += ~/ :% b] 9{ v> P] dc qG gK (o v3 }x 'V Mz ZJ @M )V !V ~V {V ]V bx ;x wG L; O^ Bz wG ^V e9 M^ X^ C] >% =l t! t3 m3 5] _v S% H6 >/ L^ Z^ @% L% O% ./ w^ @/ g/ E% |] L& o~ X# M$ ~^ &] N< w% g] :% N^ 7] J- d^ C^ =& 3! %/ !< d^ U^ a9 $/ U^ c> ^^ B{ Z^ )> $9 h] s$ D% N^ l% D% w3 d^ 7/ b^ (< _[ ^^ -& _[ '^ S; b^ 70 z6 ,< i% K^ -% ^; >$ Z& Z' /V {* 8< 3] 3! {! 2] j] -% {{ S' =} @C ",
"rn !> p/ v> q^ x* L* y] v* f= *= c~ U; ${ +% &~ L^ :* /) E* :~  ] Q& _| =6 *^ ^$ T% p2 ^^ %^ e$ 0/ E% :< d& N- n% $< f/ B] p7 0* D% -% 9/  < x% z7 =< ;9 `% N^ .T b% Ep /} 1$ T% u= Wf 3! ]< t! 8/ @% L% I{ U^ q2 }5 u> $9 E* t! S9 B] W^ n] :% S^ .% U^ =< &/ Bs :% t] {{ m^ t- %< F^ E' w- Gh J^ t! (V P# .& Y; @l ~! {{ y] B] |{ t- u* 9* U^ p) 5] K^ I{ 5] }5 A$ A- o> 2} m] << Y^ %! 7' c] N- m^ u> B] p^ =< |] 5] 1/ i% c] i% s$ y% &/ y] %< ,* !< 3] c< I{ 8' c] h% v* 0* Q) Q^ C- ,% g] p] |] :% w- 3] f/ =< J^ @% ^< @% b8 7^ ^$ U: B/ 5] o> 9* 5] B{ += z= /; y% x^ H- g]  ! y% v> R5 2] ^) %! m] y] m, =! c] |{ y] |{ u* D^ 3! vn X^ |* c< j) x^ q2 E^ x% <; )4 N# ~] ,6 !* e% K) KO u> %! x^ {{ T] =! 6* q^ <; ./ `^ B{ j] 3! w] 2* %! q^ 2] Gh y] w- %! w- S^ t] m= E' %! += KO 3] m, ./ |{ %! q^ {{ ,= x^ a, 5] $% a9 x% U^ K^ #/ S' B{ C{ =< |* o- I{ V7 y] &/ a, 3[ `* P^ 3! z7 m] .& Z9 -$ v4 4^ j) K* =< h) t! c< t! R5 h% l% k^ n] I{ x% {* q^ x^ U^ p) B] y] z* =< 3] @% q^ w- o% s$ 2] P^ I{ B] P^ %{ $% o% B{ C= J2 *5 t6 _& _V _7 U] I{ K^ q^ B] 5] U^  / 6! L^ z7 x% W^ t- {! x% f/ e2 z7 L% >/ @% f/ B] R5 x% p] k/ w^ L^ C! J- :% 7' 8/ -% t^ D{ d! {{ N9 U^ :% 0< S6 6! 6} c> >< 3} u! cu  w C] Sk mN :V =n zU AB -V  F <V [V }V |V 1V 2V 3V 4V Hv hw gw du 0O 8v 5V 1O 6' u! lv +/ L] Rt %p ~! ^) c< x> |< @/ _% _/ d^ x% f9 t! t! s$ S% x^ x% U^ '6 s* b> v5 0% @4 W4 0* t! A9 ~/ D% ;% q2 ,= g/ ~< 5P >% :% _% &/ g/ _% z7 L% =& x^ ,= `% (& O% 2} `% q[ ;9 <% ${ 6% S% o[ <% B# X$ |% V; ^^ 37 [] .% I- y] ,% -- /^ +% Y{ Ku {* @% m] 5] -% B{ 8] B] C* U^ w3 yT ",
"f^ G; != #% w% <; $- #} 5] 2] u= d) e{ T% ^) ]J N- B- s* 2} +Q 6V L8 {[ .& -$ &{ 5$ F' `% K$ (< /% ]< H9 O% A6 q^ 05 <7 g] l% U] =} =% 2] _% L^ p2 ./ w^ h] u* m^  ! x[ @& (5 `$ -; -/ Q^ U^ B{ <% 5] 8/ L% @/ W^ O% g= G4 @^ 8' N^ `^ U^ ./ {* W^ g] @/ ./ a, ./  < s$ m^ B] _* 5] 2} w- C{ {{ 8= O2 :5 .! g& 7V d: {* y] !< x% x^ |{ y] K^ i] 5$ q^ 2] 6! 1/ a, w^ a, {! J^ N^ V7  < `^ <n x% N- I{ L% B] @% #/ ,% c< t- _% x% &/ z7 2} J^ `% x% `* S^ A$ g] =< ~< V7 o> #/ A$ W^ $- 46 W^ U] H* i% |] 5] B{ y% @% {* 5] J^ O* w6 8V K$ D& Y# {[ _= P^ 3[ x^  T B] 2} x^ N- -% 3] o> i% C9 c/ y] z^ U^ }5 3] U] |] N- k^ w* P^ K^ 2< ./ e2 '/ j) w* y] A$ C{ V* 1* _= H! (5 M< T; N! I* 6! 3! Q' C{ %! G- p) U* V7 un m/ 9* U] ;% w- #/ =< c< $% c< B] x^ x% t! m, g] O* += 3] x% -% x^ B{ _9 L% C{ ]/ i% S) R^ =& t^ 6] y] B] x^ m^ B{ =% C] I{ =! J^ 6* @% Q^ V7 v) L% 0* N- J^ g] a] z7 w= 0* x< G/ r5 '[ m} |* += %! ./ &/ B{ %! e2 N- w- o- L% 7* V] m^ 8< |< >< N- '= $- $- 3] D^ ./ Q^ z7 B] w* %! j] w% x^ ./ g] =% {! {{ Ea D} |% $$ 8& 9* i] /) S^ g] #/ 1* y% a, e2 |]  ! g] /) :% ~< A9 ;% 9a 1< B{ h] ){ @/ w^ =< 3] V7 m/ B] 3& @% 5] y% -% a, i] S% ./ 6! d^ i] C{ C[ 6' c> b] Z] u! q] W] _v O- cu +/ x{ 9V 0V aV qh K] =B 8A Vy bV ^F cV dV eV fV gV hV iV LE MF jV ex W] D{ G{ Fz )! QD x> >% -% XM x{ f/ f/ Y9 ~! 8' q] $/ @/ w^ 8' >% %{ h] E% Uq d: d^ m% Fq 1* 0% kV 2% S} R2 w% _/ j$ |/ $9 {{ h] }/ a, o% g] L% <% <n >/ l] $< '9 {! 5] x% @/ O% S% B[ &/ +% +6 *% Z^ F' (& -* [/ :7 =^ :$ S; A[ E- ,[ qq j] {* $- 5- =5 _7 4^ yS y] m, L] A- 6! g] S* q^ s- 6= _7 lV ",
"X5 n* V7 0* j- K* /; 0* }= w* )! == O< E%  6 7J z] ]* ]* d= bB 'r @$ *1 J# :$ K# 0{ i$ .^ g/ <7 H$ +% b^ F' !< +% R* >/ q^ 7/ =< &/ ${ _/ a, !< |] 3! {J  < g/ P^ ;9 c< 8} ~^ 3% >* )P :% f/ /) w{ a, 7] O% ;%  < '% a9 3! =! I{ g] 1/ &/ &/ &/ B{ L% /) i% n] M% 8] i% e2 u> t! S^ t- y] `^ += b$ i3 3$ }] 9} d= |= =9 n] S^ a, L% B] 3] `* 2] 8] 4/ y] b] i% x^ 2} y] x% y% n] P^ y] L% |< 3] ,% N- @% -% g] v>  ! U] B{ s$ A$ P* t! q^ %9 u% y] v> x% x> 0* x^ y% _/ B{ #/ t! si L^ S^ k^ 3] o> _/ 5] %/ 8/ B{ -% I- _9 a, V7 R5 FQ Z2 '^ L& !! =9 C= s* P* B- /; n- {* .} N- a] ^* n- i% 5] e* e2 H- I* O- -= xn :* f] v% /; (* |{ 6* Q5 [{ t* b] l] H- 7{ x* $- I9 f5 2% S& mV C{ nV |< R5 :< {! :% =! ./ += y] U* B] %! ,% 2] B] |] {{ J- 6* B{ q^ ,% I{ q^ ./ {{ k^ q^ |* t! |< v^ u! d9 M% 0* J8 |{ hb /* %/ U^ 9* {! w*  / a, b] :% Q^ N- w- -% |< N- R5 B{ x^ V7 R5 B] q^ Q^ B] 7] l] $- [< Y) v5 1$ *5 C3 w* %{ c> ~< E' d^ P; 1/ '9 /% s$ U^ 8' ~! j$ a, m/ z9 4/ ${ w^ u! 5] /) {{ a] 2] g] y] (& E% =< a] v> =! =! m/ O2 ($ EE @e p8 A6 y% {{ o> c> $- _9 2] /)  < )> B] B{ %! B] I{ ./ p] `^ y% y] |{ @/ d9 P^ P^ 3] |] d^ |] u> h] ${ w^ j$ w] C] 2] u% 2] m/ k^ X^ (% E7 t! v> S* w^ >% v> L] oV N9 d] }* vk RN dM pV NU Iv qV 8B {L rV sV tV uV vV wV 4V xV LF 4O QA yV 0O 0v A] X] Wd ;C >% v> 89 >/ Y9 l/ |< B] r$ b] t3 A$ K) j$ >% w^ p^ F% x% <7 :% d^ `% N^ Gh 9> *^ Z{ n[ O} -| H-  ! #/ ^) P^ =% =& O% 3& r$ z7 =% f/ 2} L% S% B{ -/ D% Q^ y] -/ >/ `$ r3 0/ t% D% 8' -* A6 L^ w3 $& _^ .! Z; v6 ,6 =} p2 K* C{ p) 9; -$ w3 J/ sT 7' u* @= C] `^ a, S^ ,= (* A^ ^% -0 ",
"7C 6t w* N- i% 9* t- 9* (! ;% h* R= O< Q# ^^ `d |] -% y] w% f~ j} zV M3 2% F& <] Z$ i$ w3 <$ O% P% =< f2 */ Qq D% d/ T^ 1] :%  ! h] g] 2} d^  ! Jq 2} o% $^ B{ t! w^ S' F4 0% 0% H; *< B] o> _/ =< 3] A9 t! #/ ./ Z^ /* ;% a, 3! ./ 7' @/ B{ w^ w^ h] 1/ 05 q2 1/ E' |{ ,= &/ y% i% @% 2} i] .} %3 @$ S& Zd xQ t! 9* B{ {{ B] 5] m^ d^ |] o%  ! P^ |] B{ c< 6* w^ L% m^ ./ o> `% 3] 3] [t -% %! e2 m/ e2 @% m^ y% ,= 3] I^ 5] += u> P^ += $9 y% p) u> 5] $- (! |] |< p] << _% %! x^ U^ 3] {{ J^ W^ x^ V7 x% 1* |] H* w* e2 /) A9 9* c$ u< +$ h$ =] :P  >  > f| J2 f| #{ G2 ,> S< j{ #3 H! E2 `2 f| c{ /3 Rp a{ n{ b{ /3 b{ F2 Q3 C3 b{ a{ c{ ,> E2 f| Y; B3 V; mc @> V} _^ $$ M: F~ 1* B{  ! ./ B] c> x^ w- 3!  / |] x^ E9 |* += w* t! x^ N- J- v^ += y% C{ y% D% x^ += N- x^ ~< V7 z7 %! $- x% =< x% t! y] 8/ {{ {{ 9* x% M% P^ #/ %< I{ ,= {{ Q; A$ e2 @% P^ x% v) _9 u! !< @% C{ m] B] w^ {! R5 H- fQ S; W$ g& p} L) (3 Q: ;3 ,3 7^ (3 L) -3 a3 s! A2 9} _2 -| F3 5! G/ 7^ s! -| =* -| s! A2 ^3 M: {[ M: W: Y2 Q: s! s! W: ,> (3 k& )] f$ I] 0< L% %/ i% |{ 2] x% Q^  / C{ @% 3! a, N9 B{ ./ y% f/ U^ 2} K) w^ ~< A$ y] -% Z^ I{ q^ s$ %! P^ #/ s$ P; s$ B{ i] C] o] ;% 3] x> u! :% ^/ x% kt 8' E^ 1] )! St Uu o] QD du AV BV |I Jk -z CV DV Pv EV 2E FV GV HV IV JV KV 8F Gw pw VO LV 2F DU f& `] b, =9 BC DU &q 6} e9 $V 89 t! Z^ c> 89 #/  ! x% ]/ g] ./ u% !< 1/ u% B[ ${ c> |< Y/ |{ !% G5 .! y2 z2 H- 1/ W^ R^ _% S% |{ W^ @/ @/ !< ${ Z^ 4/ m] @/ x% -/ @/ L% F' m% 7/ `% +% <% _/ m% D% /% &g 5$ r$ 4% M! b{ 3% 19 5$ o^ 7' *! S^ /! M! m% )4 gu y] E7 (! @% 5= E' -% C{ t- `* B6 >B ",
"O7 It Y^ u* ]* B] <* '= p) w* o> y' k{ L$ *& v' U^ H- x* a, #f q} Q& c| 17 '[ d/ d% 6% /% d/ '9 <% u% h] $^ /% 7/ L^ g] a, S% =} ;%  ! !< 1/ `^ t! U^ q] u! @/ u> %< '/ /[ j% [$ >; }5 8< y] M% &/ |] <% w^ -% s$ 3] =& C* N- z9 g]  / m/ z7 R5 H- ]/ 5$ >9 B{ P^ h] t! d^ b] @% 3] y] 3] ./ {{ s! M$ !n Z' |< y% U] 7* x^ ;% x% 3] e% B{ 1/ L%  ! P^ D% 7* T] 8/ c< V* w^  < >< j$ p] U^ S^ Z^ w- ,= ;% p] S^ c< ,% Y^ y% 3! x% 2} >9 !< += E' L% c> q^ $% g] =! p^ x^ x% H- i% z7 I{ {{ A$ y% ,= D* C{ a, 3! d9 w* B] x^ 8] 9* I{ U* 1*  5 7$ *6 Q# A& )^  5 r5 *] 1$ '[ [$ Fq g& >$ L< Q# |7 A& 0% X# >6 S& =^ >6 Q# .& ~^ =^ 0% X$ )% A& >$ !% )% ja K$ L< z} W$ 2% MV X# ;6 .= V* e2 A$ b] 1/ S9 %! <* /< 3! {! u* S^ y] E' d9 ,= x^ << o> U^ B{ *9 Fg ,= 0< &/ 5] g] I{ p] R5 L% u> 3] m^ C{ 6' 1/ C- `* m] |* i] _% 3! @% /) 3] B{ t! q^ 3] s$ |{ B] %/ X^ N- w* B{ {J h% U^ %9 1/ 3] I{ K) %! `^ r$ K$ &* $$ s% E4 #* !^ #* [$ !& W$ '^ V$ g& L& S# S& P# {6  7 .& A5 Z# J# R# ~^ s{ >$ >$ $$ (5 h$ .& s% f$ m5 .& q5 '[ Q# n[ Y# <^ .  L% B{ U] J^ 5] S^ 3] Z^ 5] v^ g] g] x^ @% u> h] %< 05 g] q^ B] =< t! =< D{ h] &/ >/ -% w^ s$ /) z7 C{ B{ |] '= C{ |< += |{ A$ ~! Q' J- $V x{ 6' Ds Fh -% vA `u u| Cs _< 99 pN =4 BV NV Tv PK `z OV PV QV RV SV TV UV VV WV FH jK hw XV sN ^V &u !v QD -z P] C! p| =& ^/ 6' m3 40 ^) Z^ #/ U^ `% (& E^ @/ t- @/ [] Z^ U^ w^ W^ @/ N^ Z^ H$ $- 1& J7 Q# !& c| G/ m, g7  / S% p7 Y9 8/ L^ O% l% ^) >/ &9 w^ U^  < L^ h) 6! 6% o% l% p7 =< '% (< .% (< p7 P% <% i$ P# L& S; 8} ob ^) 05 t] Q* x% ,) E$ 0% +$ Bi $- y] 1* I{ C{ p] o- u> w* q^ L6 !} ",
"wg *! =; n] H- << k^ l* <; 8] (= Z- 'u `% *^ 0; ~< =- Q' C{ 55 YV 8E B2 j% m5 >^ !n w3 /} U6 J9 )r S% n& =} r$ |] I{ L^ r$ w^ 2} F' F' F' 1/ 5$ (& m3 !< 05 P; }5 Da U] at 2% J) .= !< x% 2} U^ 2] _9 B] W^ F' @% 1] W^ l] %! u* B] @/ L% U^ _% &/ U^ @% B{ y% j$ a, $- 5] i% z7 8] L% }t O% Bn +$ i5 a$ !& ,3 B* h* H] >/ w- ]/ H- C{ =< m] u> o> '= |] w^ w- |{ m] U* C[ P^ L% N- s$ ./ x> E9 y% |] B] 3] %/ ;% [{ 9/ ./ U^ -% 2] h] x^ y% z7 ;% N- -% x^ x% -% ./ 3! P^ I{ U^ S* x^ >/ x^ V7 W^ ./ ;% i% w* g] P^ m= 3! 5] 5] += q^ (& G/ )6 ~] e$ d^ _/ e& $^ `% o^ [] _7 S% -9 *^ K{ E6 #& A6 S% !< S% L6 !/ nb (% ${ /% d! F- o$ j$ /[ (& g7 g7 o[ i$ #< `% d^ >$ ;] >^ L9 b> t] q^ k^ |] d! w^ P^ += 2} q^ u* d9 w- m, h* |{ Q; @% J^ 2] y] %! /) m, _% B{ h% m, %! i% |* /) x> ,= ;% P^ H- y% R5 5] B] S% @% ;% P^ =- ,= 3! N- Ht B] << (! B] I{ S' g] g] I{ B] C{ t! P^ L% &/ N- B] J^ |* y% C{ l{ m5 7$ .& `4 N& l} 0$ O/ @5 `& !] !] I/ |$ `# )^ () g& U$ /& k& ;] )^ `# .5 L# g& 95 1| W% L# {^ E5 ]] B% N& _& k& i5 Y# X$ !% v5 In |} @% t! $% t] |] u* Q^ 9< B] o> B{ I{ u> m, C- %! -[ N- K) a, 2} C[ d^ /) h] @% z7 y] Q^ 3! =< Z^ y] E' _% 3] {{ U5 ;% {* o] _/ t^ C! oF L6 kr l/ N9 6! #/ S6 vA vA 9] IU ZV RH `V  W .W +W 1j @W #W Tf $W %W &W *W =W [z -W ]c KL ;W 0v L; 0O >W &q ,W -z cu _< V^ 1s p| r2 /[ [{ |] ^) E6 f/ O% y] >/ z7 Q^ >/ D% s$ `% U^ !< 0< d! =< b, O= |$ $^ K# v5 Qa :4 ,= (% ~< l] ]/ =< 4/ 3] $9 J9 ^) $< 2} 6! _% %/ a,  ! =& |/ o3 '6 O% Z^ $< 6/ Q% 4% /^ ^$ /^ M! o6 V; 'W p6 /} ;9 J^ t] V* h[ >^ /% 3$ )W q^ w- -% += m^ 8* 2} R5 u* 5] 7r -0 ",
"tu Y= S^ 5= L* w% T- $- Q* v- U^ >; S; T% '6 s2 Y^ (* K* {* 4~ ~x -] R} 3$ >$ 7/ B[ b^ S# r$ b$ i$ <% J7 >^ `% 7D U% >/ VK ./ a, /% q[ <% w^ r$ -* c> S% }5 |] S9 6% g< ^^ T# X< o= YP =< L% !< Z^ << @/ {! m^ #/ V7 t! I{ ;% 7* 3! x^ C- j] i% y] P^ -% B{ x> U^ d^ m/ @/ =< x^ s$ z7 5] }5 A$ !W H# *6 f: C: .^ ,= u> i% 4/ 2] ;% i% }/ B] y] ,% x^ -% B{ |* ./ O* g] c< E^ |{ ./ |] u* ]/ w^ {! F9 -% w- ;/ C{ f/ E^ Y^ q^ 3] s$ u! x% t! v^ y] &/ S^ N^ $9 f/ x% ;% W^ 9* 6! %! x% E7 _% w* 6* U^ [[ u* -% c< C* 2] :% (* $- i% z{ W3 [$ )^ .& A; ~W ). ). E. {W &f ]W <( ^W /W l+ (W m@ _W :W <W )@ =# j  [W u7 )' }W 3T |W ,@ 1W 2W y# 3@ 3W 4W &# Q. (@ 5W <_ '- }] <$ *6 `; 8= Q^ 5] S^ k^ S9 #9 3] {! KO $9  / W^ y] n] e2 B] @% @% si V7 i% N- u* y] x^ -% @% x^ x% D^ 3] 0< v^ !< Ht v* J^ q^ a, i% B] Q) A$ ./ += ~< 3] C- t! -%  / w* A- ./ ./ t] ZO S^ O* 2] _= !< P^ |] I{ L% s- Y^ U- M3 }6 (} $* /~ 6W a@ 7W ]m 8( )( L@ 8W 6T aT 9W 0W 0W 6m aW T( bW cW dW eW #_ fW 0_ om gW vm 3: -_ J> hW N_ iW R7 jW 3, kW &( }4 &* j% &* e{ m= a9 w^ U^ x^ #/ U^ {! z7 g] B{ i% U^ y] s$ t! `% 2] #/ B] t! B{ i% ;% w^ ^) u* _/ S* U^ L% |] {{ a, c/ L% B{ 8] v^ a, c> 4< i] E^ f/ E{ r] cu lW M^ /u (7 fx vA ex v3 mW nW SI :F EM qV oW @W pW qW rW sW tW uW vW wW 1x xV xW 9z UU 8D tN $V =l _v e9 6J E7 _v 8< t$ F- :% I^ ,= 3! 8' B{ P^ :% += Z^ B[ w^ )> :% Z^ D% S% t! `% B{ I{ lr @) QQ J) 0% do R} x2 K- #< t! ,% x% O% u$ p$ !< !< S% &/ {{ @^ :< $< S% =} H$ 6/ %9 -/ A6 -/ L% r$ $& Q% )/ >^ 2% i$ `; o[ !^ w3 %9 0* 5* x% /> y) Z& W% pb C{ ./ {{ Y* q^ ,= :% += g] x^ >[ yW ",
"pp u= u* 3[ p) w* u* K* l* 9* P* a* e{ $& Z& zW v* 3] q^ o] +Q rk )^ S} G5 $* ^^ A! i$ 0% i$ 0% h] 7% )> H6 <% 0< n& u% $< B[ t! (& $< #/ E% 5$ 6' +% i% y] s$ 3! ~^ t] 8} 0% A! ~- D% +% %! `^ %! +a d^ :% L% +9 g] `^ J- y% x^ ;% K) P^ 0< t! 6! f/ %! x^ 3] =& g] C{ @% l% t! |] y] `: aU U^ U7 F= *] X$ (5 ~[ ]* &q J- g] @% I{ Z^ &/ L^ w^ 3! w% 5] I{ ;% 7' ;/ s$ ek u% Q^ k^ 2} =! 2} 3! I^ B{ w^ =< #/ u> a, t! x^ d^ p] P^ w^ y% L% s$ ,= s$ ,% a, B{ B] |] x^ v^ m^ ,= B{  < si 5] x^ M% *! H* 3! {{ %! |] 6! w^ e2 += C{ 7$ .| ~% >$ #{ AW w& ;$ j& `6 1$ z% 2$ 9& F$ 1$ i7 j& @* V% ~^ E$ $$ Z# f: z% {} *f &* a% @$ dy dy 9y m> {$ k% }$ {} U$ f: )6 `& ~- v, (6 <] q} !] G* A{ =- P* W^ i% E' I{ d^ ss 9* $% ,% 3] /) W) E' q^ 3] U^ y% &/ Q^ d^ =! s$ 2} m^ V7 @/ x^ @% 0* {! C- 0* 3! c> 1] |* c< a] a] w^ m, -% 2] ~< R5 %! %9 B] I{ e2 :% $- J- _} V7 si S^ ;% w% A$ KO ,= C{ 0* C{ o} 2% j% bC iQ $& `% W^ Q; ~/ !< |/ C[ R^ w^ l] !< 2] |{ |] t- @% 5] |{ d^ #/ 1* E' @% B{ _9 :% g] += ./ N^ l% |] p7 '% o% 7/ Xt T& !& 7$ 5^ j/ 9< 3! ]/ `% `% e2 -% x^ t! |] /) c< 3] I{ 6' q2 j] `: x^ w^ B] N* (& 6* c> 3! 2} B{ 3] o] ./ f] c> S^ += W^ -% << J- K) 2} ;% d! E7 O^ Uo Y9 S' L] Cs Az fx .w Fy Fz dM rw BW CW DW EW FW GW HW MN IW JW KW LW MW NW OW FW PW ~w }x wG Gu R] kU pw QW St qU RW S% =l p| E6 m3 lv B{ b] f/ f] X^ N9 U^ B] A9 Z^ <; 3! (< y] %< 7/ A$ |< (& [] }; SW >^ }] /^ q4 [| &q s$ _% !< (& z7 n& M% ^) @/ S% t! h] 2] t! *^ w3 D% T% ^) =< M^ 5% =< ^^ 0/ r6 i$ .  ;] Q# Z; L< p6 z6 o% u* C{ x^ &= ]% ;* 3^ TW h* t* C{ A- @= J- (* 8] u* (* h] qn ",
"5D R- m, g= {* O* (! |* >0 y] y] i; @> `% ^^ UW u* 5] |* =< Oo ^n (5 S} q5 ;] n[ =} Z$ %r w3 `$ Z$ $& r$ *^ k/ M% L^ |{ L% )> L% @/ s$ C- 8/ =< x% 0/ !< !< O% [r 6/ v) K{ '^ u5 ~- Qq b] g] c< ^) y% !< :% a, P^ _% :% V7 h] s$ 3! 4/ ,= 1< `% g] K^ o- L% y% I{ =& ,= `^ @/ @% J^ ]/ |] {! ./ U^ rM F2 .& ~] /] L& m^ B] A$ 8' Bs _9 :% a, c9 O% H- U^ ./ d* x^ _/ c< ;% f/ ,% e2 a9 i% %< A$ y% S^ :< g= U^ P^ :% {! 5] z7 m^ y] V7 |] P^ ;% Wp -% t] m^ i%  < c> k^ c> @% %! _% @% y% f/ C{ ./ x^ |* 5] g] {{ I{ |* w- +=  / N- D3 @$ )^ .$ hU Dh += ^/ }5 6! ~< j] p] B{ c> U^ x% w% V7 |< q] {{ B{ s^ p^ A$ d: -[ h% Q^ y% P^ |* 3! B] h] N- B] E' Z^ 3! y] ~< M% VW Z' P# P# a} 4< %! I' aa H- P^ D^ a9 P^ a9 ./ B] 7' U] (! 46 u> x% p) N- /) &/ %! g] P^ 9* <* l% /) ./ e2 L% x% |< 3[ -% h] m^ c< x% %! |{ s$ @% h] x% bo f/ {{ B{ 0* ;% 5] ./ 3! 9a wv J^ 3] K^ K^ o% _q U^ v) e2 <% :; /3 )] !& I/ WW '^ c< =< v^ sj S9 {{ += U^ I{ #/ i% @/ {{ 7' I{ 3! m/ C{ H- *< /) N- P^ @/ |< E' w^ U^ w% x^ i% y] V* i% v^ o> a, ^) L^ Z{ $$ v5 S< R= K^ w^ o- /* E% j] += h] !< =< m, 1/ w* t] B] S^ s$ ,% Gh i% 3! {! ;% ;4 x{ `^ l] J- #/ {!  / >% b] w^ B{ =< 6* E' $% @/ u! /) 2] o] x{ P] 2] du =l Xu Rv .t 0u mv XW YW hK ZW (z 2H `W  X lF .X ig +X @X #X $X %X &X MJ  O Xu cx *X tL Bz QD %p fx +/ q] Cs u! `% I^ 6' 2] w^ w^ :% w* x^ >/ w^ (& ^^ N- C[ ./ S% j$ t! f/ g/ f/ D% `% S% q[ a~ g6 K# L< P# || M3 :* L% l% 7] ^/ 8/ p7 !< P^  ! +% _/ S% 0/ H$ 6% O% `% B[ @/ )< W^ 9/ /% H$ +% 7/ K# I$ [$  > /^ kl >[ {{ G- K* t- 3; @] i$ 0$ o7 x- 9* 6* $- P^ K) @% {! @% (* g7 D! ",
".f ~; I{ += << w% J* v> K; g] C* _> T2 U% >[ =X C{ {! v* U^ -X WR 1[ y2 !^ .& K[ _[ M! '6 $^ a> d% F' 0/ a, $< l% l% L% r$ N^ L% @/ (< n] y% S% c] !< a, t! _% P% d& 5] *^ .& a$ ]; o% s$ I{ ~< L% >/ 6' %! ./ |{ !< 2] o> -% #/ =< @% (! @% w- *9 7' &/ B{ 7* C{ E^ f/ A6 B] O% P^ U^ m/ B{ B{ z7 Wf MR k& {6 {} O2 O= a] `* t] `% y% x^ g] =- E' K^ ,% p> g] @% E{ |] |{ P^ x% @% g] S^ o> Uq I{ |* J] ./ t! S9 |] y] ~< ~! c> 5] ~< $% V7 K^ t! v) t- P^ &/ v^ P^ 3! |* u* _% @% y] 6! /) 2] -% =- k^ 3] _% 5] <; 0< U^ a, |* !3 T: v[ .! <2 S* ,7 }= S^ e2  < 2} R^ i% 8< O% s$ y{ I{ C- t! h] u* L% Bn 3< Uq T] P^ L* C* B] p) i% B] ,= += 5] B{ x^ (! g] += {! O] #& $& }] .& :^ F2 #- a] B{ 9* q^ i% g] += y] -% B] q2 @% t! P^ 3] _% a, /* 0* 2] 3] |] $9 y% t^ h% k/ i% B{ ek z7 5] 8] p] g] x^ %! C^ S9 c> u* C{ B{ N- C9 S^ h] I{ {{ 3] 3! 2} h* y]  < t- 5] @% += x^ g] K^ x% w^ V* Q# c} j% {% &7 $; o] ./ `= v* b] ./ 3! 4/ B{ =l a, ;% {! M% T] ./ u* A$ W^ 0* 0* U^ z7 << }5 KO /* B] /) w- w% o> s$ E] u! y] w{ P^ f/ 2S 04 i7 2% b4 {6 h; v) o% C! u> g] 8/ m^ _/ 7' #/ |] h] m] 7' y% oF d* m^ i% =< ]/ c< w^ U^ |* w% %! h] ,= {{ w^ L% @% 8< o] E{ L% =9 8< t^ j$ m3 =P tq Z] ;z A] E7 Tu 5E O] 6v 0O ;X YW >X ,X %A =E `W 'X =A )X IW !X ~X {X ]X ^X _E /X ;M 2C =V  D }u (X =l ;C fx :% (7 >% ;C Y9 y] s$ lv @% E' E' q] ~< A9 ./ c> N^ E7 b] @/ $< P; 6/ ~< L% h] Z^ E% [/ L^ %% +r 8^ 7p S& -$ i3 j3 x% +% L^ O% +% |< >/ $< i/ 0< U^ o$ L% H$ [/ $* )> L^ =< D% p$ '% ^$ )> A! 7/ 9r d% E$ Z; {6 .e g7 :< e2 A$ Ba ]> a$ 7/ v} Y5 <* =- b] A$ y] -% -% '= B] {{ /[ H4 ",
"E| 5a C9 u* x- v) V* J] ]* i= k* i' >> (& )/ e) %{ _= y^ s$ K! bU ~5 R) =^ !^ M! !^ V6 i$ $* $^ `6 #< k/ '6 h^ o3 $< N^ ^) #& h/ i] $^ 3] g/ 3& q[ L% r$ y% @/ s$ a, w% .^ -$ X< o; +% Da y] 3] z7 c] i% 3! 2} }5 m^ v^ 8/ 3] Q^ << B[ :< @/ L] I{ R5 += ./ U^ {{ Ea U^ a9 y] x% U^ Q; x% |* |{ 4] {! %/ <& S& -$ n2 t} N- L% 3! I{ U^ -* {{ >% u* _9 += :% w] s$ x% B] m] 7' >9 {{ {! l] 2} i% 3] ./ I{ -% y] :% w{ c/ E' t! {* m^ i% w^ /) f/ U^ a] :% b] x^ @/ i% ;% C{ t! %! N- a9 m^ t] 3] g] w- /) ./ x% [r s$ y% `^ n] g] O2 V4 '[ ;| 88 a, p/ z* =- I{ A$ {! @% w% a, {{ h* 7' -% v% l] !< U] `: :% 6l -% ;% L% %{ a, O* H- |{ @% 3] i% o> e2 $< 2< Q' S* i% B] m] w< %1 6% n$ B} B# V7 o> =! N- |{ s$ q^ i% 7* C^ 9* S^ 6! Wp Q^ {{ S^ x% W^ m] L% N- P^ p] =& a, x^ 3! Y^ 0< q] ,= c> U] I{ U^ ./ y% C9 H*  < V* HB 05 B] y% z7  ! 3! +a ./ p] {{ 8] A$ x% ./ u* o^ 5] x^ x^ y] 5] _= Y< v5 2% {4 _X U^ w- m^ C{ 9* |< 7* U] f/ <n U^ -% ./ y] ,= t! w^ /) si w^ m] @/ =! &/ l] ;% w{ W) 5]  / o- 7* +=  = |< |] t- 3& 8' ek w3 _! D' d% '[ 43 N* |{ u> P^ Bn x^ 0* ,* @% 3! L% '% l] y% y] %! a, x> 46 N- w* w% B{ @^ :% :% :% [{ Q^ U^ s$ |< @% @^ |< J] c> y] (% A9 i] >% Uo $V 1s >/ I^ CC Fh bt NU K] an Rv :X AL BV ;X PK <X _z [X HH }X |X 1X 2X 3X 4X 5X [C `I zz *V <V *V ]G xW 1s 3} 6X cu `u iO JO L] |/ x> b] 2} 2] :% B] `% s$ -/ 6! x% l/ =< >/ O% ]/ 8'  ! N^ _% :% ${ l] ${ 6' b^ 56 x/ K# E$ (5 [| v} i% F' =< _/ }5 =<  < k/ j$  ! m% >9  < ]< o3 c% Z^ F' <% F' 7/ $^ /% ($ o3 p$ $$ Q# `; (} .e o$ 05 a- %! B{ p, Q& .( y[ eH %/ ^* {! z^ g] 5] /) P^ #% x^ 5} @C ",
"7X X] m^ V* K* S' x^ v* v* J* |* Y- S; c% o$ o~ X^ Kn  / S^ L~  ] z} =p s{ S& /^ i$ P% F' $< A9 <% O% !< 0< `% D% O% m% b^ =< <% =< D% ]/ y{ 8/ Z^ u% F' g] 4/  ! O% S^ B# g& 'n R- `% J- L% q2 x% U] ;% u% |] si ;% J- !< -% #/ ft {{ x^ u! U^ 3] -% I{ w^ L% C{ ./ 3] E' U^ q2 @% F% B] {{ %! g] /) `$ $8 w& .& A& J< C{ P^ K^ << X^ v^ D^ n] x^ << x^ s$ %! A$ d^ _% q] 5] E^ q^ w^ #/ |* {! 7' += #/ D^ 5] w^ ~< U^ I{ x^ b] L% 2] u> a, q^ P^ G4 {* ,% E9 E^ x% S9 i% I- /) z7 y] 8/ c> A- y% i% B] :% ~< ./ '= L% p) _* N< j% =^ '^ a, eB (* (* 7] |] i* U] a, B] t! q^ 2* ;% y] v^ D^ #% v> q^ y% 3] {{ x^ y% S9 y% 2} y% i% t] J- t] f/ $- {{ += J- x% v* s$ b] p) 8X 9X !& 9% /7 M: ]* q] %! B{ i% S% ]/ L^ S^ {* B] {* y] x^ U] C{ u! z7 3] t- z9 B]  / O* w^ :< B] 7' c< w% 3[ C* U^ {{ i% x^ E' i% I{ 2} q^ 7* H* i% x^ |] I{ y% {{ A$ d^ U^ @% 7' `^ !< K* h% E' W^ M% -% D% p) 23 n5 MV Q# v> Io q= 6! N* C{ N* p) w- B] m/ @% %! x^ |{ v^ h* 1< u* g] += W^ S^ %! a] !< {{ S% $- ,= /) $- 3] H- M^ y] =! ,= E' 7'  < i% @% z' qs .& .& .$ ;| u* 3] C{ ,% ./ y] x% @% :% ~! |< @% @% #/ ~< 3! m= K^ /) f9 s$ /) p2 :% x^ i] |* k^ w^ K^ |< @/ :% e/ f] ){ t! `% /) u* =l {/ QH FU =/ C] .t ex T] P] =l Fu _< 0X :x lK ;X aX EM |C bX cX dX eX fX gX eg hX iX jX *L kX ^M WU *X cN cx tL $V du I] qH zU (7 _) >% 6! P^ E' q] 4} 7* 6! ~/ ,= K^  !  ! O% '< !< `% Z^ p$ C! h] b^  ! ,% h] :% O% C[ +! #3 =^ 9% W$ R2 ~$ /* m] =} /) S% t% 5} S% x% L^ ~< t% =& O% L^ p2 ^% 5$ p7 $* <$ #& S# /% D7 {% A5 Z; 8} *& D' k^ E' ,= x^ )) E$ *% T& iQ U5 ;% o> t] E* _* G4 :% (! si E6 lX ",
";H mX /; ./ w% 5] S^ %; H- w% 5] 5; S; $^ .! 1) i% V* 1* =< Ld r7 _^ o} ~^ F& W$ X# hl $* Z$ $^ S# ^^ J7 k/ =< O% <7 U^ S% d! B[ 4/ &/ `% %{ a, U^ t! q2 @/ =< [t D% c< F' v6 s{ n=  ! y] =& x% e2 3] h] B] a, y] ;% HB m^ a, 6* L^ I{ :% ;/ |] {{ w] %9 s$ N- += h* J- += x^ f/ ./ m/ m/ w^ K^  / {! W^ c% w- n& $$ &* >| w* `% Fg I{ U^ e2 R* q^ P^ }5 U^ N- B{ B{ ./ _% |{ c> h] N- s$ `^ R5 O% w^ 2] V7 f* t! B{ C- t] #/ L% += @% ${ &/ R5 w^ m/ |< w^ B{ |] x^ o% C^ x^ y] I{ w* y] B] x% g] y] += I{ B] w^ t! l/ @% `# t} 5% {} P{ 2u <u _9 E' F^ I{ 7] {{ h] << K^ u* B] y] S^ <n ./ k^ m^ |] L% q^ :% x^ m^ I- u> H- w- B{ H* R5 a, u> x^ |] B{ += ,% 3] |* m/ |] v> v> QL (} s{ 1| b} D* n- K* $9 %! |] x^ L% %! s$ ,% a] y% /) |] y] }5 w- y] :% U^ p] |< q^ w^ 2} D^ U^ x^ x% 3! q] e2 3] k^ I{ d^ x% y] 3! c> -% B] 1/ 6* << a, P^ -% i% a[ '= V7 ./ R5 Z^ n] P^ i% E% t! >< >% 12 X# F& x/ 5U y% W^ 7' O[ x% sj y% $% += U^ {{ (* <; 5] [* m^ :% =! 6' S% 1/ w- k^ /) d< C{ k^ 8] d^ 5] ./ |{ K* u* 8/ U^ |] :% 3! C{ W^ w% -/ hU #] !& P# W: /* %! g] y] ,% q] U^ 5] y% u> -% a9 (! |{ m^ C* m^ @% z7 &/ j$ C[ $9 t] /) 2] J^ U^ ~< m/ {! @% N- !/ B] S^ 7' t* 8< N9 {{ +/ 89 BC |s 6! /u {w A] =/ 4< RU !D pV sw nX BV iV _z By 2I oX pX qX rX sX |g tX 9x uX *x 'j vX Cv {v (X wX gw kU |s ut -z zU o] l/ _) u! E6 Y9 f] @/ ~< a] D% E7 0< :% f/ =< !/ $< 4/ 0< o% ]/ |] (% @/ d: i$ S% /) D% $* qJ *> !6 !6 /7 K3 4$ s$ E6 >/ 1/ l/ _/ z7 Z^ $< $% !< /% y6 w3 .% o$ p2 +% n% ^^ $* '% `% -^ .! P# S; M! )% yl %9 {* y] Q^ <q ~] /% x: AR w% v* {* m, E' U^ x^ y% %{ w% F' op ",
"jq Z: n] z7 h* 9= -% 5] B- K* I* H; >> (& D% ;e D^ {* (* s$ Yf 19 z} N} u5 ;] '^ '^ !% .^ >^ 0< >[ K9 (< D% ;% |/ B] KO ^) L% l% '% :% (& N^ F' '% o% t! 1] 1/ <% B[ m/ #< ~] I$ B; <% :< O% 4/ L% @% N^ c> U^ !< _< Gh w% E' P^ ./ :<  ! 3! +[ q^ oF B{ m, k/ c] c> w^ {{ @/ {{ x% _% q^ R^ N^ I{ N^ z7 2] wR x/ .& ca 23 c> 1/ >/ y% C- {{ @/ 5] B] w{ E' _% |{ M% ./ ./ |< w^ I{ V] 3! !< ,= t] g] N^ B] I{ w^ t! %! x^ l] x% V7 ,% g] d^ g= F^ q^ _/ d: |* b] B] w^ Q' q^ C- 3] m- g] x% !< h% V7 L% ~< j$ @% 7* 3! ]* a{ j% ^6 :^ _~ q% b, |] ./ =! }5 u* |* t] x% u* L% i* v^ x% {! a9 f/ K^ ./ a, N- i% U] M% 5] a, 3! V7 3] h% i% ,= S9 $- =! ~! v^ x^ 5] p] >% s$ C{ 6l 3u e} {9 g5 s! r2 h< ]/ x% ,% y% 5] += B{ <; g] $9 J^ w% 0* z7 B] h] g] i% h% z7 m^ c> @/ W^ @% y] y% s$ B] 1/ @% e2 3! A$ B] ,% q^ /) 7' i% *9 B- U^ h] ./ (* 3] @% =! #/ K* 5] P^ << B] v> |* un ;/ 8= H: ib '[ F& 9G #^ H- 3! ;% U^ U^ E' $% a[ q^ P^ u> B{ x> -% $- |{ @% N- o> B{ 5] ;% w% U^ y] g] |] /) n] J- @% @% (* a, |* x^ a, 0< ;% |] :% v> P^ 4/ 7/ /} {% .$ I2 `* %! -% w* K^ g] |] h% a, ;% J- i% m% h% J- t! A$ w{ s$ {{ W^ !< ^/ |{ q2 t! X^ B] A9 b] B{ {{ q] ./ 2] ,= q] o] b] %/ du 1* xX >% ~r Sv `' Cs }u `' !D K] PF yX zX AX dG OD By rD DG BX CX DX EX FX GX HX  M =J IX JX 1C Xu hw Sv Bz 9z K] gw .t 2F DU ;C -z uo A9 S6 >% L] L] /) 8' /) j$ ^) 9* L% j$ F' >% :% %< n& ~< L^ _/ l% g] >/ g7 Z^ =< >^ 9X 9} X6 A& _5 D2 =^ -% `^ |] Z^ ;4 ]/ '% Z^ l% S% Z& >^ b^ -/ F' L^ Q% H$ h^ w6 r$ B[ X6 P# ~% S; .g 87 C6 }t $- E' i% ~- j% _7 ^5 KX x> q^ -% v* D{ |* x* l] V] u> E% 2t ",
"cB 0- $- I* G4 N- m] w- K* 9* l* i; S; E6 *^ j' xC {* 7* 7' 4~ 47 )] }2 (5 )] =^ :6 d% S# 8} c% ${ p$ +% r3 k/ D% 7/ h/ =& <% +% L% F' l% E% K^ F' |] =< I{ &/ 1/ 3% 3] o3 n[ }] c2 ba w- !< {{ |{ x^ w^ |] L% 6* |] s$ w^ n- y] A$ 0* w* 5] %! (! ;/ x% 6! #9 V7 g] D^ i% 2} _% a- 3] u> P^ J] Q^ l] %! 1/ 7/ [M b> ~^ Dh K2 P* B{ I{ 4/ x^ w* D% Z^ 3! 3] w] <* y] C{ U^ !< x^ 2} ;9 3! S) o% x^ :% L^ S9 y] S% N- `% U^ B{ w^ y% g] /) |] |* d^ ./ u* 5] |] ;% ,= #/ N- y% ;% E^ :% A$ P^ (* 1/ |] 5] B] /) 3] ;% b] L/ () :$ W$ M: H' =l c< +% w^ +% e2 x% N- _% |< J^ |{ j) += x^ `% %! w- R5 += y] @/ B] >/ x^ <; x^ {* s$ J^ t- =! g] s$ y% c< y% D* ;/ 3] 5] U^ u! m/ ,= .( w] /^ d% y) Q2 N* B{ s$ a, += += 0* w* += t] t! m/ #/ B] s$ ,% s$ =< w% x% 9* U^ y% m^  / |] q2 y% N- ,= $% w* n] o>  < =< V7 y% y] K^ m^ B] 3] !/ q^ !< 7' <* c> 3] B] W^ i% t! x% g] g] C* S^ Y^ b% >| r5 ;6 8^ 2[ t! x^ S9 @% _% [t ~< x% w^ C^ y] D^ 0< e2 J! B] 8] t] x^ ;4 =< $- 3! w^ I{ e2 ~< =< P^ B] t! U^ /* m, U] |] x^ l% x^ [{ g] %{ p) o> U] `Q Y2 l& n5 c| 2] l^ -% L% m/ m^ h] @/ B{ >/ U^ U^ 9* 7* 9* i% 5] l] w^ U5 2] N9 8] ${ v^ x{ m% w% t! 6! ^/ 1/ f] |{ P^ I] w^ J- nb V^ ~/ {/ #/ =/ `' _) QD n> _) 9z LX 0B Ut MX !L NX OX PX +M JL QX RX SX TX UX VX WX %X [C XX LJ iV ^M zz ]D xW `' Cz Fw DU cu u| pn ^) f/ :% m3 D% X^  ! ]/ _/ W^ E% j$ @% L% B{ Z^ =& |] p7 =& F' >/ a, p$ N^ ;4 |< B{ C[ m% -* )6 YX t: W$ !6 @* x| Q# b/ !< ;% f/ [] m% F' !< =< [5 $* a> |] U% -* S% 7/ *^ e% F' r$ D% .& .& S; K$ ml /% o^ e2 c< N- u2 u5 $$ ^3 n< h* U] y{ u* -% a] 8] 9* p> R5 n% aM ",
"s> 5{ x* P^ O* V7 <; K^ w- Y* m^ -! `; !% 0/ ,~ 2] m, {{ s$ X~ YV @] a0 Q# ~^ Z$ q% /6 L4 b^ w3 E% @& ^% JO O% u% F' ${ h] a/ B[ &/ ./ ;4 4/ &/ Z^ %9 ${ N^ ]/ K) ;9 += X6 *5 /^ !) q7 q] L% K^ _% =< t! z7 ~< B{ B4 U^ y% 7* 0* K^ |* J* 7* w* K^ =! x% a9 C{  / Q; 5] 7] B] J^ g] /) :% N^ w- s$ J^ i% :% K) 4- !3 L$ E$ Z4 M$ 2* |* `* ~! h] @% @% g] |* ,* A$ h] K^ B] z7 l] u* &/ u> J- B] &/ #/ x% J^ -% W^ 3! y] y] E^ <; B{ x^ 4/ {{ y% |] s$ x% m/ '9 e2 p)  ! Q^ E' x^ S' /) B{ w% y% b] o% u* I{ w% q^ 2} E9 D2 n$ U$ 7& Rc i7 P* B] {{ P^ E' ;9 y] 2] S^ 2* |* @% :% v* y% I{ I{ K^ `* << 3] += h% #/ e2 i% N- #/ p] {* L% Z^ o> l* w- J^ += A$ e2 5] z7 @% c] x^ ,% un ;0 Hn &* @] ^| E% B] E' $- E' D{ {{ i%  < ~< x^ a,  < P^ U] (* C- k^ I{ a, B] /) 3! |{ P^ {{ @/ o> s$ U^ t! j$ =! e2 S^ 3! o% :% s$ ;% /) B{ v* %! |] ./ m/ @^ I{ S^ q^ x% @[ J- 0< :< B] y% u> u= D3 *] 0% ]5 gr H$ 3] x^ C{ 5] s$ 5] :% $- y% 6! 2] [t  < d^ P^ 6* $% 5] q2 d^ p) J- p/ s$ ./ {* u> t- 3] B] w* c] >< @% C{ y{ += =& B] ~< j] x% s$ ,% v^ o% -; K$ () S& L2 p= 6! i] v^ }5 w^ ]< h] >% P^ y] a, N^ w^ o> D] t! V7 -% _% y% V7 8' K^ :% 89 @% `% 5] D{  ! ~< 8] >/ {{ _/ T] /) E{ l] Y9 uO O] K] >% aB _< DU ,v UI MF qh ZX 1I ZN kL hD `X VM iA  Y eX .Y +Y @Y #Y $Y %Y &Y *Y *x Nb QA -x .w ]G 1s bv .t ^N =Y 6J 4} ;C 4/ <u :% v% E' 6/ L% !< >9 X^ -% t! Z^ ;9 )> w^ L% 5] L^ y] #& @% x^ Q; s$ b^ ./ l] x% s$ X$ -Y d| i$ _^ !& @1 v4 I{ |] 8/ c> `% U^ S% H$ =< s$ #< O% x% (& 6% p$ o3 ^^ ,[ 3% ^^ 2% X6 S; .! ll @& )< 5* C^ (! p, S& 3% T4 Y5 9* U] y% i% 5] i* {* Q* T] _= a> 4S ",
"3v o) y] <; |* E* U^ ^* I- x^ h% T' j> /% r$ <[ ]/ J^ i* U^ ,~ Ck &] o} `t S& d% K% #& ^^ 6% '9 r$ '6 =< |/ -/ g7 =} ${ $9 F' o% `% (< s$ ${ c> @/ _% ${ ;% B{ o% D% 46 oa A& !^ -= -< 7D m% U^  ! n] $< 3] %! |] y% {* %/ Gh J^ ;% y% O% N^ w^ B] !< x% 8/ @% |] 5] 46 3] p) J^ !< {* W^ &/ L] x^ x^ U^ L% N- m] ;Y >Y z% !6 S3 -f o> U^ >% 3] J^ n] %! U^ z7 |* _/ |] J- V7 %< o% N- }5 u> f] J^ l] ,% &/ ^* B{ !< y] B] U^ y] y% 3! h] += g] B] :% u! c< x^ I' B] v^ m/ 3] @% m% {{ }/ w- w^ a, {* s$ -% h] w- z* J2 k& )% (} &* !< w^ `^ &q A- 1/ q^ += 9/ R5 -% s$ m, m, q^ E' >% w- i% m^ R5 Q^ 1< a, T] x^ @[ `* N- 9* u* I- C* S^ i% z7 += P^ m^ m^ 2] m^ s$ U^ `% b] 6* B{ d% G~ .! k$ [7 `2 #; ~/ y] W^ << C^ ~< w* E' A$ I{ `% 9* |* 5] U^ w^ 5P t] #/ 5] y% t] $- t! 6! P^ += P^ #/ @% V7 @% -% w% {! 7* g] 3] y] /* {! |{ g] C{ ./ e2 B] U^ p] y% x^ :< L^ b] a, |] 7k ,Y `4 V$ !% @&  < u$ -% a, K^ xC g] j] N* x^ {{ O% y% c> 5] 5] }5 8] $- 5] R5 R5 s$ H- 3] J^ w%  < /* 8' I{ U] n- _9 z7 &/ {{ U^ ./ ;% ;% F^ f/ 2} a] ;9 3] =! p- (0 }] v5 y[ M! A^ 1/ l] I{ U] ~< 6' `^ P^ ^< ,= B] U^ y] 6! '% 2} 2} %! i] q^ C{ ^< c> D{ p| 3] A$ f/ d^ U- u! c> f/ w^ _/ IU _v /) C] 4w P] {w kr _< =/ BC 3} 2F W] 'Y )Y !Y ~Y  c {Y ]Y kF ^Y /Y (Y _Y :Y <Y [Y  B }Y Ob |Y lA oG cx RI Vu ~v ;V 1s vA AB X^ l/ XU N9 f9 Uo @% l/ =& Z^ 8< g7 5] J- g] c> w^ w^ |] Z^ l] P^ =} I{ #< |F F' q2 @/ l% x% t! o3 1Y S% ,[ Uv ;| s{ A& R$ Z| 0% A$ @/ 5$ `% v$ @& [/ 5$ 5$ ]< d% Z^ B[ r$ O% 7% *% @& *& 06 {% !^ S; S# Y0 <% xC n] h% o> ;! u5 7% N} Ku p) m/ H- v- 7] A- 5] y] r* '/ I6 gT ",
"O7 lj ^O 1* 7* 5] 0* ]* B- 5] _* ;e `; K4 *^ );  ! J^ B{ &/ bB s5 X{ *o a$ fo 3% 5% q6 w3 i$ *% F' F' 0/ =} w3 F' ${ L^ S% $< 1/ c]  ! s$ m% 8/ {! c] =< =< t$ R^ a/ BO 8} ~^ w5 2Y 2& w^ @% oF !< U^ `^ @/ @%  < m= t! B] +a y] ,= h] /) L% /) @% y% $% m^  ! U^ V* e2 1/ 5] ;%  / g] ;9 ;% R% C{ x^ 1/ @% M% t! +% 3] _[ a$ 47 /& 1] }5 C{ w^ Q^ B] B] ./ c< 6* ;N ,= @/ K; e2 w* x% {! L% 3[ h/ S* C! B] i% y] !< 6' *9 q^ J- c9 N% v) _% a, |] m^ P^ 4/ j] x^ y% [t 1/ ./ R^ `^ ,% m^ _% S^ t! n] y% q^ B] R5 t% T7 >$ '^ :3 DB 1] Q' y% d^ += v* B] V7 0* d* w* w^ y% ./ w% |{ x% |{ y% E' y% Q^ y% C* @^ p] $< q2 B{ V7 N- /* 5] a, V7 m/ B- _% I{ ,o 3] u> 5] _9  < += 5] x^ ./ O! ]{ A! '[ j4 ~^ S^ p) S^ 0* B{ |] B] J- u* K* %! x% x^ %{ U^ S) n- &/ j] ./ y% y% @% -% ~< -% P^ L% B] %! {! >/ m] u* c< (! ,= V7 c< g] 8/ x% m, x^ U^ @/ 6! a] L^ $- b] q^ :% U^ D^ I{ V* I2 .& =] S3 ;o L% P* I{ e2 ./ ~< v) |* p) @/ 2< a, Bs ;% #% 3] s$ 3] -% {! x^ x^ V7 w- H- %! 0* x^ |< B] ~< U% -% 6] m% |] v^ w^ ./ 2] |] x% x^ I{ h] t! /) o> +% 2S 7& %] @$ 73 O= %9 q] R5 =< $< B] Z^ ./ ~< |< P^ L^ 9* @^ 5] S% P; x% |< 8' 1/ L] _% v> %{ p] 0< 4} y] ~! a, _) %! p) :% {{ U* fx x{ {/ Ds %p T] BC Ar Ds >V 3Y ou 4Y iz iz ny hV OW Ti Oz fG 5Y 6Y 7Y 8Y *W 9Y 0Y aY {Y (z kX uF iV UI bY -V v3 /u Cs >% _) cY A] l/ 6} u! 7' N9 #/ ${ 0< %{ (% +6 2] X^ @/ ;4 d! ${ >/ P^ |< o- N^ p7 0< Z^ L% ^% p$ ;4 N; k^ N^ ${ M$ 2u $] P# ;6 -$ h9 '6 p^ D% B[ <% `% O% r$ w3 K9 w3 6% t% %% i$ H$ $& d% 4% A[ ,[ -$ S; -o (o <% =< <; Q' f/ r) }6 #^ H# e! S) x^ ,= B] L* S* i% $- i% l* t$ Cu ",
"Ls g, E* (! {{ S^ @[ <; z= 1* H* k' S; Q% $* !o Y^ u* gs i] D[ dY @* W: u5 X6 #* !% >^ K$ w3 ^^ h^ $< $* p7 l% ^% Z^ ./ =% l% W^ ;9 ${ U^ x% |] !< |] h] ;% @% z7 3% a[ *^ S& @$ h' B[ x^ g] =< a, _% Z^ 2} Q; z7 2} Z^ 6! q^ %! ./ s$ !< =& 8/ |* L^ P^ _/ B] 0< |] N^ w{ ,% =! $< n] 3] N^ u* a, += Q^ |{ ,% 8/ f/ cU a} (5 |% a} )= ,% 7' e2 W^ ./ w* s$ @% B] Bn 3] a, Y^ ,< S9 %! 5] {! x^ |] Uq m] @% i% ;% M) 6! /) ,% S^ 8] u* {{ o> C] v* =! U^ C{ y% P^ L% e/ |] H- R^ q^ y% B{ @/ 1/ p] I{ D^ I{ a, ]* I2 Y# S& ~] nO $^ ,= KO d= B{ n] l% i% y] 7* i% g] >% k^ |] D^ 5] 9* ,= ek m/ t] V7 x^ s$ {* a,  < p) i% R5 N- e2 3] &/ @% 3] -/ 8/ w- <; p] S^ ,% y% 3! 3] x% 3[ J- L^ }8 U: 0% S& C3 M- m] q^ `* i% P^ S^ %! (& t] P^ U^ fr 5] e2 a, A$ V7 Y^ C{ a, f/ n^ y% U^ b9 0< 2] p] 7' e2 6] s$ ~0 C* ;% p) y] y% %! 5] y% 3! m, :< @% 2} D^ ./ $% s$ P; i% y] o^ z* 3^ ]] }$ |% Q7 <$ 2} 3] v% B] e2 I{ :% w^ a, B] 5] /) &/ -% += |] q^ m/ C^ vo ;% &/ Gh g] @/ w- :% ]/ =! z7 B] u$ v> 5] _% A$ )< |] c> @% z7 ;% j$ x% a, }5 d^ c] B{ h] 7& $$ -$ 7& ,] 5] B{ Y^ s$ `^ c] 7' C{ y] ;% 8/ w^ x% B] h] d! 5P P^ _% l] |] L% u* a[ S* B] A$ h] x% @% u$ /) {{ {{ V] 6} $- B{ du kr 4< E7 P] eY Tv +w 0z ]D cx fY my VF Uw  I gY HW hY 'X iY jY kY lY mY nY oY &i pY qY |x rY `I au 5y rY /M r] sY tY VO Rt M^ [] _< 99 ,/ C] c> Z^ :% _% y] w3 `% P^ /) =< /% B{ u! ,% r$ z7 x% f/ L% 2] a, q2 g] 1/ !< p7 +% ]/ ]/ .$ uY V& Q#  5 q5 f| $& Q^ Z& p7 ${ E% ${ [/ t% 6% n[ 3% +% g] %^ v5 R# 6% 06 ~] [$ S; v6 Um /% ]/ C* S^ g] o' G& Q% >] WS j] H] o> <; |* C* o] b]  = h< (7 6P ",
"s> A{ m^ w% |{ O- <* |* u* 9* m^ l' S; H$ ^% 6{ G] /) U* v^ KX 1| *] e| -$ S& d% -9 >^ Y6 W$ >^ 9% 7/ /% O% (< m% c% L% !< }/ (& p2 D% =< +% D% ^) D% ]/ L% h] (P /% z^ ^^ f$ S& j' p2 0< F9 G6 (< @/ 4/ w^ $< P^ z7 U] O% z* 0* @% |] U^ c> |< ~< o% ${ B{ %! x% (* Q^ y] P^ i% 0< ~< h] y] t! g/ b] N^ Q^ 7* ./ ;% '6 @) 8} .& Q& S2 :; 1/ m/ ,= x^ U^ Q^ S^ u* P; -% C- ;% I{ &/ =< y] q^ }5 {{ B{ @/ a9 m] B] *< E' w^ c< ,% ${ U^ 3! Z^ =< |* %9 _% t] U^ R5 j$ -% {{ J- w^ x^ O% U] a, U^ ,= g] e2 f/ S9 C/ 0$ Nl o5 .> O~ C{ ,% B] v^ [; s$ y] S^ #% b] *9 $- A- q^ S^ {! I{ @% k^ N- 3! i% >9 I{ 6* k^ Da y% y] j] 3! q^  < P^ A$ z7 J- l] s$ `^ m^ I{ C{ q2 J- y] :% 1/ f/ &/ d9 Q{ |& M! ($ b4 {^ C= 5] 6] x% v^ f/ 3! @% B] i% w^ '= 3] 7* U^ -% $9 u* g] B] s$ 5] V* U^ U^ q^ $9 i% += @/ O% i* K) u* {{ Gh t^ @% a9 x% += D^ 89 s$ m^ K* u* q2 |] O* U^ y] j] %! 8< C3 %] U$  > ,{ C{ v^ N- x^ L% :< ek += 3! m^ U^ p) ;% q2 5] U^ N- s$ |] 3] =< }/ e2 x^ y] =! += ./ o] .} Y^ $% x^ k^ `% p] %! B] 1/ <n ;% P^ 5] N^ :% _% ./ ]/ 5] U^ 7/ on }4 X# z} J2 9{ A$ /) S9 _/ %! /) p] l/ B{ q^ /) _% #/ 9* #% += y] <7 O% h] R^ {! _/ W^ =P m^ L% /) _< a] |{ Y9 4! =l =l (7 kr QD f] fx =/ C] A] P] Gz A] /u ;C vY WG ny wY xY 4J yY zY ]L AY ~g BY CY DY EY  K BG [K !C bK KL Zz =V Bz bv !v nu DU 2F =l {/ .t IU dU nb :% |] _) {{ t$ o% Z^ y] D{ a, I{ K{ f/ ~< ${ U^ =< Z^ }5 m% !< Z^ D% 0< !< @/ 1] y] t% L^ $< .% P& FY GY m5 ~] nl b{ b^ p2 c> +% !< $& p7 D% $^ @& Q% o3 <$ Q% $^ (} ^$ E$ X$ {% S; Z6 'n v$ q2 m^ 6!  / I= )% A& w& 4q P; $- |{ D^ $-  < ;% l* m^ 46 F' -0 ",
"q3 [w <; p) q- J- w= 0* C{ t] B- i; S; v6 o[ K' [t m/ E* ^) Yf 6V -$ U} !6 !^ &* `$ q% 06 r$ X6 Q% eB $^ ^^ F' r3 x% m% |{ R^ `% o% L% u% !< ,% 6% F' %9 3! $9 0< ${ 3[ 0{ >$ ;6 5; ~% t! B] KO L%  ! B{ 4/ o] 8/ 8/ S^ c> P^ W^ k^ w] h] {! m] }5 {{ u% J! y% d: o> << c] Q^ m/ E' t! 3] =< x^ B] Bn W^ :% w^ q^ P^ 1] s' (3 j% X$ |4 h] ]/ i] m- i% ./ B] 6* m, }5 ;g /) J- y] 8/ a, w- ;% 2] %! A$ t! $- B{ m3 si >/ B- u* |] A$ |* w^  / B] w* y] q^ }/ {{ g] L% += q^ ,= ;% t- -% i] /) 3! ./ U^ l] V7 s* G2 Q# Q# +$ B| 05 ./ g] z* |/ P^ t! V7 0* A$ N-  / += p/ $9 u* 3! 5] x^ m^ y% u* ./ Q^ 6] |< *! v* e2 w* w% Y^ @% c/ g] 2] }U %! 6* n] `* ]/ B] ~! y% `* p] y] U^ i% I{ S^ [t 9X ;| {% '[ s! 6* s$ |9 wv i% -% n] [t z7 ~< y] 3] -% E] {! a, S^ si 3] ./ ,% c] p] t! J- 3! |* g] 3] h] U^ &/ e2 -l I{ -% h] |* += 3! 3] /) t- x^ m^ !< K) += '% S9 t! ./ m] s- H! u5 S& G% a8 !< !< {{ B{ |] x% `^ N^ $- &/ U^ w* E' |< x% x^ f/ p] y% P^ x% |] 5] @% v^ v> _% ~< $- /) >% b/ u! m^ m/ z7 u> A$ {{ 8/ R5 =< M% %! m] g] @% z7 y] D%  < 5] 4/ t! >^ S& k& M: (* B{ E7 (< _q @% S9 K^ -% a] K) S^ e2 W^ |* u! _v |< {{ x% `% {! l] 6! ^* t! b] B{ X^ ~< B] S^ >% l] u> +/ =P >V HY Rt x{ fx bv !v IY 9z Iv dx 'Y :x my JY 8F KY LY MY 5z NY OY PY QY RY SY TY wz 8F [z UY 8B  F By tv !D Ds v3 9]  w Cs %{ 6' <7 du j$ l] R< f] j$ ${ ;% h^ S% L% ./ B{ _/ B] 4/ @/ X^ `% S% <% E% F' b^ %/ a, !< !< q[ ;4 |{ (& w^ <% '% a& ;~ ]$ S& s{ Z{  > m% @/ $^ ;9 o% ${ 7/ $$ <% ,/ 0% H$ S% y6 E$ !% w3 s{ i5 S; d% No '6 A^ q^ |< {! R' '[ 0% N& ]~ w^ 6* C{ m, P^ S9 H* x^ J[ 7' p% uD ",
"V5 T= {* `* g/ B] K* A^ :* 6!  = 8) S; !< yh e) 8' v* U^ o^ ZQ Sm )] {[ nl q% W$ #* Z$ g& *% n$ ^^ @& Q% `$ T0 -* S% <7 $< 0< <% w^ k/ @/ <% KO F' [/ ,= (& L% Q% }5 A$ VY }7 M! x* +%  ! L^ S% g] J8 U^ A$ =< l] w^  / |] W^ `^ /) I{ 1/ &/ ./ 1/ /) 7] 3! $% @/ |< |] |< v^ @/ q^ :% /* |]  / x% h] c> H- @% t! y% B] 4% iQ &] !^ *] H: ]* $% a, s$ _9 J- h] a[ q^ t! f/ bo @% a, U^ B] c> B] g] q^ ./ P^ ~< t! @/ ./ E' h% V7 U^ *9 L% HB {{ &/ ,= -% R5 // ;% i% W^ 1< {* ${ C] W^ /) g] P^ w* |< C{ D^ ,3 j} 1[ ol 7! g] 3! E' 7* t! q^ W^ y% O% 6] o% m/ V* u* P^ 3] I{ U^ h% I{ U] ~/ J^ U] Q; S^ D^ |* 0* {* 2] I{ -% x^ c< 6* 5] B] ./ e2 w- y] u> =& z7 c> k^ S' 4/ L% 6! |] ,= )9 d: X* M! P# J# W: 3* y] W^ B] _% |* u* w% S^ w% 4/ 2} U^ '= += O* P* z7 h] 2} 3! A$ ,= k^ @% /) w* w% si =< 8] 2< ,= _% 2]  ! |] M% w{ %! f/ q^ @% C= 3! U^ g] @/ M% 5] C- -% -& || () ^$  $ w{ 5] m] C] -% h/ y] l] g] `* {! << V7 w- p] R5 C- += m] #/ u> |{ :% Gh U^ {* I{ B{ m^ y] V* << y% I{ g] P^ F^ d^ +a !< q^ 4/ !< I^ |] 3! g] 9* !< t! B{ 0< x^ c> Jw H! 0% =^ ^| l] `: |] I{ E^ %{ s$ m/ 46 I{ m^ u* u> i] >/ $- %! B{ :% w^ -% B{ A$ !< 99 X^ J- m] Fh q] B{ (! =l X^ a] v% 8< Cs r] FU bv K] PD _v 3Y {c t| WY XY (G YY sw ZY %G NA AN `Y  Z .Z +Z @Z #Z $Z rV %Z &Z kX =x `I fC !w Gw DV PD q' ex DU St @p [{ %p m3 =P 89 l] f9 B] ${ w^ ./ 3! =& c> j$ Z^ ${ )> O% L^ B{ !< Z^ q^ /} t! c% L% L% 1/ S% A9 L% 3! S% )> <% E% #$ i~ .$ V$ |% g& c{ )< :% _/ -* Z^ $* <% j$ 4% $^ O% 7/ L< I$ >^ >$ `9 v& S; .! I$ /} P^ U* P^ d^ l, () =^ 3^ uv o] U^ |{ S^ 7* 5] c< J* 2} h; L% yT ",
"2! 1* t] p] x> B{ a, 5] {{ -% O* i; Z; T% t% Qu  ! o- <; 8< =~ iR @] c| L< j% @& 7/ M$ X6 +6 Q% #< U% n& ^% $^ +% =} $< )< &/ +% '6 g/ >/ r$ w^  ! S% m] d^ <% a, 7/ << A! .& ~^ m; $^ ;% )> S% @% |] 5] y% |] =< m% ;9 4] 7' q^ j] @% y% y% v^ t! |* N^ m^ L% ;% x^ P^ J8 z7 :% 0< 5] 0* e2 @/ ,% b] x^ 3! ]/ {{ |< :< E6 S^ $4 `[ X$ $5 .5 d[  / @% d^ s$ C- S9 E' &/ O* ;% g] x% fk L% d^ v> h] =< x% x^ 2} t! ~< o> R5 d^ N- v> t- /* 6* |] 2] ;% E' D^ =< :% |< t! &/ |] p) |] %! A$ Da B] 3! c] K^ B{ *3 m5 Y# q: *Z >/ m/ w{ /) $% J^ J- t- z7 w* S9 {! _% 7' =< x^ 8/ !< t! e2 v- V* L% @^ x^ Q' 7' h] y% 7] y] 5] a9 q^ 3] p] -% `* u* t- S^ %! m/ t] U^ k/ U] x^ L% :% 7] P^ ]/ x^ {{ T8 mT s{ >$ N} C! #% b] e2 S^ @/ |{ y] d9 E9 #/ B] @% q^ ./ =& b] 8/ {! u* t! m3 B] %! j] @/ ./ (< C{ I{ w^ g] v^ x% v^ 3! E' _% z7 @% y{ p) =! ,= k^ y] ./ g] Q' 6l u> L* V; (5 %] o4 P5 _% =! P^ )< >/ }5 t! {{ =< C{ g] w^ t! @/ L^ {* {{ t! I{ a[ S^ T] ~< 6! Y^ /) 2} |] B] x% 6' ./ n] h% a] :< 2} w^ m^ K^ c/ k^ P^ o% 3] W^ %! s$ &/ !< x^ C{ @% b] %7 h~ ^6 ^$ -$ ~3 J* t! :% W^ M^ 3] ;% p) -/ w^ t! h] |] {{ %! t! x% i% U^ `: f/ =l @% ,= a, |] t^ w^ 2] @% v% C{ ~< /u c] QD >V +/ DU BC K] Hw xW &u CV wG ]G =Z my -Z ;Z HW >Z ,Z 'Z )Z NY !Z ~Z {Z ]Z ^Z /Z kF (Z RI *H QA *V `i sN bv Tv Z] VU 6J xX gw ,= N9 Y9 cu K) #/ E6 I{ J- {{ :% d^ d^ %! N^ <; Z^ t! h] m3 8' $< @% <7 Z^ P^ 2] t% &/ O% @T L% t! F' /% L% x% 6/ ^) M# #F ~^ I$ S& _Z S; @/ O% f/ '% w3 >[ (< Z$ %% 0% F' Z$ r6 Q# q[ 4% f$  > Z$ (} :Z I- l* u* /* b= -$ K% 3| 55 _% x^ Y* |< {{ += v> K) N* x% ^) RK ",
"q3 M- F! O= ^* w- j] 6! E* G- @= ;= S; <% _/ U[ a, 0* v% 2] fl ec :5 N} =^ V$ P% 3$ 0% K$ Q9 t% Q% A[ b$ S# o$ @& p7 L^ Z^ s$ 5$ L^ F' #/ >9 d!  ! g7 g/ y] h/ `% }] +[ o[ L& >$ 4- D% 3] J8 q] 6' $9 x% |/ &/ x% L% 4/ w{ p] ./ +% ;% x^ m] w^ |{ m/ S^ D% =< ./ %! R% += `:  < 5] x^ x% y% #/ Ea  < m] h] d^ 2< B] 3] /) ba WW L} !& &] 8s a* C{ y% 5] m^ B{ 6! t] 3! x% =< /* s$ ;% a, x% c/ J- R^ j] ~< Q; a, x^ {{ 3! 3! l% P; B{ y] m/ _/ 7* a, %9 += I{ += {* I{ w* ./ B] e% U^ -% a, t! %! B{ E* 1t z} S& E$ d; Y6 A$ W^ x% 2} 5] ./ s$ }5 w^ {{ ./ C* B{ 2< -% u* z7 u* p] x^ q^ x^ $% m, 3! B] `^ B] J^ 3! ~/ |* E' U^ x% q^ p) t! c/ u* un m/ w^ x^ %! 1< P^ w^ t! U^ V7 4/ ./ I{ y% .( s< (} &* (5 h> C= a[ C9 C- B] {{ V7 #/ 3[ N- B] (! %! k^ @% ./ x^ =! w* ./ g] U^ z7 B] :% x^ w% K^ y% B{ w- 5] =& B{ 6! =< i% u* &/ @/ ./ w^ L% :% C* 8/ /) B] |< 9* :t )] .$ P# h] Gh W^ 5] @%  ! %! +9 |{ x% a, x^ U^ &/ H$ S^ <n ./ i% 6* x^ >/ {{ x^ e2 P^ U^ _% %! P; x^ x^ l] ~< @/ ./ a, u* 3] U^ m^ /) k^ Z^ P^ C9 ]/ a, U] Q^ x^ 2] _% ./ c> B] |* h= F2 )% #* >5 j% 5] s$ B{ J- (! q] %{ ,= K^ ,% 8< ~< #/ }/ w^ U^ g] -% B{ @/ y] U^ x% s$ B{ 8' u> 6' >% Y= K^ #/ _< (7 C] W] =P QD _v +/ t| 1s Gz ~w -x <Z lV [Z )K AJ }Z UH VM |Z 1Z 2Z 2B 3Z 4Z 5Z 6Z 7Z 8Z GH {C 9Z ]c LF *H Tv Fy 6J ;z 0Z aZ bZ -z 1s L] b, 7D K{ E% <{ K^ w3 T% 1/ L6 c> q] d^ 2] s$ 3! g] @% =< a, g7 6/ )> /) l% (< 1/ m%  ! `% 4/ $< B] (& !< z7 a> t! E5 D* a$ v5 ^6 #] O2 |< ~^ `% Q% (& ,[ f$ i$ '6 >^ ^$ V$ 6% f$ A& y5 S; J) }] =} fk C{ j] D6 0; g& b$ Z' cZ ~! u% y] u* ~* B{ j$ += /* B{ D7 l2 ",
"kc %t v) O* 1/ w- '= =! @% 8] v* ,- k{ Z& h) ,4 U% i% $- U^ gj AV ]& H: a$ '^ M! !^ j% >^ 6% i$ '% ^^ o3 '% 3% S# <% H$ r$ ]/ $< 0/ %< S% g/  ! ${ )< @% #/ A6 K^ $& a[ %^ j% >^ j= l% @/ _% _q J- P^ o% $- h]  / $< w^ C^ -% ./ /) <% ~< a, 3! 0< |< 1/ #% N- a, {! x^ 1/ `% %! m^ U^ y%  ! z7 `: U^ P^ q^ ,%  ! ,= Z^ z7 q] -& ;/ [$ D& M# 64 5] v^ >% S^ %! w* 0* ]/ q] 3! |] B] |] i* |] 3[ D^ A$ Y^ X^ e2 K^ $9 E' ;% a9 3] B] I{ << %! |< N- =! U^ B] |{ A$ 2< s$ P^ >/ *9 {{ /w =< x% 2] 5] :% n& S} J# j% g{ /9 w{ U^ w- += w{ x% p] {{ t! ./ /* ;% !< 8] y] @% w* A- o- {* (! |{ |* :< S^ ~! x% s$ z7 }/ vo 8] @/ j- N- M^ e2 t! 7] w* 1/ h% [* 8< D^ 0* `: w^ g] 5] B] v^ a, Q^ p] w^ v% /) +( ;* 3$  $ 37 dZ I{ ./ |* s$ x^ P^ |] 3! ./ x^ %! w^ {! J- #/ -% N- |] u! V7 q^ 5] U^ y] 2} a[ =< I{ p] t! 6* p/ w- g] _% q^ %! f9 2} u> B{ E' /) %! w^ a, Y^ q= $3 z} )^ E2 t< B] B] Uq h] `^ 3] !< B] A$ ]/ x^ g] 0< p] p] ~< {! x% += d^ :% _% L6 x^ 5P w- 2] {{ w% V7 u> @/ w^ J^ c< B{ R5 =< x% w^ P^ N^ C{ @% %9 R^ P^ `: 3! y% R^ U% h] %! t! t] L^ ir b4 )^ !& *3 O] z7 h] q^ {{ @% :% S^ L% j] t! Ea t! V* @/ ,= #/ x^ P^ p) q2 %! a, W^ c> @% += %/ << &u L] c> m3 F] IU T] fx P] Fz ;z ^N A] ^N eZ CJ uC ~Y fZ YY gZ hZ iD iZ jZ `Y kZ OY lZ mZ nZ oZ pZ ED <c qZ `J zz 9D 3j ex Uu r| an -z NU Ds 1s cu 8< w^ _) /) X^ M6 w^ 1] @/ (< =< 8' #& P^ {* ;4 w3 (& +% L% l% g/ P^ -* $^ d^ 5$ i% !< |] /) F' Q% O% =< d! j$ H$ !< 6' f: b= L& !^ .& 5& l{ -* t% l% 3% F' L$ $* 0/ $^ ,[ d% W$ >$ !6 ~5 S; i5 ob (} <M e= 6! 3] <- {] `$ F# bB q/ t= 7] 6! !< W^ += x% g] S^ G] @C ",
"Bl Pp E' B] x^ D* g] V* d= <; N* Z- Z; =% g/ hQ ]/ (* a] P^ O: c7 47 {3 ;6 i5 W$ 5$ X6 L& 3% '% 6% ,[ r$ Q9 B[ ${ P% )> F' =& S% S% N^ ;9 KO >% _% A6 g] (! w] +% |] Q^ K9 j% A! _* =& _/ @/ A$ t% =& 5] >9 $< %! b] rZ I{ q^ J^ _% $9 i] n% =< N^ g] 7] #/ 7* ~< M% =< |< s$ N- x% h% x% x^ f/ |] B{ B] :< 5] J* &/ k^ += 4/ 5$ RF sZ {% '[ ;p S* 3[ x%  < $< h] ;% U^ x^ W^ P^ ,= ;% C{ B{ K^ ~< L% x% <u g/ W^ =& 2] |{ w* si 5] C{ Uq R^ !/ E' g] U^ l] m] {{ 4/ 5] C9 9* B{ 5] =& B{ w* c> q^ Y* f{ .* %] J# rq *% C- %! /) B{ q^ y] w^ C- |{ v^ x% L% (! ;% `* (* 7* u* Y^ J8 !< U] }5 += 2] s$ C{ x% |* _* 2} {! %! L% w% V* :% @%  < $9 t] (* 2< 5] g] _/ &/ q^ @% g] y% u* x> x% -% L% += '% tZ 5^ !& #* e{ u= u! p) p] ;% |{ B{ g] += m, +a x^ V7 L% Q^ x^ =! |] g] _% @/ x^ /) t- x^ |] ;% |< K^ $- q^ d^ u* !< c< |] I{ {! l% |{ q^ &/ P^ t! P^ z7 A$ ]= S< 1[ f$ E[ Sd #$ p/ )/ m/ 1/ t! y] 5] 6! V7 5] A$ 5] B] @% N- 3! @% s$ %! @% w- P^ v% a, c/ I{ =L N- m/ 3] C{ x^ B] c< x% d^ )< }5 B] |] q^ s$ w- 0< w^ U^ p) B] #/ P^ E' (! w^ _% w^ k^ ./ g] )O K# $$ ;] o: 5] B{ I{ P^ E' ,= J- m/ N^ {* B] K^ x% ]/ !< t! @% -% !< u! zE /) :% C{ U^ A9 :% /) L] K) +/ B] 6} kt uZ pn A] nu /u &z 5N pw cx DV tv dM vZ =I wZ /X NW xZ yZ zZ AZ BZ CZ DZ EZ FZ ZF GZ 2M HH HZ IZ bx Qb 8D wG ex r] QD du cu 4} O] (7 DU E^ 4} 6' f] Z^ j$ Ba 2L :% ${ 3! 1< 6/ n% w3 w3 `% Z^ L% c> O% U^  ! d^ 8/ @/ D% A6 .( ]< )> ^) $< _% t! @& 3! z7 !< v[ V7 d% !% (5 `# L2 x% K% B[ i$ Q% !^ d% i$ ^^ !% ~^ *5 {6 @$ S; -^ t5 `$ $% /* @% -% i^ v4 *^ ~5 WS J* a9 C{ x^ w% O* P^ d9 a, l] t$ JZ ",
"VO lj b] k^ u* n] e2 x% i] Q* 5] ); Z; $* G: Co e% $- 1] {{ 1~ 2| g& J5 Q# G5 A& ^$ L& q% ~^ <$ <6 VG h^ A6 ^^ <% r$ n& Y& 7/ O% )r H$ o3 c] (% 1/ w^ 7] !< _% :% <$ z^ ^^ >$ J) L- q[ a, 8' M% H- %9 l% p2 {! x% S^ S% 1/ T] L% W^ ,% A$ B{ q^ U^ q^ B] |] f/ (< {! I- |{ C- ,% |< 1] ./ /) 1/ U] o% !< %! Z^ N- L^ |] &/ a, d^ f% ,~ M! (5 }^ B3 s, ;% g] %! q= 6' O% l% 2} $9 d! =< N- +a >% B] t! $9 %! l% x^ t! |] B] Uo z7 /* %/ E^ E' e2 g] a, m] g] p) y] {{ =< A$ v^ $- w% g] g] w{ t! [{ [4 ;5 ]& >^ U{ w* += =< 9a 5] H- $% U^ 7* s$ 1/ ]/ ~< d^ B] K^ 1* J- C* ,= x% q] ./ ]/ 3! x^ p] ,%  / =< 2} L% 7' K^ o> += ~! x^ |* A$ w* ;% L% V7 @% i% B- g= ;% l% 9< B{ W^ C- >/ g] B] _% 8/ z7 )& @= Z9 P# g5 ~2 ./ E^ C{ T] yO =! /* a, $% %! C- h] g= ,= 6* m^ 3] += -% 6! >% |] G4 y{ x^ 2} a, #/ Q; B{ nt D{ d^ P^ B] ;% `^ v^ B] x^ U^ -% e2 _% Xo e2 d! {[ .& Y# g> j, 2} %! J8 |9 !< +9 =< L% W^ y] t] w^ N- Q; Q^ P; a9 k^ 5] 2} <n {* q^ E9 t] 3[ f/ B] B] |] m] |< p] 8/ s$ B{ I{ W^ ~< m, P^ @% t! >/ B] V7 {* $< {! %! U^ 3!  ! @/ _/ L% 7' m^ g] 8C sZ 7$ X# o} ,= a9 `^ p2 c> R5 C- B] -% q^ ;% S% 3! V* N^ )< d^ =< M^ m3 >/ @% w^ 3[ -% =P C# 8] kt _< E{ _) ;C _) P] pu  w 5y pw Zz R] Yz 0v Xz `I KZ LZ MZ (J NZ OZ TC wW PZ QZ hg RZ SZ TZ UZ VZ WZ ]y nG Nz QA 'v dG XZ rH tv an O] FM xW Uo +/ 3} W] 6} j$ :%  ! >/ |{ <% w^ o] ^) W^ t! 89 t! m% d^ s$ :% 2] D% $< w^ e% ^) Q% j$ D% F' a, +9 r$ ${  ! d^ m% $< n& ^/ +% >% C- %{ ^^ i5 M# YZ (3 C[ p$ 4% %r $* =} 3% $* 9% P# =^ G% *5 Z; (} /5 $& q^ |* {{ |{ S= `{ r6 |$ ;~ |{ }= B- K; x^ P* B] T] c< d! ZZ W5 ",
"Xb [{ *! E' m= w- C{ 3] 1* a] += 2) m{ g/ S# 0N C- q^ 9* u* Xk bU v& ;p 4$ {9 .& ,^ $$ v6 '6 *^ <% '6 7/ w3 #& +% =} H$ `% '% F' 4/ >/ $^ }5 L^ E% =< H$ J- 1/ [/ k/ 3] C6 E[ s{ 6- L% 1/ 8/ )> =< y% ~< &/ t! c< 8/  / h] N^ z7 a, G] /) p] 3! ^/ x^ @% W^ p) }/ U^ n] ,% =& I{ I{ `% z7 x^ `% P^ m] ~< i% t! V7 q^ /) x% =< y% U^ z; q: g$ >$ `} w3 n] x^ |] P^ c< += M^ k^ a9 ;% V7 x^ {{ += B] 9* x^ += U^ }/ B] N^ w^ d^ l] << p) 4/ A$ g] C* y] {! L% ,% %! V] v^ J^ 3] y{ 2] -% $% R5 C^ 6* G3 j% )] `Z ;8 !< si C{ @% u> a, I{ c/ ;% g] ./ |* H- 9S (! q2 y% i% B] B{ @/ x% U^ 8/ -/ N9 e2 {{ L% ./ !< g] P^  / |* ,% n] C{ q^ `* C9 J- n] 7* p| 7' y% @[ J8 c< I{ B] ;% m^ l% s$ >9 y% t! g] ;% >o #{ S& !^ In v% ;% ./ %! I{ /) w^ @[ |* q2 5] '% V7 u* $- w* 0* y% f/ P^ w^ L% =< _/ z* z7 |* C- I{ J^ %! x% c/ u* y{ x^ _% B{ ./ l] |< =& s$ %! w* 8= p{ ~^ 7& 04  ` 8/ 3] 2} '% p/ @/ q2 U^ 1/ ~< e2 ^) w^ p] 3! h] h* P^ @% ~< w^ `% P^ y% 8] g= y] $% w* =% 9* '= u* E^ += |* Ea `% #/ 8' q2 3] I- ,= ~/  / $% 3! V7 ,= u% h/ y- _% -% 3! J- /) ,= ~< <% s- hl J# *5 J3 [; w^ si ;% C{ B] Q^ ${ e2 i% i] x% q2 2} i] ^/ u% o% B{ !< s$ Q; 2] 8' Gh =l m3 =l 89 lv I^ u! .` l/ fx _v L; ;C FK -V bx !D /y  v +` @` 5F #` $` iD %` cX &` *` ~g =` -` 5Z ;` >` ,` kF 8F vI yx '` zz )` bv !` Ds 0O K] zb 5} 89 N9 S6 6' @% N9 A9 A9 J- 2] 8' D% D% h] S% E' &/ ]/ -p =< K) =< O% 0< !< t! ^) 4/ /% o% .% !< (< n% !< p$ `^ 0< Z^ B{ [] h) Z^ ~/ (! /$ ~] j% @$ E} H2 g] b^ X6  7 %o a$ K$ d% d% a$ >$ A& Z; 0% M9 J$ ep %! B{ '= D; D$ w3 i4 A< ~U c< w% ;) #/ <; a] A$ a] N* M6 Ju ",
"45 QG `* ./ 7' w* x% C{ %! w% i* ;- S; <% 89 va :% h% u* J^ A| iR '[ =p 4$ S& *^ +% S& =^ ^^ '6 {6 0% q[ *^ r$ +% p7 ${ -p ]/ Z^ '% F' *^ F' H$ 8/ <% ^) !< -% e% T% 7] A! P% p6 7= r6 += ${ @%  ! L^ 3o h] k/ L% y{ B{ ,% C- (! n% B{ _< 3! c< ./ U^ !< y% 7] d^ |{ @/ e2 2/ =< += t- 3] e2 S9 2] u* Bn 1/ S^ 5] u* N- 8/ L% %9 f/ L^ ]8 /7 0% :^ a{ :- t! K^ s$ ,% A$ g] L% U^ i% m] @/ _% v^ 2< C- b] n% |] ./ e2 U] ;% {{ D% L% 2} F' /) -% c> t! 2] @^ _% += B4 3! :% {{ U^ _% =% T] |{ :; Q2 rk &* ;6 T] ~` ${ P^ _% t! t] ./ Q; a, y] 5] ~< R5 B] 8/ 2} {{ i% '% 3] e% h] ,< |] |] U^ l] %! (! _% 3] 8< %! B{ C- |< @% B{ 3] t* {{ U^ m^ i] p] %! u* ,% a, d^ w^ _9 P^ %! w* 0* S^ S9 q^ x^ 5/ ,% {` ]` !6 n$ u5 C3 g= C{ @% l] w^ c< w^ w^ P^ {! p] |* 4/ C{ s$ @% v* ;% Wp L* w* B{ p) x^  / U^ A$ @/ j) o$ y% 5] E^ 5] `: 5] k^ w% E' |< c> += Y^ i% $& G7 r5 >$ ^% =< {{ 3! i% (< c< w^ ^) -% /) @/ B{ `% c< >% h] N- R* (& t! 1/ g7 ;% )< :% 0< D% S* s$ N- U^ ]/ ;% ,= 6l q^ y] U^ q] y] y] U^ w^ g] U^ w* 6* [t [/ m/ `^ |] :% ./ w^ m3 |{ ./ {! }/ c< {{ R; h{ X$ !& z2 ~^ C- ^) #/ ./ t! 4/ d^ m3 y% 2] ^) _) @/ q^ s$ D% ~< w* v% ${ w% 6' E' t! c> 2} %p Cz J- >% T] 99 .t .t Ds }u R] W- ^` @M Yu Gz =/ /` (` (G _` :` <` &G [` }` |` 4g 1` 2` 3` 4` 5` 6` 7` IZ 8` IZ [L Mz FW bv -V 9` VA sY i] 0` N9 _) {{ yl St 8' 7D u% <% N9 c> f/ %/ L^ q] a9 x% ${ J- %/ %/ @/ ^) (P <% L% <0 L% |] H$ u! w^ x> T% h^ F' %% R5 D% t% _% w^ s$ a> h) h% y$ I$ Nl '[ 4| mc 8' i$ %% q7 L& 3$ >$ o3 !6 &* ^6 S; r9 v5 o[ _M b] )! y] 8-  5 8} =] +e 5] %{ T^ K) {{ x^ p] N- w* |] t$ 0n ",
"E| P) e= %! i% i% p) 2* 0* H* m^ |> S; w3 d! ,- a, w% [{ j] L~ 37 X{ B2 s{ 0% s{ i$ 0{ $^ K$ _/ E$ $$ /% v$ c% ^% p$ Z^ w3 D% =< 2/ $^ +% S% 7/ a, L% p7 )<  ! ~/  ! o- /^ !^ ml Q= V7 g] Z^ d^ 3! W^ U^ m/  ! '% i% y% ^) =< :% g] C^ ~0 7* o^ s$ U^ @/ 8/ N- z7 $< 9* 2} y% |] |< Da =< P^ W^ U^ S^ 3] += L% B] w^ P^ =< Y^ 7* B] B] S^ O/ W$ .& .5 >5 m^ ,% z7 x% D% @% z7 k/ |< ;% P^ m^ P^ +a x> %{ h] y] B] -/ m3 s$ U^ $% B{ t- W^ |] s$ g] m^ z7 y% z9 t! _% tq y] #/ '9 u* J^ {* {{ F' ;p YS &* S3 xP 6' 46 J- $9 {{ S^ U^ 6* m/ g] s$ 6* P^ z7 0< B] {* I{ w* 8* {! p) I{ z7 w^ N- w^ w^ ,% m] I{ /) :% i] P^ {{ l] B] b] m] C{ V7 y] N* |] [t =< p] ;9 O* l] |< E' K) b] C{ c> B]  ! S^ B{ k^ 3! _- y: U6 t6 T& K$ k^ v> h] u* 0* += @% x^ x^ Q^ a] P^ t! U] %! 9a N- %! D^ m^ R5 x^ /* un B{ V7 t] R5 U] 5] B] Gh x^ =! 1* C{ @/ x% %! t^ a, m/ d= C3 *5 ~^ B7 9X ~< 3] g] x^ f/ m, W^ 8< 9a _% |] |] t! '/ x% W^ t! d^ ~< ~< {! W^ g] :% {* U^ B{ D% C- w^ I{ C* z7 %! @/ %! q^ f/ %! g] K* y] x^ s$ 5] += U^ |] y% R5 }5 k* g] |] b] s$ B] ;% h] c> =l x^ +% Ch C5 3$ Z{ F2 x] N- v* |/ l] #/ L% Q^ L] J- << +/ t! X^ `% t! |{ w{ (& C! += @% _< *! C{ 8] E' N9 N9 DU $V O^ Yu u! r2 Fu f] .` W] Bz +w  D !v a` b` c` d` ,c 4J e` bF zY f` g` h` i` j` k` l` EG }N |Y m` Pv yx jK n` EC A] .t }* ^N -z pu e] b, C! C] Uo o$ -% |< o] J- z7 X^ d^ ]/ N^ L% ~< |/ h] P^ S% 8/ >/ )< */ @/ F' O% !< _/ r6 g/ d^ >/ o% '% 8/ u* $9 8/ 4/ !< d^ L^ @% t% U= PP qc !^ 2% '| W: m% )/ 3% !% ^$ )6 @& v5 K$ g5 S; A! @] L< `: C{ G9 J- Z- W% n& :4 +f C* b] N- 3! X* 3! ,= ./ 6' x^ <7 vL ",
"IR 0] n] 5] ~> _= >0 {* _* w- >0 ]; Z; +% yh .m -% ]* m] a, l< ^9 .5 s} r5 '[ !% P% A[ i$ b$ S# 5$ S# P# L$ K$ 0% `^ `: !< 4/ u% b^ 6% (& ${ $< -% F' @/ E^ 1/ @% K$ ./ ;^ E[ :5 V= ]/ B{ $9 Bs =< w3 N^ |{ y] 4/ `: += y] +a z7 L% 1/ U^ |] m] |< ,% d^ W^ @/ q^ n] %! w- `% ./ B] @/ @/ x^ B] g] w- 5]  / (! k^ 7' i% ;% 3] |* Z^ u! 0< Bt w& ($ )% Y< ;- |< ;% w^ {{ a, s$ o% g] {{ x% m] 3! >% g] L% w^  /  / y] KO |] f/ {{ 5] 1/ @/ |{ w% ~< Q^ F^ ./ @% #/ x% C9 |{ 2] p) P^ H- U^ =; a{ !& s6 ~] RO f$ Y^ Q^ 5] y% t! m/ {{ a, p] B] x^ m^ k^ z7 y] p] W^ C- w^ J- u* N^ 3! i% k^ B4 x% m/ g] x^ t] %< U] t! ~< ;% C^ S9 _/ 0* m, 3! t! H- w^ ./ 3] C^ ;4 x^ J8 L% |* ;% =< 8' j] L% w% #% t] _% z7 K% p< >5 L< =^ L3 3- Q) 7' 2] ;% t! `^ 9* y% I{ r2 &/ C* z7 >/ D^ 1/ $- q^ {! ,= J^ g] C{ ./ 7* H6 =- ,= k^ /) u* %! _% (= $- 9* P^ a9 B{ w% J^ /] s4  5 nl >p L$ 3! 3] k^ V7 B] 3! |< 9a g] @% ;/ x^ d^ ./ E9 Q^ -% g] 2} |{ V7 1/ t! n] m] %! @% C! #/ ./ w] $% $- U^ ~0 w^ p^ a, t! 5] q2  ! ,% t! {{ t! 8/ P^ #/ d^ A6 i% ^) L^ 5] I{ c>  < @% &/ P^ l] Q^ i- |4 '[ -$ +5 m6 zr @/ y] >% $< |] X^ c> j] t! |] {{ C] c] @% |] |{ B{ _< :% m3 >/ Rt <u m3 D{ :% D{ N9 E7 O] >V I^ =/ K] 3} -V #M %p Bz 4C bx o` p` q` r` |Y s` vx 0i t` u` 2B v` w` x` y` z` (E GI Zb A` lA }K *v Fw Uu B` C` P] D` Rt NU K] O] 6' c> !< 6* (< @% /) `% ^% p| ~< m% L% W^ W^ ;% {{ $< <% `% `% u% <% 0< B[ !< |] 7/ O% L^ |] +% w] L^ N^ t! B[ E% h^ <M 7/ ^) /% F9 8' j= N4 '^ t{ V$ /4 E3  ! T% d% @& /^ b% S& (5 !& k{ 4s )% r$ w^ @% H- -% p, k& ^^ <^ #f p] 0* q^ %- y% c< -% 5] |{ m, x%  f ",
"QR =v k^ ./ P* t! 1* H- S' N* S^ U= S; )> ^) 0N h; l* m^ s$ Q! L8 G& -| +7 :$ 2% q% ]^ n& 3% D' 3% 0%  6 >^ ^^ $* d^ H$ !< 6% b^ $* e% S% ,< S% h] ${ :% `% =& u> b% w^ <6 t6 L& h= N^ g] '% t! I{ K^ J- B] t! 1/ =- I{ x% x^ ;% ~< '% 2/ B] 8/ N^ h] _% y% w^ ./ B[ #/ L% w^ p/ |< F' $% a, ;% x^ ,= '% L^ i% w^ U^ W^ += _% 7' 8/ B] y% %% k^ 8} #*  5 %1  = I- {{  ! n& r$ L% u* y] A$ C{ C- {{ A$ 8/ _% -% t! %/ $Q u* S% |] K^ @% #/ |* si ,= {{ )r 1/ /) :% >9 +9 L% z^ y% x% |{ S* l5 |^ J# s6 T2 &! |{ >< w* c] 5] E' =& #9 >/ x^ d< si 4/ 3! x% :% %! P^ $9 {{ }t P^ g] g] 1/ V* }5 w^ #/ ,= $% y% x^ A$ J8 A^ +9 z7 3] `^ w^ I{ &/ D^ 5] h< @/ M^ 7] @% P; w^ S9 U] B] t! 5] ~< p] s$ t- h] s$ q^ 8' b] 6% r7 }] T: [4 `m U* =! w% m^ u* _% O* $- ./ q^ U^ E` x% i% c] 2] y] P^ 8/ @% s$ D% @% v^ /) %! {! D% 3] @% -% m^ |{ 9* ,% J- z* h] w^ w% #3 2% z} h| 6! s$ ./ c> q^ W^ x% A6 L% 3] &/ :% ;% B] :% ,% += -% ,% 3! L% 3! <7 P^ y% I{ -% f/ 1/ f/ ,= `: w% u* L% g] _% |{ t! `^ 3] a, v> ./ P^ ,= m, m/ {! W^ L% @/ {{ w% I{ U] t! B{ |{ s$ !< |] ./ w^ N- Y^ SD y: s{ .* E3 $- U^ 7' d^ w^ d: x^ 0{ 3] v> -% =< ./ x% /) %! d^ @% |< j$ B{ C] L% X^ E' kr ^* 6' C] +/ Rt N9 M^ %p !D Tu 9z +/ UI bv [u Tv Cr ]H F` {E vw G` H` I` J` K` hg L` M` N` O` P` $H aY Q` ]y vX Xu R` CV 3C ou xW UI zU .t S` 1s $/ ,/ M^ kr -%  ! (% ${ t! B] yl D% %{ Z^ [] =< @/ _/ 1/ L% =< F' L% S% )> ${ @% p] #& O% @% E% 7/ h] p7 (& O% %^ m% <% =& b^ L% Q; !< !/ Z^ _- T` P# ]% :$ x3 :2 g/ D' 06 .& I$ ~$ G& {6  > D' |[ ^% {J D* R5 |< ,- j5 Q# F# nR $- S* 0* 2] x* q^ {{ {{ a9 S^ /% >B ",
"s> O; J* A- |9 {* B- w% w% ,% 3] [= f{ B# /% nO f/ S' ./ &/ m~ Md )^ A2 .& -$ Z$ A5 >6 n% E$ Q% i$ e$ P# h/ b$ (< =& L^ S% ${ =< 7/ p7 4/ _% h^ ./ C[ h] x% $< x% /^ &q =} )% V$ p; </ U^ o> t! 8/ f/ #/ O% m] t! x^ =& 3] N- C^ 1/ z9 a, w^ P^ C9 n% g] /) d^ x^ 7' x^ q[ 4/  ! x% h] K^ D% S^ |{ h% +% @% L% -% ~< |] B] -/ ${ += |{ I{ |* U` V` n$ n$ s} G4 B{ u* Gh q^ t! ~* I{ ~< U^ a, E9 m] m] p) I{ u! ;% B{ x^ @% y% K) @% p^ <% t] ./ 2] >9 g] ,= y] P^ Z^ ${ -% l% y% A$ l] [; S3 ~^ o6 F} x8 c> =- b] &/ /) P^ x% k^ %! S^ Y^ 7] V7 x% P^ N- }/ N- N^ o> P^ o% P^ q^ |{ {! @/ -% i% @[ O% i% y% U^ 7k S) =< t! n] w^ y] _% y% |{ /) t- p> P^ 3! 3! z7 1/ fk @% g] 7] C{ I{ E^ x^ &/ 3! N- x^ s$ p) x^ W` b{ d% (5 b2 =9 q^ E' |* A$ |] m^ _= U^ _< {* 1/ a] 5] L% v^ |* N- I{ v^ B] =& @% d! K^ q^ B] L% q2 s$ f/ A$ d9 3! w^ `^ %! L] Xo M* H! Z{ )4 3^ `o a, j] B] q2 |{ x^ |] U^ c> C- _% P^ }5 u* D^ 2] ,= 8' B] ./ _% q] N^ &/ m^ U^ %! X^ U^ C- ]/ }/ =< ;% -% =< y% b] 3] si s$ -% z^ ;9 d< U* m/ q] p) }/ B{ c< p2 _% m] !/ n] >9 x% 3] w^ w- p] d^ =! y] O% h^ A& !& V4 O| q* B{ @% t! j] W^ a] 3[ :% (& 8] =< /* Z^ @% F' L% 3! ;4 B{ /) 2] += ){ +/ BC :% v% _< m3 D- >/ =/ }* Y9 UI gw WU /u 5L Sv X` c` BD Y` Z` G` bL `` ox   .. .+ .@ .# .$ .% .& .* .NG -E uw Lh -x wG ou ^M JE UI WY  w cu 89 E7 /) =l E6 >/ >% @/ {{ w^ h] %! 2] 4/ h]  ! 99 !< D%  ! Z^ t% d! s$ ^^ D% _/ '9 !< h] $< 2} $< -/ O% l% $< d^ D% e% -/ t! g/ E% >9 O% h] }/ u% /> J/ :$ Z{ @* d3 U| w3 .& v4 Q% %] ,^ =]  > /^ :5 v7 f% dO J- E' Z- %5 i$ /] [q |< w% y] u* 7* K* /) i% w% n] 7r :F ",
";7 -u [= += y] 9* N- =! }= {* ek I= S; @& d% rp g] A$ 5]  < P! 47 z} #4 =^ q% b% Z$ E$ Z$  7 3% V6 r$ b^ -& #< K$ w3 r$ T% D% @/ `% *< 5$ =% !/ 7/ r$ A6 P^ U^ |] v$ ./ `$ ;] .! u= ${ '= w] q]  < S% 2] !< U^ 0<  ! F% m] B{ o% -% |{ z7 w^ =! 1/ ]< q^ g] g] |< #/ -% S9 _% h] B] k/ w^ a9 h] 3! %! x^ a9 p7 5] q^ 3! c> t! B] w* m- 0< _/ ;* Xk #* s{ Z{ f{ ^= 2} << U^ p/ L% `* ,= x^ y] -% += m] @% ./ Z^ s$ |] `% $- y% {! 2] 3] Gh ./ D{ x% !< B] G4 x% g] x^ N- B] |] q^ B{ D* Y2 () n$ X< 2% q^ x% ./ `% i% x% l] ~/ =& |* `^ c< u* Q; N- C- O% S) E' $9 U^ >/ k^ y% /w U^ e2 w^ x% t! 1/ q2 -% |] _% :% y^ A$ x^  ! '% N% z9 x^ g] %! w* 3] B- 6/ h] M% =< W^ j] b9 `: x^ p] 5] d^ x^ t! q^ 8] V] Y^ ./ -* R[ K# [$ X# D2 _= N- -% u* 5] F' x^ -% t- t! O* @/ Da ]/ g] z^ p] B] p) E' p] m^ x^ y] {! << -/ q2 x^ 3] q- $% r^ N- a9 u> B] t! -* }| A& E$ m- g: 3] u> v* 6* %/ KO %! x% %< a, w^ n% g] N- %{ k^ ,= g< B] 6! =% o^ C{ }/ %! B] |] t! P; 2] j] _9 w^ 3! $% ;% x% 2} p] ]/ g] x% E' @/ t! 7k g] B] /) %! I{  < 5] B] x> K) d^ d^ z7 7' |< B{ J- P^ b] /) ./ s9 Y2 2% n$ 5^ .^ |] a] B] p] 6! m] D{ !< w^ `% t! y% ~< @% y% w^ {{ += s$ B{ C{ ,/ kt @/ O] kr =/ +/ f] =9 4} 4a =z  w Gw Yu UI {G !v 8v = .- .; .> ., .iD kC ' .) .! .2B ~ .{ .] .^ ./ .( .|C _ .nx $D 'v eE : .Yz 6} PD Wd Uo W] Sv J- xX 8' N9 0< N9  ! _/ (7 ${ t! )> d^ _7 @/ w^ Z^ |] <% F' <% f/ <% z7 D% }/ +% M% 1/ >/ j$ l% A6 P: 6l ]/ t! x% h/ S% @/ /[ P^ <% >9 0< ]/ 8< ]< j$ < .I} [7 :5 G5 Q} S2 `$ th ~^ )] J# *] W; M! w5 K$ [ .h% E9 C] _! e5 3% )^ >o n* x^ Y* Y^ 9* 7* 3! Y* =! y] c% >B ",
"jq S] <; 3! z{ += P* v> {{ C{ S9 ~- S; $^ A6 #) p] Y* >0 I{ l< ^9 C5 S2 W$ f$ 5% 0% s{ 3% <a Fq S# (< /% w3 P% w3 S% .% r$ t% n& r3 a, *< #& l% ${ O% =< %< $* w3 L$ 9* {q )^ `[ zs |] [/ -% R^ 2} g] &/ C[ }5 '% /) `% >% !< I{ ;% _% T] a, ^/ 7/ =< C9 5] 7* p) `% |{ ]/ -* {! t! B] N^ !< w^  < @[ a, :% B] x^ d9 `% %! y% 7* n] g= p] *9 m/ == g2 ]^ P# } .L! S% d^ U* B] 0* V* 3] 0* E* _< {* 5] ~* k* (! O= t* v- z= (* A- r- q* *; Z- A= (! h; d= z- C= u= {* )- b= b= m= Z- Q; m} f$ F& | .]s t$ p^ i% x^ |* d9 ,% !< %! %! w^ ;% a, (& A6 B{ -% %! J^ {{ n] u* @/ q^ ;/ o] {{ E' _} |{ %! o% i% c< q^ L^ ./ w^ t! a, c> q^ m= }5 i% += w* P^ w% 3] x^ k^ w^ 1/ o% 8<  < u* 9* =< I{ %{ {! |] w^ x^ %9 w% S^ 1 .h| 7% W$ qM x- C{ (! .t U* N- S9 T] `* 0* 3] 2] L] C{ a] A= 1* '= t* p) t* += .= t* q) L= P* P* %! (* 1] Y* f! J^ w% q^ V* r2 #3 -$ V$ S; a8 G- B] ./ ,% `^ d^ 5] 4/ |] a, @/ /) |{ :% J^ m^ W^ I{ s$ x% U^ d^ B] g/ U] #% U] t] P; I{ m, K) m% &/ C^ J- x^ %! V7 e2 p) 3! U^ h] 2] B] x% u* @/ @% a, {! t! |] a, x^ @/ x% 5] 7' %! 1/ >/ %< L] /) I{ 7' P; }> G5 Z{ &* J< |* -% J- -% l/ `^ x^ (& x^ y] x^ t$ -% g] Z^ ,= B] !< t^ N] /) X^ X^ t^ /) _v M^ b, 6! =Y 4} +/ )! +/ nu 4} tv 2 .3C (M 3 .4 .eM WG 5 .6 .rL 7 .rE 8 .~g 9 .0 .a .b .5I c .d .jE e .;I Xw ;I (M f .1K K] Rt C] d] $V _< Y9 q] N9 // 6/ A9 x% |{ =< a, /) L^ D% (< L% 3] `% 7' t! !< q2 %/ r$ l% +% u% ${ q[ /% >% 7/ S% `% 7/ )> h^ P^ +% z7 S% ^) ]/ m% -/ O% <% o% Z^ Z^ (< e) c| q5 n$ =^ 3| e3 F' >$ 4% X$ !& S; 7p No $^ G$ p) P^ -/ g .y[ Q% N& L~ m= -% ,= J^ {! w^ B] w% :% a, @/ qA ",
"Bl 6v =! u* S^ K* w* 0* ./ N* W^ y' S; A! ^) O~ m] G- 8] q^ bB 4U Z{ Tk s{ Z{ A& H$ s{ Q% n[ c$ >^ VK b^ O% <0 $* %% ]/ l% +% r3 /% `$ D% /} `% %< l% $< _% |< `% T% 5] 0{ >$ i5 5* $* -% U^ x% @% !< N^ |{ ,< z7 _% y] U^ (! ./ A$ a, h] ${ B] s$ }/ x% @/ U^ a, z7 B{ q^ B] t! f/ d^ ./ N^ I{ |] d^ c] @/ += b] v^ E' @/ f/ y]  / 2} a9 K^ Q^ E9 wC 04 2% .5 5^ 43 p{ d{ c{ S; b{ Z; Z; U; a{ V; >> c{ >> S; V; V; g{ g{ Z; c{ c{ c{ o{ +> >> c^ S; p{ Z; Kt Z; c{ >> q{ V;  >  > x| {^ &* |% hQ 0% G4 q^ 7' z7 g] t! G4 ./ S^ c>  ! si Q^ S^ N^ += =& H- ~< s$ J- f/ o% y% y% @% ,= 2] m] |] x% U^ U^ q^ w^ s$ a, ^/ k^ =< f] x^ A$ S^ U^ {* 2} 8] x% #/ Z^ q2 i% j$ B{ q^ E' z7 w- x% s$ D% K^ l] +9 B] w^ Z^ $9 S% N! n: %] $5 C| q{ >> H! f{ n{ ]{ a{ #{ +>  > b{ c^ c^ >> e{ >> G2 k{ c^ >> p{ G2  > a{  > e{ E2 x/  > Y< L2  > %3 x/ ~[ b{ *3 z} ~^ g& <S y6 2] o> 5] :% :% i% y% @% #/ z7 ]/ 0< B] U^ 2} `: K* @% k^ U^ w% U^ q^ y] a[ K^ 9* A$ W^ N^ W^ @% 4] q2 B{ x^ !< N^ R5 FE L^ n% P^ P^ K^ L^ i% /) L] >/ S% q[ x^ x% B{ (! u% += O% 2} =< _% W^ B] P^ 6] I{ ,= 2] .~ dl 17 F& b4 ,[ V* u$ 1* Q^ `% tq t! p) j$ -/ |] Q^ $< t! >% q] >/ b] o] m3 7D w^ I^ Y9 V^ Uo $V Rv m3 C] kr cv =l D{ +w RA W] h .{c i .j .k .r` l .* .m .!i n .o .2B p .q .r .s .Vz t .1x ~c u .4N LE dx zy Bz ~q du JE S6 kr x> p| X^ z6 aZ I^ c> D% t% E6 $< ^) c% 6/ w^ `% 6* %9 |] @/ w^ !< W^ 4/ x% (& '% =} 4/ 4/ `: n& c% 6! $* Y9 g/ p7 <% #/ H$ z7 <% #/ t!  6 ^% S# |/ |< z7  ! 5$ ); *> V$ $5 !& j3 c^ [] ~] 7& :$ S; I$ mq $& `% h* o- y% ]- g5 _[ >5 e! U* y- m/ w* /) x^ #/ %! 3] i% T6 op ",
"7C s| c< 5] 0* P* H- += |* y% p- }; S; o3 */ .{ ;% C{ 0* H- er s5 f5  4 j% '[ e7 0% a$ W$ P% [< $^ r6 o% [/ u% K{ r$ r$ '% O% $9 :v W^ M^ k^ 3! *< s$ 2/ K^ =< ]< d/ d9 /[ >$ !6 y' <% _% w^ >/ >9 $< (< U^ P; c> ;% A$  / y% a, %< B[ m] /) C[ t% c> ~! f/ g] B{  ! C{ |{ s$ _% c> C^ ~< g% L^ :% @/ w- un !< }< M% p^ |{ =& s$ w- br %! 1/ B] |* c> ,< .$ Q# :$ 1$ F& &$ &] '[ {} j% ($ Y# <$ &* g& g& K# g& &* )^ .* ]& E4 *6 '[ Z{ .* v5 '[ )^ -$ v4 ~^ j% '[ (5 3$ Z{ ~] '[ Z{ -$ -$ V4 )3 uv ,= q^ g] g] l] @[ q^ ^) P^ N- %! w^ @/ N- <% u* #/ a, z7 4] l] g] k^ :< ;% >% t! q^ ./  < 3] y% z7 x> #/ v* :% U^ // 5] 3] x^ Y^ U^ S9 m^ I{ I{  ! R^ @% %! ./ _% V7 I{ q^ y] 3] r2 ;% C* *! 8/ y] ./ D^ m] x^ t- k^ 6; 3| n5 r5 #* K% X6 7$ P# ~% s{ ^$ W$ r5 ~^ G$ o[ >$ d% j% qc =^ }] Q# Q# X$ v5 {9 s6 @$ .& )% 3$ [^ Z{ V$ ~^ ($ '[ !6 X# !& }] Q# 44 ;% y] XM x% =L B^ m/ P^ E' ~< L% C{ U^ {{ V7 1/ v^ h] y] $- g] %! y% B] ./ x^ U] >< m] K* !< 3] ./  / 3! ./ w^ ;% B] U^ $% U^ 2] s$ Z^ w- 3] 7* 0< 8/ 2] =<  < }5 q^ D% 3! }5 ;% L% ,= 3] 3[ U^ z7 h] 2] 3] B{ 5] {{ ~^ '7 D} j& #* D3 K* m, $< 8/ @% ./ B{ t! w* v^ -% 6! S6 _9 {{ H- (& u! u* 89 t* R% C{ QW V] cu c> H] e9 I^ N9 Fz D{ gw !D bv W* DV 5y v .w .x .x .OW y .z .vx 7Z A .B .GV C .D .E .F .`X UH 8F Q` Fw Xz PD (X PD /u C` i] IU Y9 cu (% ^/ <u ;% ~< f/ :% `% h] =< :< A9 $< ;4 !/ x% t! p] :% l% x^ `% a, n% %/ =< t% yl (< Qq ]< l% $* t% P; =< #9 u$ [] @/ Z^ 8' h] h] =< =< L^ #& 5$ #< Q% T% >[ G .{[ %] v& ]& 4^ 5! j% ]% .5 Z; ^^ 'n /% Qq H* {{ ,= == H& ,[ !]  t p) 5] C* %; s$ i] ,= -% E' O[ 0/ .e ",
"2! Q- l) S^ g] 6* x% `* o> P= x^ B' S; +6 Z^ (; p] '= J] m/ Xk rc e5 {[ !6 d% Q9 i$ .& q% `6 o$ H$ 7/ )> K% .^ a> r$ &/ ;9 n% _% =& 1/ #/ =& A6 z7 @/ &/ F' P; ;% l% C{ K$ *6 B# e= *& 3! x% 4/ m] m] y% w^ g] 3! I{ x% w- s$ |{ P^ x^ 6/ p] s$ ./ A$ B] >/ 2] 7/ =< C{ y] h] w^ S% I{ y% 6' 3] >9 `% y% 0< @% t] _% B] ^* x^ S% U^ D* _% C# [* F^ S] F2 F& n$ q% >^ qc ,/ C[ p| u! V] C! L6 E{ x> r2 r2 4} _7 8' ^) j$ [] )> F6 r3 L% 8' %/ n& K9 `$ ^^ *& :6 yh ^% [] O% I6 /% o3 V$ :$ (5 !! w- d^ Z^ U^ d^ f/ $- 6' +9 U^ w^ 5] S9 4/ %! ./ C{ 3! B{ |] v% @% 2} m] =< M% t! x^ 3] :% $9 H* !< :% U* a9 @% t! _% o- x^ 2] t- m^ B{ $% E' @/ |{ += ,= {! B] @% $9 q] {{ a, I{ {{ V] += p] u% ;% U^ x^ p^ 5] f/ =< ~< N# )5 '& q5 /% b^ /} .^ f2 o$ J7 L% h] 6'  6 K) )> ^/ 0/ B] J6 ^% M6 7% F- t3 p% t$ g7 +% Z$ !% E% ${ r3 Q6 (} =} E$ J) ;] )% -^ m5 )] H2 7' C{ si 5] L% S^ I{ {{ U^ }5 i% B] x% {{ _% #/ z7 Z^ 1/ t^ {! 2} &/ %! g] 3! ^% y% Q) J^ @% ./ w^ ./ jT 4/ w^ *< B{ 2] _% ./ B] @/ d^ #/ A6 c> i% C- x% z7 ,= j$ t! 4/ ,% $< y] f/ B{ q2 g] J- 8] 3! 4/ @/ n] W^ += A6 =5 >$ *& `2 Y* q^ Q; z7 #/ D{ t! #/ x^ u! %! a, 6/ &/ j$ f] S% u> N^ u! =l j$ E{ XM Rt +/ J] _) o] <7 4< Ds _v _v `u RU Tv MF 1C H .I .6A J .*H ^X K .L .M .N .~g O .P .Q .R .S .UH oK ax {L }x 0b 6G 5y Gu WU f] f] %p o] =l q] Y9 /) a> T] y% Z^ _7 ~< f/ O% _% L% B] =< a, `^ s$ d^ $< |] ${ A6 j$ 1/ l% S% t! @/ `% H$ W^ #< #/ N9 F' :< !< -* O% 0{ `% @/ e% :% u% p$ [/  6 c% D% S% l% $$ l' y: -$ Ml E5 d3 S< S# -$ S; No 87 S& k^ O* A- D^ -- ,] <% /] '7 |{ m^ V* R5 1/ I{ L% ~! -% U] [] !} ",
"QR }* E9 u* H- ./ m= J^ N* p) K* KR k{ 7/ /% L: o^ V7 ]* a, P~ g3 L8 !! :^ j% ^^ )% h^ %% Q% e$ '6 K% r3 |/ $< w3 A[ [/ D% $% p7 /% m] d^ <% v$ Z^ U^ // ^/ L% o- `$ B{ ;^ }] M! G; h^ $% d^ J- L^ %! |] '% L% >/ |< `% S^ w% i% -% =< KO t% o^ t! P^ h] N^ U^ L% L% z^ t! s$ g] #/ !< q^ L% h] '% I{ &/ ,= S% K^ @%  ! @/ t! {! ;% %! U^ 2} ./ p^ '^ i3 `6 W$ k$ ># T .U .V .W .R. =. X .Y .Z .` .,@  ..!7 V .FT ...Y@ +..A  0T Hx m@ @..^R #..$..%..E+ &..*..z! =..-..!7 ;..{( >..P2 .& .& |4 8' =! ,% 6! }5 2] &/ M% |< j$ o- I{ f/ t] y% 8/ `: k^ 2} 6! `^ |] U] a, )> W^ s$ k^ =< += |] x^ N- V* =& |{ n] Q^ t! m, Bn 3] q^ x^ y% N- w% /) Y* N- %{ w% ~< D% n] c< 7' u* k^ y] {! D{ |< B{ N- C- 9* =! |* w* g] O= a{ L& &] 83 r  ,..6. ]R '..).. y r@ WT !..;@ U+ ~..', [W {..]..^..V@ <W -..5( CT /..=. X, X, Q@ v( m@ (.._..:..=# 4. <..I> CE Q# .& }$ i4 I8 3] p] E^ U^ Q^ x% P^ m] K^ @/ 2] B{ |9 g] %9 j] -% M% g/ z7 i% 2] !< S% 0* +a 4/ Y^ I{ L^ O% p] U^ 0< %{ _% a, @/ K^ @% K^ e2 g] 4] U^ 3] t! :% t! U^ @% 7' g] y{  / L% W^ @% k^ c> ;% `^ $% @% m/ w^ B] J^ S^ q/ R3 E[ Y# z} l* k^ P^ x^ A$ /) g] S9 w^ /) U^ U^ $% y% @% {{ t! w^ nb |{ c> ,/ S* A9 6! 5} P] K^ `' +/ Cs iO IU K] ;z -z  D VA ~w FK XY [..YY 'C 'c }..|..#H 5J 1..OY 2..3..4..5..gN 6..*x 7..(z _j Hw Ta UI gw 1s Sv Rv A= N9 L] J- E7 <{ (& ~< m3 ;% g/ ^) !< :% c> <% f/ %9 @/ b^ x% Z^ 8' Z^ =< L% i$ =< e% %{ O% d^ `% Q% t! %{ o% `% p$ n% S% d! d! ]/ ]/ a, !< N^ 7/ !< S# &/ 7/ 5$ _% G6 $* L& _> sZ :] :$ @5 `} <3 uJ S; 5% W6 .^ ;9 U* L% 0* .m r% '6 Z{ `c O= @% s$ x- m, P^ {{ |{ i% =! P: op ",
"n| k; N* p) v^ S^ |{ s- w* g= S^ Y- S; ia X6 2Y |* u* 9* V7 .9 g3 (5 K| ;6 ql -& ,[ M! f2 K[ <6 -* '% y6 r$ r$ S% A[ c$ .( _% =& %9 D% w^ ;9 !/ >/ c% 4/ g] d^ +% 7/ y- p6 '[ M! I; j$ t! C* ]/ B] L% U^ &/ @% t] $< v* Q^ `% %! (& U^ &/ =& 0< _% y] L% t! w] O% A6 3!  ! P^ /) :% 2} m% I{ =& B{ @% B{ }/ x^ }5 6/ `% C{ Q^ !< x% v> 2] `^ q] =9 Q2 z} ($ _3 8..G% X# m5 }$ *$ rb h: {% ]$ :[ I/ J# 5& K/ N& i7 V# I/ I/ j% ($ G% ~% ~% ~$ z% E5 N4 {^ _$ ,& &$ 7$ m5 U$ G# Y$ [% x~ 1[ *] g&  > )- B- ep f/ s$ c> << 3! A6 J^ x% $9 m/ a] `: V* a9 _% B] -% ~/ B{ += x% h] 6* N- I{ q] @% 3! z7 p] w- 6! 7' =< y] B] y% @% u> w3 Q^ u> _% q^ B] 9* $% J- P^ t^ 7' `: t] !< A$ 3! @% B] U^ 3! 46 t! {! (* @% HY =! 04 y) 7! c} !G x& ,& y$ %r j% .* 7& L$ !5 V# <& ;& m5 PH 0$ {$ V& v, r% P& P& C$ U# 8& G& {$ _4 ;& 95 J# <& F# .] S: c' ~$ O# 4% J# A& 3$ k& e3 =! P^ U^ :% |] u* 3! B] w- ]/ B{ S^ z7 a] @% B] w^ C{ {{ -% 8/ `% 5] B]  < B{ #/ B] q^ o> N- B] w^ I{ x% 6l i% @/ A$ Q' _% h] c> D^ <n m3 3] 4/ q2 x% '9 z7 |] @^ @%  ! d! N- #/ -% s$ &/ ;% d^ z7 :% z7 B{ |* v4 y} '[ )% 7O An 6* A$ w^ |] m/ @/ E] m] P^ C- i% o> m% z7 >/ w^ <; c> w{ p) V] p) b] B{ N9 <7 Y9 =Y L] Uo h] 9..1s C] 1K QA : .tv 9B 0..a..dD b..rD  M uX c..d..e..4g f..g..h..i..FA j..nG vz vX DV bx 4O Xz wG cu DU S* cu XU =P i] t! c> J- >/ j$ x% ~< x% L% n% L% 2} ^) +% f9 x% s$ +% #/ w^ =< 7/ 0< 6l L^ Z^ S% g/ _% `^ w^ x% ${ |] 6% ${ t% O% l% Z^ ${ n% (< w3 [] %/ p7 d^ `% )> -* p7 3% Q9 |P D; ~7 -$ X$ B& M} k3 S; zo |[ /} z7 I* 8' c> L- 1| b^ v} 0H G4 b] |* 6! 7' -% ;% }= _* y] E6 op ",
"5D 3{ ;) {{ u* {{ g] 1* ./ v) _= ;- g{ #& o3 k..7* m= C= >9 .9 u5 a$ !! u6 a> '6 ;* 3% 9% 3% t% g/ d% l% o[ f$ D% '% V7 F% @/ _% `$ #/ @% d^ Z^ k/ !< +% B] d^ Z^ 3% ;) X6 j% Y& q* q% Do +9 L% %< W^ x% B] ;% @% B{ B{ <% a, g] w^ y% N^ @/ y% @% z7 %{  ! a] &/ s$ {{ `^ Q^ N^ L^ B{ U^ y% 3! m^ |] z7 z7 g/ {! #9 Gh t- B] =< 5] 1/ z7 x^ x^ Z' +5 (5 V$ Pm *f Y^ l..w^ `: I{ c> U^ {{ |] _q w^ K^ 3! /) ~< += 7] n- l% U^ U^ 2] Q^ B{ a, ~< ;% 2} {* t! C{ P^ f/ c> l] v> g] 2] /> 6^ !6 A& V4 U{ p) 2] y] E' :% L^ |{ P^ w^ t! z7 @/ x^ += x^ U^ U^ 3! '% E^ b/ Q^ @% L% 2} 7] m/ ,%  / #/ _% C- C* 3! a, t- p) R5 t* bo x^ N- B] |* q^ .} 9* 3] 7' m] e% 2] 3! R5 I{ 3] m, q^ 3] x% z7 B{ ]/ $- P^ S9 $9 9* ^) N3 &* -$ <& S= T] q2 y] :% ./ d9 =% @% U^ L^ 1/ @/ ./ a, B] C] |{ k^ t] @/ ,% v% C* l] 1/ 8/ U^ J- C{ z7 ~< J- B{ 2] H6 S% 3[ y] m..n..Q# ca N} <7 o> ./ 7* S^ t! Y* %! B] P^ L% 2] += W^ /) C] @% P^ c] x> 6! @/ U^ B] x^ P^  ! a, M% x% ;4 M% x^ ;/ Bn z7 x% S^ B] x% &/ N^ A9 {! :< B] ;% h] c] %! x^ Z^ 5] 8< Z^ C^ C- ./ %! U^ j$ 6* /) 1< @/ += B] e2 p] D3 ,^ Y# |7 O4 R& @/ C{ D% e2 X^ 3! !< C* q^ z7 2] u> =< E^ 2] :% y% x^ y] X^ y] J- >% v% C! M^ 1s zU /u 1O P] +/ 99 aB DU o..p..fx -z q..r..IK (B EM s..Ay t..:L u..2B v..w..x..y..z..A..(Z -W Nz 8z =V QA cx 9z kr e] =l J- D{ cv K] nb 6} Rt {/ R^ Z^ c> >/ += c> @/  ! @/ ~< m3 L% R^ `% l% !< @/ (< T% 8/ d^ w3 O% o3 c> L% un w3 U% W^ O% 4/ 2} >9 B..e2 L% o% :%  ! (< 0/ |] %% B[ ^) l% (< =& r$ 3% >$ R= 3| :$ |% X{ ]5 Z; c6 +7 E$ t! }= 5] (! <q Z{ 4% b4 v< (! l% |{ J* S^ K* 5] F^ C* n% r$ NX ",
"jq Nu a] R* S* ;/ m- -[ U^ 7' {* ~- S; Q% D% @) 2} %- y] =! 1~ nk G5 F3 u5 4% V$ -& 4% D' >^ $$ L6 w3 F% c$ $< D% K$ Q% N^ ${ O% /% ${ $* ${ x% 8' L% R% B] !< h] 0/ y- .g f5 :5 z= 9% H- h] q^ $9 A6 x% 2}  ! f/ !< ;% -/ ~< 7' $< L% |] q2 2} %9 {{ !< W^ p^ 0< $9 c> $9 |] B] 0< m] 3! 8' 4/ |] c> }5 I{ 5] (& N^ B{ a, 7* e% x^ B] 5] 6! p) Tk )] 17 :3 L[ d^ &/ C{ 0< -% J- 8< 2} 0* 1/ -% (! @% E' p] k/ 0< B] D% U^ |* 3o B] +9 P^ += c< {! t! y] |] y% g] m^ J] !< :< x{ >/ p2 s< 64 1[ S& L) O- Ep U* ;% I{ 3! s$ 6' ]/  < w^ P^ L%  / W^ =< |* w^ S^ y] g] z7 x^ @% x% 3! x% C{ ;9 s^ V* u* M^ U^ 9a x^ S% @/ ;% 2] t! ./ |* 2] 1/ y] -% w{ +[ x^ Y^ N9 6] A$ l] I{ 5] @% {{ W^ @% g] q^ S^ C{ 2] 0< S* H2 {% 1[ /4 A8 0< += B] U^ N- r2 U^ ${ 6* x^  ! @/ &/ {! #& ;% a, $< x% ~< B{ m] a, -% 3! ,= 1/ P^ 6' N* T] s$ t! Q; c> I{ U^ 8' ^) p7 c> (} 3$ A& G3 {* m, y] u% 7] s$ A- B] @% R5 J- 7* E' C{ Gh G9 C{ y] 5] t- E^ << o% m/ 2} =< $% @/ y] Bn /) |] x% B] B{ x^ :% |< z7 m/ n] l] h] N^ ~< += @^ &/ P^ C{ 7* '= @^ #/ P^ 7* @% v^ #/ |{ y] B] U^ i% |] {{ H' K| !& Nl V$ Y$ u* G4 m] o% 7] 8/ E% <u a, 1/ G4 x% x% 3! I{ &/ ~< h] u! #/ -% %p >/ Uo G- }* u% v> J- _v _v r] .` X^ .t /u ;C ]G ex CJ C..D..hC E..> .|Y 'Z A..F..G..H..~g I..J..K..L..%D M..,c !C Mz nF eZ ou ;z ;C sY VU f] J- 7' {/ l/ >% >% oF (7 _/ 6' += K^ ,= L] =& :% J- =< z7 B] 7] -/ D% B] 0< A6 0< 2} d^ d^ ~< A6 '% i% ;% 1/ &/ ]/ _/ F' D% !< H$ t! K$ `% N^ h) 2] 6l D% /% @& c$ w3 r$ i$ ${ D% !^ /^ [= x2 )^ U: /] Z; A! jc /^ Wf <* w- :% @~ >5 0/ i3 yS o> h% *! += y] H* p> p] J8 N* b, N..",
":M %t k^ t* R* B* .- w= (! 7' V* G= S; ,< !< .{ -/ >= r$ !< O..W6 )] !! (} g& n[ !% b^ .! ]< 0/ $< N^ '% =% 3% _/ 7/ 7p 0/ %< $^ S% O% k/ :% !< e2 h^ ${ w{ i% 8/ $< h] v6 _^ #* M- L% Q^ N- Q; W^ h] 9/ %! ${ '9 3! u> Z^ 6/ 3! Q^ t- 4/ v> h] :< w^ |] 05 t- @% 4/ x% 3] =< a, j$ g] K^ $< I{ {{ ./ `% {{ @% >/ Q; B{ `% -% 2} p] x% += :* Z| .$ t{ S} P..`6 u> 8/ W^ :< 5] P; m^ m, !< t] 2] u! |] 3! t* m, S9 g] C{ `: C{ f/ m^ 3! a[ d! ~< $% 3] N- 7' |]  / a, K) ,= x^ <; A$ {{ .% +% *& &* *5 H3 *= B] V] I{ A$ p] m^ 2} ${ W^ s$ 2} :% 2} p] =< B]  ! >/ w% U^ x% W^ ~< ^) !< y] |{ 4/ ;%  < #9 w^ t! `: /* B] d^ w- $9 y] @[ U^ V7 V] o> g] H- ^) /* N- =< =- C^ m^ P^ z7 w^ ;% _% x^ |] w- |] 3] 2] S& d} .& L& +; d% 1* C* m^ ,% w- 5] 6! m, q2 B] :% y] x% 0< += m% u* N- 3! 2< /* I{ w- i% H* y] |* _% f* )> K) e2 ,% z7 5] L% J- q^ K) m] cq S2 :$ X$ :t >^ =! x% A- 6* |{ )/ {! @% m^ P^ =< ,% x^ U^ |] P^ B] D^ @/ 2} _q g] B] 1/ k^ %9 x% !< I{ y% |] v^ /) ;% B] w^ x^ y% U^ ~< E' 2} ;% %! q2 ZO c> `^ ;% [t Q^ ;/ S^ ]/ P^ i% i] |* 3! `^ K^ w^ |* 6! |* 0/ J5 GQ !& ,3 eq w^ 5] :% >/ %! &/ $9 p] Q^ |* y% Q^ ~< E] 6' B{ {{ @/ u* J] -% J- |< u| u> B] ~< t! u! K) E6 P] A] _v _v d] gw Bz Q..Sv 1C +t WJ R..S..T..U..ZG 4E V..W..X..Y..Z..`.. +.+J +M nG iV `J .+.MF nu )` ;C r2 -z N9 /o -% Uo 8< @/ ~< !/ S% :% 6* c> d^ qU 0< S% U^ @/ ^) S^ d^ p^ W^ 6' |] (< +% o3 ]< L^ `% `% -/ p7 !< Z^ I{ n% 2} F' _% p2 k/ E% +% >/ B[ 7/ )> p2 8' l% <% n& (< L^ A6 F' $^ W$ l& d% {^ {* ;5 !& @$ b{ -^ ,6 y6 U^ B] -% 6* P= X{ d% H& n< u* '= J- 3] <* a- B{ 7* 9* z7  ! Iw ",
"+A r- 5] {* I{ I* |* K* E* B] K* G; S; '^ B6 Y) ,% u* 46 %! D~ tc 3$ *o !6 s{ '6 J6 $* ^^ q% <0 a> D% 6/ %< <% !< O% @/ u% h] Z^ $* <% L^ I{ $% [] $& Z^ 1/  ! B] <% S^ #& g& X< Z= h) h] HB f9 _% L% ;/ |] %! |] ~0 U^ a] =- ./ U^ J- ;% x% B{ _% '% R^ ;/ N- P^ 4/ I{ u! @% N9 a, !< P^ ,% @% @/ M% |] P^ |{ R^ U^ 4/ U^ :% $9 m^ 2} q^ o3 j3 -$ -& !% %! y% S' %9 %{ P^ w^ t- ,= y%  ! w^ 5] #/ {{ B] S^ g] 2] |] 0< I- @% z7 @% N- @/ q^ 3! :% {! h% |] 5] 6! w{ V7 05 ;% `^ _% y]  ! 9n /3 ~^ [$ g4 o3 E9 @/ 7] 2< z7 V7 h] w^ =< y% -% P^ 1/ E' x% P^ k^ ./ {! |] N- ;% g] U^ @^ L% D% R^ /* s$ L^ B{ 2} g] |* y] ./ %! @/ W^ L^ =< z7 B] /) B] t] B{ i% c<  ! m, o> w% P^ a, ./ (* ,= 8/ k^ += #/ m, =! /3 s6 f5 U; uc S' {{ y% &/ |{ A$ 7* q^ a, -% @% `% y% P^ 5] &/ p) 3] I{ @% %! R5 %/ 0< o] x% $-  / ./ w* B] 4/ m, !< y{ _% y] w^ L^ ar `* r$ Yf |[ z} &* Y; z= L% -% p> f/ I{ b] N^ `^ t! 0* N^ 3] |< v> 6! U] k^ @/ i% w^ P^ += U] 2] L^ 3] x% X^  < m/ {{ A$ ;% i% y] u* 3! ./ |] $% x^ &/ 4* l% @% @% =< t! U^ W^ @% J8 y] q^ @% `% q^ R^ g/ %! 6' y] p> d= l{ >$ A5 d% '{ p2 a, $% l] U^ =l O% -/ E^ B] a, ]* P^ |{ b] %/ w^ :% 8' w^ N9 S6 C{ += x^ 8] Uo +/ _) E7 6! 89 Hu m3 zU &q XZ gw xW ]G Tv ;z +` ++.ZY ZD zy pW 0F 3J ~K @+.#+.$+.%+.&+.*+. x =+.XX Sa ]j 8z .t hw  w hw R] xX 1s $V _< 8< A] ,/ X^ 8' t! [/ n% j$ d^ m3 $< 6' $< _% w^ `% L% 8' C! `^ K{ R^ _% p2 )> |/ $< w^ c$ 2} d: 5P L% (< )> D% g7  ! <6 ;4 `$ Z^ =< _% |] |] .^ j$ t! w3 S% R^ m% !< w3 T% *^ -* a$ v& 6* l} %] `; kl t5 M! P^ b] J[ |] h= 4$ i$ @$ :U e2 V7 P* w* 5] {* << L% ]* S' g7 )x ",
"O7 x* j) {* 0) ;% *; v* |* 9* q^ <= `; @/ .^ tp y% q^ w- 05 S! dY '[ a0 b> $$ '[ '6 @& *& r6 @& .^ <% O% H$ 7/ 4/ T% +% @& B[ F' )> %9 P^ #& -/ 4/ ;4 L^ R^ |]  < O% 8] >[ P# p6 R= e% N^ h] o% a, #/ @% 2} >/ c> x% s$ a, M% 4/ |* |] =< B{ U] |] I{ y% o] f/ 6' u! ,= {! x^ S% ~! -% U^ x^ m^ $9 j$ @/ w% =< L^ :% h] =< 5] 8' |] o% n* e{ $$ 1[ 03 US %% 1/ u! Z^ 6! Z^ :% =! 4< P^ 3! &/ {* @% m^ N-  / :% ]/ Z^ `% e2 b] A$ J^ {{ y] `% 2} `% |] u> 8/ %= :% &/ B] P^ p] y% C{ U^ /) ^$ n, q7 !& r5 B3 b= y]  ! E^ x% t] 3] P^ I{ z7 I{ B{ 5] S9  / 5] x^ M% {{ m/ p^ W^ I{ u* 0* 3! t! q2 >% x% A$ 3] Q^ t! |] d^ N^ :% I{ /* +[ `: P^ a, J^ B] b] a, w^ y% I{ S^ |* o- i%  ! U^ ./ U^ [* w- @% G4 y{ _| Z{ :5 S& Zc MV G] U^ 2} @% 3! u* u$ B] :% g] B{ f9 U^ q^ -% m] `: k^ y] @/ w% 2} P^ N9  < t^ #/ C{ ./ 2] x^ ;% a, R5 g] C{ 7] E' w* B{ b] W^ R8 v: '[ g& Cg B} n- @% W^ E7 k^ (& |] k^ I{ B{ g] B] =< 3! m^ :% w- %! }5 s$ ,% Q^ S^ O% x^ c> }/ y] x% B] =! m/ ./ =< %! x^ S^ rZ B{ 3! y% m] _% R5 ~< un {* s$ m] x% R^ S% x^ k^ (! r$ 3] 2] A$ E' T^ J^ N* L# c} !^ {} h{ l7 E6 =< ~< U^ += 8/ w- |] ./ =& w* )< p] #/ 0< L% Bs q] W^ @% x> w^ Uo _< Y= 89 N9 t! _) =l |< f& kr E{ zb 89 1s -+.au 9` ]G 5y v .;+.=F eM >+.,+.&X '+.aY )+.OY !+.~+.{+.]+.>` ^X hD dw ^+./+.(+.~v ;z QD BC X] >% ^* =9 J- d^ >% /% >/ :% >/ C[ O6 ^/ p| g] _/ =< !< h] d^ B{ =& /) n%  ! L^ H$ 4/ ^) g/ S% |] G: H$ '9 `% F' ^/ N^ 8' C[ _/ (< S% L^ S% D% c% <6 L^ #& `: 1] */ '% [/ 4% W$ <6 2& *6 3% d% $^ Z{ 0< )^ Z; yE 0n K# o^ z] p) I- pq =] K$ B/ Qp V* B- l* c< i% v* D^ P^ x^ j) >[ nj ",
"0' _+.H- S) /= h% 7* w* 7* O= {{ d; Z; *%  6 _> 5] w% B{ i% 5; @g -$ A3 a$ ~^ )/ K$ 7/ p7 ^^ b^ *^ (< $^ 8' !< `$ R< d/ )> _/ |] p2 6l H$ ./ q2 (< F% r$ w^ t! x% f$ U] v6 Q# I$ 3{ n& o^ ~< Bs _% j$ h] c> p] 3] |] ./ =< 8/ @% y% y] w% U^ B{ L% L% W^ M% E' N^ x% N^ :% w^  ! s$ -/ c> U^ R5 .( _% i% !< H- w^ u* !< i% x% `: Y* @% )^ d> +* ~^ b* e% =l -% P^ /) A- t! y% i] x^ *9 @% L% a, @% d^ w^ P^ m^ 6! 0< B{ Z^ 3] S^ B] {{ g] w- 6* g] m% t! w^ j] U^ m] {! s$ x% d^ x^ N- U^ t! r) ]0 ~] f: D} B% -{ 4} S9 y{ =! O% B] 2/ S^ m] w^ y% w^ 3! 3! `% [t {{ R5 e2 N9 V7 u! ;% a, S^ l] _% 2} M] @[ L% x^ g] x% @% U^ %! p) @% 3! B] 5] w- += B] x^ q^ 1/ += f/ k/ w^ u> j] @% :% `% << %! ,= h% u! O3 (5 )] -| l= d] ,% w% $< W^ a, B{ z7 w^ u% B] L^ N^ p^ Z^ t! m] 6! y% #/ Q^ L%  ! U^ y] i% l] |{ 3! @% :% &/ w-  ! B{ t- f/ B] W^ d^ @/ N^ V]  ! 9n '5 F& Y# A2 ^* qq $- m^ e2 $- B] B] y] w^ $- q^ >9 y] x% B] C{ 3! t!  / p] g] 3] J^ M% {! 8/ E' 5] u> 0* p/ @% &/ =< p) 2} E^ W^ g] /* |* i% ./ K) 1/ @/ {{ y] ;% $- ${ y] 3! |] B] n] c> K^ 2] q^ += {! P{ ^6 !& J# Bi L$ R% t! <% 6! h] &/ o$ ~< #/ 2] #/ |{ |] x% p] v% _/ B] r2 #/ w% g] Z^ ^) h] H- Y9 X^ d^ @/ L] t3 +/ /u 5N .t Az =/ 0v (X xW Fw :+.BW qN <+.m` 7` (I [+.1D }+.2B |+.1+.2+.3+.NW pW ]c Mz ^M 2C ~w ~w (X Bz K] O^ >W C] 89 D{ _/ t3 NU N9 `% C[ =< S% :% c> Z^ s$ #/ `% $9 :% =& @/ e% $% >% =& t! f/ s$ Y9 O% c> '% D% -/ T% :% Z^ !< !< m% B[ x% -* L% !< w3 M% C[ f9 %% u% $< +% =& b^ p7 $& Z$ <% Z& o[ 3% 3% W$ M# k^ S; ~^ ob /[ l% |* {{ 1] 3) >$ /} <^ I4 M] O* {{ }= i% Y* ,% O* 2] {* P: N7 ",
"cB 6- f= /) b] |* Y* P* <* o> '/ ]; S; S# #< s~ O% E* S^ R5 ,4 s5 e5 Q2 =^ !% ^^ Q% %^ s{ i$ Q% O% <% o$ /} VK (& b$ Q^ 0/ O% L^ d: <% t! '9 y% `: &/ t! )> >9 I{ )> @[ r$  5 ~] p- o%  ! @% .^ ;% s$ N^ B] L%  < 3! d^ -% P; g] u> g] I{ e% U^ }/ B{ C9  ! Y^ |] ]/ N^ :% @% _/ {J %{ o% P; 6! B] y] w^ z7 y% @/ (< 3] a, t! m/ c> == Y< -$ V$ h> t7 K) m/ B] ~/ =& p) B] a, i% x^ y% += {{ u* d^ -% ,= $% 5] m^ B] << %9 O* x> U^ I{ N- W^ B{ t! s$ ./ 4/ z7 N^ p] R5 6* w^ 7' @%  ! f/ ;% ]/ ]8 7& }$ p& F3 0] m] ./ q^ 9< 9a B{ B- I{ ./ 3! U^ v^ =< |] ;% 46 n] 2] !< 2] !< ^) &/ I{ |] Q^ 3! I{ C{ ;% y% S^  ! J- &/ w^ /) ,% S^ y] o> =< 3! m/ |{ z7 ,% w^ ;% |* E' a, =& 3! U^ 2} 3] t! i% |] ]* N< .& m5 r% lO u% @/ I{ y% a9 x^ p] 5] D^ 4/ =< O% M% W^ U^ g] N- |] <; B] @% 3! |{ x% $< P^ m] |] B- B] 2} z7 ,= 3! ./ d^ i% |] -% E' B] I{ @/ 2] P^ tS )r +^ i[ '[ s! b- x^ o- :% q^ Y^ p] O% S' d^ u* h] 6' 3! B{ U^ S^ u> t! a9 ,= }5 |] x% z7 t- 3] B{ I{ B] x^ B] N^ B] 6* >9 $< `% U^ J- z7  < I{ g] g] Y^ ./ a9 W^ a9 o% 1* @/ `^ x^ 3] U^ $< 0* U] M= 8^ 4$ s6 Q# |4 ^; s$ z7 B] f/ ^) C^ 3! c< q] y] %! l] y{ Z^ 3! h]  ! m, c> u% w^ p| Z^ @% c> D{ St 6' >/ 89 6! 1O V^ ^N kr e/ 89 $V v3 Bz DU hw +w Zq {H 4+.gT qV PV :z 5+.6+.7+.8+.9+.0+.a+.b+.c+.* .[K Ww zz d+.=V ~w >W `' +/ A9 Y9 o] ~! 6/ /) J- >/ yl ,/ w^ x%  < P; `% t! @/ z7 0<  ! |{ !/ Z^ Z^ S% O% ^/ Z^ B4 Vp )> k/ m% O% n& sj o> U^ %% S% !< g/ 2& ]< &/ '% O% '% 7/ p7 (< `^ =< _% $^ ]< 7/ 1/ O% o3 o% s{ !% A[ s{ [$ u5 (5 S; 57 t{ t% 1/ w% (* w^ j; N& E$ d> 4~ e2 D^ N^ t2 p) ]/ << Q; m^ 2] w3 -0 ",
"'J Y= t/ #/  = u* 7' 0* S' m= {* R= S; B# b^ !; m^ u> C{ P* ]a mq q5 (p Q# ;* n$ v6 E$ .& 6% S# p$ c% %% $* <% 6% Io Z^ h] 6/ g] T% !< -/ &/ >/ N^ t! =& D% |{ B] E$ C9 v6 >$ L4 ~- -* H$ E% s$ =& &/ L% U^ `% 3] |< $% y] >/ q^ '% x% L% z7 p] |] B{ B] t! J- 2] '= N^ 6* o% 8' N^ <% z7 s$ g] /) =< %{ 0< 2} P^ 3] ./ y] e+.U^ A- k3 X{ )^ +5 Fo h$ 8< W^ |] w- 2} j$ 7' ;% d^ z9 |] k^ |< %! x% :% U^ >/ s$ W^ :< P^ B] 3] x% a[ @% 3! U^ b] Z^ V7 w] !< C^ 3] m] B] M% |* y% q^ y%  < J- w- j) G& s{ _^ () ;3 /; B] w{ q^ -% K* {! 5= $9 s$ {{ o- I{ v) B{ 5] 3! >% C{ x% |{ 2} L% f/ += S^ 3] I{ ,% q^ g] A$ N- U^ ${ =< B{ ]/ t! S' x% g] B{ %! x% += a] B] z7 f/ Q^ a] }5 m^ x% 9* x^ C{ += 0* 3% w} '[ ^$ OS KO 7' |{ B] s$ |] $- u* =< u> ./ ,= c< |] h] {{ l] =& ){ %! |] /) p$ k/ C{ |* q^ += h% z7 w- |] B] m] B] @^ @% %{ a, U^ c> w^ c> L%  / m^ C- f+.=p W$ .& Z' 7/ ZO C- D^ B] #/ @% U^ &/ @% v^ |{ @/ y] |* I{ w% x% {{ x^ 3! g] f/ @% z{ t! m, L% c> a, a, |* m^ x^ u* B{  < b] |] x^ P^ |* N- o- ~/ =& += s$ += y] -{ l] o] f/ I{ U^ 5] P;  < 7' `n M3 '[ &] 3^ !S p7 w{ A9 `% `% `^ `^ 7* S% H$ ~< x- l* P^ B{ x% [{ u* y% 8< y% /) b] @% d^ |< d^ 99 o] y] t! T] <u _< 2L m3 (7 pu ,= TU .t 0O Rt sN N..g+.BW h+.nx PV %G TC =+.i+.IW j+.k+.l+.m+.n+.+M NG cw o+.K] {c Tu Y9 @p L] _< (7 R] @/ 0B 6' N9 %{ m3 x% X^ <% !/ /) !< 8' R% )> (< ,= H6 `% |] p7 w^ 4/ l% 0/ w3 =& )> $< )> S% (& )> >/ 8' (< `% u% Z& 4% S# U^ z7 0< O% 0% $< L^ w3 6/ t% $^ S6 -/ r$ !% >$ o% H$ q% K[ ]6 /^ '^ 2% Z; ml W6 /^ %9 x- (* %< i^ )5 5$ 5^ f~ y% A^ /* |{ B] m, 2} R5 |{ Xo ^% Ju ",
"p+.r- O* 6* -% b] <* O= 1* B] K* ^= `; ^^ W$ -; =< H- x- ;% C~ ~| Y4 B/ v5 S& Z& t6 J) *% p$ K{ $* c$ r6 '%  ! 4/ $< g] E% `% /% ]/ sF d^ 6l Z^ (& c/ g/ =& P; 1] i$ %! 8S (5 !% g, K% x^ :% a, ]/ 0< L% 3] ;% [/ ]/ q2 B{ :% m] q] {! |{ B{ ;9 |* -* h] y% ;% A$ a, z7 v> 4/ w^ 2} !< L^ 4/ w^ L% {! z9 t! }5 u% 7' 1/ U^ 1< |] 8* {3 |P (5 %} v* /) N- _/  ! 3] 8' C- 1/ U^ P^ B] g] p2 =& ek x^ m/ I{ un @% B{ 2} v^ 3] B] -% c> 2] m, -% g] |] m^ 0* e2 2} C{ d^ U^ l] B{ x% z7 5] %< x% A$ ;% CQ g2 )^ !^ >] ,/ A$ {! R5 #9 D{ w* R^ e2 3] -/ #/ S^ x% y] ~< %! g] 4/ %/ 3! E^ y% << t] B] 3! @% ;% << @% s$ t! f/ 5] t! %! C- ;% |{ |< B] j] 6! t- %! 5] c> c> i] C{ x^ w% #/ &/ #/ x% A$ Gh x* f{ j% !& Z2 y< c> 2} 3! >/ 7' i% %{ N- x^ v^ S^ W^ w{ {! w^ g] @/ &/ 1] =& 2] x% =< -% v^ |] n] 2] L% 7] B{ T^ @% y] q] U^ ${ x^ ./ m^ B{ 3!  / %! b] y] x% 9% $; 3% :$ n[ e{ .= Z^ ba V7 I{ C{ 5] I{ >9 3! 5] ,= w% 2} v* M% m] o- [/ z7 '% 0* I{ B{ n] 3] u! y% {! N- %! P^ ;% S^ |{ c/ !< 3] `^ a, 5] |] y] 3! y] e2 U^ a9 w- 7' 3! u* q2 5] p) m^ KO -% =; 02 !^ g& g& a] 5% d^ @% c>  ! I{ 3! l] g] @/ a> 1]  ! /) w^ S' 7' t! U^ @% _/ K* w^ )> p) 7D K^ J- L% D{ u! K) >% c> c> 6! o] L] A] pw bx 0v .t pw -V lV (B sw q+.4V CA r+.s+.t+.u+.~g v+.w+.RY x+.y+.bI Nz r+.z+.Az UI ]v q] A] _v =/ 4} 6' o] 2] u! A9 E% !< A9 |] L% t! 99 (& 0< f/ ^) [/ 8' ;9 t! f9 ~< `^ =& _/ =& S% F' 4/ L% I6 0/ Z^ =& o% =& _% p7 h) !< a> (< #/ @/ (< @/ ;4 L^ |] (< D% r$ a> K[ f/ c$ 3% 7/ n% /} Q% d% d% 9% >$ _^ S; ~^ No X< }/ t] ~! ;% 5> N& ^$ :[ I4 '= N- ,= v> [* +% _9 {{ ~< t* 6/ p9 ",
"OJ k' V* g< $- v) @= m, s* 6* n> i! Z; P% #< k' B{ 5] l* $9 .{ u^ %] ,3 )^ L< 5% @& W$ +% =} a> B# h^ D% ^^ p$ '6 p7 ^^ <6 g/ Q% K{ +% =& g/ N^ O% u% _% l/ %! 2} P# I{ b^ -$ ;6 (; -& $< g] t! g] ^/ $9 a, :% |< N- $< P^ @/ }5 t! a9 3! x% $% P; %9 6* t- 5] )> ./ J9 p7 U^ @/ ${ 2} U^ L% {{ Y^ >/ |< @% ]/ P^ C^ ,= B] $- D* ;3 Z{ )% '] A+.W^ o% A$ g] t! 8/ z7 o% 6* U^ h] ~< q^ 2] x^ s$ a, += a, B] ./ w^ @^ a, y] ;% m/ 0< v* 3] 0* `% u% i% Z^ x{ @% x% =< w* /* a] w- z7 t! %{  ! B] x% i7 m, J) W$ j5 c^ 5a _% 8< z7 %! I{ 4* 1/ :% B] y% @% U^ I{ 3! i% B] q^ @% :% I{ t] x^ W^ 3! L% 3] O* >/ I{ #/ =< w^ P^ @/ U^ 2} Z^ {{ }5 |* y] J^ 1/ y] y% m^ -% oF ./ y] P^ B{ |{ J- 4] << h% c} .5 f5 n[ Xd Z# R5 2} {{ H- /) L% ~< L% x% z9 y] q^ R5 w^ :% /) J- t! |{ B{ B] _% {{ }5 ,= `^ U^ w^ R5 U^ S^ =& :% a, w- s$ ]/ k^ |] x^ `: M] }5 n] z7 5] 8/ :% ^; Z2 j% v5 Y{ 7& S9 )9 3] {! |] V7 a, 2] w% a, q^ i% y% c> I{ 1/ l] ;% v^ $% U^ x^ w^ ,% Z^ C[ v> d^ w^ B{ y] C^ #% ;% _/ S^ #/ t- /) 3! t! a, q^ 1/ (* 5] a, M% y% S^ #/ ,= W^ a, B] D* A- B+.-U  % ]& a5 3u ~< 2] y] ${ |{ q2 %! m3 a, v> :% X^ -% J9 y% 3! t! N- U^ ^< /) S% :% Y9 /) J- @/ i] c> 2] +/ X^ %{ {/ l6 N9 L] 6} Fz Uo Vu ;C O^ 99 P] Fk C+.D+.,X ~c %G E+.F+.+j G+.2B H+.I+.J+.K+.%` JL YE /y (X /u gw *v .t _) =l nb M^ _v (% /) -% w^ F- b, iP w^ @/ S% F% h] x% c> !< w3 C] $% o% h] m/ U^ U^  ! `^ S% d^ f9 r$ q[ e7 |] ;% O% 6* L6 !< =& a/ m% H$ q[ a, +% Q^ t! @/ [/ ${ K{ F' (< <% O% >$ 4% r$ E$ l& ]6 4% o3 $$ $$ q% U; >$ t5 -N _9 O* `* D^ L+.B% ^% <^ 56 O* Q' ./ S' )! b] 7* m- <n :; J7 l2 ",
"dK u; <* A$ q^ a[ ~! S* K^ y% d^ t> S; *% K$ w' I{ ]* $- %! u, 27 *5 o} (5 !6 ~% {% X< 3% p$ E% r6 Y& /% 0/ %% -* S% 05 '< S% N^ L^ L% 05 w3 ^/ %{ O% d^ Z^ W^ B{ 4% >< b^ p6 $$ 5; `% c> ~< u! ]< x^ a, p] _/ P^ &/ @/ A9 >9 L% += &/ W^ /) m% o$ Z^ +/ P^ 1/ -/ {! :< t! k^ 8/ B] x% /) c> -% `^ D% N^ w^ x% P^ N^ l% j$ a, |] 13 )] V$ y] M+._% q2 1s L% m^ c< 05 >9 =< 3] ;% g] P^ s$ -% P^ x% ${ D6 V7 ;% !< t$ un B{ 3] y] P^ L6 `% a, k^ L% t! h] 1/ d! m^ 05 |{ V* `: 7' 1/ B{ i% m^  < /) -% P~ q: *5 )% () V& {* f/ y% `^ 8' R5 |] =! %! w^ B] c> t] V* 7' h] %! 3! y% ~< |{ B] >/ B] S^ =< 4] B{ m^ M^ &/ K^ B] B] N- @% c< %! p] ^) a9 %! ;% u* a, #/ ,= [t 1/ p2 }5 a] 6% q] s$ 99 u* H! Y# '[ W; #f t* Xo g] N^ 6/ P^ 2} 4/ ~< x% d^ $/ ${ ./ 3] |< Ht 2] w% s$ S9 B{ B{ U^ V7 P^ s$ B] 7' I{ z9 u* :% m% B] 5] 6* B] |] 3! a, @% x^ C{ U^ B{ u> y] y% S# Td S& L& '[ @> w= 5] t! 1/ a, ;% t* Q^ %! p] :< =% %! ~< 6! |{ +% y% 3] /) +a 0* a] %! =< P^ I{ 1/ |] %{ @% v) S^ HB ^) 8/ w^ @% y% x% L% {* g] e2 y] ;% @/ }5 J^ A6 += m^ :% N^ a[ >9 Kn *3 X$ n$ {^ Tq ($ u* =< =< v) 7] P^ |< 2} ~< |] Q; 2} @/ e% =< m% a, =! 0< `% k^ y] ;%  ! |] ~/ << u! P^ U] 2] x^ ,= F] _7 Y9 {/ T] ^) N] |} Cs gw =/ LX dM N+.YK ik xV kX EM CM O+.P+.ig Q+.R+.FX )F K .S+.,c bx p..]G eZ kU ^N NU .` I^ _< _) >/ $V e/ m3 99 %{ ^/ _/ t3 4/ (& '9 $9 j$ '% D% 4/ u! D% `% @% `% _% f/ w3 h] ]/ =& S% [/ +% T% K{ ;4 `$ a, D% ^% g/ O% B[ $% +% +% $< #& (< A6 /% S% u% w3 n& H$ p$ KO d% $^ *^ p7 )% !6 >^ .& A[ Z; Q# 37 .^ @/ B- l] G4 w' X{ -* ]% o7 j] e2 h% `* B{ A$ I{ i% e2 S9 !< nj ",
"E! 0- K* S' {* S9 t* A- w% w- p) ;- >> ^^ /^ 8) t! E' E9 v> <! 27 V4 C4 !^ >$ 9% $$ 6% '6 >$ H$ $* ^% <% 0/ b, O% =& }/ x% O% @/ h] N^ P^  6 `% !< S% !< =% 2} h] K% A^ o[ j% ~]  - t! Q^ 3! 0< $< g] h] N^ x^ |] #/ B] q^ '/ 2}  / _q i% M% W^ h] g7 /; |{ I{ {* C{ @% /) <% V7 y% |* += :% |] w^ <% h% a, |{ _9 `^ B{ y] <* >> .$ U: #{ 3u E^ @% J- /) 6* |]  < w^ =& d! o% _% x% J] E' %! z7 |] 3] _% L^  ! k^ R^ g] m] ,= `% ./ (& L% L% P^ @/ @% x{ K^ a, w^ -/ 8/ =& a, w^ P^ ,% B] 6* {{ m% 6* D% 2~ [^ k$ n5 -3 S) Wo 3] U^ 3! y] Y^ B{ B] g] m] W^ m/ /) ,= 5] |] P^ ;9 J* %! d^ @% x^ I{ B] a9 ~< x^ u* J8 h] t] 2] g] s$ /% 3! g] += @% V7 B] x^ /) B] 3! >% U^ P^ !/ a, |] 5] |] <; =e S& [$ }] T+.m% 6! +9 I{ ./ m/ _/ c> y] $9 2] 7* m] @% `^ 5] B] L% x^ U^ :< N^ %! (< {{ x% 2] u* -% }5 `^ B] {* `% t! c/ ~< P^ 0< =& @/ t! ./ ./ N- %! +9 B{ U^ o> <% w^ ]& (6 U7 W% y2 w% u> q^ S^ s$ I{ ,= U^ 3! q^ si y] ;/ x^ x% .% {{ ./ 3] P^ $- &/ R5 p] N^ |] u* k^ y% += ]/ s$ i] ^< 7] |] U^ _9 oF {{ @% c> +a :% _% R5 k^ B] U^ -% U^ /) h] b] C= W3 t{ F& t6 V# w= $- x% :% h% s$ x% %! 2} J- E% _/ +% '9 P^ p] 6l m%  ! |< 0< 5] @/ f/ u% A$ S% w^ >/ #/ p) K^ 2] =< >% QW %{ +/ _v fx m3 =l P] U+.@p Bz V+.W+.iz X+.a6 <V Nb hJ F..zY Y+.8+.Z+.`+. @..@..M +@.hL RA 2C 2 .@@.pu kr #@.Uo v3 [] A9 d! z7 =9 !/ 6/ ~< >/ -/ =& e% 99 Z^ `^ t% x% &/ A6 f/ O% 3! #/ h] O% L^ (< ;9 y% S% 7/ l% 8/ q2 A6 S% g] l% @% O% O% |] O% S# ./ '% $< %9 $< )> W^ =< (< #& H$ 8' )> ^^ n& 6/ i$ $* .& Z$ X6 `n {6 S; _^ =^ $& ;% (! P^ C{ z~ <^ 5%  $ x< V* 9* x% 4/ #/ ./ 6! R5 i* 7* <7 7l ",
"Bl F; &/ w% q^ += T] '= B] 3] H- J; S; '6 d^ 5> C[ _* A= x^ Oo t5 Q& {3 ~^ $$ |% 4% 3% [$ o3 -& +% E% n& r$ n% b^ L% #& bn h/ d^ ;< 7% f/ C^ L^ p] @/ 7] b^ B{ @/ H$ o- A! 7$ s{ == !r Z^ @^ y% /% `% 8' `: N^ !< w^ z7 t! H$ +% b] x% $< a, Bn +% k^ %{ W^ =& ]/ -% 8< $9 D% 3! L% @/ W^ ~* _9 y% s$ H- @/ K)  <  ! ,% U] v5 >5 4$ nl ') i$ U^ B] 3] =! >/ |] t! U^ _/ g] L% y% L% `% KO x^ 1/ %! |] A$ t! 6* t! x% KO a, W^ @/ 3] A6  / `: E^ p) L% m% B{ %{ B] |* @% J- 3! B] E' Z^ %9 t! 8< e2 m/ U^ 3; ]0 j% :$ L# 34 +[ q^ k^ |* I{ x% #/ B] 3! |] 0< |{ u> R5 R^ y% x% g] nt P^ y% %9 P^ w^ Q^ :% w% o] C- hb s$ x% p] m, '% I' I{ >/ c< t! S9 a[ ;% U^ g] `*  / 3& {{ {{ (* t! @% B] q^ {[ 1$ )% $3 E; o$ I{ /) += $< B{ %! %{ t! w^ vo &/ += :% q^ @% x^ u* += @% L% z9 3] J- L% I{ B] |{ R^ m] += ,= Gh U^ C{ C9 a9 Z^ w^ x% += _% Q^ B{ J- R^ m, B{ |* 3! 3] o] 9n B} ~^ ~] Qa U* i] S^ z7 += :% p] J^ y% a, L% 8/ += m/ ]/ o^ C- %9 [t y] 2} Y^ ./ Q^ %! $% W^ %9 B] w^ h] ./ $< P^ b9 h] p] =< U^ w^ 7' C9 t! q^ ,= s$ ${ 8' 1] #/ u! `^ |] J^ U% =p |% ;] 5| 'T H$ KO ~< B{ $9 u> >9 w^ y] l] L6 O% 1/ @/ ^/ )< ${ A$ 3] 5] 2} ${ &/ u% KO m3 S% +/ `% c> |< Z^ B] 6/ q^ 7D B{ [{ X^ Cs du `] p% 5E ,W Bz BC $@._B %@.T< f .YE |C &@.*@.=@.IW -@.;@.>@.,@.ZA Sj ax fC QD 5E WY ]w u| _v ~! yl >% !/ ^) m3 b^ J$ ${ x% j$ h] @/ f/ cu 4/ &/ 4] x% B] )9 6' =< 8/ =& F' ;9 '% ^) ^) H$ =< t! (< 5$ L^ _% _% H$ T% ${ 1/ (< w3 ]/ o% 0/ h] _% '6 d^ ;9 l% t% Z^ D% D% k/ ^^ r$ U% a> Q% T% ^$ i$ -$ X# W$ S; b> _^ I6 '@.a] w* =& M~ <^ $* b} <P 5] t$ |< m^ 6* O* E] l* l] <; S% mN ",
"$q !0 x> J- C{ '= += ^< B{ g= x^ X-  > d: r3 7> J8 @% |< V* Y- 1U tc '4 S& !& $$ {% S& A! 0% -& ]/ D% (< 3% 5$ 7/ n& D% +% m3 _% )< K) ^^ d^ O% 2& ${ Z^ w^ ${ |* b% (* -^ -$ {9 Y] $< l/ %{ (P m] =& %{  / <% z7 un v^ t] a, P^ q^ <n ,=  ! P^ |* B[ 2} C- z9 `% ;9 f/ ;% W^ :% 3! ;% %9 I{ o^ t] u% =& C{ $< t! 2] C{ D* W: !^ '^ a{ q!  ! @/ x% Z^ t! !< Q; x% |] D% -% g] |] 2] :% }/ 2] i% fk N- /) k^ ,= u% z7 %! B] /) 6' w^ @/ x^ $% 3] /) |] @/ @/ @% =< w- }5 v) y% x% &/ }5 h] |{ 3! =& 5] |{ U^ )@.H& 3$ !@.Q2 J] #/ n] ]/ g] i% s$ g] a] %! y] (* z7 y] y] %< @% {{ Z^ g] w^ w{ :% L% w^ I{  / i% c> U^ %! @% C9 F^ S) o% {! y] ~@.l* b] c> w^ s$ (! += &/ 7* |* m] U^ ^) B{ 4* N| &] X# 0$ b8 7% {@.l] #/ ;% {{ W^ %! 3] s$ a, B] |{ @% =< W^ y] $% {! b] F^ V7 ./ B] |{ %9 i% Bs /) w^ |] N- z7 B] J^ -% t! Lw 5] F' =< 6* @/ u> $% J] |] @% 2} h] B] 2] h/ 1$ @^ !^ @$ U$ #3 %; p] %! ;/ J- |{ F' `% B]  ! =& j$ += x^ -% B] D^ 2} e2 g] |{ F^ 4/ #/ 8/ x^  ! P^ 0< q^ >/ %! 3] B{ 3] y] y% O% P^ L% B] i/ u* h] s$ _% I- :< 3] m/ @/ u* 5] L) v& z} )^ ~! 1& (! x% -/ R^ `% X^ a, _/ >9 p] !< (& 1/ x% L%  < =& d^ 1/ =< @/ -% !< 2] C= <% '= _/ E' E% N] >/ j$ [] x% xX #/ E] K) Ar 6! A] 4< Fh x{ =P C6 Cn D! ]@.^@.2 ./@.Nb (@.ZG _@.8+.:@.<@.[@.}@.DG CJ KL 9z (X .` 6} 0Z Y9 M^ _/ zU X^ pn e/ Uo M^ +R h] 5$ >/ |] 1/ $< [] d^ %/ z7 :% P^ )> t% h] KO Q; _/ #9 %/ _% t% b, ^) m% b, 1/ o% s$ >/ m% F' r$ h/ d^ S% =< q2 <% J9 |] 4/ _/ S% (< |/ r$ O% p$ Z$ 6% #^ B[ 7/ 7% E$ W$ i$ s{ ,^ #* S; {6 |[ Y& 3/ $- H- P^ ;! ^5 (} L} 56 n] <; t] w* P^ /* e2 3! k* |] <% :) ",
";H &a p] w{ J^ u* w* S^ *; ]= v^ $! S; i$ 0/ u' 4/ f/ ~; W^ l< 4U f5 B2 -$ X# Q# n$ A5 $* S# l% !< )> [/ >^ !< f/ _% O% =& e% h] B[ f/ d^ l% ^) o% ${ q[ -* n& =& i/ x^ l& )% )^ 3{ $^ =< a, += x% =< x% |] I{ !< }5 m, @^ |* u* (< _% /w =<  / @% B] B] >9 @% @/ 3] D% >% y% j] V] p2 k^ P^ W^ =& @% 6* @% g/ h] @% Q^ G/ k& Z{ >] _p Q# 2] 8< 0< /) ;/ 4/ 2} q2 t! g] .( &/ P^ i% Z^ 2} |{ t! I{ 4/ e% y% 05 A$ |* t! ~< B] y] l] 1/ h% 7] s$ {{ I{ ]/ U^ e2 B{ |* (& y] P^ m^ p) W^ J^ i% :% ,% @% U^ I{ O% Z# .! z} Z{ 43 6< E' ;/ L% g] B] x% N^ B{ %! 5] u* |] p] <% N- &/ L% $< W^ L% k/ P^ &/ += j$ p] @[ U^ m/ 2} J- 3! w- x^ [5 d< V7 -% i% i% B] |] V7 U^ {{ %! M% a, ;% `^ K* :$ &l m5 :5 0% ;% >/ p] m3 `: _% )> `% 5] 7* {{ d! %/ =& R5 U^ |< |* p] :% z7 y] q^ =< u> ./ `% A$ %! t! s$ L% ,= A$ B] C- 0< c] K^ 1/ $9 J- L% @% 2] 3] a9 $<  ! P^ w^ :< q^ w^ x% |@.5! @* 1$ [| *& Q^ += N- -% =& 3! B{ s$ }/ B{ >/ i% x% P^ %! 3] ~< C- s$ P^ x^ A$ g] B{ @% $% !< C- t! a9 O% d9 s$ #/ += _% I{ 6! I{ j] y% w^ j$ =< k^ ;% L% |< <;  ! U^ J) >] |% @] 'u WQ j$ Uq 8< L% %! `% 0< @% !< s$ E% ]/ =< |] +a !< $< ~< <% U^ u% @/ U^ z7 B{ 6% |< l] Q^ u! A$ x% {{ V7 +/ V* 2L u! {* N9 ){ J] -z M^ 0- %p Jt 99 kl 8J BP yT ^M 1@.2@.3@./I 4@.5@.6@.7@.8@.9@.^E 8B eZ tv  w $V v3 O- Cs +/ j$ #& $* U^ :% 89 `% f/ S% K{ 5] +% h] @/ n& W^ 8' e2 !< J-  ! J- r3 5$ _/ w3 @/ ^/ D% _/ (< <% k/ n& (% (& <% '% k/ $% =< S% D% '9 b^ ;9 H$ u% w3 L% -/ L% =& @/ h^ p$ 1/ /% Z^ s$ ;* $^ b^ 9% >^ P% n$ !^ h5 S; X< v5 at K^ C{ J- 8* U~ l| 7/ 4$ Q~ _% $- w- H- K* -% L^ 3! O* m^ 0{ @g ",
"O7 w, m^ i* A= P* [s 5] u* 9* {{ B; S; $& *^ l' l* {! M) 7* 1F YV ~5 q4 #* f$ ~^ <$ K% ^^ 3% +% r$ (& Q9 S% $< e% )& w^ O% @/ p$ =& =< n% xC K{ p$ W^ m% `% 8% L% 7$ '/ Z6 u5 [$ 8= ;9 8/ %/ b^ ;% W^ |] a, L% P^ @% @/ Q^ >/ g] n% m] f/ g7 2] S9 =& P^ 8/ Z^ L% w% X^ @/ @/ 5] _/ i% ,% d! K^ y] Z^ |] 3! |{ (% B{ 3! x2 {} 1[ 3^ p] :% O% @/ /) m% _% B] g] W^ 1/ U^ p] }5 o% /) s$ P^ !< 5] w^ J- N^ ;9 w^ D{ ;% !< :% P^ o> 7* L% t! |] J- P^ Q^ =< U^ 8/ ./ p] Q^ 3! %! 7] l% U^ ;% `% Z^ @/ |] C- A$ x^ 0@.%1 ]& !& e4 J) m, |{ t! |{ 9* w^ ;% l] %! d^ += |{ J8 =< %! B{ !< B] #/ A$ s$ #/ k^ ;% {! -% V7 B] 0< w^ v% y] y% 1* += I{ t- |< V* !< B] @% E^ J- t! w^ ;% ${ Z^  ! S' F2 ^6 )^ *o -P Z^ ]/ ./ 2} 0< L^ P^ >/ 1/ ]/ R^ y% S^ _% x% =% 3! Uo un @% $% 6* L^ O% 5] X^ U^ B] P^ 7' q^ c> k^ a, %{ 3] 8] 0* e2 y] {{ !< B{ B] |] h] x% 4/ E9 ${ B] t! 3! k^ P^ -* ;= )^ Y# U$ R3 K* B] C9 I- w^ P^ |] C- %! -/ ;9 5]  < Bs =< R^ P^ /) P^ t! i% tS !< P^ c> z7 t! q^ i% C- x% 3! O% 2} 5] += W^ k^ 2] Fg c> @^ 3]  ! 2] x^ /% S^ 6' TA E* O< 47 -$ UG x< X# 05 $% {! u% }/ `: |] U^ P^ L% L% p$ w^ $9  / q2 >/ -% _% ./ Uq '% U] W^ R^ /) P^ <; p) )> `] |* 4/ b] R^ 6! u! P; u! O- A] O- _< >% e] (& +C iO ZP (B a@.b@.kU uC `E c@.jE d@.e@.f@.g@.h@.qW ou Oj /u pu ex O] e9 C] =l <7 v3 4/ nb .t (& ~/ <7 M^ |/ j$ `% @% L% ./ T% <% O% 2/ y] m% x% s$ Z^ !< U^ t! F' |] D% [/ ~< |] S% O% (< j$ !< N^ W^ :% ${ 6% n& _% $< w3 ${ N^ =< g7 d% w3 x% .^ $* S# p$ !< F' v$ b^ 2/ 4% P# 5% $$ 5% X# s{ S; !% W{ <6 i] |< y] W^ *) y[ `$ W% dC N- i% q^ S^ v* p) 7' H- 1/ k^ /% yT ",
"<{ p; }t y= G4 <; <* [{ e2 += /* 5; `; =^ 7p 0> p] a; h% x^ X! WR )4 m} k& .* 5% ~] >^ 5$ 7/ L$ b^ c$ b^ ;4 |r L^ A9 t! (& '9 r$ `% a, A9 /[ </ &/ B{ L% @/ x% h) w3 += {9 )% ,6 3{ 2/ g] N^ s$ r$ @/ Z^ s$ f/ U^ 8' w- @% x% B] `^ '% Z^ |] ;% ./ E^ =& g] =< y] B] Q^ x% s$ 3! D{ O%  ! L% o^ a9 B] y] -% W^ 8] %= F2 g$ &* J/ ]7 (& s$ 1] @% L% f/ L^ x^ m] &/ d! u> |] K^ 1/ B] B{ A$ 3] L% q^ << g] @% 7] P^ y% u> w% 6' z7 ,= x% t- t! M% &/ W^ S% P^ 5] /% w% :< t! 6l e2 {{ 1/ I{ |] :% |] '% p) B{ B] '% 9^ I$ Q# )] (0 K- w* _% J- a9 p] Q^ ,% 0< O* q^ >9 B] ~< 4/ 3] s$ m/ k^ m% m] x^ B] ~! |] a, Q^ 2] _/ f/ I{ I{ P^ e2 q^ x^ h< 3! 3] n] q^ a, %! }5 o> /; B] C^ m^ 4* A2 2| W$ !& .m n% g] y] u> /* Z^ a, I{ 3! ;% V] x^ 5] q^ @^ Z^ U^ k^ `% _/ d! ./ x% -% C- 8/ |] z7 %! l] y] N- m] G4 n] k^ ;% y] U^ i] I{ 5] 3] W^ ;% N9 B{ A$ @% a, =< ~< |] #/ 1/ _% z7 e, !! S& i@.&] _^ S9 :% l* P^ 3[ @/ k^ ]/ B{ 5] `% 8/ 5] x% J^ {{ 3! |] g] o> ./ e% $% |] U^ )9 U^ y% |* N^ b, B] m/ !< U^ w^ w- 3] U^ %< H6 Z^ =< @% B{ += |{ p) |* [4 b4 a$ :5 k3 Dl S) !< -/ 9* =< !< @% 8/ P^  /  ! w^ ~< z7 W^ q] w^ a, u% u> w^ ~< @% D% _% L% s$ :% += 6/ S^ X^ :% 7' %! S% W] 99 )> BC t! 4< 8] j@.D{ 2F zU Uo pn (U  S aP k@.l@.6J DV m@.ax hL n@.o@.p@.q@.oK Zb r@. D `' du $/ e/ s@.J- l6 c> 6' ^) |/ ;4 N9 (& t! U^ @/ C{ <% `^ @/ Z^ f/ x% |] !< j$ (< KO =< iP  / }5 l] p2 (& 6/ d: o^ N^ 5$ 1/ g] B] m] %{ >/ 0/ R^ :% [/ =& 5P 2} <% p$ [/ b^ 05 H$ @/ d: )> (< .( C[ 7/ 6% $* $^ T# S# m5 h5 *% )% Z; M! |[ -^ m% (! 1* x{ a~ ,] _[ `# +! c> m/ (* -% {! Q' 5] {{ w% }/ T6 !} ",
"t@.lj d= w- x- a[ -% w* u> u@.K* /! k{ K$ .^ u' w^ I{ a] a, v@.p9 %5 a} -$ .& -& >^ '[ 5$ c% l% 5$ n% =} A[ (& e% b^ D% h/ O% J9 H$ l% `% (< )< w3 t$ /% ^% x% p7 }$ i* @& ;* >$ r- }5 w^ %! N9 >9 p] P^ |]  ! c> h] A$ j$ L% 8' @% &/ y] x> =& !< z7 8/ O% :% 3! x% 3& x% f/ !< =< `^ t- 4/ =< g] J- H$ |] {{ E* I$ u} .* >$ `% F% i% @% h] :% ]< a,  ! u% 2} 2] 4/ >/ @% J- =< P^ m] 2] L% 2} 2} B{ C{ !< ;% U^ O% m^ f/ q^ ^< a, N^ K^ c> 8/ 5] :% `^ m] d: |< '% 6' N- si C{ ./ L% v- 3] $9 {! Q^ L% B{ %! 3! j, ]{ :5 J# ]5 !] F^ y] y% f/ W^ $< O% u> B] J- >% @/ |]  < p) B{ @% x^ o% q] 2] P^ P^ {{ ,% B{ L^ q2 7' si m/ @/ 1/ y] L% t! U^ /) w^ M% A$ ./ C^ Gh w^ c> @%  / l] e| i: |[ #6 O~ x^ +9 S^ t! q2 j$ W^ _/ y] =<  ! `% x^ += %9 2] ]/ 3! n] %{ x% w^ %! v^ Z^ U^ 3! #/ b] 9a N^ P; x% Q^ |*  / 1/ P^ U^ U^ '< P^ h] U^ += L% |{ s$ x% @/ *< B{ t! o% |] {{ 6! d& w@..5 Q# _^ x/ ~) {{ B] y% _% %! x^ ~< ./ ./ h] i% @/ J- 2] 3] I{ B{ t! 1/ O- x^ _% t! @% =< x^ @% 2] B{ s$ @/ x^ >/ 6'  ! !< x% s$ w^ 3] :% i% y] |] =< u> q^ :% .3 3$ @* m} =C d! @% g] P; O% {! 4/ &/ @% s$  < `% 99 B] h] U] C[ 1] 3] =l P^ L% += I{ 8< L% f/ S% c/ Z^ ./ (< E' F' <; m3 d^ j$ E7 C] I^ E{ E{ B{ C] L] _v W] Ds W] _n AX D` p9 IY fC bV CV IZ fz x@.y@.z@.A@.B@.tL gw cu kt 3} $V yl t% <7 @/ D6 cu 6' 3& J) B{ w^ E% $< Q^ :% :% >/ @/ ${ c> x^ D% d^ O% |] Z^ Z^ `% I{ B{ F' 0< a, ]/ g/ !< >9 !<  ! ]/ t! w3 n& p2 <% %^ o3 !< S% L^ `% D% t! v$ =} 7/ -< D% -* i$ L^ @/ Q% *^ 6% /% !< h$ A[ X$ 9r Y# (5 S; hl M9 v6 si u* B] t] Z- W% R# |$ P~ 0* w^ g] v^ j] 3! |* C{ q/ =! 6/ gx ",
"dK 3{ 9a =- $% *9 k* S^ U^ m^ 7* V= 'u 3% )/ l, '% c< S' |F &) +7 &] 7^ L< s{ s{ K# $^ >6 r$ 9% 0/ 2/ $< ^^ (< `% P^ ^) ;% F' 7/ )> </ $^ x% >[ 8/ e%  ! D% 05 3/ 7/ w^ (} ;] W$ 8= 4/ =< =& D{ c> 4] D% z7 1/ /) I{ )< {! p7 4/ z7 Wp HB L^ B] x^ z7 t! =& g] :% =% :% P^ a, $< :% L% L^ J8 =& N^ ,= |]  ! P^ T] `3 z} 2| .> C@.:% <%  ! d^ B{ g] x% w^ P^ U^ W^ !< B{ y] k^ 8/ 3! W^ @/ 2} d: -% `% t! B] %/ m% =< E' |] p] ]/ U^  < 2} 1/ l] g] x% L% C^ ,* 3[ |< 1/ x% (* y% w* q^ %{ a, ;% :< F% x% >/ 7* B{ r$ wp )4 V$ 2% m} |* I{ g7 q^ g] |] ./ t! e2 Lw I{ += |] 3! w{ B] C^ ./ )/ @% hb ;% &/ w^ B4 U^ 3] &/ @% g] M% p) a9 a, y] W^ E9 [t y] u> un S^ I{ L% 05 p] m% q^ #{ v5 '[ [% >8 oN {{ -% o^ V7 L% w^  ! @/ L% K^ ,= a, i% U^ @/ x% m] :% y% k^ C{ N^ %! %; si N- ;% U^ g] 3] w^ h^ @% U^ B] !< ,= 2] 3! J^ |{ f/ `^ @/ =< K^ U^ >/ 8/ N^ Y^ s$ 7] ,= y% t! K^ V7 m] X# ]^ .& :^ o} a[ 5] g] *9 a, N- Z^ V7 B{ >9 !< h] >9 L^ @% u* m] 8/ p] Bn `^ @% z^ @/ x^ 5] {{ U^ ]/ |] 1* _% x% Z^  < m/ |] g/ -% P^ n] {! o> q^ Xo U] 5* s! J# n$ =^ P] 6l E' (< ${ x% ~< D% ;4 x% h] O% O% L% f/ ;% #/ %/ 3! N^ `% }/ !< Y^ c> 5] %! m3 KO |] @/ P; t% m3 s$ z{ J- J- ,= 7] w^ P; E' y% =< w{ d^ 6/ Rt 89 =l t$ J: D` /P Du 6} kA D@.(+.]G E@.!E }x F@.]D G@.{c Tv nu Fz l] H@.+R E7 h] K^ O% 8' qU l/ S6 W^ t! ^) '% 6/ *^ @% .% `^ Z^ !< D% `% =& s$ (< g] 8/ `: 0/ m] m] ]/ $9 S% 8/ ;9 k/ ^^ N^ (& z7 h] `% W^ p$ A6 p7 `$ p7 1/ N^ <% +% O% <% l% l% r$ @& %^ !< G] U% r$ p$ A! i$ -* S# 0% S& ^$ i5 V; W$ !6 v6 =< 2] -%  ! /~ }4 b^ W% Un /* S' d* y% 3] c< J- @/ +9 u* /} t[ ",
"JH R4 m, m^ -% x^ K* 9* a, S^ '= n= `; >$ Z^ !J :% i= w% L% _> ~x @] G3 !^ E$ Q% K$ Q% d% (5 =& l% ^^ #< v$ t! m% 7/ L^ @/ w^ 2} u% h] 0< _% Z^ g/ L% ;% `% [/ m/ 7/ (* 3% r5 }] r- g] @/ Q^ E7 t! sj x^ |* ,= 5] P^ h] B] t! W^ |* m3 w^ x^ >/ o> 3] _/ /% _% #/ y] mR :% m% B] {! |] @%  ! _% >/ 1/ h] l] k* 64 %5 )% g& rG Z# w^ @% A$ )> =< =& Z^ /) 4/ L% =< R^ 2] S% $% /) g] `% P^ O% Bn 3] I{ t- 8/ N^ R^ B{ L% $9 y% o> c> $% I{ :% w^ 2] D% ;/ q^ += a, D% 7* x% 4/ U^ ,% 5$ U^ &/ q] %/ @/ @/ =< |] #/ A$ $- I@.a$ 1[  $ =* h% %! i% B] =< g] ./ {! O% ;% h] U^ |] 3! U^ b] 7k 2} ./ u> =< P^ J- t! |] _% 3] |] c> 5] 8/ %! B{ {! z^ #/ Q^ n] I{ += c< t] B{ g] i] }/ b, v} 7! '^ F& B{ 3! m/ ./ 8/ B{ q^ _% x% }/ M% @/  < 5] +a j] L% _% ZO :% B] !< 1/ d^ |] B] w^ J^ a, I{ S^ y] a, ./ !< L% O% /) @% W^ %! x^ =& /) e2 D{ '9 x^ C] E^ w^ B] ,= o^ S% g] +% L^ L% w- _/ I4 =e A& |[ !! >% += |] %9 |] m% U^ w^ f/ W^ q^ 0* -% w% A$ &/ P^ M% y] J- `^ x% s$ y% $% s$ B{ U^ 2} N- |] /) f/ 3] W^ U^ 4/ c> :% ./ g] h] w^ m^ B{ <; S% g} -$ >$ ~3 J@.>% E^ W^ ./ ./ u% ;% m% $- A$ <% o% x%  / t! L% f/ R5 |{ l] W^ s$ 6' c/ 8/ k^ Z^ W^ ~< w- :% R^ =& @p ,= nb m3 /% U^ <u C# l] ~! D{ S' i] _) Hu u! IU 4! k5 0V 7C K@.$6 Tv 3Y cN 4O fC ;C FK Sv  v sY cu E7  w M^ N9 N9 1u <u yl E7 T% 8' X^ ^/ E% f/ D% A$ (& 2/ 6/ +6 1/ 8/ X^ &/ $< D{ u% (& B] _/ <% s$ :< m% /) {/ '% %o F' )> t% g] !< d/ _% Y9 H$ =< 6/ D% m% |/ /% <% =& $< g/ =& h/ JO +% +% r$ n& r$ D% o3 c% z7 A[ r$ 4% ($ $$ ~] 2% -$ `; 57 87 06 sF |* H- h* C) >| >^ }^ O4 b] K) /; C* T] t! 2< 5] I{ Q^ /[ 3p ",
"=u T= n- Q^ +[ g= 3! ]* =! {{ :* R= `; a$ 7% L- p] 6' |] 6/ qr #5 .$ O| '[ I$ f$ 9% >6 F& +% 2/ +6 i$ L^ 7% >9 _/ q[ r$ D% l% L% N^ e% I{ `% A9 !< 05 1/ c> =& #/ l$ q^ {q '[ Z{ s* 1& -% KO D% d^ r$ $/ l% s$ w^ h^ o% O% ${ K) =< ~< i% l/ y% l% @/ y] c< Z^ a, a, K^ z7 m] {J u% |] {{ H$ x% >/ s$ L% t! p) || {} G& S3 ]` ~< B] j] c% !< q2 !< P^ 0< k^ 6] g] 1/ '% f/ N^ I{ 0< 4* >9 q^ k^ P^ $< L^ d^ B] q2 z7 )< U^ J-  < A$ o- _% @% c< ,% %! @/ :% g] %! W^ R5 C^ !< m/ #/ 5] )< ,[ 9a B] 8' |] P^ x% 4/ |] =< >p W} 1$ :$ 14 >% [ .w- x^ |] u* z7 |* E% M% ^< x% B{ x^ 3! &/ o% p) ./ U] S% B{ w^ |] |] @% O% y] q^ c> I{ g] u> |* !/ w- S^ &/ -% 7' !< L^ a, _% %9 j* T2 )^ )] +3 L@.L^ x^ t! z7 _% B{ I{ x% =< V7 }5 B] @^ P^ += #/ >0 2] a, |{ !< P^ t% Bs oF =< g] J- $9 x% ./ z7 3! q2 B] Wp x^ s$ _} M% $% M% c> t^ B]  ! B] 3] q^ z7 A$ x% L% += `% /< 4/ _% $9 ,% p] 2/ C= S& }$ Q# D3 h% :% ^< 05 u> y% $% t! ./ x^ D% B{ 0< A$ Gh B] {{ |] I{ d^ B] I{ S^ B] p) P^ I{ ;% B] 5] @% {{ s$ z7 h] ]/ ;9 N- M% o> 3! a, 3] @% xn b{ Ss g& () mj X# |{ b] ^/ L% @/ 3! !< =& U% c> k/ @/ o% x^ |r F' _% B{ /) X^ c> s$ c> _/ 2} 3] H- r$ U^ ${ 6/ t! 8/ J- 0< ^/ f/ o] ,= W^ f/ (& ${ 7D <% y% Rt $V ;C +/ n% gl AL [O q..w^ L; $V 1C %A IU kt -V Gz XV Fh 0v x{ <7 /o ,/ d^ '9 #/ d^ (& E7 @/ L% t! 3& f/ F' Z^ =% c/ =< #/ %< z7 J- 4/ _% %< %{ |] g] 4/ =< r$ _) 2} 8' @/ O% [<  6 o3 6% 3% $9 F' ]/ l% $< F' W^ f/ $< p$ `^ :% C[ $< ${ 5$ [] '9 $< z7 S# c% )r h/ 7/ <% `6 B[ 5% W$ Z$ .& 0% )% :$ `; X< =^ I$ U^ D% ~< u! /> 0$ d% Y% +Q ./ (* k) D] w% B] ,= R5 0/ ,= O% `p ",
"hK |} $% := d< 2} 46 A^ p) /) u* 6- S; $& o[ l, i% -% ./ /) .{ )[ {} 73 M! $$ P# {% 0/ '6 /^ F' %^ Q% _/ ,[ @& w3 F' t% ]/ @% S% _/ g7 #/ 8/ `% 8' -/ |] w^ $< W^ '6 ./ v6 '^ .& 7= k/ {{ )> F' L% z7 D% %{ $9 w^ t% ${ =& `: 7] s$ %< s$ z7 C- C- @/ =& !< p$ s$ `^ ~! #/ Q^ $< B{ x% p] /) 0<  / D% $9 (! D2 7&  5 Y{ mU e$ U% I{ =% >/ >% t! d: 6l m% a, B{ %{ ${ |< 1/ `% |{ += L^ %! #/  < {* W^ |] `% =} Z^ Z^ P^ f/ c/ x% c> I{ K^ }5 y] 1/ a, _% U^ |< x% 4/ 6! h] t! 1/ 5] a, 2] @% y% @/ B] |{ k/ }5 c> =! `% e% q% L!  % U: C3 [= 0< a9 |] _% 6! u* z7 ~< 3] h] O% ~< ;9 1/ 1/ 3] #/ B] q^ A$ x% U^ m/ $< q^ 5] S^ t! {{ #9 @% I{ K^ Z^ S* I{ P^ Q; `% ^/ |] W^ k) (5 r} -] A& a* S% h] 5] W^ _q 2} =< @/ B{ O%  / a, HB v^ m/ |{ w^ |{ H- )< c> L^ U^ =< d^ B{ U^ U^ z7 &/ ^< ]/  ! |] t! ~< B] L% =< 3! |] Z^ z7 ${ ${ _% -% :% (& ./ |] _% 4/ 2} #/ s$ U^ ,% C[ 6! 6/ &/ :< &) _0 %] ($ <^ b> b/ h% y% C{ %! t! _/ q^ |] D% ek &/ d! a, M% w^ B] 4/ y% |< I{ C9 L^ y] U^ y] )> B] ./ x% z7 x% p] L% %! y] y% #/ U^ U^ t] I^  / Q$ X{ )] {9 j: j= f/ U^ ./ {{ D% /) 6' M% w^ |] t! f/ w^ N^ W^ 7* f/ x^ b/ {{ N9 y] ,% D% l] $9 8/ o] D% O% A$  ! S% O% v^ B{ ,=  ! A9 f/ N^ M^ H] R% _< |{ w^ j$ L] h] {w >% @g ,G p3 ;] M@.Mb /u %p  w <Z Cs R] dx =/ 0B N@..t cu Uo %{ _/ j$ 1s X^ ^/ u% (& f/ (% t$ `% `% l] u% )> E6 f9 $9 ]/  ! I{ P^  ! $< L% O% 5] a, A$ >/ /) :% m/ |] ,/ S% o3 L^ E% S% +% /[ @/ $< l% ]/ &/ 6% T% a, 4/ !< c$ 4/ o% d! n% )> <% H$ i$ 05 o% O% L^ e& +% $9 ^^ s{ -& Q# ]& s% Z; `[ 70 >^ p7 >% S^ |< 1) >] ^^ r% yS ~> p) 3] q^ ~! v- h* 2] g] bo D7 ll ",
"HP >e +[ hb t* P^ -% A- w- 6! $- j, S; f% `% i2 ^) S^ @% @/ U) 4U nl N3 =^ (5 $$ W$ i$ H$ $^ `% $* +% $* b^ VG 3% ${ p7 t! )> /} $^ $< h/ _% >/ '% %! :% (< U^ @/ ]^ w* K[ s{ M! /= >9 |{ w^ @% 2} l% z7 +% !< x^ L% &/ _% @% B4 L% B] !/ o> f/ O% U^ R^ $< D% k^ &/ a, 2} L^ x^ x> Z^ I{ (& N- =< @% s$ :% y4 X$ .& <2 K^ K) ^) -/ =< x^ |] -% L^ =< o% B{ !< >/ U^ g] @% t! =& s$ y] {{ B] E' %! L% `% }5 =< 3] L% f/ z7 v* 3[ o% $- 2} #/ 1/ ]/ |] p] A$ 7* I{ !< 3]  <  ! o> U^ a, y] _% w^ p] y% $% N^ L^ =< ]/ 4/ r$ O@.%1 .$ ]% N/ !6 46 {* =- B] ./ t! $% 1/ B] &/ >/ a9 U^ w% ${ 7* |] K^ g] k^ B] d^ U^ ZO ./ 6l t! U^ x^ Q' P^ x%  ! m/ `% :< J] a, y] w^ +9 A$ W- j{ >$  5 #6 ^a L% |] =& P^ I{ bn 3! U^ >/ 6* 6! w* a9 B] =< %! O% m] =< #% U^ 3] }t U^ 7' w3 :% ;% y] U^ y% =& m] M% Q' B{ }5 ./ -% F' += >9 O% W) U^ B] .} ,= q2 w^ B{ R5 0< x% d^ 3! Z^ y] z7 zO 7/ m]  ! 9% &4 '[ P# -$ x| t] 3! x% un |* }/ B] '% Gh 7* >/ 46 7* D^ Y^ |9 x% x^ &/ 4/ 3! t! I{ u% |{ >% &/ a, B] B] ,% h/ B{ q2 @% x%  < Z^ %! @% 8/ z7 w) 02 &] r5 Ma mQ O% 3! _% z7 ^% y% =& i% P^ B] %/ w^ %! 3] /) += 3] u> ${ w^ /* }5 `% L% += !/ N^ a, _% !< =& g] ;% y% %{ j$ U^ 2} j$ (& c< &/ /) oF `% ./ L] l/ s$ c] /) {{ 8< A& P@.tO gl %{ kU I] v3 r] e/ (X .t kU x{ T] M= $V p| 6' L] A] kr Y9 6/ 0< _/ m3 !< S% /% W^ 6' (& p2 |] 0/ 2] _/ t! p7 @/ B[ _% h] m^ L% x^ U% t! 7/ @/ !< [] +% T% '% _% =% w3 $< o% O% H$ D% #& h] c% x% 8/ r3 c> l% s$ 8< =& F' k^ =& 3] ;9 D% `% e7 Q9 o3 =} i$ Q# X$ J) ($ ja >$ '[ S; !6 L< o[ e% l] P^ 7' N= i4 b^ +( f6 t- {{ i% y] _% P^ C{ %! >9 C- K{ kw ",
"XO F{ w% ek a- C{ {* ]* A- U^ w* B; S; '6 @& -; w^ S^ U* s$ P! e5 () (p Q@.)^ M! c$ 7% ^^ >^ $^ F' J6 @/ $^ K) ${ x% n% (& $< Z^ $^ c> 0< w% 9/ !< m] |< =& (< a, {% ^* K4 3$ )% Pp |< |] t! &/ >/ 1Y 0< O% V7 ;4 I' s$ m] m/ !< 4/ w^ [/ |] w^ >/ #/ `% !< a, W^ @/ ./ ^) U^ U^ y% O% @/ $< B{ L^ m% M* D3 F} E5 F2 R@.%9 @% Z^ D{ x% f/ ~< x%  ! B] m% 3] B{ m3 _% Z^ =& x^ x% v^ ;% J- @/ ,= P^ 8] 1* L% P^ |] u> >/ @^ U^ w^ ]/ */ #/ g] &/ s$ }/ |] J8 E' {{ w^ W^ x^ 5] (< I{ e2 C9 =& Gh <% 8' w^ w^ l] t! a, K^ u! <$ |> :^ 1$ =^ x/ y' @% += ~/ KO !< z7 =& W^ B{ |] e2 w^ B{ &/ $% U^ _9 += @/ f/ L^ p] -% @/ O% W^ P; 6! O* x^ s$ s$ {{ I{ U^ x^ ,% L% @% 3[ U* B/ :^ &* )]  m p$ i] C^ y] C{ @% ;% I- L% Xo {{ ;% m/ B] &/ J- L% &/ B{ $% J- _/ >% B] I{ |] s$ %9 ./ >% /) _/ i% z7 1/ #/ @% ,% =& P^ g] l] C- 5] y] w^ x% B{ c> &/ s$ ./ t! =< a, |] U^ s$ %{ :% @% B] t! ,= $9 jn h| !% G% Y{ 23 `* U^ b/ :% sj #/ z7 B{ B] f/ !< x^ Q^ 1/ ,= N- =! J- Y^ >/ <7 ~! @/ 4/ s$ g] ;4 i] $% Z^ C^ g] Q^ t! P^ S^ l] y% f/ m, }= B2 ~5 -$ -^ ;% *% x^ C{ !< u! |] q2 =&  / `% m] z7 P^ /) |] P^ s$ a, ,= t! u% ;% x% y% Q^ I{ x% K) @/ S% :% w^  ! @/ W^ t! c9 2} N9 7/ ^) W^ X^ 6' {{ 8' #/ >% a, 6' E' d^ J] L% |7 p3 8u D' f9 VO zU 1K pu .t !D Fh I^ ~! f] 1s Y9 =l 4} Uo 8<  ! cu 6! d^ U^ +% ^) ;4 !< `% +% 8' %/ R^ N^ )< j$ w3 u% -/ _% W^ {{ B] 2} (/ =< d^ |] w3 `% m% `% <% ,/ m% ${ H$ L% eB Q; +% q2 0< K^ B{ '6 L^ `% %9 J- {{ r$  <  ! `% O% Q% $* Q9 0/ O% J) E% Z& '< 3% b% >$ @& W$ .! 3$ V; hl t5 }] J9 C{ j] a] S@.L9 Y6 7& gt 5] m^ ~! c< j] B] B] S^ p] 4/ P: BB ",
"oA R4 N- N- w% m, y] {* d] t* 7* L- S; -* 0{ aO :% U* x- q2 |> L8 #] b2 }] >6 >$ >6 -& P% /% T@.n& N$ S% t% w3 >/ <% t% 1/ B[ w3 vo 4% i$ t% si E' ${ ./ o% ./ L% $* P^ !^ -$ >$ F; 2& w^ [5 @/ $9 L% D% V7 N^ |* ;9 v> w^ ,% %{ :% `% <% g] s$ =< 5$ d^ `: x^ @% @/ S% l% E^ H$ ]/ p] z7 2} }/ += ;% 8} E} :5 #* ]= *g a9 e% |< $% 3] I{ :< @/ |] x% o%  ! _% N9 |] F' !< @% ;/ i% S% N- I{ 8/ B{ E' $9 3! $< `% e& y] 8/ 3! a, &/ `% Uq w^ L% L% |] Z^ @/ y% |{ @% w- t] |] P^ m/ +% /) g] !< `^ M% 6/ `% 6l q2 ~< U^ `% a, '= a5 t6 :$ &] )| a9 2} V* q^ -/ E' 4] w* w^ W^ x^ f/ y% x% %! d9 #/ t! u% I{ 8/ @/ `^ w^ |* ;% z7 2] 3! y% |] (& @% :% 8/ V7 P^ z7 }t B] d! G3 :$ j% '3 D* $- P^ 3] >% h] `: ./ u> z7 3! ;/ U^ ,= W^ 7' x^ p] E' w- I{ R5 3! E' %! I{ Q; q[ C^ -% %! m] @/ 3! sF &/ Q^ }5 k^ q^ }/ e% P^ |] K^ f9 Q^ a, y] ;/ +/ g7 B{ d^ s$ @% 0< |{ =< `% @% W^ <% t! m/ _% `% s< ~5 [$ [$ '} t! O* w^ L^ &/ A$ x^ ;% p) @/ A$ |] h] =< ]/ 1/ 3] ;% ;% k^ 2] C- u* %! J^ J8 ~< z9 ;4 |] U^ _% @/ {{ t! Q; s$ t] ;% S^ w^ _2 &* @$ x/ w< s$ $% m% m] ;4 >9 f/ &/ 3] B] c> =& !< =< 3] J- a, x% K^ 1/ w% @/ Gh a, 4/ |] o% h] #/ Z^ a, @/ L% a, #/ |] &/ w% h] 6/ :< d^ R% j$ :% _< B] #/ B] u! (7 @/ b] u% |7 `U Bk ~5 qT nb ^N ;C 4} >% cu u! q] =l C] 8< Cs h] f/ |/ x> ,/ l/ h] x% K^ >/  ! :% g/ u% ^% 0< h] F' _/ W^ x% `% 4/ n% %9 m] N^ +6 E% c> o% g7 -* >/ t! `% =% l% S% +% p$ (< >/ }/ T% B{ [/ 8/ '% f/ O% >/ %/  < `% h] }5 !< A6 ^^ p2 /% =& r6 B[ l% A6 Q% -* e$ 5$ 3% Q# Y& W$ (5 !%  > /^ }] G5 _q t] q^ {* _! x2 X# 64 WD 5] S^ M] q^ B{ B{ U^ un !< b] g/ RK ",
"|I l! x> v* p] S^ /= <* 7* Ba {* -= S; H9 r$ ;- _% e= j] P^ ,n 27 z} %1 ,6 >$ M! o3 >6 Y& $& m% U% ;9 L^ L% (% w3 U^ !< _% o% r$ m% 7/ `6 y{ ;9 O% 8' e% g/ ${ U^ p$ m/ V6 #$ ^^ q* B] $< |< p] @% A9 (& $9 H$ L^ t! 4/ B] '% V7 P^ 2} H$ 1< 3! 1/ t! ]/ &/ Q' K^ x^ d^ ]/ 4/ y% q^ i% /) z9 =< m% F! /3 *] .$ g> (t m3 L% 3& h] `%  ! }/ U^ @% $< g] h] 6' m] d^ B] =< x% x^ -% d! N- {{ t- E] ,% J- ;% W^ W^ z7 s$ si 1/ Qq L% L% g] i] u* += @% ./ `% 8] |{ M% <% `* ;% k/ 4/ u* &/ d^ |< B] @% ;% S% s$ ]/ t! H$ W^ J- ;% 8/ u8 x2 j% .$ F2 ~* %! q^ Y^ |{ 1/ W^ |] m/ y] S% @% >% U] &/ U^ += B] 3! B] 3! z7 g] s$ |] x^ I{  < B{ s$ b/ N9 5] x% B{ P; 4] @% w- N- 53 ,^ V4 H# 2u (/ |* #/ w- $% c> F' y% a, E' B4 U^ B[ 2} E^ ;% z7 w^ L% #/ B] I{ s$ o> L] x% '< }5 /) g] a9 )< e2 }5 += |] U^ g] o% I{ B] o% Y^ D^ a, `% $% |]  = J- U^ |] i% 2} l% 2} I{ x% aU KO |] ;% @/ w3 {* <% 3! 6l c% A! )^ H& ^3 A^ @% i% w] =% h] !< 6* x% /) w^ U^ z9 t! o> Y^ %! l] Z^ U^ L6 $9 k^ 4/ z7 %! ./ %! a, 5/ m^ %! m% 2] a, t! x% B{ |9 V; () g& q5 U@.V@.u> x% :% ;% u* ^% S% -/ ;% 8/ q] N^ ,= =& |/ L% 2] a] $* z7 U^ -% |] ${ >% ~< >/ |{ [/ D% 8/ y% Z^ g] U^ t$ #/ s$ m% y] c> C{ {{ K{ S^ @% 7D l] Y* t$ D{ E7 c] c> a7 N..Al J) _/ Vu J- du Uo {/ /) x> Uo e/ 8< Y9 xX _7 !/ S% )> `$ >/ S% 0< 8< :% g] 6' (& ;4 ^^ F' `% >/ 7/ W^ w^ u% &/ Z^ ${ >% =& &/ |] A9 6/ s$ ^) 6/ a, '% =< r3 ${ o3 F' O% ;9 t! d: =< +% F' ]/ q2 ^) }/ w{ >9 A$ a, =< `% 1/ L^ 7/ o^ w3 |/ r$ <% P% q% !^ k$ <$ 4% K$ j% t6 -$ g& S; S& =^ V$ W@.1* 3[ -% ^~ @4 E$ N# X@.m= -% y] v> 7' E' N- m/ ,= y] I6 W5 ",
"Y@.u; A- Z^ a* H- `% 7* w- $- =! w; `; i$ :q v; .% 5] =& [] e! ln ]% J2 [$ ;] A! 3% L& T% <$ $& p$ L% '% $< l% r$ D6 '% :% B[ 1/ -p ]/ %% $< m% S% Z^ U^ S# 7* |] n& t! r9 {^ ~^ R4 =& 2} 8/ (% $9 N^ |] K^ d^ $< Q; P^ |< p) &/ <% Y^ d^ =< =- `% R^ '% R^ p7 ~/ |] 5] @/ g] k/ %{ O6 sj g] [] 2} v} <^ 7& Y# 2U {O a, w^ L% O% %< ~< (& =% `% O% U% x% y] ~< m3 |{ 1] <% =< l% 8/ %9 @% (& w^ W^ f/ _/ x% 6* _9 %< B] L] Q^ _/ L% !< A$ !< p] ]/ g] <% @/ s$ u> 6l 3! g] k^ u% L% _% z7 z7 <7 3] !< L% |] B{ c> W^ g/ )> >% L% -* $< =^ {} .* '3 R* O[ Z^ N^ {{ =< x% g] :% HB L^ ;% a, `^ ~! |] N- 3!  / :% %! ~< x^ L^ e2 K^ ./ y% C{ >/ B{ x^ {{ @% |] 3! t! a9 'O Z@.;$ nl _$ `@.4} 8/ -% `% `% I{ U] !< si I{ L^ @% w- <n ./ a9 &/ }5 B{ :< I{ I{ U^ x% $% #/ d^ U^ =< :% @/ 7] (& m% |] y] 3! I{ Z^ m^ ;% $< t] j] L% =< {{ -% h] -/ L% e2 u% >% A9 x% '% m] |r _/ U^ P^ 05 A$ )< n] :% y% tj 7^ ~% g& L) t- %; m^ B] d^ l] h] I{ |{ a[ 6/ U^ x% B{ s$ :% I{ }t I{ Wp %! =& k^ _% $9 y] 3] 3] t! +% g] 8/ d^ }5 i% 6' t! E' !^ @5 {} p& ]3 W= 8/ =< Y^ @/ m% 0< I{ m% P; o% ~< =< y] WO  ! t- K^ Gh :% ~! >9 m/ Z^ 4/ _% o$ 3! z7 L% i% F' 6' d! t% 2} $% 6! l/ !< {{ (& L% s$ h] g/ _/ $< t! u! !/ c> >% C! y] q2 :^ (U N..k5 !/ (% K] L] Rt  w E7 6! 2] w^ ut 6* q] T] (7 6*  ! x^ w3 t! >/ L^ +% #& s$ D% s$ S% B[ U^ U%  ! /% K) l% L^ W^ L% 2] (< B[ =& !< {{ t! p7 %/ D% !< +% ${ N^ <% Z^ p2 -/ _% t! D% N^ )< l% +% -/ e% L^ D% p$ ]/ p$ #& g/ ;4 +% '% $^ w3 c% /% K$ $^ Z& Q% w3 4% s6 V$ 1[ L4 .& S; K[ F7 r$ |K 7* S) E{ 1> >] p2 :$ Qp o> K* >% S9 *9 q^ y% 7' k) M% /% 9' ",
",E nh w* K* #/ i% H- <; /) c< y% -= j> q% N) nO ;9 ,= {{ 5] oP 47 g5 B2 =^ '^ t6 3% ^^ ^^ Q% h^ D% =} 7/ =} B[ 5$ p2 H$  < !% o3 ,[ &/ ^) 8' 8' L% WO Z^ `% ,% ^) NJ C{ 5$ '[ >$ R- $< t! t! 3! @% +% C- A$ w^ |< Z^ U^ @% t! 3! _%  < B{ $9 6/ ;/ /) R^ !< &/ `% /) '< 2} +% l% +% 1/ =< |< S% w] s! >6 0% Y2 e= r2 Q^ L^ U^  ! m/ I{ U^ Q; E^ ,% @/ 8/ m3 z7 6/ F' k^ d: w^ B] :% q^ U^ |] c> x% |] C* P^ D% O% `% a, @% Q^ 7* M% x% `% @/ un w^ %9 A$ j$ 4/ L% %< U^ y% a9 U^ K^ @%  / 2} l% 8/ f/ E` w^ $9 9/ L^ K^ %{ L% Q; Da mj X2 g& )^ m} w^ e2 t! @% o- x^ Wp C{ b] 6! 3< 2} v* /* r; N- 9* U* |* =; B{ P* v- S* 2* a] z- v^ 8< 9* 3] m, u> (! P^ {! B] H- Y< f5 '[ 7^ x8 F' =< -% L% 2] y] o% W^ 2] w- U^ %! U^ Y^ <% K^ g] B] 2} B] @% |{ m/ w- L% ./ 1/ o^ |{ U^ =<  < |* U^ a9 x% /) HB 2] B] t! `% {! }/ :% L^ |< y% &/ 6/ x> P^ I{ << e2 1/ w^ i% L% 3! |] B] 3] l% Q^ B] z7 o% l] O% nQ g& V$ {^ Q2 @% y] C[ a] M^ Dg nb _} ^) 6X ~< nb t3 V] X^  #.6' !< /) t$ c% |] O% p$ P^ B{ J- 1/ /) 89 =l T] m3 Cs V^ u$ o] b{ :$ -$ ]$ 5p -* 1/ s$ 7* @/ U^ 6* P^ Q^ L% R^ 3! '% w% ~/ -/ `% q] U^ q2 u% L^ $- c> )< <% s$ 7/ !< m] @/ B] =& _% t! ${ M% Z^ P^ u! U^ w3 -% @/ L% :% E^ >/ b] h] A9 ^/ q] <% _< @/ pc No ZP M# rZ R] kt v> fx 6} P] nb ,/ (7 %{ Fh 1O 6' N9 c> E% @/ <7 R< J- g/ #/ C[ O6 g/ :% s$ L% +% R^ ^) D% n% =< !/ )> x% u> =} U^ l% 2] 8/ B] <% `% O% 5$ -/ =< O% H$ S% !< !< >/ /% [/ e2 $< w3 -% S% (& 8' =< w3 m% %{ 6/ ]/ N^ a, S% =} _7 )> !< r$ K% E$ $^ *& a$ >$ G$ M! 7$ )]  > X6 t5 X< &9 6* o- L% ]! E} K{ j& er // Q^ @/ 3] w^ $9 w] w- [{ :% 25 -0 ",
"p+.j= i] >< {* y% B] -% %! u* a9 A# S; %^ b$ k' ${ -% q^ c>  ~ jb 7& }2 q5 >$ r$ 4% @& /% 6/ -& l% 1& L^ F' L% t! a/ l% (< .% 3] &/ B[ `% .! J9 +% +% &/ ]/ p$ Z^ <% << J$ !% )% )= (< $% o> )< _9 w^ ./ ^^ C[ X^ 4/ t! 4/ ./ x% g] Z^ x% ;/ 2] n% )> ;/ Z^ x% @% B{ P^ m] 8* >/ 0< x% Q^ @/ m% nl u5 z} b4 .#.-/ 8/ D% B[ |] =< r$ c> 3] /) x^ 2} |] @% x% 1/ D9 _% c> _% 1/ O% I{ |] ;% T] W^ B] -* f/ :< w% E^ _% 0< w^ !< d^ 8/ N^ += _% P^ X^ `% X^ :% %/ y% p] L^ `% u% L% s$ z7 8' !< I{ t! 8/ L% _/ =< W^ t! h] x% ,= P^ 5] &* i; ja :$ *5 `2 #6 V; g{ a{ Z; b{  > V;  > a{ Y; +> l{ Z; G2 E2 l{ x/ h> X;  > S; S; S; >> g{ Z; a{  > :a  > f{ Z; h> b{ c{ p{ w& S& &* u3 h$ j] ./ 3] (P -/ U^ a, f/ |{ U^ W^ B{ N^ ./ |] x% += 3! ${ a, %! Y^ B{ h] E' K^ B{ @/ |] @% U^ U^ $< c< 5] x^ `% Z^ h] z7 _% m, =& m, I{ M% =& P^ V7 u% 1/ u> :% $- `: |] ]/ |] a, h] #/ ;/ t! 1/ g] H$ @% A$ ;4 >/ k< L3 (5 1[ =] C2 J3 L2 E2 W: %1 D3 J3 W3 E2 :a L2 O2 #3 %1 @1 L2 Q} o} || Z| Z| k} c| x| H3 S3 D2 73 C2 n{ @1 ,> H2 b{ F2 #3 X{ !& K# nb *< !< U^ g] o% &/ ;9 q2 q] L% |] f/ &/ s$ 89 Q^ !< %{ A$ P^ O% Q^ {{ q] |< K^ 2] /) |< :% y% N9 3] ,= t! !< z7 @/ s$ 0< _% @/ /) v^ f/ O% l/ D{ v> >% !< :% o] 2] J- 0< B] ib !{ #^ Y# n% Y9 t^ fx O] 6/ ./ c> E` h] L] <7 J9 Y9 6/ ;4 u% `% W^ /) E% L% <% 3! q] R^ D% !< `% ${ n% *% l% o$ S# w3 E% 0< +% w^ !< =< 2L j] x% o% F' d! 4/ t! '% <6 ${ e& L^ 6/ D% t% m% T0 u% w3 &9 =< _/ 8' <% Z^ !< t! Q% e% L^ )< w3 e$ K$ b^ $^ $^ -* w3 f$ >6 l& R# b$ <] .* '[ S; K$ k5 B# _q ,= w% {! d, ]5 B# [4 ;~ |< +[ |* 6! 4/ U^ J- c/ Y^ {! /% 9' ",
"wI R4 h% |* H- ./ h% v> $- $- ]* R- k{ ,[ /% 8{ $< 3] 6' ;4 &) +#.X{ *3 V$ L< 7$ ,[ i$ Y6 $^ F' $* B[ :% N^ 0/ )> r$ @% Q% S% 7* ]< =< S% (< x% $^ p7 x% Z^ t! P; ^^ m^ L4 n$ I$ ;= h^ _% n] $9  / l% l% |] O% >/ |* s$ =< o% L% !< 7/ d^ d! @/ Z^ c> x% X^ z9 y] %! 8/ x^ :% <% P^  ! KO |] '/ Z| L! {^ b% m] /) >/ w{ w^ x% a, m% B{ %! ${ h] c> =< /) @[ x% v> L% U^ a, #/ $9 8' 4] k^ g] d^ %V #/ |] `% y] ${ R^ x% }5 ]/ ./ l] @% u* |] Bn 3! B] _% |] (< M% L% }5 I{ %9 =% @/ t! K^ g] >% ,% y%  < 3] B{ 8' @% 4/ c> W^ ,= O^ @#.x' '] j% z} 2% 3$ 47 ~^ !^ >$ :$ j% -$ [^ s{ m5 t6 }] 2% s{ k5 L! _5 ;6 g& .& 1$ 1[ g5 @* z} !& z} *$ @$ _^ j5 /^ =^ i5 $$ :$ (5 &] !6 .! <n 2} @/ x^ B{ L% ]/ {! {{  ! w^ @% ##.m^ {! C- B] (! u% B{ J^ $* h* &/ V7 q^ w^ x^ !< 5] {* q^  < l% 8/ a9 99 ;/ B{  ! ./ 7* 1/ g] 3] =< P^ Z^ L^ 0< 4/ 8/ |] P; B{ S% R5 C9 =< 6' 89 x% sj ;% ;/ -/ g] F^ }5 B{ 1] C- N& '[ W$ ~] +^ P# E$ K$ L$ {6 ^$ d% #* K# .! 7/ X# ~] T% Z& 5% '^ s{ (5 P# i5 0% E$ M! }] $$ S& /^ @* W$ <] ($ 1[ >$ Q# g& !& F& V4 O} {{ P; a, C^ @^ ;% @/ +a H6 s$ !< I{ V7 s$ 4/ m% t! U^ a, 4/ @% _% w] -% J- z7 -/ '% J- w^ t] q] +% h] ;/ R^ l/ J- d! A9 @/ c> N^ f] #/ 2] w^ << J- |< U^ w^ c> E{ O^ P^ L% S& @g J) i} $6 d! t^ S6 j$ q- %{ Z^ XM A9 =P %{ J- {! B] j$ (^ h] ^/ @/ @/ 0< ~/ ]< =< i$ @% d! D% &/ =< L% W^ 9/ JO P^ w3 0/ 3! C6 r$ F' #/ |] $% w^ o^ :% .^ Z& 4/ $#.w3 =} w3 F' (& 6' (< W^ `% |* e7 t% H$ =& W^ a, 4/ 2/ u% ;9 ;9 .^ u% N^ 7/ (< T% ^$ `6 n& '6 i$ E$ -& d% ;6 W$ ;6 g{ }] i5 0% d/ n] =! Q^ P- 64 e$ -$ +! ~! B] H* c/ 7] &/ 1/ t! |* m] (% Ju ",
"qG 6t =9 w* S^ J* S^ 8] u* S9 N* ~- `; T% =} .{ HB 6* K* 8/ E~ 1U &] Q2 )^ () 5% L& L& *& B[ <% Z^ -* 6% $< F' $* )> D% q[ @/ =< =< q[ =< 1/ t% S% @/ d^ L^ /) JO b^ %! 3% E$ E$ n* :s %{ a, T] 7' i% L% -/ x% y] 5$ 9a @% w^ _q O% O% L^ x% K^ P^ $< u% t! $< _% 2} g] $% %! U^ x% 4/ s$ 3! %! _0 @Q S& ]0 7* D^ g] %/ W^ _/ `^ 8/ M% m/ z7 <% L^ t!  ! `% '9 X^ |] >% >9 ;4 s$ ./ |< 2} |* 3! =& -/ m] O% e2 @/ w3 P^ &/ ./ 7' _% ZO l] t! [t t! B{ |r -/ 1/ Fg A$ J- L% |{ 6' u> ,= L^  < P^ C{ x% C^ a, |] L% Y^ x^ L^ Z^ 8/ A$ (* 97 ,| |% ^$ d% W$ K$ #< K9 9r K$ S# >6 =^ S# A! ~] /^ b$ ~] !% v6 <] 3% Q% >6 7/ '6 q% K$ Z$ ^$ l& >$ S# $* d% Z$ K$ %] K$ W$ 2% }$ ]& N< e2 t! =! %! q2 a, @/ |] l] s$ I{ $9 4/ x% >/ D^ g] }5 3] q] L% |] K^ c> A$ ;% |] s$ w^ t! w^ @% I{ |{ !< _% t! v^ a9 B{ %9 q^ f/ /% N- ~< m] @% P^ ;/ s$ x% U^ M% U^ =& B] 7' I{ g7 ]/ y% _% x% 1/ |{ =< y% a9 J^  < c> H! )% P# Q% /] Z{ N/ r5 Y# 1% F& P# 2$ B& /& ]& :$ G# 7& k& .5 Y4 j5 m5 %* @5 N& .] `# W% Zd 3$ ]% <^ ,] [4 !] }4 V} g} g} )% z} :$ `} x{ sj B] a, 4/ K^ z7 c> ~< o^ L% x% _% B{ 8/ $% `% @/ /) f/ :< z7 `^ t] B{ `: p^ W^ |] S% /) m3 t] L^ c> B[ 2/ `% d! &/ >/ K) 2] d^  ! 3! f/ u* @% w- _/ 1/ h] B] >/ f] %% p6 hq J) Z{ 9/ C] o^ M^ 6/ {/ _< F' (& h] `^ b, i] ;4 a, /% n% t! 7/ O% O% a9 S% F' =< a,  ! g7 [/ 6' ;% ^) L^ $< x% ${ 0< F' N^ !< e& _% c% $< B[ S% O% (& w3 n& m% )r l% +% l% -/ |] =< ]/ */ '% S% `% */  ! H$ 6/ l% -* :< h^ +% $* ,[ r$ $* )> h^ p$ %% 7/ Q9 q% b$ ;* Z$ q% Z# <$ %] S; A[ (} #^ OS += v) ,< i! H# 0/ !] ra != P^ B{ U^ 1* R5 J- x^ `m x^ )> op ",
"xS ~) w% <; i% -% v^ Y= b; J^ u* B; >> B# $* e) 8/ {{ o> j$ a~ g3  5 -| S& .& Q# *% >[ r$ $* [/ d! Zt q[ '6 e% `% l% m% t% H$ S% 6/ '% m% z7 <0 Z^ (& 8/ @% L^ 1/ @& 3* ^^ ($ v5 r- S% K^ Z^ !< m] L% s$ 8/ S% w^ #^ L% y] 3] |] F' `% 7/ a, @/ 2]  < w^ S% g] !< |{ q2 E^ ){ |] <% =< w^ :% x^ -& Q# j% )4 s4 u* h] @/ B{ 8' U^ y%  / >/ U^ x% L% l% ~< w^ N^ x% 6l <u <n W^ x^ B{ u! }/ z7 K^ q]  / un vo (& g] :% f/ /) B{ Z^ 2] a, U^ t! x^ i% |{ m] w^ _% Q^ `^ 3! y% K^ z7 C{ 7' E' M% %/ m] U^ s$ +9 m/ t! a9 _/ J- E' S^ B] e2 s! j% ^$ x: O# n: ~$ @$ {^ _$ W% @5 XS  $ yt %#.`# +( G# |$ ,& ha ,5 )& .& *e G& V$ *6 y$ J# o& Q# @Q &#.P% 1$ |% Y# y$ {$ h: *#.;* f$ z} +3 (* L^ 7* 3! h/ B{ !< L% >/ g] 3] {{ ;% w^ p] L% a9 t! _/ I- 7' P^ B{ y% I{ _q U^ 9* U^ a[ t- t! L% `% a, S^ U* $% g] t] :% g] x% k^ I{ |] B] I{ /) L% _% o% U] x^ P^ si %! HB f/ g] =< _/ @% o% ./ m] ,= x^ ;% 1* ~9 X$ Z{ &$ =#.|: -#.;#.>#.,#.L@ Lr )( a# '#.)#.ho w[ !#.7, ~#.!_ )( e( z# {#.]#.5m ^#.p( Q( /#.(@ (#._#.:_ I> &# :#./: ~s <#.%* _^ (5 {] T2 <* 8/ `^ W^ C- B[ s$ >/ @/ c< _% a, ^/ d^ C- ;% #/ p$ 3! @%  < ;% E' n% t^ }/ S% `% q] L% S% :% .% w^ L% z7 d9 >/ t% '< s$ 4/ f/ I{ c] :% h] Q^ #/ @/ L^ :% T] :% P^ K^ '^ b> :q }$ )< _) A9 p| J- ^) 0< Z^ u! l] nb 2] U^ _/ (& 2] h] 8' w^ E% n% Z^ D% _% #/ (& n% t! a, f9 x% h] n% x% *% ^) c% !< @/ u% `% t! w3 2& g/ [/ `% L^ g] F' K{ $^ %% ^) L^ 0< =< =& c> ${ !< $* ;4 L^ =% Z^ Q% 7/ ]< 2] %% O% +% N^ b^ -* t% Dh l% 7/ b$ $$ h^ `6 '6 %% :$ W$ '[ z} S; 0% u5 K# C% (! {* *< En  $ `$ ]$ .[ t% {{ 1* x^ L% i% += a] ./ U^ B# U9 ",
"[#.6- m- w% |* h; B] {{ n- -% $- l= `; v$ d^ 3~ 5] <; E' w] 0N () +5 Z| Y# Q# '[ !% a$ o3 '% u% h) T% [/ e% $< u% ^/ o^ B4 (< L% K{ F' `% f/ (& =% <% L6 `% I{ L^ @/ W^ _^ A& b> U- F' z7 ${ 2/ H$ #/ !< '% U^ B[ Q; 0< =& |] N^  ! '% O% `% w^ !< 6% J]  ! P^ H6 l] =< v^ u% S% |] U^ 2] A6 0< Uv s! Nl y) B2 !/ U^ |< sF B] a, 4/ #& s$ @/ o% L% S% %/ 0< g/ c> M% @/ b, ;% L^ |] ~< y] x% c< %< /) Z^  ! w^ R^ Bs `: -% %! =< L% C{ L] @/ 3! |< B{ !< f/ =% c> _% @/ C{ m% x% _%  < +9  ! V7 y] a, g] @/ -/ @/ d^ E^ vo f/ A$ v- o} Z{ J# %r R; u& w9 }#.gI o: X2 bC |#.QL lQ Z/ L2 6^ mT 1#.bC w: 2#.75 ~3 3#.'} 6^ {0 4#.0& 5#.I@.J& v, 6#.,$ P/ d| =$ u: j: 7#.Zc S2 =^ ]& #e <7 ;% m/ J- ./ a, ;% 2} U] y% S^ += S% =& U^ g] >9 0< =< ~< e2 3] 3] y% s$ w^ 4/ o% g] ./ z] {{ L^ !< x% W^ I{ |] %% _q P^ :% +% U^ t! W^ L^ t! |] w^ U^ P^ m3 a, o> :% @T d^ ${ J^ y% 8/ a, w- @% 2} w% x^ a[ W$ @4 h$ b> V{ w= a> -< m] $% _q B] J] ]/ ;% o> V] k^ C^ e2 2] -< S9 1/ -%  < Q' z7 o% += h]  ! w^ H- %! V* tq j$ O^ N9 C[ J- 0< C~ @$ r5 $$ _| O6  / ]/ U^ W^ I{ W^ #9 *< ]/ #/ w% k/ |* q^ c> #/ s$ s$ q2 =< m% w- I{ ~< (& %! =< w- k/ @/ I{ :% @/ B] _/ Q^ B] 6' 1]  ! i% m] Q; B{ @% Xo |] O% g7 :< 6/ += m3 V* E` Z} (} A! W< S% V^ f9 L% q] `% /) _9 X^ q2 :% 6% J- %/ o% #& x% [/ @/ `% ]/ )> @/ _% q] J- iP d! }5 =& sj >9 y] O% Q^ (& S% y% L% ${ 6/ x% /) ;% W& +% a, 2L >/ p7 T% !/ 5$ 6% O% :< 2/ <% L^ `% 4/ }/ =< +% $* >/ c% =& @/ D% Q% </ ]< %% Q% =& 2& r$ '% #< $* P% 2& f$ -* p$ 5% Y& )^ =^ Z; E$ w5 ~^ _M K^ l* n] h, B} !% ]$ L~ G4 w- |] g< 4* ]/ V] ~/ += j$ #& lV ",
"8#.-! -% f! 7* B{ {* x* 0* 1* i* /= T; t% +R ,~ ;% <; I{ !< /~ N# () B2 s{ M$ 5% '6 #& {% Q% g7 */ (< %/ w3 (< t! !< </ q[ 6% (& l% (< p2 l% B[ K# P^ 0/ Z^ L% m% O% i] Q# >6 .  <* i/ U^ L% =< z7 =< _/ W^ )> E% `% c> 2} U^  ! U^ J8 l% ;% m% n& !< w^ S% L6 +% Q) 2} =< :% h] =<  ! `% s$ =< #$ O! $$ +5 *] 73 z- Wo l] K^ q^ u> +% E' $9 @/ x% H$ %/ t% |< `% I{ a, `% (& _/ 1/ _% =< {{ @% g] u%  ! @/ =& 0< t! s$ S% k/ =! _% f/ q^ y{ K^ w^ q^ @% <% L^ |{ |] `% |] y] :% ^) C{ w^ y] R5 `^ f] m/ O% v> 3! L% _q I{ #/ (& h] #4 :$ !6 v: +~ @% A9 t! p] k/ `% !< h] 1K L% s$ $< </ 6/ >% |< 3! |] c> GU %{ {! #/ |] 6! p/ v> i% 2] @% #/ G4 L% b, B{ u* b] |* W^ o; >$ ($ 1[ N< I* :< m/ L^ #/ z7 J- *< I{ ]< B] =< t! o> |{ 9* 3& 8' ./ N- {! N^ ;% 4] $- U^ e2 s$ 4/ y] 2} 1/ y] B] 3] B{ {{ [t B{ V7 6l U^ t! _% g/ N^  ! @% L^ m, m/ p] a, !< X^ !< u> `^ L^ *< y]  / B{ P; R^ d^ t! R- >> S& :5 g} %8 D% $9 |{ t- P^ t^ ;% 2] o] 2] m] ,% s$ $9 V* 7] J8 1* C{ _q B] x^ |] y] 7] S^ |] C] x{ 2} h% u% f/ A$ |] }5 9#.>/ Q; ,5 |[ q% @] /3 N{ k/ a, g] U^ w^ ~< $- ]/ `% ~< ){ !< 2] D% B{ =& @/ t! q^ z7 P^ L6 4/ p$ D% &/ |] !< =! @% x% '< o% a, ;% <% $9 a, 0< u* K^ d^ !< X^ J- L% N9 w^ >/ X^ i% ~/ f] =& {^ Um %6 .5 c] L% J- l% y] @/ (& @/ Jt t% <% w^ b, a, J9 $* f9 a] f9 2/ L% O% ./ L% #& S% `% 6% =< 8' &/ j$ `% C^ #/ Z^ =< }/ L^ $9 (< O% Ht `% (< 0< W^ k/ u% o% p2 D% Z& ~< ${ ${ =& p7 >/ ]/ 6/ E% @/ ${ F' B[ m% U% +% L% b^ <6 4/ F' +6 d^ )/ $$ w6 b$ p$ 7/ b% -& 3% 0% B# 3$ !& S& S; K# 19 kl {J t! R% k* :- 64 f$ )5 +l x^ {{ x^ E' a, 0* #9 @% |* q^  6 RK ",
"0#.J= A- S^ /* e2 ,% += v) 4* N- -= `; .^ lr J' 4] u* K) L6 9k W< :$ #1 !^ Z{ '[ q% /^ -* +% o3 c% (< r$ F' S# H$ w3 =& N^ h/ $9 F' H$ H$ _/ .% '% ;% %< N^ L% ./ l% w* E$ !& v5 -= g/ ${ =% K{ %/ ,% _/ U^ o% F% c] =< ${ #/ `^ u% =& n% +% `% &/ 3! un w{ B] HB @%  < g] *< %! l% += Z^ a, ~/ :% P! 5! Fl n5 J/ %5 (* !< Q^ o> _/ |] m] 0/ R^ N^ `% y% 6/ $< ;% 3! |] h] W^ 1] y% `% g] #/ 3] |{ 3] 0< a, g] a, S^ g] Z^ {{ L% a, z7 o% |< 8/ g] a, B{ w% }5 ${ =& }/  < 4/ $< s$ z7 a[ O% u! 4/ V7 D^ L% =& B] |r m] h/ C- K* S< %] >$ 94 a#.O% y% |* q] *< 3! }5 |] 3! t! @/ 8/ w^ ;9 ;/ v^ y] ;9 6' %{ w* mR c/ l] o^ y% w^ }5 1/ ]/ ./ rZ Q^ 4/ U^ B] t] ;% >9 c< 1) g> $^ A& V: r5 Ep i% `^ u* 3] ;% m- q2 J8 t! 7' x% ;% L^ += U^ |] z7 `^ o% w% _% Y^ &/ ^) |] &/  / HB %! L% t! -/ W^ ~! `% B{ 6l :% :% P^ b] m] W^ x% y] -% P; Z^ =& &/ $% $9 y% ;% s$ n] 5/ N^ _/ z7 m/ 7/ n] P^ S* ]3 `# $$ W$ W* q$ j$ <u b] L% #% L% L6 z7 %< 3! 1/ @% 3] g] _% @/ 1/ i] *9 Q^ s$ I{ t- C{ o% `% _% 6!  ! t! t] |{ x% {J |] P^ Z^ &/ 4/ FY ,] W$ U$ 7& .$ E9 1/ ;4 s$ m] x% ;% s$ ;/ %/ 8/ B] s$ ]< V7 ]/ z7 6l }/ t! |< :% J^ w{ @/ =< @/ B] 4/ L^ a, j$ =< :< L% h] c> B] 7] q^ t% D% $/ ek B{ =& H$ a,  ! /) h] d^ 99 =< @6 /P <] X{ KO K) Bs `% m3 &/ o3 8/ m3 Z^ >/ )> [] O% =} ,[ L% i% ;% 89 E% S% 1/ F' 5$ 3! ;% r$ >/ Z^ L^ t! 5$ l% g/ O% =< w3 @/ a, o^ ${ :< @% t! =< =< $< r$ g% m3 O% b$ c$ U^ ${ 8/ ^^ t% K{ u% l% k/ p$ c% 6% L^ |/ ]/ H$ 4/ _/ '% p7 +6 d: 7/ )r g7 +% $& )/ k/ i$ d% l& K[ c& '[ %] S; /^ W6 E$ Qq f* 8] j$ F= t4 ~^ 1| fl e2 p) N^ w- x^ =< g] U^ d^ 6l p7 qn ",
":M #[ Q^ G- (* P^ N* H- H- a] != F* S; #^ g/ !~ w] q^ $- M%  p dc Q& =p  5 k5 0% c& !% Z& (< b$ $& O% =% !< F' @& O% =< s$ l% }5 L^ 7/ b#.L% =< P^ (& %< @% q[ ./ B[ 2* X6 [$ v5 n= W& KO R^ (< /) t! j$ S% Z^ 2L +% q2 t! |] m] B] B{ u% B[ q2 =< t! {! Z^ 3]  / a, w^ z7 +6 {{ 1& _% ]/ j] @/ g/ Fq c#.U$ f$ .& g2 +/ 1] 2] q2 B] L% 5] N^ }5 0< h^ L^ Bs _/ h] `% l] h] S^ O% =& s$ =< 8' 3! X^ U^ t! @/ J^ :% ^) N^ ~/ P^ &/ 3[ E' L% g] R5 @/ w^ }5 =& l] g] P; x% x^ |]  ! 4/ 5] 4/ N^ f/ }5 x^ z7 p] ,= t! g] `% |] u* >$ A} 3$ L< )> W@.Q^ B] I{ =& ;9 8/ 4] 1/ C- <% 4/ A$ @% #/ L% g] h] un @% w^ a, U^ 7' /%  ! {{ %! B] %! z7 e2 ./ %! f/ @% @% ;% L% &/ m/ 4/ u8 @4 2% Q# Q: r* q^ ;4 1/ @% I{ w^ `% @% V7 y% q^ ]/ `% @/ y] S% 7' 5] `% s$  < ~! B{ a, U^ h] h] ;% 8/ g/ !< @% f/ d^ P^  ! Z^ :% 9a ${ a, B{ $% !< A$ 1/ =< w^ I{ x% $< ;4 B{ p) i% (< Z^ L% r$ @/ s$ =% m/ @% z7 x| z} Q# m{ U@.B[ S9 L% j] x% m^ Gh #/ K^ i% ./ %{ s$ 2] @/ h] U^ 4/ U] x% 1/ p| N9 &/ {{ x% :% |] 6' 1/ |] x^ A$ I{ &/ ,= :< B] 8< 0< V% Q* '6 f$ S& j{ N* !< @% 8' -% 2} $< ./ }5 L% |] Z^ @/ A6 q^ l% I{ J- E^ C^ w% %/ w^ !< L^ H- `: L% h] 3! U^ `% J- E^ S% z7 S% l] W^ =& L% x^ f/ `% E^ {{ @/ =} #/ l] 2] j$ 2} Q% #* kl L! +^ 0% ~! U^ c> 1/ c> )> c> m] 6/ 3&  6 W^ `% ^/ <% l% N9 %9 n% f/ .^ >/ 6/ @/ O%  ! iP :% r3 +% d^ `% t$ b^ @% ~< 8' l% )> D% -/ ]/ Ea 1/ N^ ;9 !< U^ N^ 7/ ^^ </ O% l% Z^ &/ =< `% O% T% $< .( D% H$ +% =& p7 -* _% +% 7/ h] $^ o% b^ $& F' $* )r O% A[ 4% E$ '6 )> 3% 2% b% Q#  > ,6 hl {6 jw B] v> J- 7> V} th N/ b' 4* a9 J- l] J- ./ |{ += P^ 99 o3 d#.",
"$R CB I- -% 3] v^ w- l* 1* q^ l* _= n{ b$ 89 .9 =< V7 <* #/ l, dc () Y% '[ )% n$ ;< #< `6 (< y& [/ m% !< O% '% l% Z^ n% `% k/ p$ w3 ~< L% '% l% O% h^ U^ $* ;9 KO p7 }v @& (} a$ AS 2& =< $9 #/ N^ L^ !< p7 1/ L% (& k^ C[ m/ `: Z^ ^) [/ D% a, K) J- w^ c> A$ #/ z7 L^ #/ w- B] 0< I{ y] 2} ~< s$ >/ -& R/ a$ 0% 7& 1a x^ m% C^ |{ S% 8/ f/ _/ @/ t% _% Z^ P; wv _%  / a, C{ B] S9 ${ o% a, @/ @% P^ m3 Bs @% bo 3! |] A$ }/ Q^ 6! 1/ w^ =& `% N^ 9S x^ Q^ d^ C{ g7 t! 6* `: t! t! z7 W^ o> 2] @/ I{ L% a, :% 6! &/ u* Y^ )! S3 2% S& 5! $o w^ P^ @/ C^ w^ P; z7 += m/ c> $- z7 << &/ l% s$  < &/ 8/ I{ w^ w^ D% Q; v^ 8/ |] 6! Q^ m] w- 3] t! a, U^ u$ |] P^ x^ t- 2] |{ n% >6 M! q% v4 Q3 5= p] |* d^ x% i% D% y] v> d^ S% L% z7 t- &/ t! 3] #9 -% s$ b/ S% 3! >/ t! |] P^ g] f9 g] [/ P^ 8' `% u> Gh +% x% >/ ${ 3! x% Gh -/ _/ |] += ;% I{ C9 v^ Q^ ./ &/ f/ {{ 5P  ! (& += 0< g] P^ -% oc  5 (5 V# %8 %% y% O- {* /* F% 1/ P^ B] c> =} L^  ! I{ q^ B{  ! D% =< p] %9 c< $< {{ h] |] f/ Q^ /) A$ 3] P^ e2 F' j$ q^ H$ `% I{ ]/ N^ _/ &) f{ Q# () 2| 2^ #R _% >/ P^ K^ (< b, s$ ${ m% sj @/ C[ /) !< =< 7/ o^ b9 @% :% }5 %/ Z^ $* |< l% =< 6/ @/ 8< &/ ^) c> &/ %9 c> !< %! q2 L^ Bs B{ w% @% |] U^ 99 1/ c> 6' b] o^ `& L< %r #* Fq J- w^ @/ 7D @/ @/ P^ j$ 3% j$ >/ iP %! (& 1/ c> =} #/ <%  ! k/ 6/ _/ c% *< @/ 1/ 0< q[ U^ A6 f/ _/ t! Y9 Z^ U% W^ ;9 .% #/ 3! /) O% t! ^) p2 `% &/ .% F' S% S# <% =<  T H$ :% ${ t% '% >/ (< 6/ p7 L^ ^) b$ q[ D% F' L% $^ )> e% Z^ n& <% +% Y& 9% c% o3 Z& R# J) i5 :^ %] k{ a$ a7 /^ ##.y] += T] W~ i4 %% D$ -~ ,* B] j] B] H* l] z7 =< O] 5] (< 9' ",
"qG A; 9* N- |{ j] 3] T] t- += {* B* .> i$ D6 _> 2} w- |< B] /~ e#.g& A2 z} )% Z{ X< 7% W$ 5% U^ !< $& =& p$ (< E% 4] Z& h] L^ 6/ <% </ <7 b^ '% `6 w^ 4/ P^ @% 8/ zO @[ *& f$ A& 7{ b% !< @/ A9 1/ U% |] t! q[ @/ C[ |] A6 @/ _/ N^ =} 0< `% =& u% U^ :< |] ;% u% C[ ,= 8' !< 8/ x% ${ L% '% B] _% g7 h] Bt '3 $$ [^ t: L% 8/ Z^ t! =< F'  ! t! =} s$ =< x% |{ ./ W^ Q^ g/ A$ U^ L% g] 8< /) |] ^) J- `^ [t g/ $% s$ N^ ~< h] 4/ w% a, += a9 g] 2} Z^ N^ g] !< 2] =< f/ %/ >% m% ./ x% (& :% s$ i% Z^ [t 0< /* w3 %! c< =- 7^ *] s{ '[ T8 R# %{ L^ U^ s$ S' |{ ;% h] f/  = U^ F' y^ ]/ |] L% L% t! ;% B{ a, a, ^/ s$ _9 y% w^ -% =< 8/ t! -% g] t- =< J* ,= 8/ +% q2 f/ [/ B] Fo g2 o6 g& G/ 6} {{ 3! 46 L% I{ f/ |] l] P^ &/ O% K^ y% w^ g] P^ B] y] w% w^ =< V7 q2 k^ }5 L] g] 2} q^ /) d^ l% m/ |] x% (& ;% d^ C[ m% += u* -% e% W^ !/ ${ =< a, d^ !< t! |] w- -/ o] 1/ x^ h] /) !< B{ *^ K< F& h5 3% (< w^ z^ x% W^ a, B] N- A$ 8/ q2  ! s$ -% B{ _9 P^ g] N^  ! U^ @/ x% c> I{ P; |] t! $Q f/ ]/ @/ -% F' =< $9 [t w^ w^ :% %! (! f/ *% _N Z4 (5 g& H! q2 }/ f/ |* a, U^ Xo u% Z^ m3 =& ~< u% m3 x^ U^ B] << w^ X^ ;9 W^ C[ u> |r (< s$ a, 3! L% x% t! 8' W^ t! L^ m% D% H- 8' E% S% m/ i% >/ _% u% w3 x% u! @/ ./ =& 7& [$ !% mt 0< %{ #/ ,/ (7 `% D% W^ |] (% uo _% A$  ! (& u% _/ 4/ Z^ '% 0< h] <7 H$ t% (& 8/ =< P^ ~< 7/ =& r$ Z^ n% l% n& =& $^  ! L% +% 4% @/ +% -* <7 t! `% /% `% I8 K{ -* !< 4/ d: +% T% `% ~< $^ D% =& +% w3 =& ${ H$ 4/ !< Z^ <6 U% `% $* =& 5% c$ p7 `$ <0 K$ W$ P# L& ($ 0% A& E[ Z; K$ :] M!  < (! ,= -/ n, g} t6 `4 rM ;% Z^ ,% ./ Ba w^ _% Y^ 7* A6 M6 >B ",
",P ]; P* p] S9 t! I* y] x^ += Q; I= `; !% [] t' )> G- w{ C9 A| c7 y) W: &6 0% K$ Z& b$ *% *& 7/ F' ~6 L^ Q% ~6 ]< :% h/ n& /% S% M% @/ _/ o% <% -% (& @/ 7/ a/ |] 6% d9 o[ W$ /P j^ O% N9 A6 4/ l% c> '% F' br O% %/ f/ ]/ {{ L% l% Z^ Z^ 8' $Q x% `% w^ !<  ! J- 1/ !< L% m/ a, 3! 3] {{ O% w^ k/ `: E' #$ o' ;6 ~] g& O2 n] `% t! ;% _% O% 1/ L% J- L% U^ B] =< U^ e% h] +% J8 o> @/ Z^ !< D% d^ /) y% %! >/ L^ ;9 Z^ d: l% u% |] %! yR j$ t! g] ^) 2} 1/ g/ B] |] s$ 5] d^ B] }5 |] <% p7 Z^ g] n] x% |] W^ s$ l] A$ O% :2 j7 &* f#.9; 6* |] w{ `: y] 6' w^ U^ I{ `% 3! b] t! U^ %< Q^ L% 3] ~< L% %{ B] U^ #/ U^ =< U^ C{ y] g/ B] 4/ _% x^ y] J^ B{ @% >/ 2} !< s$ u> W^ ~6 p= ^^ S&  5 /3 l* A$ 7] $9 @^ #/ 7] <% 8/ ~< N^ |] w^ L% 3! C{ g] v^ a9 H- y] U^ 1/ f/  ! t! @%  / L^ 05 !< ;9 :% ;% '% k/ O% h] B] z7 /) `: `^ W^ $< '% t! {! #/  /  < a, Q^ t! d: L^ =& i% y% -% z9 C= N< 7$ _5 83 'T 8' 8/ 0< ;% -% *< >/ 8' &/ |< @/ t- 6! W^ u* '9 8/ 3! 2} B{ x% un #/ x% ~< O% W^ _% x% S^ n% p2 1/ =% C- B] 9* w^ L% 1/ 3! L% W^ g/ g] X# s{ v5 Y# 43 v* g] a[ P^ h] |] B] d^ 3! t! :% _% P^ !< g] 4/ P^ N- 3] 6' t! L% H$ %/ M% f/ E% k/ |]  ! 7' ${ r2 )> $< |] Z^ 8/ _/ C^ F' g] |< @% ;4 d^ B] t! B{ ./ 8/ L^ :[ /t /7 G5 (/ $V B] >9 D% 4/ ^/ >9 $% @/ s$ e% t% N^ E% t! ^) a> B] 6' `% L^ S% Z^ :% !/ [/ (& (& d^ $% r$ {` =% u% a/ H$ ;9 F' d! g] Z^ `% O% (< q] =< U^ c% F' 5$ '% B[ B[ r$ h] =& q[ 8/ 6' Z^ $< >% x% 8/ %^ $< 6% @/ @/ 3% q[ _/ p7 &g 7/ r$ +% $* G$ 4% 3% K$ A[ ($ S& b$ /^ )% |% `; .! |[ i$ 6l |* N- |< <> 3| @& -] [~ d^ A$ @% g/ ,% B] y% m] C[ #/ D6 kw ",
"JH lj G* Q' {{ 6* {! U] U^ 6* 5] 9; `; }] g/ g#.h) N{ |9 m] fl /5 ]% V2 '^ s{ >^ W$ ($ ,t p$ Q% p$ )> $& u% =< 8/ Z& m% D% R^ U% ,[ r3 *% L^ P^ S% l% `% F' B{ m% F' c] J$ =^ W$ `= T% t% |< g] c> q^ |{ 0< @/ H$ $< j$ $< 3! 3! L% U^ 3! w^ ^) =< g7 6* !< c> :% M6 o% o^ L% &/ >/ L^ ]/ |{ a, o% L% =< x^ j6 t: G5 k& w& /^ !< B] =< A6 $% += $% }/ ./ t! |] h] k^ w^ 3! I{ t! |] %/ >/  / ./ U* g] I{ ;% 6' {{ |< L^ g] J- iP h] y% t! +% P^ 3! !/ N^ w^ Q^ @/ -% X^ _% a, !< @/ U^ |] 8' )< f/ x% x^ #/ _% += {! R^ f{ () 7& Z4 `7 w6 C{ 0< /) Q^ &/ @% B{ }/ (! C] &/ #/ `% B] n% 1< 2} L^ B] A$ On g] x^ u> B{ B{ g] |* M% q^ y] |] *< 5] E{ `^ t] R% I{ |* a9 g] y% !< y% =) k> v9 f$ l} '^ m, {! ~/ 4/ x% m] s$ d^ z7 a, g] 2] b/ L% 7* {{ W^ 6* B] |{ a, {! @/ X^ 2} B] P^ 3] P^  < _/ 3] S^ x% w^ )< n] g]  ! 6' f/ =< :% @/ P^ B] J- =< /) _% S% 8/ `% _% x% xC B] R^ C! 9< d} B: 2% *5  ; ;9 u* g] p) 6* Z^ %9 W^ p2 y] t! m/ D% 3! |] L% 3] B] |{ K^ @% !< w^ U^ I{ |] 9< |] F' @/ a, _/ d! +% a9 s$ d^ @% @% m/ W^ u* :< ~< 8/ h/ Qp 9} !^ X$ z2 6/ C^ z7 t! m% L% |] =< q[ !< z7 O% &/ >/ ]/ U] 8' 1/ w^ x% &/ +9 /) 6/ !< L% x^ {! ${ ^) W^ !< @% L^ o$ S% t! !< _/ p] `: =< p) u* p) P^ =< ${ g] ;% ./ #/ r% hl zo s{ t% p| z7 g/ @/ L% -% ^) =& /) u% h] f/ t! 7/ (& Z^ f/ 4/ O% s$ S# -% <% =& D9 @% [] :% H$ L^ %< H$ k/ @/  ! [/ =} _/ ${ D% sj |] `% L^ r$ e% ^) l% [/ *% *^ @/ g7 k/ k/ _/ -* d^ z7 z7 g/ L% n% {% t% F' Z^ A9 Q9 O% =< ^) b$ !< i$ p$ B[ =& .! </ Q% <% s{ E$ 4% q% W$ ,^ (5 S; P# L< A! V7 << 1< oF }; W} K% D$ +! U^ n- @/ y% >/ Z^ <% J- B] y% E% 35 ",
"oa I; x^ 8] =! T] -% c/ u= i* j] ]* S; !% t$ h#. < h% ./ d^ 5k f5 Q& [| k& f$ :$ 0% .^ Fq N% S# 7/ b^ !< +6 w3 '< t% _/ +% p7 `% p2 r3 [< (< z7 S% S% L^ z7 d! x% JO |] o3 Q# @& I= =& ${ @/ ]/ t$ A6 `: |] 1/ W^ U^ A6 =& 1/ d! x% d! 8/ @/ Q% c> U^ t! P^ 3! w^ |{ mR q^ W^ !< 2} c> ~< e% t! n% !< C^ <% k$ [I #] 7$ (5 #3 d* TA 2} g/ |] B] |{ y] Z^ |] += Gh ;/ h] I{ x% x% |] N9 L% ;/  / $9 >9 f/ v^ @% U^ p2 B[ W^ t! ;% o> ;% B] xC |] |] Bs a, 3! _/ 3! 6' ;% ~! `% ]/ &/ g] |] t! W^ =< @% t! :% q^ s$ 2} S# g4 &* j% G# m^ /) 1/ o- @/ L% d& Z^ `% @% O% P^ L^ 5] h] 3! w^ }/ }5 t! s$ Z^ |* %! u> x^ ${ C- Z^ L% h] }/ c> `% y] {{ N- @/ @% w^ *< t! ;% 3] m] V7 1* -& Ps +7 %] 2% x/ E* k^ q2 i% xC a, 3! y% 3] J^ %! @% S^ a, C- P^ P^ =< P^ L% <n =& 50 w^ !< e2 X^ %< z7  ! L% A$ _/ Xo [[ -% m/ !< =< -% y] U^  / a, M% o> E9 g] d^ {! s$ &/ x% 3! F% t! U^ M) |] m- L2 n5 ~^ Na 0> z^ ;% `^ e%  < >9 $% t! P^ w^ $< d^ w^ _9 L] I{ @/ =< t! L^  ! p] 8< q2 `% P^ %! @/ z7 P^ t! ./ @% ./ =% I{ :% =< /) ;% I{ a, t! &/ >/ }/ ^$ /= ~] .$ 7& L2 <; q2 j$ F' 7] +% |] t! %/ L% $< 4/ |] t! a/ >% a, W^ @/ $% ${ 3! N^ A9 M% =< `: !< x^ _% _% `% h] #/ W^ t! a, uo p) Z^ L% B{ #/ _% `% H$ {{ |u U^ Uo B[ ]& [$ !6 j% o^ `% D{ .^ 8' Ea ;% A6 s$ >/ @/ L% Z^ d^ L^ [/ _/ l] _q L% '% D% $* L% Z^ E% O% d! c> I{ (& !< #/ !< B] 6% +9 l% l% (< _/ ~< WO  ! ${ a, K) C^ w3  ! /} o% -* l% D% =< -< t! '9 F' l% =< L^ &/ e% Io !< O% F' L^ O% o3 _/ r$ `% A6 E% p7 =& *^ 2/ $^ (< ~^ f% V$ z} W$ !& Y# `; `s YV $& 8X p) m, U^ }; g} n[ .] A| {{ -% n] {{ ~! O- &= 6' w-  / =} Cp ",
"s> P) u* v- N- {* 0* A^ y% |< p) D*  > W$ o$ f) 2} w% f/ =< K! q} j} O| |[ Q# f$ )6 AU 7/ 9% !< b$ 0/ $^ w3 ${ `% ]< 5$ F' t% U% F% o3 m% w3 0< 0/ 4/ %/ E% 2} %% f$ mR @& -$ /^ F; t! ^) 0< 8/ @/ B[ N^ _% $< =& p$ ;% a/ 5] ${ W^ (< ^) t! 2} B] ;% 5] U^ ~< s$ W^ y% x% B] w^ C[ %/ O% 6' L% s$ F' ;% w% &/ ~/ V& K$ V$ &] 3| j) p) ,= y% _% %/ P^ 3! Z^ ./ L% 3] [/ 7' x^ x^ t! 1/ w^ h] w{ y% x^ |] B] ;% o% ;% 3] x% z7 ^) K^ 2} y] h* g7 ${ S% D% {{ G4 N^ |{ 4/ s$ x^ |] m% U^ U^ |{ U^ 2} e2 L% U^ :< 5] <; `< j% 2% ,3  8 d^ w^ :%  ! N- w^ ~< W^ y] D% ;% N9 =& B] $- y] |{ $% y] =& P; |] a, f/ J- ${ C[ C- C[ B] @/ t! @% $% '% S' -% @% c> -% B] q^ %% %! N- A9 h] h] w{ `# (6 2% F} B} 9a C{ N^ I{ U^ qO x% {{ m] w* x^ y] $9 9* S^ m] $% a9 /* |] a, 0< C^ W^ B] $% i% W^ d^ %! |] &/ x% J] ;% w^ l% 3] i% {{ ~< W^  ! |] |] w^ w^ |] %! /) B] ,= =< x^ !< a, {! v) x| 7& &] %5 Lq m% k/ W^ y] y] B{ 5] a, `% 1/ {{ ;% ./ g] |] I{ 4/ t! 8/ w^ #/ _/ c> h] 3] C{ g] g] )> )> W^ ${ 4/ u> x^ p) F' _% R5 t! :% V7 x% x^ Q^ `% $9 Da i! +3 !^ %] p} v4 Fg g] ]/ @/ $% ~< a, d: 0< ~< m%  ! #/ d^ W^ -% F' KO a, J- >/ _% >9 >/ #/ Z^ U% q[ 2} s$ &/ L% Y^ @/ m% A6 S% h] $% =% m] O% 0< 3! z7 0< N^ S% g] :< Y4 M9 }] #] e$ f/ %{ N^ `% E% >/ y] 4/ F' /) Y9 Y9 #/  ! S% _/ D% p2 h^ w% /) <0 r$ N^ e% S% k/ ;9 %9 Z^ ~< /% B[ '%  ! W^ p$ [/ `% U] r$ o- J8 N^ P; O% o3 j$ =< $* 5$ $< w^ &/  6 2/ B[ <% </ <% #^ %% L% b^ Q% ;% $^ L^ W^ ${ Q% s$ <% f9 A6 $* A6 O% B4 [/ B# H$ b^ i$ E$ q% c6 ($ &% S; -^ r9 =} xC w% U] 3! i) k3 M$ ]$ Jp g] R5 d^ @/ p] Uq V] U^ I{ %/ (% !{ ",
"V5 U- 5] J- u* m= C- H- 4< 7' i* ]* S; 5$ D6 Xd }t i% /) /) i#.a| .5 A2 (} M! {% b> A5 /} H$ K$ )/ w3 Q9 o3 6% u% +% ,< A6 L^ `% k/ ]/ '% (< w3 @& <6 0/ h/ Q% _% b$ +[ @& K# X< d; d! L^ $* $Q =& &9 x% L% ${ e% x% A9 a, p2 Z^ d^ `% p7 Q^  / `% S% k/ U^ v> 0< =& @/ #/ ./ @/ _% a, q^ %{ !< S% L% S% si 4/ `% 9n 3| X# r5 C2 ~< ,% @% F' 0< _% N^ r$ j$ a, @^ L% h] A$ p7 U^ d* z9 U^ m/ C! 2} !< <% q] &/ -% N^ L% ^) |< ;/ |] y] N- P^  < L% C^ L% Z^ m/ &/ a, a, `% =< $< N^ 4/ @/ _% !< z7 u% 6' !< }/ S' '] )5 r5 ;] 2; j% %% c> e% 3] I{ }5 K^ @% =< 4/ ${ L% a, t! A$ w* L% q2  < w^ $9 B] g] B{ l% m, ~< x^ &/ X^ L^ y% _% =< h] q2 p] 3] !< m] -% %! P; C] E' /< |] W^ Y9 j#.p4 D& $$ C: _} m/ #/ u% #/ @% h] _% y] c< =<  < t-  < /) P^ L% -/ x^ o^ w% C^ %9 y] a, L% L% U^ F' w* 0* y% o% L%  ! b] w^ D9 C{ %9 !< #/ x% =< ;/ =& 8/ U^ d! @/ x^ |] c> m] h^ &/ Y^ !%  4 )] ~^ c} Y^ N- i% 3! 2} 3! P; ]/ v^ I{ _/ 8/ z7 !< ${ s$ L6 2} l% C{ h] O% d^ 3! @% L% U^ -% m/ S^  ! {! U^ U^ L% o% g] 1/ ,% R5 _% 3! t! L^ L% q2 }/ x% u! .( g) y) $g )% T2 +; g] ]/ '% s$ _% 4/ d! (< p] un ,[  ! ;/ 0< 1/ f/ t! B] g] O% _q S% %% 0< W^ z7 p2 L% a, Q^ |< P^ @/ }5 g7 t! 2} #/ */ ^/ @/ d^ O% d^ D% z7 L% DP 4/ /] |[ J) %] G# %{ E% `% h] (& u% O% >/ 1/ {{ >% c] X^ >/ S% |/ >% :< b% S# 5$ <% B] !< <% t% ;9 $% #/ g/ h/ L% #& w^ B{ =< @/ o% C[ u* -/ ]/ 2/ /) O% T% =< =& b^ _% r$ _% p$ (< |] l% S% F9 D% d& -< $< 5$ n% `% `% n% L% !< q[ <% @T ^) 2/ $^ d% .^ +% h^ F' '6 i$ ,[ b% 2% L$ Y# Nl ^6  > K4 Mq }] ;/ o> t^ y% ^- z2 b% M# MO w% 5] x% f/ Do :% I{ x% Y^ 4/ /% )x ",
"JH 4w G4 h] [[ C] P; 3] o] q^ S* -= k{ I$ A6 u2 {{ m] ,= e% Q~ zk k& In jc &* #* Q% $* Z$ $^ <6 i$ )6 Q% l% +% e$ $& M% )> ${ H$ +% _% %{ </ 05 5$ #/ ;% L% !< r$ i$ [/ D' 3% W$ a* 2& W^ Ea B] z7 t% '% C^ 2} m% p7 X^ !< 1/ ${ w^ F' 3] S% a[ o% &/ y% B{ @/ u* L^ (& /) R^ @/ U^ ~< L^ ]/ &/ t! S% (& m3 =< -/ L$ G= /^ W$ :5 ;3 S= t! 8/ t! $% q2 8' P^ g/ ;% !< d^ O% w^ t% Z^ u* o^ B] 1/ c> 8/ |] t! _q t! ]< dU x{ K) #/ x^ $< s$ |] <% L% $< ;% p$ %/ c> q^ z7 |] $% P; =< $% B{ S% ;< @% q^ !< W^ 1] /) 23 `/ k& Z2 k#.L] z7 &/ n% n% x% -% l% z7 O% N% 3] |< S% B] L% |] !< w^ =< =< g] z7 3! w^ W^ y% |] U^ :< M^ l% a, ,% w^ x^ W^ x% g] W^ &/ d^ @% a, JQ U^ q^ 3! A$ 2} l#..= I$ S& )] #3 @; $9 U] |] p] d^ u* Da w- B] P^ B] L^ j] f] m] w^ N^ |{ J- `: 7' 8/ f/ x% y% I{ B] x% {{ I{ L% C^ h] |] O% ;% =& x{  < x% `% @% $< s$ z7 U^ N^ N^ ;% L% /* q^ B{ |] o* >> nl !& W: tZ ./ p] a, V7 W^ %! &/ &/ ,= 4/ 3] 3] U^ =< x% ~< $% +% a, ,= !< t! z7 y] B{ O% E^ t! v^ 1/ U^ 3] ~< _/ +a W^ +% s$ a, x^ $9 U^ B] }/ z9 Z^ ;% W^ =< $- =% |$ >$ @$ ]] o} P^ ./ Q; %/ `% P^ n% h] c% g] N^ K^ N^ 4/ =& =< f9 8< 4/ (& $9 %9 1/ W^ W^ ${ $9 [/ j$ 7/ $< U^ N^ >/ s$ L% ${ $% N^ ^) q2 w^ y] u% |< $% 2} v^ @/ G& -$ ;6 k& J9 :% vo n& 2} t! K{ _% X^ K{ 4/ ,= o^ u% +% (& .( @/ U^ p$ $9 O% L^ o3 s$ r$ j$ -/ L^ 0/ (& u% !< w3 D% 8/ 0< O% u% L% o^ 05 |{ @% 6/ '% 6l x% 5$ w3 N$ +% ~/ F' >/ o% ${ k/ h] +% <% ;4 !< =& c% r$ 4/ (& n% p$ c% (< e7 6% /% B[ n% 5$ b^ r$ $* r$ P% b% !% {% 6% S& &] ~^ S; L< +7 w3 _q i% x^ a, R! Y% $$  5 yS |{ ./ C^ x^ W^ c/ x% D* ${ a, o3 tU ",
"m#.*~ 5= z- y{ a- t- `* x^ K* t] 6- `; Y& O% k..]< w- 7' -% b5 Kk $5 L) ~^ X$ f$ s{ ^^ P# '6 i$ U% 5% 7/ ^) Z^ -& g7 ;9 t% #& B[ S% B[ m% D% `% .( o^ +% D% N^ =< -& Q^ v$ n$ xp y' :/ [< 1/ x% =% %! l% L^ =} }/ '% _/ !< p) K^ 8/ =< 8/ h/ A$ ZM ]/ 1/ t! O% o% B[ 4/ l% d! y% _% =< q^ U^ x% Z^ t% X^ <7 d^ [/ *< _~ gI f$ 2% h& *& J- w^ -% P^ |< p7 += x% :% 6/ !/ $% m/ h] {{ ;% a- P^ t! E% 8/ @/ s$ E' `: @/ c] @% S% A9 6% {* y% M% W^ L% t! 1] e2 %{ %! Z^ !< U^ L^ 3! E9 ]/ 4/ 3! B] z7 $< C# U^ {{ %3 )^ B& N& CQ >$ 8< M^ x% -/ ;9 +a I{ |] ;% %/ n% P^ z7 <% ]/ x^ C^  ! z7 |]  < @/ .% +a t! ]/ }/ !< S^ y] z7 6' 3] t! C{  ! |{ C- y% U^ #/ y% K) |< s$ @/ |< U^ =& h] U^ n#.+3 n5 V$ v} A! A$ P^ I{ E^ ]/ @/ k^ |{ >/ -/ B] B{ {{ $% ;4 -/ j] t! z7 P^ :< #/ }5 L% h] &/ {{ B] %! =< k^ 0< ;/ m] !< m/ o#.z7 %! >9 =< O% @/ =< :% 4/ @% O% :%  < 4/ 9a Z^ zn S& Pd *5 |% #0 %7 u% q^ x^ W^ N^ o> |] s$ D% g] ]/ |] ~< I{ '% ./ t! ;9 =< K^ d^ 8/ @/ o% ;% y%  / N- I{ B] S% J^ =& q^ 9< _% a, 3! Y^ w^ Q; w% _/ J- Z^ <7 %! ]/ _% 3! ${ )8 x4 g& n$ '4 p| HB ~< B{ O% 1/ %/ |] g/ 4/ t! ;% )r %V L^ q] ${ 3! @% B] _% @/ !< |] P; `% U% $< L% A$ >/ @% j$ k^ {{ =< L% @/ >/ j$ _/ f/ `% 2} 8' c> ^) E' z7  5 t5 C6 q5 2/ >[ s$ 6' m% ^) c>  ! L% D% >/ ${ c$ =< $% $< c> T] 05 g7 _% @/ x% /) 4/ _/ n% 5$ '9 W^ x^ K) !< -/ U^ $< @/ =& ]/ =< N^ `% ]< 2] g] <% [/ -* =& r6 ]/ +% L^ @/ `% 8/ e% $9 (& d& =< ;4 L^ F' p$ <% ]< .^ 8/ U% ,< Z^ h] p$ %% -& c% T% d/ 5$ r$ A6 q% '6 b% P% .& >$ :$ Z{ S; *& M9 W$ si p) {{ >/ p! h& i$ ]& _~ H- u> S^ k^ I{ c> v^ x^ 2} C{ C6 :) ",
"7r [= E9 {! m= 8] x^ {{ p) += i= Y- >> c% ^% ') {J u* B] p2 zq #| *] %1 j% 7$ )% 4% Z$ 3% 0% n& 0/ n& <7 H$ $* $& t% =< %^ H$ sj 8' ;9 ;9 o% |] $< 6l O% =& L% a9 6l 8] /^ q% d% e* d: 1/ L^ u% s$ l% r$ l% o% a, !< W^ p] k^ V7 4/ y% /% =< 9/ t! @/ '% P^ |] +% 1/ t! !< _/ 7/ =< w^ f/ ]/ 8' 1/ U^ 0< x% O% d^ ]/ '6 mj r5 ;* U6  > 4= B] ;/ @% ^) =< m] }5 I{ M% }/ v^ @/ _% w^ !< q] d^ ./ s$ ${ c> x% W^ 1/ t! #/ L% U^ =& %! :< K^ E' q] `^ m] _% #/ %{ #/ 7' B[ d^ #/ Z^ O% `% 0< h] s$ 3! a,  / Z^ +% D} !& :^ 8& :* 6' B{ g] |] x> U^ %9  ! x% O% `^ ~< 6l :% i% U^ ;% 2] p2 8] D% 3] @% w^ !< }5 _% x^ R5 W^ 46 q^ c> y% ;% Y^ y] U^ g/ x^ $% $% l* F' c> L% y] += D{ k^ 2}  / q7 p#.(} :$ ~^ E2 {* @/ a, a, =< x% m/ =& N^ d^ o> !< }5 x% }/ #/ +a h] %{ W^ }5 D% y% }5 >9 Da 6' !< 3] 4/ Gh #/ `^ U^ e2  < {{ ./ P^ o] :< f/ M% @/ 1/ B] L% L% J8 += S% B] B] =9 @> t6 %] b{ (~ y] Y^ L% o% B{ L] h] y]  ! k^ B{ t- 3[  ! x% C- m/ e2 &/ 3! Kn _% E% a, B] @% t! &/ 6' n] =& @/ q^ += @/ q2 !/ w] L% -/ f9 F' 46 Z^ =< Z^ ~/ -p L% 05 W^  ! >6 {{ z} 3$ Nl S2 S9 6' c> !< f/ E% :< L^ U^ &/ W^ '% {{ L^ N9 L% |< k/ d^ |{ :% ${ Z^ d^ (& q[ y] t! `% 1/ 2] {{ =< 5$ F' |] S% -/ S% z7 @% u% |] 6' t! F9 x^ J- /& B# A& )^ p7 _/ c> )> D%  ! r$ !< 6/  ! @/ 2} ^) %/ >/ ${ p7 d^ |/ A6 ;/ x% u% ]< c> %< [t c$ 0< y] N9 (< J- 6/ w3 4/ _/ 8/ L^ 0/ 4/ O% D% '% K^ a, =< y% 7/ L% }/ =< n% L^ c/ ${ $& j$ +% (< =& x% W^ N^ 6% i$ X^ !< n% 6% J9 '< 7/ i$ p2 p$ o3 K[ 6% >^ d& -& 2/ /6 l$ s{ .& r6 3$ n[ Z; ]^ 57 L! ##.H* t] 5] n, }| M! g& yS y] w- S- 8] N- m/ i% I- 4* 9* o$ tU ",
"'* R4 =- K* n] B] -% U] o] ,= i% '- `; $* )> BE B] K* |{ |] er g3 )^ U3 j% F& a$ 0% (6 K% Io 3% P% 3% o3 O% =& $* Z$ 4/ +% O% r$ F' t% S% +% ;4 #& 7/ 2] O% %% >/ Dh w^ o[ P# [^ 6t F' o3 |] Bs +% !< N^ 0< (< _% O% @/ I{ l] =& Gh N^ 05 4/ M% e% W^ B] @% (< B] '% &/ f/ z7 }5 w^ g] O% x^ w3 %/ g] w^ 8' t] =< :% lW G- =e [$ (5 F# z} p/ 6* P; >/ q2 m] g] ./ 6/ 5P y] }/ a, q2 z{ &/ d^ a,  ! I{ M% c< 4] t! (& d^ +% y] 7] t! >9 2} a, DP F' w^ >/ 1/ :% q2 q[ k^ 7/ g] L% }5 a, L% %{ Y^ '% D% m/ p) x/ @$ ]] d| q#.P; t! J8 !< 0< h] g] x% <% |] Gh B] Y^ t$ f/ @/ |] 8/ %! B] m% h/ %{ 1/ a, m/ U^ @% 3[ %! 3] L% B] x% B] += g/ u! 8/ %!  / y] ;% C^ I{ Y^ i] z7  / N9 |] m] ./ 7* n] _$ }] 2% Y4  5 U] ~< c> x% #/ ]/ 8/ )< t! 8' x^ x% s$ !<  ! ${ q2 @% E9 w^ x% 2} B{ N^ f/ m% v^ s$ ;% ;% P; _/ $< 0< o> L% f/ &/ P^ B] U^ 6*  ! S^ @% )> B{ d^ 3! 6l U^ R5 g2  5 1[ 7& r#.q% 2] !< 7* |{ 4/ p] p] d^ U^ =< g] ,% $9 p] >/ 05 u> q^ B] L% Z^ =< `^ 4/ L^ ;9 &/ B] U^ p]  < g7 M% 1/ `^ |< g/ $9 += '% q^ ;% =< s$ X^ x% |F O% U^ Q; t! Z^ t! fQ Y; v& -$ S} L& <M |< ]/ (& /) j$ {! p] +% `^ $< 4/ (< Z^ B{ N^ N^ t% `% L% 2} O% @% l% S% $< Y9 Q^ ${ *< =< u% P^ 4/ 6% |] d^ ,= C^ =& m3 K^ !< 3] 8' /) p7 +| !6 ~^ I/ e+.Z^ Q^ L% L% RP Z^ u% S% |] @/ @% O% L% '9 =} |] k/ s$ `% x% .( >/ t! _[ #/ s$ $9 v> !< ;4 4] t! t! l% p7 -* S% #/ I{ b% +% !< >9 y% $*  ! 8/ ]< l% ^% r$  ! '% o% a9 c/ %/ [/ +% L% w3 (< ;9 F' `% '6 D% (& %< l% +% p7 D% 5$ 6% 2/ B[ @& ]/ r$ P% G$ 5% 3% P# W$ Q# Q# L< S; /6 /7 B# C- {{ =! =& *0 I} P% 3$ e! O* X^ J] 3!  < x^ B] L^ -% @/ #^ `p ",
")* O; Y* U] |* B] w% =9 V7 a] Bn U= S; b^ r3 s#.m3 6* ${ %! 0C 1U .$ W: |7 -$ >^ [$ >$ S# d% T% L& c$ 6% e% (& w3 %/ '6 T%  ! [/ (P d& L^ %% @/ K$ W^ @/ $^ |] '% R# 5] V6 ;] Q# 0l </ L% L^ )< 2/ 3! P% U^ $% h] _% j$ i% 3! $% [/ _% =< :< U^ {! U^ _% Z^ #9 3] 4/ c/ t! 9/ N^ S% ]/ 6' Q; =< L% ^) @/ @/ 4/ O^ @/ *9 ;< TK `} *5 X< x| q/ A$ |] h) @/ a, %! oF `^ B{ B] O% 2} M% ~< `: a, L% 3! z7 x% r$ `^ f/ 0< KO L% :% z7 @% -% P^ :% f/ |{ J- <% P^ 3] Z^ i% |] :% z7 =& $% x% 0< :% @/ [/ t! @% B% {5  % X$ f& [< m^ g] S' }5 m% 8' '= U^ _/ U^ 8/ ;/ P^ y{ 3! B{ W^ U^ B{ :% |] U^ S% a, |] U^ U^ U^ y] N- =< &/ ;% `: 3! w^ P^ W^ 3! $% v% :< P^ 3] b] 4] 3! ./ q[ ;% 3! &/ B] @% H$ xQ H# )% .$ U2 V* n] x^ 6' &/ g] -% z7 U^ %/ C^ Z^ |] (< U^ :% s$ s$ L] =< L% ;9 f/ `^ k^ :% i% G] Bn M% W^ 7' #/ |] :% (% $% P^ 3! |] }/ Z^ 4/ ;4 a, m/ #& 2} ./ X^ E^ g7 04 )] k5 ,a p> 6! o% B] Z^ #9 5] x% %{ c> H$ a, @% I{ p7 3] w- t! $% s$ m/ w^ 3] s$ x^ g] &/ @% s$ 3] /) B{ q2 B] >/ !< t! {! t! 2] o% @%  ! N^ @/ $9 |] w{ j$ L% /% 3! ;4 K) B- Dh f~ Y{ g& Y# mc 1* U^  ! W& >% |] D% B] C^ B] ~< x^ I{ PQ x% L% i% w^ %{ @% a, t! 2/ [t O% o% f9 3o `% B{ L^ j$ <7 _% x% D% =% N- @/ (& `% H$ ${ _% L% t! %% @5 }] J) `# z7 :< S% `% B] !< :% B# u% L^ A$ d! L^ $< s$ -* ;4 4/ u% B[ w3 `$ 8' S% =< ${ x^ L] P^ P^ $9 ~< S% )> B[ _% n% th D% _% B{ 1/ S% Z^ |{ w3 p7 A6 ;9 O% =& '9 4/ )> D% =& u% ${ !/ S% |u @/ x%  ! A9 `% H$ !< @/ !/ H$ N^ /% H$ B[ 5$ [/ 9% 4% W$ :v P# Q% 7/ p$ E$ /^ :$ i: U$ S; 06 t5 u5 Wp ./ x% y{ n= 4| [$ )^ eC y] 2] |{ n] ~< P^ l] c> B] R^ D6 O) ",
":M @w [* P^ n] 3] 2} `* b] +9 k^ b= j> 7/ V^ t#.;9 ./ V* c< CO 6V 1[ s! .5 &$ >$ 7$ [$ p$ 7/ d% $* p7 4% i$ )> p$ E6 A9 @& @/ !O :<  ! O% =& $% $& _/ L^ B[ ${ 0< i$ i% v6 :^ _^ >e Io {{ x% e/ <% !< c% ]< q[ F% %/ P^ L% ;4 B] `% P^ g] t! W^ 8/ A$ s$ s$ ;/ _% p] /) a, 05 S^ w^ d^ 3! N^ ^) w^ Z^ `% M^ @/ N^ #/ [/ L% f% |r >$ 2% .5 K| 4= 2} s$ w^ L^  ! p2 g/ 0< T% 7] m% J- U^ b, |] %/ J- 2] j$ t! 3! t! ${ R% =& |< L% P^ @/ ){ c> #/ &/ s$ 6/ t! Z^ U^ h] B{ Q^ O% |] K^ Z^ U^  ! q^ |] |< !< S2 -$ S& P{ t< 8' u% |] x% 0* 9* g] KO A6 t! Xo @/ A6 P^ x% L% /* p] %9 ;% :< >9 2} N^ m% t! a, ./ ]/ |* M% 3! |] m/ B] M% C^ s$ ]/ g] j$ |] B] n] U^ s$ =< l] 3! X^ ~< @% %9 W^ B] Z^ %% -% /^ y$ F} u#.(* @/ S%  ! += Z^ |{ E' (< x^ p] U^ -% @/ !< !< ZO K^ 3! U^ L% :% q^ j$ |{ P^ n] t! z9  < g] <% U^ >/ I{ P^ ~< P; `^ s$ I{ *< o> |] {! B] d^ a, k^ O= D2 Z{ !& w& ,8 i$ 05 8/  /  / t! ]< ;% x% !< z7 x^ u% `% s$ ^) 4/ W^ a, L^ S%  < W^ t! t! ;9 C^ z7 c> Gh z7 (< B{ A6 >/ x% d9 0< B] 1/ 1/ x^ |] y] !< =< 2} P; Q^ 4/ ;% @/ m% @/ 2] ~< s$ n4 (U )] #] y[ Gh u% o% }/ b% o% D% f/ L% L% ;9 ~< B] s$ 8' !< s$ C^ }/ :< !< {! !< |] %{ L% a, d: !< $< w^ |] U^ $9 `% O% q^ 5] 3! f/ ~< S% @% <% d^ '% g$ [$ :5 S& [/ ~< J- !< =< o3 ;4 g/ w3 </ _/ S% ^% $^ Z^ t% (& `% a> H$ u%  ! 8/ L% =< `% @% w- o% h] |] !< ./ D% u* ${ w^ _% ${ `% @/ '% 1/ s$ :% L% <% l% +% m% 5$ N^ v#.${ N^ 3] H$ =& Z^ =% =& ;9 o3 r$ <% S% ^^ D% $< =< F' a/ O% w3 @T ${ )6 Q% J$ '6 >^ i$ $^ E$ '6 f$ P# K# A& fo S; P# Um /% $% x> G- 1/ Y- w& #* >$ 4~ 7* A^ m] DP U^ S^ ./ |< '% @% E% N..",
"}A !* += c/ x% n- y] $- {{ (* P* A* `; p6 )9 6N x% H- 1] ;% 2~ w#..5 {3 f5 G5 '[ s{ {} q% 9r %% h^ $& $< t% <6 p7 b^ U% y% r$ z7 $& |] +% 2/ WO ${ ${ 5$ n% */ h] {9 I{ .! Z{ <] R= P% J- =& W^ O% `% O% a9 y% L% {{ U^  / ^) q^ |< L% f/ i] x% `^ t! a, ^) ;9  < p7 >/ P^ >/ A9 c> N^ `^ ,= 0< B[ |/ >/ ^) _% c> Z^ _/ ^) 3! #f oc L& )] Q2 f] w^ #/ S% L^ 1/ @/ _% L] B] %/ $< @% &/ )< t! A9 5] g] >% x^ ./ /) ^^ t^ y] a] W^ 8< x% u> ${ N- |{ _% `% $% C! _% t! <7 t! X^ @/ [/ 2] L% @/ K^ Q; :* Y2 Z{ 3$ )^ .R s% @%  / p] 6! =% W^ @% P^ F' L% c> /) y% V7 U^ c> g] g] $9 |] P^ t! B] t! o> @% |] c> d^ }5 l% 4/ |] C{ o% =& ;% a, =& c< 2} t! L% :% 2< }5 8/ |* 3] y]  ! W^ L^ W& /) y] I{ Y5  A :$ $g w& Y9 C- {{ i% x^ 4/ a, #/ |{ 3] t] :% =& `% s$ P^ k/ ./ M% U^ p7 x^ d! K^ C- rZ y% _% d^ P^ N- P^ `% 0* 1/ S% $< K^ a, B] _% a, 3! :% U^ 1/ x#.6* J* G% k6 v& -$ @^ &g // @% i] 4] S% }5 1/ $< =l =& @% Y^ {{ @/ q2 @^ /% ;% |] O% 8/ $9 V7 ./ e2 ;9 z7 %9 6! t! o% @% S^ t! x> a, ;9 |< |{ L% ]/ ~< $< _% L% _q ;9 a, 2] 2} l% x% %< |{ t$ S% @/ 3u %} (5 N# F2 o] *< f/ <n {/ |] x% ]/ 4] N^ m% W^ 8' `^ U^ }5 b] $< d^ L^ 1& p7 y] |] 4/ |] o% '% p2 ^) _/ L% x% |] =& W^ S^ F9 ./ x% m3 k/ ${ s$ -/ 8/ W% u5 (5 pc c$ _% u% U^ K{ W^ #& C[ c> <% |] =& t% Q% q2 `^ !< s$ @& 8' Z^ 6% t! _% &9 z7 ;9 $9 ^/ e% t! Z^ U^ '< o% 7/ $^ _/ _/ .% m% `$ k^ :% b^ O% O% =& `% L% P^ 0/ )> u> h] -/ O% S% w^ $< F' <% ]< F' o[ p2 Z^ 3! _% .^ C! N^ t% )> %% h^ ^) $* J) %^ $$ n& H$ K$ 5$ q% '[ '^ &* 2% Z; M! =^ %o c< y% 5] /w '~ 0$ @& j5 y#.g] 5] ]/ $- g] $9 x% 7{ Wp S' I6 BB ",
"}A P) +a x^ x^ U] K* K* u* (! U^ n= `; '6 ${ z#.=% @% k* m] X' rk G5 A#.nl ~^ L& W$ {% S# 7/ *% .! i$ 7/ v6 7/ 8} h^ <% B#.1/ `% <% ,< _/ Q% 3% `^ F' u% q^ fa M% S% 8] X6 7$ %] 4a +% -/ k/ #/ =< D% ,< +% $^ s$ @/ !< P^ k^ ${ l% `% =< $< c> >/ |* @/ B{ j$ P^ |< S% =& }t X^ A9 >/ W^ y] I{ e% s$ <% 1/ x% /) x% m% }/ _/ A& p! x5 )^ %] W2 S^ += U^ B] g] t! 8' l% c> C[ L^ B] C# o% @/  < )> B] 6* {{ ;% m/ @% b] =< |{ +% x% V7 ^) ~< o% Q^ J^ 1] f] =< @/ ${ d9 +% K^ W^ t! ]/  / }/ ^) s$ |/ c| g& &* o: }= f] >/ s$ d^ b] }5 z7 B{ w- p2  < =< &/ m% g] D% C^ B] I{ t! m] 8' W^ w^ t! ]/ _% 8/ @% U^ @/ g] Z^ B] s$ $9 y% {! #/ g] J- a, w* ]/ (< y% s$ k/ C[ a/ z7 |] V7 $9 h] |] j$ @/ z% iI :$ z} j5 p{ BN P^ M% {! @/ @% U] a, C- n% &/ w^ s$ B] ~< 2] W^ |] P^ ,< !< `^ w^ L^ ./ g] U^ |] _% h] 3! :< 2} S% #% D% w] l% 3! !< 4/ ~< o^ 3! N^ ;9 s$ U* @1 1[ g5 9} NL x{ *< S% e/ `^ I{ u> Q^ S) H$ =< (& ]/ n] p) a, I{ &/ d! =& x^ B] ]/ |] y% I{ }5 s$ B] ]/ L^ a, B] g7 ]/ @/ ;% L% |{  / !< L]  ! _% U^ m^ ]< '% =< =< ,% $% @/ 1/ f/ h] a, L^ q% ${ g5 :$ Z{ 12 m- N^ ;9 ^) x% '6 4% _% $9 U^ |] =& g] x% L^ N^ C^ A9 _/ h] |] L^ P; l% =& %9 ;% w^ m% sF $< N^ r$ `% q[ f/ }5 _% `% L^ `% F' =< N9 $< &$ Q# S& G# u% <% XU ${ 4/ [] !< ${ l% $< @/ '% +% <7 `% 1/ ^) H$ w3 @/ t! ;% O% #& L% ${ q2 S% w^ `: m/ N^ 7/ B] D% D% A6 ^) H$ sj h] L^ r3 U^ N9 <% 5$ _% -* +% Z$ c> p$ D% ${ y% p7 )> c> =& Z^ (< 2/ '% 5$ +% n% $< c% -/ A6 2& F' =< w3 6/ %% T% M$ @& _/ 5$ ${ i$ 3% l& K[ 5% )^ X# S; Mq G5 S& L^ 7* w- m^ F= D} d% I/ d~ s$ t] C* C# B]  ! w* h% m/ 6* d^ !{ ",
"cB c* p) K* 7' p) J* w- ]* f] t- Z= S; #< ^) k;  ! 6* |{ 8] r~ ^9 |7 W: ~5 {% %% .& P# }] #< E$ ^^ Z& %% r$ L^ m% %^ ^^ 2/ =< 7/ p7 <% c% #< W^ n% b^ ;% c% H$ u% p$ += M! )% $$ A- p7 a, `^ @/ t% w3 N^ H$ !< t% 6! 4/ -% B{ m% ^) |< u% g/ X^ !< M% |] s$ F- =< g7 S^ t! w^ o% `% += z7 }t _% #/ ]/ '% 3! _% Q^ <% :% l% %9 `^ c- H! s{  5 }| `% u> d^ 2] :% 4/ &/ m% 2} |] |] c> O% f/ =< @/ 4/ t! d^ W^ `% h] L% `% @/ @% %/ [] I{ 8< U^ M% I{ h] 99 z7 q] w- z7 U^ %! i] =< x% $- L] /) x^ l! U; :5 Z{ W% q< -& Bs >/ R^ k^ E] &/ ;/ =& w^ 3! sj |] J- |] q2 `^ >/ %! f/ %! e2 |] a9 N- =& x% U^ P^ s$ U^ S^ 1] f/ y] #/ x% u> h] W^ x^ c> w^ y] $9 ~< P^ L% @% h] >% !< m/ H$ U^ U^ @% P^ U^ %9 R= gI C5 }$ E} }] =& L^ -% a,  ! U] p^ z7 ]/ v^ |] B] d^ [/ /) 8] @% P^ M% N^ V7 t! `: |] |< g7 w^ i% ;9 S^ }/ ${ ~< @/ q^ L% p$ P^ `: J- ~< P^ ;% $- |] d< C: 47 k& P# 2p b% !< 3] `% z7 |* 3! {{ !< z7 I{  ! c< ;% 4/ K^ 4/ t! 8/ ;% z7 P^ '% U^ o> :% v^ W^ O% u% ;4 a, |]  ! P^ l% J- F' 5] |] #/ U^ s$ |< }/ U^ L^ L% f/ i% f/ }5 h] `% g] a, t! N^ ${ 1/ 2~ d3 !& *$ Q2 b^ si Z^ |< }/ ~< `% q^ >/ W^ (< C{ 2/ ./ =& ^) ,= $< l] +% O% n% |] ./ <% t! q2 5P O% |] =& c> B] J9 s$ P^ l] =& &/ j$ h] w* =& Z^ 8/ p} s{ s{ Y# [/ L% t% Y9 F' N^ 0< h] m3 ]/ Z^ L^ <% O% +% ${ r$ $< <0 $< S% 4/ )> L^ m% !< (< B{ !< lr O% O% o% 3% u% 2] r$ B] D% 4/ w3 =& z7 H$ `% B[  ! a, (& h/ D% K{ H$ l% '% $< L^ H$ !< r$ W^ e% e% <$ +% h^ +% (& l% d% O% `% H$ l% p7 b^ Z$ $< [] K$ S# 3% l& S# .& W$ F& ~% !& )% S; E$ W6 A& L^ {{ S' !r u) (] %% .5 7V c> x% B] 0< 0* q^ u$ 5] $9 >% b^ pr ",
"dK >e ,= I{ +9 6* (! A- 7] B{ v> :- c^ /% 0/ Ry @% m- C^ w^ 6{ Cg J# {& q5 :$ d% L$ >6 K4 o3 B# (} r$ O% Y& ]/ @& 7% t% (& =< d! 0/ o3 H$ 0/ f/ +% *% F' |] (< >/ @$ 9* [$ 0% !% 4! %9 ;9 |/ 0< 2} 7/ g7 O% ^) N^ w^ x% p) C- += <% t! r$ a> x% B- KO 3] 1/ g] =< $9 L% {{ I{ $9 x% 4] h] @% h^ m% K) =< x^ ~< `% ;% l% m% $< m% /% Zc 9V X$ .5 V` ]* L% &/ {{ )< Z^ u% 2} S% /) a, $< L% A9 w^ 8/ #& _% `: r$ @/ m% W^ U^ W^ q^ m] S^ 8< I{ p] += g] h] B{ y] #/ |] 2} L% L% J^ w^ ,% 3! Q; 3[ k% y[ X$ f5 tr  < /* o% w- a, B{ =% ,= @/ <% {J g] _% y% <n f/ @% l] =< #/ c] B] B{ =& t! '% c> &/ S% J^ ~< W^ /% :% L% O% ,% Bn U] x% +% P^ x^ 2} U^ |{ z7 U^ |] @/ `^ 4/ A$ 8' e2 B] Z^ $9 %! $9 |] -/ Tm Rd u5 |[ e3 8* x^ m/ $% o% O% 5] 4/ t% x^ $9 w^ a, B] :% 8/ ;% ~/ 3] 7' =& 2] Q^ @/ B{ 5] O% B] !< K^ :% /) U^ ./ '9 :< t! U^ |] @% t! |F y% t! 2} q^ 8^ ,^  5 84 Y* (% t! #/ L% ;% s$ !< &/ += ]/ z7 ${ #/ )< !< g] D% ~! 7/ y] 8/ 8/ g] =% =! a, ./ C! vo h] A$ 3] |] !< 4/ x> f/ z7 3! 3] o% L% !< +% 6/ '% d^ D6 h] h] @/ +/ M% O%  ! L% s$ _% Z^ 4/ L$ ^~ Z{ &% &] /3 %; :< #/ !< [< B] _/ N^ L% w^ V7 %9 2] U^ Z^ p$ D% f/ c< !< o^ >/ o% $< S%  ! 2] 8' k/ =% o^ O% s$ ~/ #/  ! 3! `% 6% g] A$ w^ B] W^ !] L< $$ 2| 2L S% L^ L% L^ (& c% (< S% /% `% (< _/ =< u% e& c] )> l% #& Z^ '% =< S# !< 2& =< O% <% f/ 4/ n% H$ L% P^ L% B[ +% |] x% +% 7/ >/ @& A$ Z^ >/ L% 5$ a, $* B[ 2/ ]< 4/ k/ `: F' =< N$ x% c$ /} F' w3 B[ [/ 4% w3 +% t! @T E$ 7/ N^ /% `% 4% P# <6 f% ^^ i$ |% 5$ C/ '^ :$ B# z} `; %6 ml J6 -< 6* += += Y- y[ 0% Y{ Y5 Q; U] l] d9 >/ %! a, i] |{ [/ `% E- ",
"ic M- 9< E' /* l* V* x^ $- o- C- 8= c{ I6 6/ a' ,% /) a, ,= U! ec 0$ 13 Q# {9 b> M$ Z$ K$ Q% $$ 6% {% i$ 0< +% w3 g7 $* =} w3 On w3 N^ L^ H$ e/ S% o% !< _/ %< 0< *f E] I$ Q# ~^ '= |{ Z^ $* |] w^ S% B[ |] %/ D% H6 +% &/ =< <% @/ t! $% 3! ;% %o @% KO L% d! v^ 7* s$ B{ g/ Q; Z^ w^ W^ !< #/ k^ |] |] >/ j$ Z^ N^ o^ g7 @/ i] =< 8/ }$ !^ F& >5 |[ p> ^) N^ =< J- U^ C^ t! |{ x^ p] E^ !< :% 3! 8/ 8' |] =< U^ Z^ !/ N^ L% @/ x% '% R5 @% '< ;% m] N^ w{ S% L% B] J- s$  / g] t! z7 c> L% ;) E2 n$ !5 x3 C#.#& L% B] q^ F% }5 3] o% B{ i% s$ ;% t! B] U^  ! ;% ${ V7 x^ t! z7 m% 4] a, U^ $< i% W^ y% !< ,% 8/ S% A$ =< y] L% Q^ d! W^ ;9 |] Z^ 8' 4] B{ %! a, 4/ f/ x^ E% R^ h] L% f/ c> <7 |] L% W^ -* >6 =^ {O ,] :4 u> 3] =< {{ ]/ |< ;% U^ z9 8< m] N^ Q^ L% Bn B{ $< @% @/ Z^ i% g] {{ B] a, =& B{ U^ `% |< |] t! c> 3! 3! }5 Bs L% 05 7] g] B{ 05 gs x| &] :5 t4 _S E% B] %9 s$ O% g] 3! L^ @/ &/ }5 S% U^ f/ >9 8/ &/ ,= |] x% w^ {{ `^ U^ ,%  / B{ A$ f/ W^ O% /) (< P^ g/ /% m] @/ ]/ |] L% N^ I{ y] ;4 e% z6 p^ :% m3 Q; %! Z^ 0< g/ Z^ $< `% '< (&  ! 5$ f= :& v5 )^ g} +7 p] :% x% p2 1/ 8/ $< d^ O% L% 8' L^ o% 8/ [/ z7 M% #/ N^ ;% )> B] ./ ;9 |] <% $9 >/ W^ =%  ! D% _% R5 4/ ${ $< z7 !< ,= D9  < !< :[ !6 s{ G& Zt ${ =< @/ /) =& @/ r$ 8' S% '% (< k/ 6' |/ =& H$ P; k/ =& .( k/ B[ =< O% L^ </ }5 d/ N^ #^ H$ +% f/ +a Da l% g7 '% l] F' x% 4% #/ =< z7 p$ $< p7 2/ (& #& 7/ L^ S% $< $/ 4% E% D% !< i$ L^ p7 p7 )r p7 N^ ${ 0/ S% <% _% L% R< S% S% $^ P% r6 `6 Z$ b$ W$ b% Q# L& V$ W$ '[ S; (6 v5 K$ ;< l* B] L^ ]- c} w3 )^ Ku // N^ += m/ {{ e2 h/ 8] ,% 6l t% lP ",
"aN G; u> 8< u* E' m- V7 (*  < w% B; S3 $^ x> D#.+= w^ h% x% )~ Rd !& o} &] '^ ,^ >$ 2% q% 3% 3% '6 w3 %^ $& th (< )> &/ )> (& [/ L% _% +a %9 ]< {{ p7 _% c% !< '% !% a] (6 j% ~^ ^* 2& 6/ [/ L% `^ @/ U^ T% i% +% O% x% x% O% s$ 2] S% @/ N^ w^ a,  / m] :% =< Bn k/ ^/ g/ _% g/ m% `% 6' /% D% :% U^ c> !< ${ k^ $^ ]/ q[ $< w^ x% !< Lo i3 R# k& b{ := Lw @/ =& 1/ @/ w^ i% @/ ${ _% v^ 9* /) t! L^ 1/ =< g/ (& a, _% ,/ 8/ E% (< P; #/ w^ t! L% 3! x% 2} ]/ ;% x^ @/ d! J- %! x% g] Q^ -% =| 4$ g& >$ {! 49 :% }5 c< {! /* @% %! 3! =< U^ I{ U^ E' p] 7' 2} y] ;% P^ N- N^ |* B{ %! x% P; l/ L% x% d^ h] w^ L^ >9 |] y% y% @% L% x% f/ ,= {* B{ q^ 3[ t! a, Z^ y] ~/ a, |] |r (< =& k^ =< {{ ;% 7' xU Z^ E#.h| .& W{ ,3 |* Fg b] d^ 8/ =< L% L% E'  < =< ;% m% $% >/ ]/ R^ m] :% -/ g7 3] m3 -% :% @/ :% y% s$ 1/ :< ${ += &/ :% @/ 2] l] `^ W^ ^) |] @% d! S} @$ >$ o> f% ~< @% `^ c> D% V7 _% b/ P% w^ *< L% a, ,% M% B] ./ ,% `% K^ F' c> o> |] 3o 7] W^ #/ 6/ Z^ |] O% y] N^ =& W^ C^ %9 ${ x^ 0< O% m] sj ;%  / `: F9 |] 4/ m] +% p] -/ h^ 1/ t! >/ $< ;% P; si l% F#.C} z} L4 +> m] P^ :% 7/ =< %{ m] '% N^ B{ l% A$ |* w3 /) ./ A[ @% w^ @/ T0 u! ba -/ 3! z7 !< g] %< !< %9 l% ;% 6! p/ m] 1& =< L% %! I{ @/ e% D$ =^ Q# g$ ]/ !< s$ /% o% =& _/ L^ o% $^ o% (< p7 )> $< S% =< ${ _% F' @/ /% o3 +% [/ =} X^ `% _% T0 U^ p7 L^ L% K^ L^ Z^ B[ i$ O% w3 q[ ${ L^ W^ T% _% (< D% F' D% 1& O% 2& <% _% 8/ p$ U^ h] 5$ c% $< )> <% F9 ;9 H$ 0< !< L^ H$ (& e% ]/ j$ '6 w3 i$ L^ C% 5% 7/ Z$ L& W$ W$ '[ !^ %] S; J6 <] `) q$ $9 u* ;% Yd N& u% N/ /~ G] R5 C{ 2* J- B{ %! e2 /< >/ <a l2 ",
";H >* 9* <; P^ `= 7* 9* q= j] {! s* m{ $& L6 A' {{ =! b] w^ /~ G#.z} O| 1[ .& i$ s{ q% $& Q# '6 H$ r$ p$ +% $^ ${ %% $& |/ p7 h^ L^ 4/ [/ |< =< O% D% @/ F' l% E% 2% 1- 57 @$ :5 N9 Dh L% h% A$ @/ 3] $< @/ o$ W^ |] ~/ =< %! |] ;9 A6 A9 x% m% L^ 3! p] m] 6* B] N^ H$ @% f/ ;% >/ (< |] 7] c< s$ 8/ A6 R^ o% 2} f/ T% =< P^ <n x^ D% p2 A6 {9 ~^ W< N} u* x% L^ N^ t! 4/ @/ _/ &/ M% K^ K) #/ |< P^ x% t! b] `% m] ^) )> _% |] w-  ! A$ o$ /) 2} L% C{ |] K^ c> @/ B] Z^ |] 5] &/ L% a, x^ vG @5 i: x/ 5n y] {J =& a, S% ]/ t! c/ _% U^ 2} ./ '= 2] _% d9 :% I{ k/ V7 x% >/ U^ B] w{ 3] 4/ ]/ q^ v^ ,= w^ B{ Q^ B] w^ h] =L a, q2 j] c> '% 6' %! :< @/ #/ z7 }/ _% {{ |* #/ |] h] &/ z7 p$ l% '% 2} y% P^ Z& t= Q# pc &] M: I' n] 7' }F j$ 3! c< M% 2} H#.y% `% $9 |] p$ @/ 3] w^ L% A$ a, !< B] '= i% S^ y] t! h] 3! s$ 3! P^ 2] U^ U^ ^/ $% |] C] g] <; R3 () X{ %1 eC y] a, U^ -/ }5 k^ z7 s$ O% |] 2} L% 8/ s$ B{ 7' U^ N- si {* B{ >/ K^ w^ R^ ;% ,= m% t^ 8/ s$ U^ }/ y] q^ &/ s$ =< t! g/ P; d^ t! g] o% N^ =< x% }/ ]/ x^ x%  / `% Q^ N^ R% ;% _% _/ ]/ 0< ;4 q] -* ^^ u5 z} .5 >| N- w^ o% (& {{ _/ @% a, 2] o] S% w^ U^ 3] g] |] @/ W^ 8' (< l% {{ m% J8 #/ S% 4/ f/ r$ t% j$ -p k^ |] _% !< ~< un o% S% 6/ (7 k% =^ E$  % V% 6/ @% ${ [/ >/ m% !< _% (< ${ =& <% $% (& S% 4/ 6% _9 ZM 8< 4/ =< a> t% U^ L% /) S% D% I{ <% ]< 4/ D% O% A6 ${ 0< m% t!  ! t% K) u% ]/ P^ 2& u% 0/ <% L^ ;9 c% (< D% O% r$ +% #& `% F' 7/ '6 t% *^ 8/ !< `% [/ }t =& b$ n& $* i$ d% !< /} 3% i$ '6 +% K# jU X# i$ !% .& X# S; v6 L< !^ .( -% B] B{  ; _4 `$  5 +Q ^* V* m/ -% @% B{ s$ I#.,* 6* L% yT ",
"JH ~) J^ S9 E* ){ B{ v^ w^ 3! =! u; @3 `$ P: J#.<% x^ C{ YP Q! ol .$ T} .$ :5 0% E$ '^ r6  7 $$ K$ w3 ,[ S# a$ D% o3 c$ 0/ c$ _% n% l% ,[ l% `% Z^ v$ !< /% D% 4/ a> << '[ ,^ j5 f/ g/ ./ 3! t! #^ S% s$ (< S% |] u% L% @/ W^ d^ @/ ;% S% q[ _% 4/ $< -* L^ H6 C^ :% 3! K{ ;% `% Xo |] ^/ t! A9 y] '% 2] += y% h/ L% N9 :% :% `% )> F' J- Ci s! S& -$ 7| m* g] x% Z^ 3! A6 J9 L% A$ P^ a, a, 8' |] Z^ &/ 2] ^) _/ =< %{ S% I{ 3] |] $< w^ h] I{ w^ }/ B{ >/ !< _9 s$ `% 3! L% |] q^ ,= ./ F2 =^ o5 W% zh G$ B] m% B{ P^ g] P^ x% `% %! f/ w^ u% _% r$ Z^ x% Y^ b] S^ 3! 7' |{ t! |* =& 6! Da 2] o$ t! 0< :% I{ q^ }5 s$  ! #/ !< =< ,% P^ !< 6/ /) 1/ ~! C9 ;% a9 m% '9 g7 a, Q^ `% x^ E' 1/ :<  !  < U^ L^ |] 0[ @3 }$ g& V} L% 9* %! $% m^ 2} O% C{ H$ @[ -% |] (< E' ,= P; B{ x% ;% B] W^ q2 U^ >/ =< x% w% t! 8< {! 3] P^ L% !< %9 x^ A6 h] `: w^ f/ 4% T4 )] 1| ]! *$ @/ !< g] h] ./ (< (& :% w^ B{ 6' x% 3! !< _/ &/ Z^ 4/ _/ l] ]< >9 :% !< $% x% I{ K) P^ `% 8/ 3] =< $< ~< @% ./ $& q2 E' L^ w^ W^ 3!  / (< ]/ x% ^/ &/ !< |{ 4/ D% h] e% a, ;< D% a, '9 _% z7 S% _% on %} z} g5 !4 +/ h] $% l/ (< a, |] U^ -% y% t! c< |] 2/ /) U% p^ $9 Z^ +% q^ %< f/ !< }/ ]< ;9 %9 k/ (< 7/ z7 l] 5] F' o% y% _% W^ L% g7 e% B& [^ r5 =] K#.%/ e%  ! o% ;9 b^ E% D% ${ R^  ! $^ m% ;% $^ (& )< K{ _/ a> S% >% !< :% Q; |]  ! w3 p% F% L^ <% `% 4/ %/ !< Z^ g] L^ )> '% A9 |] Q9 d^ c% k/ =& r$ $* @& .% !< ]<  ! p$ p7 m] bn O% o% [/ 5% 3% 0< ${ ;9 ${ +% B[ q[ O% D% +% =} o% 5$ P% Z$ 5% Q% Y/ @& 0% b% q% /^ R# @* S; A[ }] 3% ##.z7 U* 2]  o h& .  g& :~ 7' s$ /) S^ G- B{ 5] Bn k^ D% o9 E- ",
"dK 3{ y% C{ %! (* C* E* J^ |< q^ == S; >^ b^ #) &/ @% St J- Jp ^9 1| s! :$ %] $$ 7$ ;6 K$ 0% -* D' P% T% !% $* -* Z^ 2/ 5$ $^ '6 o3 g7 (< =} D% h] /% d^ S% '% #& 7$ Y) L#.s{ j% r$ $9 h] 1< (& l% !< <% )< Z^ =& l% `% s$ >/ g/ %! t! O% L^ `% L^ q^ &/ U^ %< z7 U^ P^ P^ W^ S% x% ~< ${ @/ B{ |] |{ k/ !< A9 o] H$ w^ L% t! q] A6 Q^ :% h$ h, z} j% g$ `2 v> e2 h] |] c> }/ x^ @/ u> a, ./ a, x% t! N^ A9 L% 2] C[ D% 4/ U^ l] sj &/ !< L% g] J^ a, U^ S^ |< W^ ]/ :% U^ 4/ [5 7' d^ w3 34 k% M#.s& d= L^ m] <7 0< t! :% m% :% =< L% |] ;% 3! ,% ,= 4/ l/ F' W^ d^ D% /) h] A9 /) K)  < |] (/ L^ S9 p] P^ !< w^ 1/ _< x% L^ B] `% =& ${ $9 {! x^ |* m^ o% g] L% L% h]  < J- 2} U^ I{ @% s$ L% ,% m^ }5 t! F' 3% 8y :5 K# ]& D3 `= ~> s$ g] 2] y] 4/ P^ D{ =& 4/ ,= B{ |] S% {! |] x% @/ ;% ^< %/ -% C- f9 1/ :% l% s$ @% w- z7 >/ o% A9 B] $9 G] U^ q- a{ 7& -] M2 7) :% N- a, ~< +% |] /% 3] &/ L^ g] B] g7 O% M% _% ]/ 3! P^ 6/ t! E' U^ 8/ %{ U^ P^ }/ U^ @% |] g] t- -% !< 1/ x^ h] .% W^ w% A9 U^ S^ 1/ <7 =} >/ *< ;4 M% }/ ,= @/ ;9 t! N^ E% W^ 7/ 1/ 8/ L^ P^ k/ S% 9% O; )] &* k& N< V* m]  ! _% $< R^ <% g] :% _% @/ Q^ u% 4/ 2} 0< W^ !< m] t! h/ ${ y] D% U% p$ u% t% ${ !< Z^ `% B{ 4/ $< c% k/ 9/ l% K) _/ >] b> ~] f5 .( ${ @/ (< C[ `% h^ !< E% <% R^ U^ B] r$ =< (< sj +% l% w3 6/ `% w^ F' c> 6% t! .% 6/ #& _% N^ 05  ! 9/ p7 N^ L^ O% q[ <% 4/ 2] d^ `% `% 6/ F' >% /% '9 )> t% b, =< _% q[ !< t% /% e% 8/ #& 7/ '% t% (< VK =< 5$ q[ p$ B[ S% |/ 8' T% /% ,[ 5$ e7 S# S# P% q% ^6 4% Q# !% V$ S; >^ [^ v6 5/ 7' m/ w^ ^- ]$ D' `# _~ $- ./ L% =- 3] A$ z9 I{ e2 @% L% z/ ",
"mN +) 3! g] S^ 3! -% D* m^ y% i] O; >H $* $^ IP s$ 3] 1* B] X~ j} y) F3 &] )^ 3% d% W$ 4% S& '6 7/ B[ +% 7/ VY 0{ K9 $* k/ 5$ D% 0/ -/ L^ D% $^ $^ !< =&  ! H$ <7 B[ <= 1[ b% Q# N} $%  ! D% ${ =< o3 %< %^ &/ t! $< x% |] )< L^ 3] b^ h] 8< /)  ! {{ 'O )> Z^ |] K^ _% 1/ 4] W^ g7 r$ x^ L^ L%  ! @% @% e2 >/ f/ y% N^ y% >/ l% Q^ E' B] ^) [= g2 =^ Z{ D} s{  < l/ y% =< x^ z7 a, |< _/ $< 8/ L% z7 x% _% U^ #/ |] }5 >/ f/ h] %{ ,% #/ /) R^ D% B- W^ >% 1/ `: P; A$ B] Z^ $- $% H- l{ g& :5 s: Uv =< w- ;/ 9* a/ x% =& o% z7 N^ y% 6l x%  / x% s$ I{ !< ./ |] /) |] B] 2& x% s$ a, h] 4/ 8/ g] |< a, e2 ,% I{ %/ u! a, |] N- '9 s$ p) !< ,=  ! <7 Z^ P^ ;% q^ L% N- >/ D% 3] B] C[ l% =& O% 3! m] N^ }/ #9 h] B{ ^5 >$ Q# 64 7& M% P^ V7 Gh {! $< x% S% w% B] =< `% ~< U^ W^ j$ L% $% y{ >9 @% W^ V7 |] |] C- U^ B] %! x% y% 6l ${ P^ a, :%  < /) B& y4 3$ %5 $8 +% |{ |] U^ !< o> =& Z^ u% L^ g] N^ P; '% R^ #/ l] P; P^ o% P^ z7 ]/ k/ C{ %< &/ t! ~< c] m% %! 0< (< x^ I{ |r u% y% =< _/ O% D% g] !/ P^ [/ M% t! a, 1/ /) U^ x^ @/ L6 e% ]/ h] f/ m% ${ s$ ;4 a, q] /) x% 8= t: >$ L4 L# :5 m^ [/ {{ g] 50 R^ c] ,< =< w^ %! @/ g/ O% |] h] O% !< !< N^ @% Q% ]/ `% m%  ! C[ L^ 5$ H$ P^ 4/ g/ ;9 0/ {{ m% '% b, 6l /& s{ S& ]% l#.6' H$ ${ s$ D% |] O% B[ (& B4 $& 5$ %%  ! @/ h] L^ F' (< m% #& -/ =} L^ !< l% 6l =< d^ o% 3% !< WO ~/ |] K$ n&  ! '% =& !< L% N$ 2& N- $< d! o% B[ O% p7 _% +% 7/ W^ Z^ U% `: '% ${ F' '% E$ 8/ E% e% h] =} w3 D% F' F' N^ %% r$ 6% /} i$ p$ 5% $^ $* `6 b% ^$ L& E$ A& (5 S; ^^ :] p6 ]< H- p) @& n= Y$ b^ N& 0H o> s$ N- 9* i% T^ 7* :% |* ;% ,/ 35 ",
"ic uA @% N- S^ += i% u! y] _* S^ i' X2 o3 L6 3~ 1/ w* A$ 6! <! 1U )] Q2 1| T# !% 3% >$ 0% X# J) c% v$ Z^ +% >^ $^ 6% @& b% S% 0/  ! p7 t% ,[ S# +% [/ c% B[ 5$ _/ ${ Z: :4 j% )% E2 e- L^ 1/ L^ 7' s$ w3 @/ )> O% h) C{ @% H$ =& %! g] >/ g/ f/ r$ <% ;9 N^ S% l% =< )> w^ o% ~< 4/ <% z7  ! 8< E' @/ {! L% a, s$ i% t! p) D{ L% N9 %< c> I{ JO ]U {^ A5 &] e{ 9= y] 7D #/ @/ >% ]/ %< K^ }5 ./ L^ ;4 |] @/ ~< t! E' w3 B{ &/ t] |] U^  < /) f/ a, 4/ |] Bs O% 8/ =& q] |{  <  / l] ($ 4$ U$ s{ .= e7 h] ~/ s$ U^ e2 w* g] _% u* K^ g] 3] N- @/ f/ L% o] 2] 1/ t! g] U^ =< t! N#.E^ w% J- B] $< W^ @% {{ c/ q] B{ I{ h] += |] U^ 2] 8' Gh o] z7 ${ m% `% B] L% h] L% P^ =< a, d^ B{ U^ @/ d^ s$ E' B{ =& |] 6' D{ 3! Lq Y% Y/ 1[ 92 ]* &< Q^ S^ t! 9a 2} R^ 1/ K^ O%  T  ! t$ L^ 3! H- t% ]< q2 `% w* H* w^ 0< t! %! Q^ 3] 3] B] /) a, W^ g] C^ 3! 6! Q3 )% .& $$ v#.X^ O% s$ w^ g] Q^ u> 8/ w^ x% ./ Q^ c> |] ;% 6' [/ @% B] |] U^ @/ P^ L^ e% d^ 4/ 3! _% t! L^ U^ U^ w^ _9 8' i% 1/ ./ ~< x% L% _% a, {{ m] g] !< c> t! 4/ U^ s$ +% |] w{ 4/ q] Q^ |{ o% 4/ z7 m% {! 6/ p$ x% 05 ^a .* n$ .$ b{ w- _% |< d! o% 1] g] L% N^ Z^ R^ @/ W^ a, ;9 ;% P^ L^ 0< =< m% F' :< L% 6/ '% F' t% 4/ O% {{ ]/ c> 4/ Z^ 2} =< N^ f/ |/ Y{ w5 P# W{ d& X^ =& =& 8< N^ 0< l% |] $^ !< 2} Z^ =& =% g7 L^ l% E7 F' 5$ 5$ _/ #/ #/ &/ E% !< t! O% W^ =& e/ +% _% |/ :% h] 8/ 8/ S% %/ p$ m% 0< U^ r$ w3 $^ d^ <% ^^ O% -* 0< (< !/ )r h] O% '6 p2 '9 $^ ^/ U% ${ t! Y6 O% L^ F' @/ L^ O% O% ;9 F' 7% b^ Q% P% e$ q% 5% !% '[ )% }$ 17 S; .! 'n {9 xC S* << m] [- )] K$ )6 O#.7* %! d* m^ ./ S^ C* 8] 0* >< f& !{ ",
"P#.r* x^ v) << 7' p) h; ^= w% i% J= o: w6 F' _> 4/ 46 N9 g] [~ C} ~] #1 }] V$ ~^ A5 Q& $* K$ W$ b% sj ^^ b$ b$ $^ H$ B[ U% D' i$ 1/ ~6 $< F6 3! 5$ '% [] w^ |] W& (< h'  > [$ ~^ A} K) S% E% t% _/ p2 o% L^ F' >/ +% <7 d^ %/ 6/ p7 L^ Z^ &/ Z^ 6/ L% =< R^ @% w^ ]< _% |] U^ B{ ;/ =< 0< O% H$ x% t! _% >/ d^ w^ d^ w3 @/ 4/ 7D L% %{ 6' t! 6' D% ]% [$ #* _4 /3 ~! {{ ,= K) [{ T] ~! S* l] C{ o] C{ ~< 4/ M^ A9 t- (7 $< 3o U^ E7 {{ <u u| #/ |< D| a, g] x{ >% U^ E7 +/ o] a] ~r S3 v& '[ J< P~ K^ N^ >/ 6% t! %! L] ^) A$ s$ 3! L^ 7* |{ @/ 1/ I{ 2} 3! L% E' 7] {{ q^ A$ Q^ 6! _% q] y] B[ t! 3! h/ I{ 3! =& t! D{ |] |] 8/ N^ k^ %! :%  / @% @/ _%  < w^ I{ 3! r$ @% x% =< ;% =& ;9 P^ %! :% h] @% L^ 5] _% ${ 95 _* J) +* Z{ {$ G^ ~> Bq L* '= y] v* 7' u* U* fr v> a] w% {{ {{ B{ t* w- _= _* c< n- `* S' ~< |* )! c< %; t] q/ C{ 7* E] :* s: 1[ y$ %1 N! W^ d^ 3] U^ z7 t! B] %/ @% h] Z^ L^ B] `% @% N^ W^ 7k ;% U^ _% s$ R^ 0< ~< '% Z^ 4/ '% D^ @/ D{ ;/ =< c> >/ L% p] 6/ 3! 5] `% P^ O% a, |] x% K^ Q^ @% `% U^ |] ;9 _% ]/ d!  / ,% @/ B] !< +% ;9 =< =< n% z7  < L% .t =$ L! k& =] K< y- |] o% ]/ @/ q] W^ =< l/ =& Z^ ]/ )> 8' !< U^ H$ =< N^ %{ 7* !< @/ $% L^ o% ${ ]< t% 5] L% 8' N^ c> 4/ `% `% q^ =< g& Mq A! W% sF @/ K^ .^ E% 2/ 6/ ^) R^ @/ r$ U^ t! D% m% +% =& m% u% Z^ T% w3 L% o3 `% <7 6' L^ F' g/ +% =} ;4 =< L% n& m% '6 h] j$ t! $< <% ~< `% 5$ /% H9 H$ -/ JO t% =% o^ Q% r$ l% q% h] S# w3 e& p$ /% %% Q% R^ (< L% 0/ `% O% $^ _% D% $< E% *% K$ i$ 0% .  ca 0% s{ %] 5% >6 W% r5 V; J$ S& ;* Q#.f] s$ $% [= y[ u% :5 Y5 6* N- q2 F' B] h] p] Q; l] z7 X^ mN ",
"uQ )= HB u$ w{ {* L* {{ d= 5] t- I= M: r3 t$ /b `% g] @/ c< BE j4 y) L) %] g& $$ i$ a$ '[ Q# v$ K[ %% b% o3 J) $* w6 O% w^ Q% O% t% p$ p7 3% b, x% L^ Z^ S# 2} t% t! X$ G% kl Y# 0$ ^| W^ s$ iP =& F9 B# L% $< +% n% }/ ^/ @/ !< 2} h/ !< g] @% |< f/ l% un D% S% /% p] u> %/ @% O% 5] |< h] 3] Z^ L% =< :% !< ${ =< ~/ !< X^ @/ Z^ B{ [] [/ a, 3] R#.{& Y# X$ )| a{ b{  > b{ Z; /3 F2 V; c{ V; d{ b{ f{ f{ S3 L| Z; e{ O2 B3 >> N< ,> f| E2 N| F2 @1 S3 Q3 j{ B3 G2 H! #3 :a Z; f| =] Y# 7& S#.D% _% C- m3 (< 5] %% Q^ x^ a, P^ g] 3! t! &/ w3 ${ c> U^ ./ P^ =< u! g] 0< g] S% k^ @/ ;% y% Q^ t! t! _% L% 05 I{ =< J- >/ s$ $9 p] B] 2] a, =& %< d^ L% B]  < 3! B] s$ a/ @% B] W^  < q2 '% z7 m] B] d^ @% ${ l] d^ :% i, :3 (} @$ T4 V; Z; c{  > Z; b{ S; S; S; Z; Z;  > Z; a{  > N< S; Z; S; d{ S; a{ c{ O<  >  > ]{ N< a{ b{ N< N< b{ c{ c{ c{ g}  5 G& == w6 `m v^ m^ :% _% I{ _% ;/ /% 2} @% @/ s$ h] y% @/ x% _% y% h] a, ^) ;% d^ _% Z^ q] >/ 5] @/ =< C^ U^ W^ m] {! |] t! 6' s$ `% F' =< E{ O% 4/ 2} !< B] 3! i% !< @/ L^ !< &/ Y^ I{ U^ h] `: c/ N^ l% g] g% w^ |] ${ _% )> T#.l3 )% !^ b2 ,* x% 8/ _/ 6l a, w3 m% >9 =< <% ./ t! $< ${ D% 8/ O% ^) @/ 1/ '9 L% `% g7 !< 05 _/ l% &/ W^ !< o% }5 r$ ${ C^ m% )>  % ml !6 Q& B[ +% l% N^ >/ t! ZM $9 D% @& si m% z7 t% a> l% o^ w3 L^ H$ O% :< `%  ! /[ w- c% 1/ 0< m% s$ !< t$ p$ Xo n% d^ w3 $^ ^^ ;< (< 1& t% $^ l% H$ 7% +% x% >/ d: h] Z& d& a, u% %% a, [/ $^ Z^ +% h/ f7 >/ J- [] ;/ S% o% 9% b^ Q% '< +% L$ +% =% Z$ 0%  7 b% 5% f$ P# >6 )^ U$ ~^ S; %^ 57 /[ @[ c> 6! >/ r= d> %/ !& +! :% J- w^ J- /% J- += 5] w* d^ t3 !} ",
"U#.~* =! m^ z] w- u* I' *; U^ t] z= L) o$ V^ G; z7 Q' I- E' Po @7  5 %} L8 Y# 1$ P# ^^ 4% W$ i$ P# q% '^ Q# P% /% T% #& !< <% 7/ <% l& 7/ U% `$ O% ^^ <% F' +% F' o% <$ 2~ Y# >$ S& H2 A* _% X^ L% H$ Bn /% r$ $* 8' =< =< 8' w^ )> c> ${ 6/ L% (< !< =& N- >/ z7  / 8' w^ #/ '% F9 _% ]/ !< B{ !< _% -% `^ _/ 6/ m3 )< E6 $& q[ %! 6* >/ [] c> _% V% !* S& n$ 2% Q# B# W$ j% >^ M! {6 X6 n[ ;* /^ X< i$ @& EE !^ P# E$ _^ Q# M! !6 Q# 2% }] >$ th 9% d% .! s{ >6 ]6 L! >^ P# a$ 0% J# X# &] G/ o> B{ m] ]/ L%  < z7 R^ o% B{ !< v^ 1/ t! {{ h] 6! $9 i% ^/ 3! s$ L^ O% a9 t! o> ./ D% =& !< L% g] B] w^ @% 5] L^ p] d^ &/ `% |{ _% L% %9 e% `%  ! 5] d: Z^ B] `% ,% ,% =< M% @/ |{ k^ a, N^ a, m% @/ @% >9 L% w^ ~< B] 8/ th g& 7& -] '& U$ >$ %] P# .& L! ~] >$ ;] |P K$ Z& L& '6 J) [$ X6 w3 A& W$ f$ i5 xp W$ 5% e$ Z$ 0% E$ 5% :5 P# S& M! s% :$ p& )^ H: a] ./ `* ~< x% w^ h] z9 /) z7 I{ $< |{ x% &/ x> B] z7 Z^ |] l] +% w% `% =& Z^ |] L^ s$ $9 =< -/ a, S% U^ %! t! <% ]/ u% m] }5  / U^ &/ u! /) a, s$ B{ `% |] !/ |] r$ :< I{ w^ U^ N^ U^ @/ t! _% w^ k/ P^ F' <% ;9 =< Z^ ${ !! Z{ :5 /& ~* k^ 2} o% L^ |] R^ L% !< un |< c> :% U^ =& '% )> =& N^ S% F' L^ g7 `% %9 l% $< =< 7/ B] h] U^ w^ B] |/ =< =& W^ '%  $ hl 5% i@.d/ F' _/ ]< L^ 4/ t% (& o% )> 9/ '% |] 1/ '% (< !< o% %% k/ S# _/ ;9 o% L% !< S% '% b$ ]< S% .( L^ b% (< !< H$ (< =& p7 `% 1/ E6 M% t% |] U^ -/ +% <% p$ e% (< 0/ Q% f/ R% p7 2} O% N^ o% t% h/ _% ^% 0/ Qq r$ p2 +% B[ i$ H$ 7/ $^ %% $* _[ p$ M! i$ W$ /^ >^ P# &* 7& F& 3$  > /^ $p i$ o^ C* wv |A [= |$ L% j% O: y] @% B{ z7 y% N- %/ p] h/ =! D6 Cp ",
"QR G; n] q^ %! w- G- )= u* *; *! 1= j} v4 I$ 1* (& %6 v$ ^^ t* #| .5 7^ V4 Y# :5 {^ S& J# '^ 4% $* $& 7/ M$ 7p m% K$ Fq h^ 3% (& @& $* (< 7/ c$ <6 0< Q% S% $< n& 0/ >/ r- ~[ k& j% N} !% V7 0< 2} h] p7 S# o% =< ${ +% d: t! -% I{ 0/ 8' r$ n% /) 1/ {{ |] g7 |] )< >% W^ >/ f/ E' U^ %9 c> |] t! `% 2]  ! !/ <7 !< %{ O% >/ S% >% F' I{ [/ #/ @/ |r z' S; `$ (& (7 N9 ^) ~< 6' S% %{ 89 l/ S% _) ,/ +R %o t% ,/ 25 /% @/  ! 4} ${ #< =& .^ /% =} )> g/ !< >/ !a -/ %o uo c% <7 r$ #* {} !& K| /= d9 g] /) += 3! 2] P^ w% U^ W^ w^ s$ ]/ h] E' d^ 8/ j$ O% i% I{ n% %! @% N^ k^ g/ @% t! k/ #/ &/ P^ E' g] q] U^ a, _/ h] U^ -% 4/ h] ]/ 3! c> 3] A$ 8' :% |] $< ;% N^ ~/ d^ m] L^ J- :< Z^ 3! J- [/ s$ =< W^ z7 ./ I{ x> N< k& R$ q5 L^ j$ at %/ %< E% 5N 0< K^ 6} 6* q] [] K^ q] d^ 5N 25 S6 J$ E% =} %6 )> !a p% yl :q g7 J7 5} zb I6 d! ${ E$ Uk n2 7& #4 j$ z7 v> |{ C{ =< !< !< L% u> o% B] d^ =< 4/ O% U^ ./ L% W^ |] B{ 2] g] f/ B] U^ |{ @% $9 @/ S% ]/ A6 Q^ `^ KO h] :< =< B] 3! z7 %< )<  / @/ x% s$ x% K^ !< :% +% !< =< :% 1/ t! -/ !< _% )< 3! =& s$ E' 1/ ,< !< L^ 8' w} c} A& ~^ +3 wL I{ 3/ L% u! w% Z^ w3 S% o% L^ +% :% D% =< 0< O% `: ^) D% p7 m% %9 '9  ! c> B[ +% &/ i% t! =& O% f/ l% @/ S% x% p7 _4 W6 )% k3 _M 2/ a/ g/ 5$ 6/ +% $< 7/ _% D% g/ w^ =& B] =} <% |{ l% S% Z& A$ ]/ 4/ H$ -/ si N^ 3& p$ 6/ `% >/ ;/ t% O% A9 r$ ,/ +% <% '% _/ S% ]< D% p$ <% =& H$ l% L^ m% ]< /% r6 t! Z$ (& 7/ m% S% r$ !< `% O% [/ a, R^ $^ +% 0{ +% p$ *^ H$ ^^ @& i$ +% _[ <a k$ |% zv $$ !^ X$ k& !& >> M6 %5 K9 d9 -% 2] ~< Aa 2^ E7 H$ Oo j] B] G] %! @% f] B{ @% m^ >/ t3 -0 ",
"jq s* H* 9* W- ;& 8^ ~[ P{ 83 {0 c' /^ {% 0/ $| 40 Du 1! s{ A; $5 k& Rp >$ z% ($ q% yh g/ 5$ w3 0/ =} @& o3 /} +% A6 c% P% p7 !< i$ n& $& O% <% T% 4/ 5$ S% q[ N^ `% S# SJ P: v6 q% q5 O< V= R5 |< ^) z7 g] N^ 4/ L^ /[ |r  ! s$ }t D% :% 1] !< ^) !< +% 4/ w^ 2} `^ X^ B] g] |] Q% L^ #/ ~! w^ B{ >/ @% f/ S% x% !/ s$ x^ E% |* L% %/ 4/ u! C- N^ ;% $^ (w V#._R _# D+ `T W#. @ C( X#.Y#.Z#.W, :@ /{ `#.S( Hm  $..$.y( +$.l_ vm B> 8T 4, `.  _ @$.P( 3T P( G, #$.1m =m 3: %_ ~m $$.X2 $$ =^ `{ 7^ c< u* S^ $9 d9 q^ w* t! =< 2] X^ O% B]  < B] d^  < =< o% 5] x^ |] L% _% L^ 3! ~/ U^ U^ _% c> 1/ D%  ! @/ g] L% k^ )< _% t! R5 W^ N^ U^ x% u% }5 ;% ,% 5] |< U^ B] W^ P; D% i% t! 1/ w^ %9 3! */ 3! B] Gh {J <% 0/ C{ g2 s% S& :^ `c 2, 5, ]( %$.B+ 1. &$.{( -' *$.8m =$.h( S( X@ c( a# I( ~m -$.$r ;$.>_ 2( ## >$. , ,$./W 1W 8( '$.0+ )$.2, 1( F& D& Z{ -$ Y< -{ f/ U^  ! L% `% Z^ Uq L% %9 Z^ m]  / _% @/ D% 5] 3] <% =< >/ (& _% j$ x% w^ O% !< !< t! Y^ x% m, B] `% #/ I{ >/ e2 :% #/ R% +% @/ ~<  ! !<  / !< y% S% _% !< w^ ${ R5 y% o% |] I{ c$ B] +% p] -/ R^ D% k^ O% t! @% L2 P# jU f5 _~ r$ $% :% u! p] <0 a, W^ k/ !< ]/ ./ Z^ `% W^ =< !< x^ S% d^ q2 >/ ]< `% |] H$ B[ n& ;% t! ${ 8' F' d^ [/ Z^ L^ =< (< y$ ;6 '[ -] l$ +% 2} -* P% o% x% <7 (<  ! l% m% L% ${ t% =& ${ s$ 9/ :< h] =} ^O ^) =< t! f/ =< ${ `% (& p$ t! s$ O% n& m% |] p$ r$ Wf -/ a> ;9 ,< l% L^ =& U% (& r$ !< O% =& -* D% +% ]< 9/ R^ F' D% b^ !< <% <6 r$ (< D% W^ ,[ 9% 4% B[ +% @/ 4% $^ r$ P% l& ,[ 4% ,[ [/ >$ *^ E$ j% >$ $3 e& J# )] >$ 0$ y[ j} %6 -^ v& 34 Rp x/ V; dl +> `; k{ <^ y% ;/ _< t$ 9' ",
"OJ d* (* _% >| E{ o| {! I] r2 h] =l hp ,= E6 &* G& b} i4 C& x3 e7 *& b2 S; S; S; g{ `; S; S; S; S; Z; S; S; k{  > /4 !$.$^ $p Z^ +% ^^ 0% $^ ;4 )& #& y% !< 6/ D% h] &/ w3 O~ J| W6 !^ 4^ =] {* A9 1/ *< &/ (< =< =& L^ =& X^ @/ _% 8' F' =< s$ +% c% a, ${ =< @/ S% |] L% C[ a, B] Q^ h] #/ 2} +% v% ${ u% q^ @% y] 2] -/ P; @/ =< d^ @% @% z7 y% u! |] !< p& X# U$ !$ R& v& `& {^ .& {| /^ R$ F& ]& g& F& &* y$ W$ }$ S& .* z} ($ |u s% G& 5$ G% !& W$ V$ k& ]& Q& ^$ y$  $ @5 i4 YM ]% )] =^ e4 6/ 3] l* :% y] B{ += y% g/ u% ./ O% y% Z^ x^ `^ += ;9 I{ `% g] 1/ %! a, 3] Z^ &/ x% =< Q; x% :< {! >/ 0< =< R^ y] 8/ ;9  ! += M% a, &/ m] P^ ;% L% L% P^ x^ U^ 1/ 3] _% ./ x% N^ <% }/ y] B] _% t! 3] H$ N^ Z^ !< q[ *1 v5 7& `/ :* |% %* H$ AU 95 W% ~% :$ R$ J# %r X# <$ k& ^$ M$ 2% 4$ q% +% ^$ Y& $* t6 Q% c$ ia '6 *f 0% d/ 8% O% S7 -& h^ 2p B/ t5 -$ ,] c} B{ B{ =& Z^ |] q[ t! '% U^ a, >/ L% z7 u% #/ Y^ L^ w^ s$ ${ :% k^ }5 x% t! ]/ w^ }5 A$ ,% s$ g] 3! O% _/ D% y] m] c> 2} y] N^ F% p$  ! `% !<  ! L^ 1/ )> 6/ @/ C^ ]/ S% += x% t! |< Z^ |{ _% x^ J- h] 2} ~< g] RR () L4 e: V# =- h] ]/ 7] si d^ si P; U^ 4/ A9 (< U^ @% p$ H$ W^ `% h] g/ e% g] W^ =< #/ D% L^ )> l% g/ N- 3] [/ f/ $9 $9 :% z7 x% U% j} .e .& }^ c$ 3! R^ `% -/ 0{ +% g/ ${ +% Z^ %< f/ `% e% -^ D% ]/ 6' $< B] _/ !< 7% `^ &9 (& +% /% t% `% L^ r$ O% '6 7/ ^/ h/ $^ j$ 7/ w- &/ _% t! 1/ g/ =< -< u% +% n% o3 6% H$ p$ <% =} O% ~< <% /% O% a, W^ )> +% [/ @T 0/ <6 7/ (& Q% $^ $9 d> S; S; B7 S; S; S; T; S; S; S;  > Z; S; n} (< g& &* /[ Z$ c> 4/ z9 >$ d% 9% /} 4{ w% S* := e] C[ %/ 23 M* y] (% z/ ",
";7 9! u$ /4 C[ ^% :a ~$.U2 >& x: {$.]$.^$./$.($._$.:$. s <$.[$.O= @/ v* )9 e2 {! N] F^ (* /; ]* _* 4! b* l! t> h= Z^ M: *^ #& Q% */ A6 +% w3 5$ $^ &/ ${ I{ H$ x% F' W^ a> {^ YP A! -$ Q& x| Uo I{ L% _% 0< G4 L% Q; ]/ `% Xo L% 2/ L% K^ ;9 x%  / p$ *9 L^ :% oF |] =< 3! q2 =% 3! t$ @% *< J- 3! z7 @^ S% a, B{ f/ |/ L% 6* |] r$ W^ j$ {{ c] H- |] @/ += s$ y] 2}  < #% /w 6] #/ 6! u> >/ 3] |{ Z^ g] l/ ./ P^ >% u! w- t! 7' D{ -% W^ B{ J- w^ KO M^ w% i% _% N^ V* P^ {{ /) %{ `^ {^ [^ r5 q5 73 *= A$ ]/ `^ |] t! 1/ B{ g] #/ /^ |]  ! &/ q^ 2] }/ 3! o> 8/ B{ ;% =- ${ += u% @% t! d^ z7 Z^ {< L% B] j$ o- U^ x^ ,% 8/ y% t! a, L^ @% #& g] k^ t! y% W^ 2} S% U^ _% z7 x% &/ h] Z^ z9 $% w^ z7 o% J- g7 ./ K; Z; >$ ;] /4 }$.L* += |{ {{ 3] x% {! S* x% += d^ E' N^ ,= 1/ |] ;% g] w^ |$.z7 *! :% R5 B{ ,= I{ {! u* m^ d^ 2] y% 2] H- .< $- h] V' ~x W$ :5 @> q- $- 50 5] L6 v> y% 1/ L^ `% M% _% D%  !  ! z7 }/ B] c> @% d^ O% 3! w* R5 K) c] ;4 a9 V7 =< 7' P; w^ $% @% |] d^ y] p] L^ Z^ A6 s$ U^ y% h] !< (< a, L% 1/ =& 1/ @/ ${ d^ 3! =& q^ :% =& _% O% |/ ~< _% :% F- *1 J# v5 ~7 CQ (< j$ R^ l% )r 1/ s$ l% 1] @/ %! {! s$ N^ x% x% S% 3! =< <6 t! L% [/ `: t% (< O% O% (& &/ E' L% 0< m% 7] |] $< d^ $9 |] ]5 `) !% !] 2/ ^) ;4 +% p2 0{ $< =& w3 `% +% =& N^ ]< /% i$ C% r$ U% ;< (& '% c/ $* O% |{ >% .^ 5$ 5$ ;9 F9 $% $< /% 4% 0< b$ E6 !< [/ M% (& q[ L^ F' D% L^ Q% $< ^% S% i$ f/ %/ sF c% t% `% 2/ +% h] <% iT i$ %% F' 8/ (& (< -& Q% #< p$ L$ `; M) ;- O- B* := ~; [= O= C{ u* << V] '= 0* :< b, 89 1$.2$.3$.4$.5$.S( V  j' 4q 6$.h] ~$ s{ |4 '4 k& t% 7$._* w- =a Vd ",
"fK }* B{ {! #^ 6* 8$.9$.O@.Ir WK W7 N^ D% >9 Su a% %% Q# O# ,* @$ ${ %^ w{ j% j$ L% z7 p| ,* {{ =l o] Q; UJ g] {! /) j% `# i$ [/ y6 e7 ^) r$ a> w3 F' -* 1/  ! h] `6 -* o% 5$ U< 5! S& =^ G& N< 5] &/ $< E' x% w^ U% J9 += i% |{ A9 A6 x% `^ T% `% =< w3 =< L% >/ Uo }/ O% |] ^) =& 7/ :%  ! _/ B{ u> :% t! O% Uq L% D{ Y9 N9 c> l] y] (% L% E' t! w% v> l* ,= q] g] %! _/ ;% %{ B{ pn J- V^ R^ >% d! U^ C{ _) =9 o$ t! K) :% 8< O^ x^ 2] C! _7 s$ @% Z^ f/ J- Z^ K) :% c> @/ |] t! 4/ }s G/ Y# 1[ c} A& m^ u! h< t! I{ B] D% _% c] y% &/ q^ m/ |] =< N^ a, [/ =& t! $% R^ _/ w3 @/ h] }/ &/ %! t! f/ o^ y] f/ P^ s$ q2 -% l% k^ &/ _%  ! +a /) h] m^ B] `% #/ >% C- m/ $< Q^ `^ S% @/ P^ l% c< `% q] }/ r$ Z^ (* _$ #m S& $$ 0- .( {{ 5] 7* g] p7 3] K^ x% _% U^ h] ;% >/ P^ x% @% w% L% x^ A9 z9 3] B{ @/ x^ c< 4/ L% @/ d^ (< @% x% ,= =< t] {{ @% ;- R) ~] n$ N# O3 N- K^ ,% t! =< Q^ w3 l] d^ _% L% c/ (< C- _/ @/ _/ s$ !< x% |* s$ _% e% w^ O% d^ 8/ %! |] 2} o% B] &/ <% :% vt '% |* m/ ~< q^ U^ w^ Q^ `% l% a, y] N^ !< 05  < +% F' f/ @/ B] B] g/ a, _9 y% x% E% -/ a] 23 p5 @$ (5 1K -* 3o c> ${ _% S% 7/ Y9 ;9 C{ `: 7* U^ w^ 2} si A6 P^  / Z^ u% q2 =& D% ${ L^ z6 D% '% $< +% )< U% [/ m] N^ B[ W^ V7 u% A9 #] A& $^ 95 p2 Ea ,< ;4 |/ 1/ )< _/ u% -/ `% D% +% %/ g/  ! '% @/ m3 `% t! d! (< _% +% O% W^ $< +% _% +% a> =< =< e% c% w3 w3 +% o3 n% 0< 5$ M%  < L^ d/ Z^ $* n% $& p$ O% b^ ^^ <% $* L^ n% H$ (< w3 L^ L^ B[ Q% F' *& N^ L& #& g/ +% 6/ Z; x- 3! s$ ~< BC >% ~< du P] |* =< ^* )> N9 ,[ .= Qy J$ x> $4 :$ 2% L# /) >$ .= Y* -Y yn -K >p 3s sR __ z2 Ea K= q2 Z^ Ju ",
"{P >* `: N& !% C< @% q- _* `= K* R;  ^ l] y] e~ e2 <; P* ^* -[ s* .! C[ r6 o7 #..U+ $  '. CT  # (@ 8, U> {W 0& E{ w{ T] <^ {] r$ Fq O% w3 |] `: D% #& r$ g7 )> `% $^ _/ (< xO $$ gu .& A& u5 H} g2 S9 Y^ J- B{ E% y] P^ `% w3 h/ -& =& ~< B4 w3 ;N `^ ~U z7 b$ +6  / @% 8/ A$ c> |] ~< W^ }5 99 ~< R^ rZ 1/ %{ {{ B{ =l l] K^ U^ /) E% c> R^ $% 2] c> c> 2} p| B{ F- q2 d^ k^ f/  ! 3! :% c> i% 4/ J- U^ ~! -% *! x% 6' =% i] @% g] y% 2] q^ a] b^ h] `% ;% 6' %{ ;% A$ g/ `% 3! @% g] t% D^ (U *] j% W2 )! #9 3! w^ $9 ^) W^ B{ t! t! 8/ :% #/ |] |] -% `: |] )< H* |] +% q2 2] ${ =! n% P^ =< s$ B{ J8 3! M% x% @^ 2} y] U^ Gh Z^ O% &/ @/ k^ B] b] |] '% ;% 4/ 8/ b] =< 0< B] I{ }5 :% h] 8/ M% L% O% ]/ +9 *; 63 T# *] {0 d7 y] Y^ q2 Da w- {! l/ B{ P^ Z^ |{ g] p2 w^ &/ h] h] `^ e2 Q^ ,< o- 8] S^ w^ w^ J8 @% B{ l% o> L% `% :% 3] a, 3! {{ I{ 3% 0S +5 {^ '[ o} :% 3! ,= @/ |] 3! I{ q^ 3] z^ 3! `% l] !< =& _q g7 &/ s$ h] !< B] @%  < N^ x% U^ ${ q] `% ]/ p] 8/ W^ D% c> +% K) o% =< 4/ 8/  ! {{ %< U^ 6l 1/ q2 ]/ s$ w^ |] }/ ~< _% $< ;9 f/ P^ F' =< !< :< =& 8' 8u C} 1% W{ 3a 0$.|< {{ $^ c> 1/ f/ :% 5] |] Gh z7 |] |] Z^ L^ 4/ E^ q2 $< S% 0< _% 5$ =& )r ;4  !  ! ]/ '6 u% B] O% @/ ]/ ${ O% L^ e% 0< F' o5 _^ >$ 1| )< >% 8/ Z^ D% `% $^ F' S% D% w3 h] 6% @/ |/ $^ n% $& 6' S% N^ L% %9 L^ F9 q[ n% _/ b^ A6 e7 %% x% e% '6 b$ W^ w3 5$ j$ _% 2} .% Z^ d: s$ 5P O% !$.w3 /% 5$ +6 b$ 4/ -/ _/ B[ v$ =& :% H$ (< &/ ^$ Q% o% l% p$ *^ #& <6 )> @> s* ~< D6 [/ a$.$# }9 G0 b$.', [# @  c$.Y@ d$.e$.b% N^ 0/ #[ n] _* v* v^ f, Y# g] >/ f$.v^ 9* R* 1* P] x* X$ N; d* `% =a RK ",
"$q D- n% a> k& l< (! <* (= A- {* R; H- w^ K) g$.%! D* 7* x- |< M= P: =} h] $^ C& J# C4 tr .& [% t4 ** U$ `& h$.T& {! 2] -% /& b} @/ w3 >^ 7/ 6% ${ #& B[ #& `6  ! <% h^ =& l% i$ l% h& v6 j% )% `} h} v* W^ g] j$ g/ <7 =& D% _% h] !< Q^ Z^ l% l% 6/ _/ n& x% P; p7 _% i% w3 (< <% #/ @/ )> q2 5] L] q] h] t! X^ (& cu @% O- b] +/ h] m3 ~< P] B] X^ A$ #/ b] /) @/ v^ O- {{ += w% B{ A9 D^ 6' ,= :% Z^ 8' _/ #/ (& u! 1/ s$ |< y] d^ _% x% W^ w^ 2} L% _% y] =& y% >/ :% w% W^ 6/ 0/ Z^ ^a 2R .& u5 U: x: +[ E% ,% L% w^ K) j] _% N^ @% w^ :% N^ b] s$ K^ t! Q^ t- t! ]/ @/ ;% `^ [t #/ @/ S' 2} |] 2} U^ C9 U^ Q^ ./ Xo B{ y% d^ ${ t% S^ $% x% u> |< _q |< _/ =< 4/ :< e% e% =< @% w^ +a C^ g] |] d^ /) 6* E2 7& A& `9 #f c$ X^ |{ u* -% E'  ! 6! %! /) @% L% B] I{ |{ {{ -/ 3] ;% P; y% sj w^ E{ h% ^) |] !< S^ h] y% B{ &/ I{ o> |] a, P^ !< z7 j$ A$ p& W$ %] -$ F2 <; $< q] ]/ @/ ${ P^  ! 0/ _/ 1/ ;9 M^ _% t! J- |< w* K^ <% h] $< 1/ @/ e2 }/ g] 1/ f/ ;% `% }5 @% 05 W^ C[ B] y] ;% q2 a, :% 8/ x% h] I{ ,= t! @/ N- _/ _/ c> {{ F' L% ;% ;% _% =& ${ =< 9a k/ w% S< _^ n5 G& Ci 7$ =< L^ 8/ `% |] S% |] b] @% /) m^ O% =< d! 3! .% =< w3 =% ${ -* :% $< @/ r$ 4/ *< S% D% Z^ w3 u> >9 '% g] =! :% 4/ 1/ h] =< B% }] L& N& )$ A6 o$ L% 8/ B[ (& k/ '% n% '% A9 O% =& 4/ (< %% K{ $% :< q^ &/ '9 I{ )< P^ 4/ #/ /% p$ !< h^ L^ f/ ]/ *% S% D% F' p7 H$ S% 8/ ${ W^ x% e%  ! T% $& K$ l% T% (< )> P; ]< 5$ e% h^ $^ i$ $< =% e% (< ${ 0/ N^ <6 b$ E6 j{ 7' p] N^ (& ~8 +r :3 ;& i$.%e BK  ( <& yr ]$ D& o% Y9 _} 0{ (; |] :* N* m, W! 2% d^ D% Tq 5] _< O= q- N* L% A& v6 $- h] E6 !q ",
"fK 4a '% ]% =] dp ~; 3] v) Ym i% Q! _< x% += yS B] Y* v> @^ |* V* v6 0% L% v* 6' j] D^ c/ j$.ek S* s* v> E' <& $_ (4 y] %{ a] ~| :4 %% p7 B# *% '6 A6 4/ b^ 6% l% D% L% Q% 2& D6 A[ My D2 B# .& .$ }| .7 m, +% a9 k/ S% 8/ 8/ 4/ k/ y] Q^ `% u% -/ !< >/ L^ @% |* a, 2] ^% /% ~< 3] w^ `% /) += L% ,= c> @/ l] >/ (& e/ u! Q^ (& E' x^ w% l] c> O^ _/ u> h] K) /) X^ L] 6' z- @/ :% v% v> h] e] s$ S% p) %{  ! u! a, ^/ O% j$ W^ Ht l% 2] N9 j$ o% c> g] B{ F' @% y] K) J- {{ B{ :% x% t! M$ /~ *5 n5 M< s! x> C9 d< 0< i% g] p] x% y] z7 q^ =< ]/ B{ s$ w^ I{ &/ B] >/ y% z7 m] ]/ t! $% h2 ${ &/ I{ s$ x% =& 2] !< -/ w^ :%  ! @/ %! /) y% U^ U^ B{ @/ @% c> U^ y% d^ %{ S% s$ 8/ I{ ;% 8/ x^ &/ 4/ f/ `% 8' -1 :$ %] tr += S^ /) &/  < `% t! c> v^ -% 3! w{ ,% a,  ! _/ 2} x^ $9 x% L% ;% |] #/ d^ U^ q^ |{ j$ 1/ a[ |] 3! d^ /< P^ h] y] {! >/ =& @% ,< k$.,3 n5 :5 T& K9 Q^ }5 7] =< |{ U^ d:  / g] @% g/ $9 $9 =& /% #/ U^ |] (< !< P^ W^ L% k^ :% U^ +a `% +% @/ &/ 2& ^) `% W^ $% L^ !< </ x% S^ W^ _% $< ~< c> n] (& h] J9 U% a, '% L% @/ J8 L% ${ ;/ R^  ! )< ./ y2 p} !& %] h& (* !<  / KO ]< [/ -/ !< /% @/ L% #/ l% $< j] =< @T =< (& &/ .% j$ r3 N^ |] %9 t% w3 =< L^ *< t! <% N^ _/ a, x% |] ]/ B] `% >% p$ F# ~^ !6 d> 2/ $< D% O% (% h] B[ _% -* S% >/ a, D% Q% `% r$ o% =& !< m] H$ _% ]< &/ :% !< Q^ (< O% _% 1/ +% H$ ]< _/ Z^ $/ d^ </ >^ e% P; ^) ;9 8/ 8' +% n[ 7/ +% p$ )> o% D% D% e& h/ |] ,[ `% N^ )/ $< Z& !< 7% $^ @% O% +% |< x/ l] a, C] d! IE D4 ^/ 3* 4< ~> w^ T] `' @% 6* _* C{ 1] $* h] /% o; w^ ~; i= -% f) P# 6/ d^ hc f] Q* P* h% P] $< X# hl ~0 @% /% kw ",
"fK %V t! :^ +| n< N* S* Y) <* x* |> Pa w^ d^ o7 8] (* _* 9* 2< `= I$ Q9 $* B] u$ {{ w% !/ ,= v) C{ P^ a] h% B* qs K, '3 N^ :% l$.>| {] 7/ -* '% a> N^ $& p7 A6 D% -p !/ @/ S% d/ '% 4% X7 54 v[ 0% W$ !! Y4 P* ;4 &/ W^ 8' l% `% !<  ! >/ Y^ <% z7 @/ f/ f/ `% @/ 2} ;9 @/ x% ;9 L% U^ ~! .^ 8/ u! A9 `% /) x% w^ j$ 7D E^ {{ q] 8' l] :% 6' v- <% h] O- i] ,= p) 2] 6! 6! 6! ~< DU y] +/ x{ m3 C! 4< C! W^ u! w^ w- h] <u {{ A9 d^ d! 7D {{ h] @% J- B{ _/ S% ,= 2] U^ h] z7 i] O% %! x^ 1/ J^ '4 !& 1$ j% @> K* T] #% o% h] y] 8/ m% s$ g] |] l/ a, t! {{ Z^ >% $% y% t! `^ L% !< P^ += S% @% w^ _% %! y% `% m/ a, P^ `% B{ >/ B] w^ 3! 7/ B{ h] w* %! <% W^ t! B[ !< -% 3! w- F' d^ }5 3o  ! e% i% |] *= a{ %] -$ 64 r< }/ %< 3] B] |] x% U^ ~< =< W^ T% c> =< ~< w^ !< l% _% I{ P; +% x% m% w% L% 2] x% P; :% y] @% x% 4/ u$ s$ 6! B] p] f/ %! u* a, a, -* Ld (} Y# S& #6 [{ m] ;% d^ 8' 2] w^ #/ s$ B] _% f/ S% R5 f/ ;% x% q] B] B] %! |] @/ #/ Q; /) E' h] u% ~/ ,= 3] t! }5 P^ B] $% :< 8/ %! L% 3] x^ P^ W^ P^ s$ %! L% `% :< !< p7 B] E% N^ g] (& 6/ =& z7 7D (7 *o )% )^ N} @. Q% u% z7 O% '% ${ -/ J- 2& w- ${  ! +% o% U^ 8/ d^ e% a, L% _% _% g] d! l% ;4 ;% w3 &/ O% ;9 <7 =& {{ s$ :% 8/ !< ${ !< +% _% w^ {$ /^ W$ G& f7 2] _) d! >/ '% y] Q% +% (& e% ~/ g7 h] |] d! _/ ;% `% 5$ j$ ^) O% L% `% ^) L% ]< _/ p2 @& 3% ,< ,% F% O% 2] g/ +% P: !< _% g]  ! t% x% K^ -* D% o3 ${ -/ c$ .( <% (< u% Q% n& t% @& '6 7/ J6 `% p$ $* F' [/ /} a} T]  ! m$.T% s8 ]s t! R* ,= x^ K* $- 2] i= {{ %! |{ x^ w^ M^ ^) *^ U- I{ {* (* d= W~ X$ w{ )> nw Q; k^ U* D* {* R5 '[ `) j] s$ C# 0n ",
",P U* ;9 .$ 1| *O B{ x* $- C{ S^ -) d! -* E7 ,~ o> #% -% l* y] %- p6 /% S% 1/ @/ x^ a, y] ;% w% /) -% ;% w* y] >% !& n$.%3 x% ,= f] >] @6 3% /% o3 4% $< v$ =} Q% /% (& D% @/ W^ _/ f& !@.Qp j% i$ )% =^ x| )4 f! @/ }/  ! L% N^ h] ./ {{ &/ F% t% !< !< w^ i% L^ |] Z^ -% U^ ^) _/ !/ f/ 6' Uq w^ 6' 6' -% F- 3& _/ _% h] _) A9 c> w^ c] 0< B{ 8< J- a] E{ r2 nb m3 Do 6! o] B{ 4< ^/ &q A= c] w^ C] j$ 8< j$ t! y] ~/ 6X x> E^ f/ h] B{ c> _) w] t! c> x% t! 2] b] x% ${ 8/ B] z7 v% }/ =< 4/ j8 $5 :$ :$ 3| D%  < Q^ `^ ./ U^ B] y% w^ |] N- S^ m% @% A$ @/ -% #/ (& h] w^ %/ ;% 3] I{ k^ 3] a, |] `% C9 m] w^ _% a, W^ ;/ ,% $9 @/ !< P; N- 4/ U^ |< @/ %! c] J- ./ C^ #/ !< L% L% 5] y] z^ 9a =& C{ A} {] /$ d% N^ f$ g] B] z7 x% z7 g/ 4/ W^ 3] U^ e2 I{ ,= &/ ,= h] d^ /) L% x% 5] s$ L^ x^ t! U^ B[ q^ x% N- K^ x% _% s$ 3! 2} 4/ _% v% `: }5 w% _% u% :; ** Um s6 /& V{ p> )> 2} |< W^ `^ =< B] 8/ h] Z^ t! w^ $9 Z^ _% m] #/ @% C*  T g] q^ 8/ 4/ !< L% e2 q2 -% P^ s$ :% |] J- B{ /) m] '% O% &/ t! 0< 8/ q2 V7 L% O% :% U^ &/ Z^ a, B[ 7/ P^ :< y^ 6/ :< w* f{ 7& X$ K$  ! 3% &/ [/ <% Z^ ^) 8/ p7 |] L^ L^ q^ ${ &/ R^ +a i] o% =< _/ h] '% L% !< :% !< +% z7 $< H$ =% D% Z^ $< #/ g/ E' W^ P^ =& V7 P^ <n [/ Q# }] !% Y% d/ F' m% $< w3 D% |/ #& O% `% D% d^ D% e& A$ f/ |/ =< |] h/ '% @/ _/ p$ `$ k/ &9 =& h] O% o% 3! 4/ O% s$ N^ <% 05 p$ L^ f/ l% F' L% W^ ]/ 7/ >/ J) .( l% S% <% ]/ 0/ r$ p2 w3 O% ;9 `% d^ `% bn $^ `% +% @& 6l ]{ n> P; /) '6 |8 '! += h% =! <; $< u* 8< Q* x^ p) o- a, w% x% 1/ =} *^ >; M% p) V* /; o~ f$ t! L^ gP x^ 9* K* }/ t= #/ .  p6 V] M% M6 BB ",
"`M ,* Bs }$ q5 2k := I' U* '= w* &~ L6 t! 1/ +Q t] d* `* Y= e2 .= .! w3 0/ }/ w% l% J- K) N- y{ x^ {* w% t* hb u* S-  & W> 04 p| F] H- #2 %5 6/ +% H$ r$ 7/ 0/ `% O% w3 L^ _/ u% 6% <% -p jU <> o6 }] 3% z% W: '| {* :% t!  ! !< 4/ ^) t! [/ W^ 1/ g] x% w3 a, +% p^ ./ =< v^ _/ {{ J- t! C[ h] t$ =l c> Z^ %/ L] x{ _/ J- @% x{ h] K) 8< |< S* Ds E{ 8< /) a] Fh ~! A] =l |< C] 1s B{ v> c> 9* 4} (& 6! nb [] c> ~! ;C x{ C{ >% >% :% q2  ! c] t! ^/ a, J- x% J- |< B{ 2} U^ :% l] k^ @/ |< D% 5$ 2& j% :$ g3 c^ :* d9 1/ d! c< q^ g] S^ 8' Gh |] ;% x% 3! ;% &/ x% 4/ e2 '% s$ 4/ ]/ &/  ! 1< Ea L^ @% V7 #9 S9 U^ )< %/ 3! w^ S% O% ;% m] |] t- 2} x^ !< y% ^/ @% o% Z^ t! g] =< h] R^ 1/ <% >% B{ y]  1 %] 67 {0 -~ @% U^ |] P^ z* >% 2} c] %< ;4 z7 8/ @/ g] %< x% B] =< o% P^ s$ @% /) B{ |] t! w^ _% {! |] kr 6' <* m, o% U^ L% m] |] s$ /) d^ C! y] K) W& o$.o} .& >$ RR i% c< P^ |] x^ %! x% 1/ R^ 2} %! L% ,% L% x% O% {! C[ @/ _% q2 _q $9 W^ y] w3 $< o% O% (% L% =< P^ ,= si L% S% 2} |] !< ]/ `: @/ %/ L% h] B] ;/ a, e% A$ /< L% P^ =< m% @% @/ S% ;% :[ j4 Z{ )^ _0 V! x^ m/ c] e% }/ )> =< %/ =< #& f9 M^ 4/ f9 `% a, w^ p] Gh 2} t! |] _% k/ 4/ t! !< )> !< ;9 ./ %/ u% [/ wv |] '9 P; L^ =& O% ,% c$ +a Z' !^ !6 |$ '9 g/ !/ (< t% N^ L% d: W^ a, L^ e2 N^ L^ )< r3 S% =} 5$ D% S% =< !< B] 4/ h] sF T] 1& <6 5$ D% <% m% r$ (% 6/ &/ K$ :< c> d^ 05 ${ c> w3 D% j$ D% -* B[ '6 2& [/ S% p$ (< $< [/ k$ K$ 0/ 6% r$ l% 7% B[ |< Y< f* N^ Z^ '^ p$.mH {* 2* g< C9 u* 5] -% #/ y] g= !< 5] G4 }/ 6/ b, L% b^ d; |K }= K* |* Z~ Y{ :% /% (8 6] z^ C{ H- i* m, -$ A! s* |] fK 0n ",
"HP I* `: -$ .5 Qp q; := A^ u* q^ #F t! !< _} E) :* -% t] p) p) R- X6 -* Y6 d^ 4/ @( :% %! 3] w{ j] H- (! O* 5* w* h* w- w$ q$.C: 6' ^* z- !4 Q# p$ [] t% S% !< D% .^ n% r$ F' q[ `% q[  T B] .(  ~ $$ V$ @] n$ || ,] z* @% >9 j$ t! e2 ,= h] c/ :< M% 4/ t% :% !< @/ e2 L% t! >/ #& 0< :% C! XM +/ i] J- t$ Y9 E{ u! A] `' K] _v lv L% `] e/ ;C +/ ){ G- kU >% _< =l R] K] Az =P 1s Cs 1s C{ %p L] ;C I] C] =/ R] t! e] c> t! g] !< %/ 6! >/ ${ h] L% _7 t! t! E% h] L] i] B] B{ %{ c> <% d^ _< ba WW +3 ~] f$ N& 1| r$.x^ x% x^ |* $- a9 |] A$ g] }5 3] _% $9 H- %{ B] &/ a, |] $< _% 2] ;% L^ 3! q^ E' p] [t 4/ J- 8' U^ |* Y^ @% z7 p] N^ }/ 4/ k^ g] |] =< /) S% ,<  ! += S% W^ ~< h] 8/ S' h] N- S2 0$ 1[ j& er Kd r2 W^ y] Q^ @% Q^ ]/  < P^ Q^ s$ 6l q^ @/ L% %! @/ w% :< N9 |] :% ~< j$ N- :< J- /) &/ f/ (< u$ U^ M% t! u* t! V7 k^ |] y% 3] 1< g] #/ B] >^ J- }] Q# %] {[ @= I{ %/ )> 3! a, m] B] U^ *< L% 2] :% 0< 8/ >% Z^ U^ !< o% '< k^ B{ |{ 8/ u% 8/ 1/ B{ l% z7 a9 U^ _% @/ 2] z7 ]/ Q; d^ U^ 7/ k^ W^ =& c% K^ t$ g] B[ z7 =< }5 !< N^ $< /% w^ E6 F2 Y# 7& o5 Xk rb Q^ ;< h] a, w^ W^ f/ !< L% $* E% J- HB @% y] l% ]/ c> P^ @/ x% L^ ${ =< 0< U^ -< o% t! c> !< !< W^ h] w- +% t% I{ d! )> _q m] l/ ;9 @5 X6 A& @4 2/ b^ S% O% l% x% @/ ~< @/ ^) 5$ 6' Z^ u% =<  / |] !< W^ <% x% !< (& Z^ )> N^ /% x^ 2& b^ Z^ !< e% `% c] -Q h^ l% p$ D% w3 (< w^ a, n% k/ ^% w3 O% k/ <% L^ (& $^ 2& ~6 ]< k/ *% B4 5$ O% B[ @& /% Q% c] a{ r2  ! -/ !< s$.i^ A= C= -{ >0 o* @/ A- 5] B] <; ~< u> R5 ;% &/ >9 }/ ^% ^^ G- }5 V* l* S- q~ () 2} r$ t$.(* v* V* @[ q^ 5/ o3 x5 x{ ;% Z6 .e ",
"Vm J] (& -] -] O: C{ N- 5= J] #% U! M6 }/ [5 Ms &/ 7' w* 5] y% t> zo W& G: /% =} g7 {{ &/ |] h] g] 5] N- d^ 8= C{ t] 9* D{ ;& 9W v: S* y] F; e{ s{ p7 7/ H$ ^$ L^ >^ r6 T% `6 %% +% ${ ,[ 0/ W^ u$.*) X$ $$ $$ A& M3 =] q^ t! x> ~/ t! U^ O% t! S% s$ F' @/ ^) c> ^) w^ 3& Z^ _/ D{ C{ H] x{ += u! X^ =9 _) nb f] _< Rv l/ Cs l] L] C] 3} ,/ `' Y9 5E nb x{ 3} d] Cs M^ Rt 3} A] K] 1s 0O DU tY x{ 6} %p +/ Rt du >% _< NU =l C] u| l] l] (% D{ j$ qU =l l] (% 2] /) @/ ~< !/ (& w^ _/ u% |] x% y{ ^$ ]; '[ -$ .* F2 :* @% $% 8/ I{ O% W^ d! A$ %! U^ x^ p) $< m^ ./ ;% 8/ i% A6 L% U^ {J `^ _/ `% 2] c< :< m% B] Z^ f/ S% Q^ &/ D% W^ `: x^ 05 z7 o^ :< |] _% 3] t- v$.|{ v> A$ W^ U^ ,= <% ./ Q^ 5$ B} S& /^ 7^ L- S% += x^ G4 ~< 1& 6! L% P^ ;% 2} m/ w^ h] |] ./ P^ /) K^ =& +% 1] %9 V7 x^ 4/ y] +9 8/ 1] @/ 3! w^ u> c$  ! 4/ N^ =% N^ t! h] 0< !< x% }5 _% I{ w$.Q: !^ S& a} >/ -% |< B] p) S% :< N^ 2} f/ |] t! 4/ z7 h] d^ B[ 3] ./ t! /) $9 -% 8/ 1/ 3! y% 7* !< @/ D% h] L% =< >9 o% `% -/ B] Z^  ! ${ U^ 8/ >/ t! m% d^ a, c> =& .% 3] p] </ s$ =& x{ 53 k& -$ {} g6 h* C! (/ O% m^ @/ |] x^ 1] 2& s$ '% A$ :< `% |] $< j$ S% w^ ./ 2} o% J-  6 &/ }/ :< L% O% =< B[ a, a/ |] @% 1/ 6' m% :% H$ m3 O% o^ R^ @T .5 X< s{ 3^ '9 h/ %{ ^) m% u! <% `% m% _/ =< S% L% 6/ += z7 s$ A6 c> n& t% @/ M^ ;9 @/ =} p7 e% ;9 $^ ;N $^ t% i$ =& m% l% ,< %% Z^ 4/ 6% D% Z^ o^ p7 H$ $* 0/ 3% O% <% S# K$ 0/ ${ =< r$ p2 a/ g/ d% 4% #^ t% z6 D2 j$ :% K6 F& cQ r) 8* {* N- A- G- 5] j] C* W^ V7 c< w% 7' y] !< w^ w* D% '% J7 U* /< a* -{ Q' !; Z{ N^  ! Un m^ _* z] P^ S) 5] ,[ 06 dz Q^ g7 Vd ",
"$q w% W^ ($ -$ #f ^* :* ;% %{ J^ p~ 1] R% Z^ O~ x^ 5] -% {{ m^ [; NS c% r$ [] Ea ~! ]/ Do ~< 6! 6! P* d^ |{ }5 |* B] &q |* a9 8$ x$.k> p) x^ 2{ y: :^ Q% B[ r$ d! r$ <% =&  ! N^ 7/ o3 [t A6 ;% 0{ h$ Qp m5 4% =^ ^6 In a$ +a h] c> @% ~< _% r$ m% ;4 @% |] Z^ !< g/ @/ Y9 (! ~< /) J] ^/ :% Jt `] .t <u P] 89 .t O^ Ba BC I] 89 A] O] Vu v| _) gw zU K] v3 ^` tv r] .t du _< Fy Cs F- ;z C] 8< cu JE (% 1s +/ 6} @p y$.=l W] 99 u| !< N9 ~q :% A] 8/ 1s >% C] j$ l/ /) +/ +R 3] h] x% =& W^ C] =& m/ .; F2 u5 7& 1[ 6| i% a, z7 L^ g] z7 =< U^ ,= m/ x% B{ I{ ^O sj ]/ ,= M% HB U^ 3! {{ !< 2} 3] Z^ N- $% y] ,= I{ c> q^ t- @/  / L^ x^ P^ L% o] ,%  < B] ;% *9 ;4 ~< ]/ x^ B] 2/ ,% ^) =} |* R- S< j% !^ ,Y Bp #^ z$.B] C^ (& x% N- l% g] 2] |] `^ P^ S^ ;% 1/ g] $% `% O- y% _% B[ !< %{ `% ${ A9 B] A$ t] #/ Q^ w^ q^ |] @/ %! 8/ 0< z7 q2 %! P^ $* 1* !< t!  ! 5$ >o Z{ Q# )% K2 v) +a u> d^ d^ A$ p] x% =< N^ u> _/ 4/ z7 $% /< %! ;% !< a, h] z7 t! g] z7 |{ `% @% 3! |] f9 2} c] L^ |] S% 3! _% &/ B] U^ s$ z7 o^ |] t! 4] '% Z^ o% ;4  ! |] $< a, mw :6 }| A& m5 }4 A$.o% -p @/ S^ p] +% 6% _% A$ n] B] d: B[ 6l }/ ,= 6/ [U n] q^ W^ c> L^ m] sj i% !< `% x% U% <% =< &/ B] g] d^ ;% p2 =% C* y] g/ $< !< A$ w6 Q& M! q% @5 [/ S% !< @/ ^% 6l d: Z^ C! lr =< d^ |] =% L6 '% U^ O% &/ ]/ P^ 99 z7 d^ M% o% 5$ t% t% )> a, S% s$ o% 5$ m% 2& #& c% p$ t% (& `% 5$ _/ h^ @/ d: F' (< $& 5$ 5P Z& <% k/ [/ =& F' g7 d^ q% ca Q# E% S3 ~} d^ ${ ($ 9. k= w- ~* 6! v> m, B- U^ S^ &/ r* 6* 8< B] /) p] {* n] !< 6/ D6 v6 q* aU C* m, <* .~ Z{ o% r$ lN /* z^ G- I- |* v* d% `) i* {{ %^ .e ",
"dK K* z7 :[ -$ V! Q- += }= 5* 5] s' (% =& %{ O~ U* t* H- m^ p] f* hl !% o3 6/ t$ h] )9 J- +9 #/ |* U* Q' v% ~0 z* $- c> G4 AC s- w& B$.9} m= j$ 1* %} v6 *^ i$ #& @& [/ q[ $& [/ N^ q[ )> +% $* g/ <% U$ zh ~] q% !^ )^ #{ q5 m] ,% @% Z^ +% z7 t! t! x% |] @/ }/ ~< J- w% =< @% @/ v> lv L% ~! <7 RU XU $V -z =/ qH &q Rv ;C nb _< Xb XM A] H] v| v3 .w 3C C$.BC uZ VA /u QD R] Zz R] gv >W 6J 6X Vu 1s K] `' =/ >W {T _v ;C W] {/ 6} =l o9 cu Ht b, 6/ C] :% h] Rt c> 6/ c> BC @/ L% <7 6/ $/ l% V^ +% D$.N& &] S& 23 {! z7 a, c] i% U^ o> |] &/ U^ {! C{ w% E' !< C[ ${ %! g] C[ !< 3!  ! K^ y% I{ :% W^ a9 +/ 3! 5] `^ N^ #/ q] y% C9 =<  ! 7] #/ ;% /) i%  R d^ !< a, B] ${ :% +% c/ /w HB <& 3| y$ )% !5 Q^ |{ Gh a9 3]  ! Q^ _% =! U^ DP g] #/ ;% x^ d^ $% I{ a, y] =! y% w- %< i% P^ s$ =< 4/ >% I{ |r f/ L% I{ a, B] u* 8/ 1] 8/ x^ si |] C^ L6 u% I{ )& L6 I] 3] i3 '[ j% @4 k& 46 >/ =& U^ D% ~! |] /) L% L% %/ =& @/ 5] %! ]/ =& =< |< (/ w^ g] &/ -/ Z^ U^ D% ;% k/ |] )> c> >/ L% 1/ b] '% #9 2} W^ 1/ R^ @/ ^)  ! 0< N^ s$ $< W^ N^ g7 r$ g] t^ H! n5 r5 '[ ${ b% Q^ L% w^ h] z7 D% U^ @% N- =& @/ h] m/ 3! t% 7] L% o% 6% ;% 4/ _% W^ W^ <% p7 y]  ! a, w^ O%  ! w^ B[ H$ L^ q] i$ L% %9 +% ;% x% x% +% =& Y4 u5 Q# y$ [/ d! b, Z^ |< $< (& `% B[ /% L^ L^ +% 1/ ~/ ,[ `% 2} L% r$ E% S% N^  ! `% 5$ l% U% p2 a/ L% |] -% t! )> 7/ @/ L% !< [/ `% A6 D% F9 <6 N^ $* <% +% 7/ 7/ Q% <% -^ 7% 2] D% +% !% a> .^ 5$ 3% 8' e{ !< ^O (7 A& .A x= !0 _* x^ `* x^ {{ 1* ]= 5] p) y% x% {* [t += y% @% {{ $9 c> /^ T% 3{ B] $- g= $- p, Lu =% b% ~p J* D* q^ x^ y] E' ($ -o g* u! [] !} ",
"E$.@= m% Y# n2 yS h% d= 0* (* <* AQ >% w{ x% .[ ,% (= b] H- t] V* W6 d% *^ +% g] 1] P; U* H- v% += I{ @% ,= s* t* m= )= m- i% H- 6! P& *_ 0R Q^ ~! U* =e A! .! $* >[ %% Z$ 5$ g7 F' _/ e7 Q% @/ W^ Z^ u6 ]$ T#.Z{ o6 L< v4 C| y[ &/ Z^ ;% t! =% `% A9 1/ Y9 B{ %! B{ Q^ g] C{ x% u! J- 99 ;z aZ _v e9 kt Cz ;C R] -z Fz DU `' gw  w QD sY du Tv Lb t| F$.3C  w bv G$.;z UI wG wX !v @p nF _) 0v PD Vu .t %p `u dx R] b] 6} BC ;z QD  D BC x{ .t g7 _v pu =Y b] =l j$ kt n> u% K) h] U^ Z^ @% )< w{ m% t! 6! A% b> V4 {^ ^3 ^= o> N- C- W^ Q; z7 ./ =< @/ @% U^ o% 3! Z^ `^ I{ |] x% V7 Q^ @% B] S% _% >9 ]/ g] 4/ N^ 3] q^ f/ B] =& >9 E' 1< o% 1] ;% i% R5 :< j$ x% o> x^ 3] I{ C^  / $- h/ v^ Q2 :$ z} 8^ MR ^/ |] h/ `% %! 2} ;% p] s$ :< x% e2 K^ t! &/ m^ u% B] 2} d^ $< t] &/ a, |* 4/ U^ i% |] N- |] p] _% $9 D% `^ |{ l% A$ F9 W^ C[ :% d^ )< L% P^ L% 8/ _% w^ f/ yp 23 M! :$ c^ h* b/ =< t! @% L% |] '% @% 2} a, q2 U^ $9 ^% 3! U^ &/ e% %9 |* ;4 =& J- B{ @% ~< &/ o% Z^ g7 2] |] s$ &/ ;9 x% a, @% -/ U^ g/ H$ ;% p$ H$ !< m% |] g] g/ u% ;% -* N& '| )^ ~5 t: qF ${ I{ L% =< ]/ U^ a, L% %9 B] !< B] y% d: L% N^ 4/ :% W^ >9 t! (& %! F' N^ >9 `^ 5$ {{ $< (< L% `% S% !< H$ S% 3] p$ U^ W^ -/ '< n& B] =< W^ ~$ -^ '^ Q& 1& C[ Z^  ! a9 =< 7/ 1/ k/ 6/ !< !< x% ~< O% !< e% '9 d! '% <% |]  ! k/ |] [/ (< !< E% =& +% ;/ t! &/ -* =< N^ @/ @/ a, =< #& 7/ n% `% S% $* 5$ '% ;9 l% D% l% g7 %^ 4% $< 9% 6% #< T% 0/ ${ >> K) h/ 1] Q& R  v) a* B- a] ]= 9* x^ 0* @% m^ w^ b] ./ %- |{ z= u* C^ y] 3] |< :% <% i$ B; M% 0* 8] P* h, 4| )< $9 e! |* J^ +[ [{ Z* +a X$ <] !9 P^ M6 H$.",
"'J <* 2} t& .$ d7 x* j- =- e2 l) |> 0{ )> |{ $t A$ y{ `* K* 0* Q- lP 5% 7/ /% h] |< '| Z;  > c{ k3 :- y% p) @% Q^ x^ :% 9< m^ q^ K* o]  ( I$.T; 1] w^ q| V} {] T% r$ j/ K$ w3 >^ $& A6 Z^ U% $& !< k/ S% @/ 7! #f %] ~^ V$ J# 0| D} 5] L] $^ !< >/ /) )> I{ F% K^ x% A9 ^/ 8' m3 Uo J$.Uo DU L; _) Bz EU 7< Fz }u 0B ;x ou  v r] )` AB 0O UI IX 'y 'v Dy K$.-V EC ew  O fN `i ,v  v 1C {c p..Yu xW ou eY L$.MF hw Bz Bz B` Gz VU K] 8< t| 4O sN `u gw A] Jt 4a v3 6' !/ _v >/ l] v% _/ J- v^ c> _% D% =% !/ #f 3| !& g& s} :% d9 u! =< a9 J] @/ :< %! S^ _/ |< W^ ,% z7 x^ s$ p7 :% 2} _/ %! a, ,% z7 W^ x^ w% ;% {{ 3! %! y% 1/ B{ z7 3[ `^ 1/ g] 3] ;% |] F' L^ =< #/ _% N- 8/ @% p) |] v> $3 /5 ~] s{ R- e$ N^ a, +9 N^ %! K^ @% !< w^ :% ,=  < V* R^ B] %< w^ y% t! @/ B] x^ 8/ S^ ;% Q; i% w^ ]/ e2 m/ s$ h] 0/ J^ w^ u* K) [t %! `: =< w^ 4/ w^ 2] >/ @% &/ y] m% g] o& %/ :5 y) E4 {3 h; z7 U^ L% >/ G4 =! m^ @/ @% 6' 1/ z7 /% @[ |] vo z7 L^ S% 6l =& C- */ [/ t% =< O% w- _/ `% =& s$ =& I{ #9 T% )< P^ 0< D% U^ 3! &/ D% y% g/ @/ @/ 2} >/ C^ =9 pg &* ]& b% s= )6 f/ U^ '% l% -% 4/ _% L^ {{ s$ s$ }/ O% t% d^ L^ ]/ 4/ >9 8/ %< `% 2} L^ 1/ P^ L% c% 1/ _/ k^ R^ $^ U^ |] _9 h] k^ q] +% s$ Z^ H$ @/ !< u% 2/ /& $$ B# +$ =% i9 U^ l% #/ Z^ WO }5 l% _% #/ 0< Z^ :% ~< =& #^ 4/ [/ 4/ W^ U^ O% %{ &/ f/ l% _/ !< O% O% Q% @/ 0< P^ z7 u% d/ p7 A6 L% e% $* '< l% w3 (< A6 m% K% <0 7% $< 6% i$ z6 #* %% |] v6 i$ >% Rp M^ g] l] F& =# Qq _} s* J* {* m^ A= `* c< p) ./ 7* Q- )/ Z; f{ Z; U{ v- S^ U* L% w3 E6 b^ _* s$ 5] #0 p] =~ T& &/ #< g) ,= i% i% `* w, y% d% 06 x- J- =} pr ",
"M$.D- E^ ]& 1[ ]~ := x* <; += w* _~ ^) +% v> Pt {{ /* $- {* {! m2 N$.%r .^ w3 m3 S< u4 c| :| A} q4 S; u= q^ B] 46 |{ u* 1* S^ -% 2] a] ;) ]% O$.a5 o] w{ n> Br .$ b^ T0 n&  7 B[ </ Q% (& w3 m% r$ O% t! A6 @% ]& cR 97 y6 K$ !& %} F} V* L% t! _/ 4/ ~< ${ g] ${ ^) J- h] /) K) :% S6  w ;z K$.Uu ]D P$.9z Gz ou `I au Cs Sv fC bx 8v Qv LE nF hL Q$.eZ Zw OA 8B LE Gz R$.kX AB KL gv KK cx S$.(M !D 4C zz }x tv UI dG gw tv Vu  F sN ex cx PW t| !D !v cx 6J D{ O- I^ ~< E' B{ q2 u$ y] /) _/ x> W^ |] @/ -* V] u5 k& Q& b{ A-  T 2} ;% d: ]/ 3! W^ L% ;% 7' ;% x% &/ E% ;% 8] U^ V7 U^ ,% q^ x% m3 F' %9 HB L% U^ }/ I{ _% L% 3] ./ 3[ i% t! B] g] !< $9 B{ P^ +% >/ |] 8/ `* T% I{ B{ n& s} Z{ g5 G2 Q~ N^ U^ Q; &/ 2] +% &/ ./ &/ z7 e2 }/ w^ B4 a, J- <% &/ p] S9 8' m/ `^ w- |] |] I{ R5 `^ Q^ W^ =< U^ ;9 $9 `^ !/ t! N^ B] d^ Bs |] ;% P; `% $9 bn a, s$ &/ $% Lw -/ 55 ~[ j% 3$ !4 <{ :% #9 S% L% :< L% B] 8' s$ ;% ~< s$ J8 t! x% f/ ;% p] U^ &/ a, un (< `% k/ @% a, &/ h] 8/ a, =< 3! g7 e% 5] 8/ D% 4/ += ]/ m% <% w^ ;4 0< (< Gh B{ z7 %! 3| 7& R$ >$ T2 <~ w^ o% ]/ +% t! B[ =< >/ m] O% z7 >/ f/ o% 3! d^ (< 4/ =< D% q2 =& t! 6' +% _% _% d! ^< !< `% $< @/ o^ F' '% L^ x% ,< W^ r$ p$ O% ${ ;% L^ vo =% G& a$ }] 3| s% }5 ${ c> #/ t! <% >/ 7/ 1/ =< L% >/ >/ $9 O% u> (< W^ >9 )> -/ D% O% 6' E% `^ @/ a, ;/ '% W^ $* +% s$ (< L% |] ]/ `% Q% m] |] _% ${ Z^ n% $^ a$ )/ $* +% p$ %% b^ d& w3 ]< J) .^ j] H! E{ J- 6/ ]$ T$.b/ U^ 8] :* B- K* N* 9* l! %! 3! h* i= X2 A2 C: e4 x3 L) W3 h; H6 c< +6 6' e7 U* g] D* v^ 2= f) g} S% Q9 Nq v* f= @/ u* == C{ >^ _[ Q5 $< ^) uq ",
"U$.x- +% @$ G5 0C K* +[ ~; w% O* BE %{ ~/ 7' <[ ]* n- g= v* w% r- 70 b% {6 8' C: P} e4 s4 Y{ .| E} h3 x| o] t! u* i% P^ i% C^ u* F^ w- S* I{ N& 5W lq 7' p| H- )5 s4 0/ >^ s{ 7/ H$ A6 05 =} Z^ p$ Z& $& d/ H$ L% |$ pb W$ :5 }] (5  4 y4 C{ B{ @% d^ u% `: s$ P^ U^ _/ _/ l] _) =l ~z %A  v ;I CV yx uC zz DV zD AB &z =V OA MJ =N Zz 8B Iv *x ]j Mz Nb IH ~j py V$.cI bK m` By zy yx Mz W$.cw `E zD nX FI Qv  O :c KL cx (v 0v iV 'y tL vA Fw Ww VA hw 8v /c 0B Vu 3C F- pn `] h] o] 8< |] 6' $< c< $% B] ~< }! /0 :$ (5 y[ [^ gU y] x% w% m3 @% i% N^ t! `% |] @% F' -% f/ $< d^ x^ q^ 7] h] B] U^ 0< A$ y% 1/ %! bo U^ L% @% L% Bn K) x% w^ 6' +% s$ `: |] U^ M% Q^ #% q2 L% g] w^ N* #3 G% :$ j% O4 )6 Z^ U^ N^ ./ >% N- !< ,= %< O= o% 2] i% p] v* y% L% q^ y] t! w^ m/ s$ un N- w^ 3] A$ L% B{ U^ J8 `% u> _% J9 W^ l] ;% /) }/ 8/ C- b/ |] `% L% @/ 4] u% ;/ y] ;/ t! *g R; z} E[ )^ h9 t] Q^ =< _% o> E% d^ `% i% W^  / o^ *<  < _/ m] 7' w^ k^ L% c> !< '% w^ O% w^ 4/ s$ +% L^ a, f/ g] 2] @/ 8/ p] L^ W^ |] =% z7 |< h] `: @/  ! =& ^) m% T] L) 3$ *5 @$ Fo G$ $< ~/ .% =& @% =} L% 0* P; @^ d^ )> H$ _% Z^ 8/ d^ 7% _/ !< _/ ${ @/ ${ `% g] m% L% g] o% |] O% z7 $9  ! }5 n% s$ @% D% /% =& O% !< 6/ 0/ =% )> L} s{ Nl c' ;9 Z^ U^ ,= (& ]/ F' $< !< +% m% ${ D% <% I{ B[ +% d: p7 6] |{ ]< (< x% L^ u% W^ A6 ;9 )< [] <6 O% h] `% @% @/ @/ L% $9 ;9 m% =< P^ h/ &/ H$ h^ 7/ L^ 5$ )> ^% 7/ D% (} m% o3 O% 2] S; F] w^ z6 5& X$.9a Y^ n- m= $b h% $- *= C{ a9 v* K^ j= W: s} :4 `4 74 _4 Z' A2 :5 B{ Z^ $* %% :< @w  / 7* t] N- Y$.^3 E% v[ G' -% o- a] h; #/ Ht <$ 80 T] Q^ l% Z$.",
"T9 ~> E% G# Y{ Ci 4- d= ]* i% w* -; t3 k^  ^  ~ 7' h* z* $- =< 5; G5 =^ @& l] H! t} #o g} 8^ y[ /& c} m4 73 y{ =< |* V* w] B] 5] ./ w% Z^ {{ h% c' {m 3a l] ~! x^ ,] y[ 6% Q% i$ 4/ L^ +% B[ (< ,% t! %9 t! )/ ${ D% u& >o /^ 2% <] *] '| E} =! s$ q2 )> f/ _/ 8' @/ w^ Y9 E^ D]  w du M6 `$.^M xW ou Wu ]D VA iV ]v &z EC 0M >F  %.|x uw {v .%.,e ^y (y LK +%.@%.#%.$%.)w %%.&%.5j *%.FI =%.=x -%.PI ;%.0D IH 0x >%.bK vI ,%.vX 'v }K 2A 4j PM gv dx ]G Wu Qw X] )- =z DU w^ J- H] f] /) u$ <% %/ -% >/ 0< =< c% k, '[ *5 ;] 73 H- -/ _/ h] iP w% m] L% U] @/ {{ `^ s$ |] 4/ X^ |] @% B] U^ B] i% s$ x^ !< P^ @/ =& O* &/ B] 3] |r :< x^ 6l u> z7  < =& %< i% @% 'O {{ x% p$ e2 7' J8 `# ;5 @$ j% H/ 5] C# M] Q^ 2} @/ e2 L^ =< L^ B] S% L^ x% U^ ./ x^ @% x^ y] &/ 3] y% D% 3] P^ g] A$ p] 3! |] U^ 3] ;% x% w^ y% z7 x% B] M^ q2 $9 B] d^ c/ a, W^ L% H- |] &/ C^ j$ '% .% #/ 3> C: W$ '[ 3| !6 N- C[ 4/ =& f9 7/ W^ ;9 R^ /) j$ x% $% @^ t- =% =< N^ `%  < 3! x% +a P^ m% }/ l] 8' =< 0< @% ,% 3[ -/ =& i% E' P; x% bn N^ k/ (& U^ L% k^ [/ [/ %= `2 ]% !& J) V$ 05 /) >/ L% /% m] 9/ S% P^ $% C- k^ F' _% |] 6% =< W^ r$ t! K) J8 4/ U% f/ *< U^ @/ x% x% )> @/ _% =& !< d: d^ }5 4/ =< B] B4 L^ n& g7 $< O% B{ _/ '% 3$ 0% =^ ,$ !/ :% ${ ;% S% p7 S% `% '% !< 5$ -* (& m% t$  ! -p M% ;4 7/ L% g/ 6' [/ %% ${  ! l% !< x% d: z7 |< (< =& p$ _% Z^ <% r6 l% B# $< p$ }5 h) 8/ %/ 2/ $< 4/ O% `6 i$ i$ 7/ (& K$ g/ b{ n> ^) !< {} Vx vn @% 7* v^ a, zg B- C{ ,= |* H- B] -{ K< ^| m4 p} Z4 Q& 1| c4 y[ h9 C{ Nd <a ^) `$ 7= d^ B] 3* 5] ^r 3^ l% +% -} i% D^ C* |* I{ f9 !% X6 -% !<  ! E- ",
"ZZ d] w^ ]& /& i~ $- <o (! b] V7 8) <% j] $- YO {* t* L* g] *9 B* '%.{% -& nb ;3 ,] +|  % *5 d| s! .5 /& 1| D3 2* t- 6* C{ v) /* V* z* y% w* M= d] L# ;_ S; C[ r2 1] A& V{ %p <$ r3 +^ Z& !< <% H$ ${ $^ (< $< 8' $9 $& '^ l< W$ )% G& :$ S} )a h% 2} $9 S%  ! m3 b, f] v3 q] 9` )%.!%.~%.{%.]%.^%./%.(%._%.:%.<%.[%.}%.|%.1%.2%.3%.4%.5%.6%.7%.8%.9%.0%.a%.b%.c%.d%.e%.f%.~V g%.h%.i%.j%.k%.l%.m%.n%.o%.p%.q%.r%.s%.t%.u%.v%.w%.x%.y%.z%.A%.B%.C%.D%.E%.F%.G%.H%.I%.J%.1C ^/ St 1K >% fx /[ L] >/ b] 8/ d^ u* ;% g] ]$ L& n$ Y{ 0} c< WO 5] c9 L% %{ j] t! !< P^ 8/ L% ./ L% Y^ g] +9 l]  ! y% !< [/ u* 1< s$ S^ }t +[ _% =< m% L^ 3! a9 o% ^/ F' W^ L^ =& &/ `% _% :% 6!  ! _M B] += K%.4$ )] c| UQ n& @/ =& U^ z7 W^ S% w- _% Q^ x% 5] x% K^ ./ L% S^ v^ Z^ m] P^ (% ;% un k^ z7 /) C- |< s$ I{ U^  ! z7  ! i] a, z7 @% /% j$ 3] s$ 2] ]/ }/ i% c] 2} f/ =< |] I{ @/ m^ z7 w% 6% L%.<2 n$ @$ F2 ^* &/ P^ U^ 4/ Xo L% h] =< x% @% 1/ |] p] B] ^) (< 2} ]/ A$ ,% P^ `^  ! B{ |* C- !< o% ^% 1/ 8/ P^ w3 _/ g] W^  ! o% !< |] t% l% }5 >/ U^ t! }5 /% p} k& 4$ *> AK -/ O% ]/ q2 p7 h] i] H$ L^ d^ %! x% w^ a, y% /) E' '% l% a, |] )< _% =& a, e% @% W^ `% ${ @/ %{ s$ #/ R^ 0< %% L% L^ _/ PQ z7 <0 ~/ +% 7/ =< +% C{ L% )| +7 ;* V& d/ `% D% d^ =& /) 1/ ,= $* K6 m% 1/ L^ $% #& `% F'  ! x% n% p] g7 r$ m% m% h] ~! '% Z^ +a u% '< +% h/ 6l l% L^ )> !< <6 l% =& ]/ ^) p$ L^ [/ L^ 0/ =} :< 7/ n% K# ^^ >^ r$ w^ Z; _} _% 8' 3$ >n y] d] C{ P* w* q^ Y* m/ m^ ~< k^ 6' h= g2 h3 c} ,] =5 d{ B3 >> g4 1[ D3 V* ]< 2^ Q6 R< x* O% Y* u= g] |> +s 6% L% uv 5] M* V] ./ u=  ! @& >[ T^ (& /[ 7l ",
"O7 T] k^ N& ~5 Oo q/ f= p) [= ^= u' h] H$ H- !o A- q- 0* q* W^ x* G5 !% E$ |/ 9} X{ /& Z{ v5 k& E} B/ &] 1| N& l{ w- B{ m- ~! R5 q^ B{ u* p) m^ q^ B] 14 7, S8 #/ >% Rt j% u} g7 ,[ b^ 4% k/ </ 4% L$ <% l% g] J- q[ f/ 9/ [$ O! '^ P# 0% )^  4  $ S9 (& h] f/ S% +6 2] ,/ X^ QH M%.N%.O%.P%.Q%.7w R%.S%.T%.U%.V%.W%.)e X%.Y%.Z%.`%. &..&.LN +&.@&.#&.$&.%&.%&.&&.*&.U%.+&.$&.S%.n%.=&.+&..&.LN -&.;&..&.>&.,&.'&.)&.W%.!&.~&.{&.]&.-&.U%.Mv ^&.S%./&.^&.U%.(&._&.:&.<&.]N au du o] cu B] K) kr l] ^/ P^ w^ _% ./ N$ E~ /] ~% &] _| )> Q^ |{ /* I{ [t s$ s$ t] _/ @% :% x% }/ N^ |] _% += :% 4/ y] 46 x% += :< C* =< ;% C^ x^ =< H- !< S% |{ P^ x%  / a, s$ Z^ >/ U% b] x^ /) R% <; %1 j} U6 !& 1/ d/ =l a, q[ D% C^ 6/ U^ a, L% d^ $< X^ +a }/ f/ g] %9  / ~< 3! ./ [/ ]/ y% %! 0< B] q^ a, |{ m] :% =< x% D% ;% a, d9 z7 x^ C- E' s$ C- 1/ y] Q^ 3! +% c> 4/ s$ `% q2 |] a, 1< 9* T] <$ ;] :$ +5 }4 TA l] 9/ si I{ Z^ h/ x% s$ s$ 3! W^ !< a, (< R^ P^ _% x% Z^ _/ 5/ %! O% !< c% S) }/ t! O% a, q^ c% |< l% t! z7 :% l% B{ !< S% @/ <% F' &/ 1* x/ ^6 &* ]6 %t /$ ^/ =%  ! )> W^ d^ 3[ ]/ H] t% f/ d^ _/ ;9 (< 4/ =% d: L% z7 q^ s$ h] /% q2 N^ w^ N^ E` H$ b, '% o% (& F' S% p2 n% =% 2} h] |* e% `% D% O% _% B{ c> 3% ,$ K$ :$ y[ L^ L% ^/ (& 0< O% $< L% =< 6/ 4/ ${ ;% d& R^ 3% e$ x{ }/ W^ 5$ l% w^ &/ p7 +% c$ +% r$ =< '% ;9 Z^ J- =& <% C[ x% N^ Z^ U% H$ I{ p$ D% ]/ r$ >9 F' =} q% Q% p2 <% a> C[ ,= S; -% g/ .^ N& [&.z7 5* 5= [{ {* k^ {* K* h* %! U* += }&.B/ V} y[ +| |7 `; `# () p} C: )%  > u- t$ &$ <% y6 '{ @% q/ %! ;% R! B} iP 6' jt I{ S9 S9 S* U* :% -$ ku y% }/ l/ r> ",
"f^ U* @/ '5 Y4 1$.5* i* l* ,= U^ |&.qc 7] 7* -! K; q- A- w% n] R- w5 3% @& 6' Q: {] V4 b% b$ P# Q# >] g2  $ 4$ :4 V| w* U^ A$ y% _* -% C{ |* M% :% %{ (! G& 1&.v, w% 8' /) -$ V& |/ Q% #& (& +6 D% !< O% w3 :< *% _% @/ Z^ m3 ]% ^~ V$ j% j% :$ e3 j5 z* %% O% i% E% `$ B{ g] /X 2&.3&.4&.5&.6&.7&.8&.9&.0&.BH a&.~I b&.c&.LI d&.e&.XL f&.g&.h&.i&.pI j&.k&.l&.m&.n&.o&.p&.q&.r&.s&.t&.BH f&.u&.v&.w&.x&.PC y&.z&.A&.B&.C&.D&.E&.F&.jM G&.H&.HA I&.J&.K&.L&.M&.N&.O&.V%.P&.q2 >W 6' ,= cu ~< q] _/ _% a] >% $- |] '% P^ H$ E$ !^ E5 S3 q- #/ V7 ./ |] @% `^ =& y] 4/ K^ f/ m% @% ZR x^ x^ L%  < B] += |] O% =< z7 ^% Ql @% @% U^ @/ |*  < &/ c% -/ m] s$ k^ Z^ U^ _% x^ t! h] B] =< #4 >$ @] g{ 9k S% |] ;9 &/ w- L^ 2] z7 @/ 2} t! <% += 1/ $% 1< Bn S^ 1/ a, h] m] 1/ t] B] 1/ 8' {{ ;/ !< 3! P; U^ m/ c< g] g] x% u> %/ 8' U^ @/ )> U^ f/ @% t! !< g] $% O% o^ $% w^ |] ${ `* _% !< Ii !! g& -$ !4 5] w^ |{ K^ m] 0< [/ :< R^ =< =< 1/ 4/ o^ '< 8' ;4 %{ J8 c% )> ;% `% $% ;9 <u  / O% +% =< L% c> w^ =< P^ $9 >/ @/ sj s$ O% t! '% ,[ 2} n] I$ `4 Z{ !% U; )) x% aU W^ 8/ =< A$ 2& h] %^ o^ B] y] m% @/ J- 0/ 6/ p7 Z^ L^ e% j$ g] @/ ^) x% L^ R^ U^ ./ $< m% =& W^ |] =& +% p7 Z^ S% =& +% $9 <% &/ L% `% w^ n& 0< k/ ,^ G5 $$ B& `% S% %9 1/ E% <6 x% &/ =< ;9 @/ '% _% H$ 4/ '% n% (% L^ /) 6/ s$ _%  6 |] ;9 `% O% D% ;9 L% h]  ! |] S# @/ U% =& 0< w3 L^ e& `% '% B[ 6% w3 (< $^  ! O% E6 -& 2% #& o] Z; g* Z^ |< ;| Q&.Wf x- x^ E* o- N* t* x^ V* d! 9* d= s* y2 ]9 c} <^ Z{ S; R& t6 0% ~] x2 )% a{ F; (< s{ g7 $* .= k^ B- 9* /) tp 5^ !< @/ t7 a! N- m- Kn h% g] &$ /[ T] @/ M6 t[ ",
";H 1/ =& y[ {] Ir ]* )! w* V* i= a~ K{ $Q i% rp t- J- <; J^ V* >; W6 Io p$ S% ~3 &] L& ,^ P# Q# P# !% y2 13 !5 )5 l| 12 i* u* a] t^ 6! O= D^ w- C* /; T^ <; P& __ lq ~< (& N^ v5 5^ Q% E% H$ $^ U% $^ B[ @/ U% X^ O% <% ${ @/ $9 X$ l' 2% S& $$ R$ V| 1[ *; /) 8< ){ Wl l/ R&.]y S&.U%.T&.U&.V&.W&.X&.Y&.Z&.`&. *..*.+*.@*.#*.$*.%*.&*.**.=*.-*.;*.>*.,*.'*.)*.!*.~*.{*.]*.^*./*.(*._*.:*.<*.[*.}*.|*.1*.2*.1*.3*.4*.5*.6*.7*.8*.9*.0*.a*.b*.c*.d*.e*.f*.g*.h*.i*.j*.k*.l*.Fh /) <0 _< {! J- cu v> ~! M^ <; g] b] L% c> WS ~[ -$ !& 64 +5 6< 3! a, P; vT -/ @% P^ -% '% 5] @% g] z7 ;/ $% m] |< ,= J- x% B{ #/ C- g] W^ 3! w^ B{ N^ 3] Y^ :% _% w- &/ u% |] @% k^ '%  < #^ ,% 5] S3 k7 1[ Iu j8 m5 ${ !< d^ g/ &/ p] c> |] i% J8 L% &/ @% L% y] F' ,= !< 1/ y% ;% t! _% 7* :% g] 1/ L% I{ |] |] _% b] 3! %! 4] 9* W^ O% =&  ! ~< a, q^ d< y%  / 7] L^ -% &/ C- z7 u% x% x^ k^ %{ *< 2} 8% 0) 0% ]& -$ x| p> $*  / p] '% m] s$ z7 t! Q; O% U^ K^ x% 0< L% L% *9 @/ m% W^ =< 8/ :% @/ &/ 5] z6 u% 0< 6l `: 8' |] m/ h] h/ br s$ !< %9 $< u% l% U^ /3 *5 !& |7 @A w3 i9 ${ }5 w3 :% A6 ;% _% O% 7' %9 c> '9 o% !< L^ ;9 ]/ c> H$ L6 m% (& @/ U^ P^ $9 *< x% ^/ Ea %% /% Xo N^ <% H$ !< 8/ 7/ =< ;9 x% m% <% |] N- u% d: Q% .( R# s{ d% Z4 )& L% y] F' =< ;4 -* B] @/ K) >/ 8/ ]/ O% S% $< Q% %9 u% S# L% ${ H$ 2& '9 L^ <% ;9 S% `^ E% b^ t! Ea x^ @/ O% L^ Z& P% 8/ t% $< (< $* '% F' -& w3 O% O% @& -/ x% >/ k{ o] 0/ @% +$ m*.m5 {{ C* K* p^ r; O= V7 O* p) =! J^ T- 4^ 74 Z' D}  5 V; &* [$ j% )^ n& n4  5 bp r- +6 Z{ N^ r$ R- a, K* << =! ]> {[ (& O% NQ T- |< 3* @[ += z^ *$ @& S) 2/ t3 Ju ",
".f M^ L%  $ )4 <~ Y= ;g (* w- J^ ,- b^ 7/ f] e~ %! t* T] q^ ek O= NS 3% !% f2 O2 k& (7 q% V$ P# K[ K$ >$ ^| f4 .$ /] p} h9 ~! d= D* ./ q^ q^ 9* @% =! {! w* ~! c% TT #A ~! E{ 8' |$ >] )> g7 $^ <% #< #& S# F' m% :% 5$ +% t! u> O% X# n*.N# W# r5 1[ B2 b} != %! :% x^ VU /u MF o*.p*.q*.r*.s*.t*.u*.v*.w*.x*.y*.z*.A*.B*.C*.D*.E*.F*.G*.H*.I*.J*.K*.L*.M*.N*.O*.P*.Q*.R*.S*.T*.U*.V*.W*.R*.X*.Y*.Z*.`*. =..=.+=.@=.#=.$=.%=.&=.*=.==.-=.;=.==.>=.,=.'=.)=.!=.~=.{=.]=./u L] K] =/ l/ lv L] 3! 5] lv  ! S^ a9 |] $% #/ k$ R; +7 ]& )] L2 V] fr {! a, ,% Q^ B] L^ B{ =< U^ P^ L^ |] 5] m% p) L% o% 6! U^ #/ y% q2 7* K^ &/ <n ,% $- (! ./ ${ _9 S) >/ `* t! x^ i] K^ 6* += U^ n$ V} -$ A& x: ./ %! h] P^ 0< s$ y% 7] E9  ! !< x% B{ _% q^ /) &/ :< ~< ek =< d^ Z^ U^ k^ F9 :% 5] =< y{ %{ C* }/ t! W^ |{ o% 3] x% g] HB L% x^ V7 q^ ~< s$ !< s$ O% 3! -/  / x^ |] o> $% U^ ,= h] 2} ./ q^ yQ ^=.v5 >$ x4 qU #/ +% s$  / w^ I{ 3] t! ,= t! |] ]/ q] N^ D% |] z7 X^ 2} 4/ U^ =< u* A$ U^ =< -/ #/ |] 3[ a, |] I{ |] L% z7 <% g7 h] |] 8/ K^ |{ V# X{ s6 !^ [% N- a9 K^ @/ `% t% $< g] g] g/ =< _/ 3! %9 @/ z7 8] 0< L% W& h/ (< 6/ =< h] O% @& u> u% `% d^ _% ;% :% +% 8' p] [/ t! +% =& l% 2} 8/ @/ t! 4/ sj Z^  < d: !< S% d} W$ W$ v} -< _% L^ S% sF =& !< (& 1/ r$ _q [/ 4/ t! '% =& P% 2/ A9 @% @/ un <% !<  ! $< c% >/ $< Q; Ea u% R^ x% D% F' U^ p$ |] r$ }/ o% H$ L% +% V6 Q% %% Z^ $^ [/ 5$ i$ d! V; K) g/ F] /=.>_ )& c< <; a, K* 2] w- R5 $- Q* b] u* g!  $ 0} B: 4$ v4 Z; !& >$ _^ K$ y6 Z$ ,] *^ Y< 5* z6 |P :% #^ w, U^ a] q- e2 h' _| g7 h) Ci V* -% |] 5] )= y% L$ kl T] E% C[ Pn ",
"#C en L6 F# ]] NP x- v- H- a] v* f) %^ 0< u$ (=.b/ u= 6! f= m] h* !& i7 7/ g/ d3 -$ =a J# <] ($ >^ {% 3% _^ !] ([  5 b4 x2 O2 _* Y^ (! x^ p) b] Y^ t] #0 @/ |* S% iy _=.L# #< B{ 6'  5 84 <% n% U% e% ,[ M^ $< !< N^ (& /[ %{ =& =< h] f: .m :$ W$ C/ a$ u} c| j] J- 4} A] #@._< _v wE yx jE :=.<=.=J OZ 5J [=.}=.n .|=.1=.ND 0Y l` 2=.,+.`L hY 0Y 3=.+J uz iD OZ 4=.5=.6=.7=.8=.9=.0=.a=.<` GW (F b=.c=.d=.0=.d=.Kb @W e=.-%.1x &X f=.,+.g=.h=.{L |C YE oK (+.1s yl r; u$ _) .w B{ P] ~! :% 89 c> c< B{ |] {{ iP p] %! U^ m/ 6^ N& !& H& %1 et `^ P^ g] P^ (! A6 e2 4/ B] O^ D^ D% y] w^ @/ t! B{ R^ P^ {{ m^ s$ p] u> B] =& ;% w^ t- -% 0< #/ 1/ {!  ! S9 c> @% =% ./ YP Y* F2 )^ X$ d| Ka T% K^ :% h] a, H$ i] h] y] m] w^ B]  < L% |] C^ J^ a9 #/ L^ C- %! >9 S^ )< 3! x% 3! 1/ /) g] {! ]/ C{ L^ @% C{ z7 $% k^ %! m] q2 j$ L^ p] ^O D% `^ W^ y] g] 7* B] A$  ! t! W^ `% =% %! Da s$ '% Y! )% Y# K# c{ A^ U* -% P^ ]/ {{ N^ _% -% P^ &/ E^ ;/ r$ x% &/ w^ c> J8 :< $9 z7 j] U] g] s$ h] `% `^ W^ y% R5 l% Z^ |] w^ !< r$ a, p2 8' k/ h] D3 .$ !6 5^ q< (< D% q[ .( x^ }5 e7 W^ _% L% ]/ }/ <% d^ 8/ I{ I{ 4/ ;9 t! O% L% +% B] 6/ L% -/ u% O% S% L^ a, L^ `$ '% n% =} @/ -/ /% 2/ o3 d^ f9 N^ x% N^ x% %% =< $< '% i] M# k5 E[ +$ p2 ${ J- |/ z7 }5 [/ g] c> `% =< |] =< o% <% <$ 2& }5 S% L^ E% }5 K{ r3 un 6% S% u% |] &/ J9 `% ]< C[ `: `% O% _% c$ !< H$ =} u% (< =& t% O% 6% n% =} @& w3 /) `; C{ @% e] J# =o %* d* y% ./ 9* x^ -% P^ $- ;% 1* Q' P* ^& S} (| N# =5 a{ Z{ 0% 1[ 0% K$ L$ /} @5 *& L2 Z- ^) {^ d^ )> zs z7 -% '= 3! ') Q: d^ `$ i=.$- ./ p) P* V* m^ n$ `) x- N^ *& `p ",
"$R x> %9 ]$ ,Y <! x- S9 q- w- P* j=.70 O% Q; %) :% H- 8] N* B- )= G5 ^$ K$ {! F2 ~5 C[ y6 J) ^^ {6 X6 f$ -& E[ #e h9 N# B& t} @1 := N- p) t] w* j] y] B* u* ~< 8< L* k$ k=.;| b] A9 |< a7 4^ 0/ 5% 6% <% A6 $* %{ S% `% }5 [] +% ./ =< |< <$ o, :$ :5 =^ t6 e| }1 E* t! T] v> 1K l] x- hw bv l=.ou RI hL )v r+.8z RI zy 9A m=.XF n=.]B _I nK _j 'j 8F *@.,e vz 9b nx o=.nx lF 0x @M 0D Yj 'k p=.Si 5w q=.2D {z r=.wa s=.8a lz t=.u=.v=.mF rv w=.x=.(M Yw Lh Hv >x O] ;g Z] /u .t 6! A= S6 89 f] C! =l Z^ c] k^ ){ 2} X^ (! S% eH y[ *] ^6 ,3 L] {! 9* -% &/ g] U^ N- m/ %! |] x{ 3! z7 p) 2] B] 7* f/ g] 3! ;% 3! B{ S9 z7 k^ 3[ S^ >9 L% a, }/ %! ]/ B{ U^ 3] z7 -% x% R* 64 X{ g& v5 :% t% $< ^/ %{ ]/ U^ x% ;/ ,% w^ :< U] =& B{ e% x% >0 3! )& g/ r$ c> 5] K^ Xo nb `^ |{ g] 8/ $9 >/ x% '% g7 V* x^ Q^ a, _% L^ =< z7 ]/ C9 3! U% ./ |] P^ /% s$ ;% L^ i% s$ Z^ S% x% W^ t! _% g] d^ >/ vo :t !% A& %5 v} 50 =< $% _% }/ g] @/ L% )> N^ sF Bn 4/ +% k/ F' s$ }/  ! a, x% 05 5] _/ P^ z7 Q^ B{ Q; +% g] H* `% L^ 4/ g/ (& }5 ]/ !< o] D3 $$ z} 3% B- e7 Z^ U^ +9 l% ;9 >/ 3] 7] l% 0< |] W^ 1/ w^ =& 6' 6% w^ |] K{ |] T% J- Q^ :< $^ `% =< O% W^ `^ L% (< 4/ /% %9 t! L% |] o% $^ 0< 1/ `% z7 P^ x% <$ <% @/ L^ 4/ 4% N& !6 i5 i3 o% [] iP $< Z^ =< m% `% Z^ 1/ f9 !< `% F' `% Q% l/ h^ @/ Ea o% |{ w3 N^ @/ t% @/ r$ L%  ! |{ 0/ H$ &/ D% %% x% U% S# (& U^ t% H$ $9 !< $^ Z^ 7/ W& Q% A[ (7 a{ 7' e% Ba 4& t. {J -% S^ M) V* U] |* ,% D^ %! K* u* 8- ~$ ^| T& |^ &] Z; W$ jU $$ (< K# {% B# ^^ R$ #^ U2 #; %/ -& ~< *^ @w 9< J* B* <* }! J/ o3 ^% lc |9 0- >/ J* '= 5] ~5 >[ V^ 1/ >/ 9' ",
"2! p) $< v} _5 b5 9! -% e2 y% 8/ BE A! ;4 d^ y=.-% 0* w- 1* K* 5; t{ Q% %% 6' G/ $$ 7] y[ .! %l #& 3% J) K$ @& L< B% e{ Ei `# D} m| w, d< {{ g] a] a] B{ K* B{ W^ m] V* $$ {..S8 x> g/ k^ [% ]9 i$ [/ d% O% =% T% Wf 5/ $< R^ O% ^/ g] m% a, Z# U@.{^ ;6 G5 2% || &1 q= c> 8] 4} `' z=.VA Fz A=. F OA ]G XZ 0M B=.C=.@M LF D=.&L py E=.F=.G=.BG H=.cI ;I &L I=.=A dw r+.J=.>F FW 4J *L BG =J By EM dw 8z vz K=.W$.NG uw L=.1M vI ew HZ ;I Ui {L M=.N=.lA nu O=.L; -V '= `' 8' x> #/ G{ L] w^ -% ,= Rv bo P^ y] u! 1] I{ #/ A9 w3 *$ )^ j% U: h9 |{ ]/ @/ ;9 a, '% V* S% _% j] 5] !< t! R^ ;% x% t! |] z* Z^ 2} 3! N^ Q^ @/ }/ t! w^ ]/ w* @/ v) 2} `% r$ w^ c> q2 ^) f/ @% b2 {} j% G2 e< N^ =< y] ./ |] J- S^ ;9 $9 P^  / U] a, C{ P^ B- x% !< m^ ,% i% m^ h] !< z7 |] o% %9 ^* `^ @% I{ 2< @% ./ 3] i% }5 |] U^ N^ x% ;% u! x% @% _% A$ x% =& J- 8/ 6* |] 5] N^ 3] B] t! a, H9 &/ z7 ;/ 4/ t! WQ y2 l& j% {3 {{ '% U^ =< E' 2} _% >9 o% U^ |] Q; r$ =< `% =& @/ 6l ^) |{ u% {{ 1/ |{ '% d^ x% L% ;% U] %/ g] 0< {{ m/ N^ R^ ;/ `% Y^ Y# x2 @$ (5 Y; uc Z^ B[ L^ d9 f/ &/ z7 /% %! Z^ F' 6/ =< C^ z7 o3 g/ }5 D% `% L^ $< ${ b^ >/ A6 h] '% |] a, _/ $< ]/ |< p] a, Z^ !< B[ g/ .^ B[ m% c% }t |] c> @T ~/ B] s$ K) P=.$< @$ _] ~] !] t% 1/ %{ _% ]/ h] l% =< D% d^ /) =& ;% c& '< U% <% )> F' L% 1/ 1/ =& @& $< r$ l% +% f/ */ c> =< 4/ (< d% q2 b^ `6 <6 (< ]/ +% $< p$ 7%  ! -* ]/ i/ 5$ L% S; 7' B{ 6! o4 Aq e% g= k* += B{ {! Y* := s$ %! H- v% 6- || j3 Z' c} W% T; .& Q# ]^ 5% !% b% K$ 4% i$ Y{ >[ #{ *; 0/ K$ d^ B# -) ;% {* 0* |* i! N} '% ^^ NQ j* |* C* ~! G- Wp ]& .! x- d^ <7 tU ",
"HP x> C- |P sc [} p) w! x^ D* p^ f) S% 4/ %{ G! L% ,= 2] S^ g] Ir /5 f$ #^ B[ y[ ~5 3^ u= #* M! E$ [$ j% $$ !% >^ X< B& V; &] Y{ y[ Y< f=  = w^ Y^ ){ >% V* {* N- D* w- ,= .5 !_ f#.F] U^ 60 J} .5 =} Z& 0/ e& D% Z^ Q% @/ O% H$ Z^ ./ F' &/ `% :$ NQ ]] !& !^ A! B2 U} 0] ^N 6} a] /u )! cx ^v tv sY Gz JB Tv Fw Gz s=.Xw CJ Q=.Zw Ww vI 9Z CJ KK zy }K KK py R=. %.S=.T=.zy FI Nz R=.Zb Xu `J ]D fw ZJ 1j (z LF /y 9A vz U=.1j V=.cx Gz cx LF ~v Gz ~w *X [u Gu 5y pw qu +/ K) W=.>% c> E' q] ~< B{ !< B{ c> DP h] E' :% 9* U^ &4 7^ Y# %] :[ u% b/ %9 h] Q^ q2 c> B] x^ o% N- {{ )< 3] 2< c] w- i% U^ h] s$ P^ s$ v^ X^ B] ,= I{ '% S* {! t% @% %9 6* %9 8] N- t* a, `2 1| D& K8 '7 Dt w] u! }5 D% L% 8/ w] {! D% ./ 5] -% L% b/ @% w* B] += g] h] w* S% }5 R^ a, :% w^ s$ 3! K^ L% q2 L% o% !< x^ -% y% h] Z^ 4] 0< |* J- |] =< |] @/ ;9 B] k/ @/ w^ g] p7 K^ L% ./ 1/ a, /) J- |] !< w^ V7 1& E' i5 A& .$ b2 X=.x#.x% Y^ .% 9a `^ _9 p] 8/ 2] =< 0< U^ @/  / 1/ @% ;% ./ a, U^ ;% !/ h] a, L^ D% |] 2] t! u> #/ 8< !< u% W^ L^ 1/ O2 f$ j7 G# ;~ Z# -/ i$ #/ l% =< `% B[ x% <% `% Z^ +% &/ >9 ~/ z7 o^ 2} v^ z7 2] O% a9 B[ u% ]< D% b^ |/ w3  ! &/ $* S% @/ D% '% N^ M% (& 7/ O% Z& D% (< c> H$ x% L% _% W^ Z^ 8/ ]< {^ ]o s{ {] ,/ 5$ I{ 5$ 2] -* B] <% x^ $< {! =< z7 %^ )> 5$ $< %/ w^ x% D% L^ X^ _% '% k/ <% )> E% _) |] _% `% ]/ [/ h] `% Q% S% H$ ${ #9 p$ w3 @/ E6 S# <% w3 d!  > Y=.5]  ^ &7 &$.k: <; m/ w* S^ j] Q^ ;% E' m= q^ w- 3= k3 N8 c} W% .$ Z; .$ 3% K% !^ Q% ^^ P% ^^ J) ^^ *6 P% 23 A- !< {9 Z^ )^ ~8 C- /* V* ./ c- 8^ ;4  6 La a] %! R5 y% J- P^ T% X6 /) (& yh -0 ",
"oT J] :% B% =] 8~ %- y% d9 y] 7* Xt S# |] @% <[ y] N- 5= V* (* .~ ~9 Q% n& e% p~ I5 s{ B& t* A& *^ {6 '^ !% R# M! L& q% ]& Z; }6  $ @4 h9 R- i% 7* y% e2 o> h% m^ |* {{ 2* ]* +( :( gI C{ N^ [{ '| H& r$ -9 p7 F' h] %{ d! )> @% `% l% L% .^ ,[ t! U$ Z=.]% ~^ %] S& `=.`4 A- 3] Jt ~! *! RU Fz Vu dx (v |x t| r| ]G TU }x rY )H Gw MJ uC ~z Ey IZ DU Fw UL }x GN ]D d+.`I !D r| Xu yx xD ~w t| (M &z (M hw : .EM Hw =V wX xD Xu  -.t| nK !D Hw nK Ey JE }u kt `' K] E] F- C{ S* J- /) f/ K) 2] N9 += |] >% A9 d^ y] =< a, += Q; 4/ !< [$ j5 r5 V; U= 3! c< 1/ 2& x% Z^ @/ ;< C* g] a, I{ 3! `: >/ q^ P; 3] >9 @% P; x^ P^ _% `^ 1/ B] += ;% Uq K^ S% >/ b9 B6 z7 g/ 5/ }| X$ 2% T{ 7] 3& 3! l] L^ U^ P^ x^ h] 2] B] >/ L% t! Q; U] =& v^ 1< x% w^ B] ;/ |] &/ `% |] <7 @/ #/ m] ^) t! ;% x% B{ x% $9 B{ Q^ 1< !< ;% y% t! S% $< 05 V^ u> y% h] d! =< 5] /) x^ x^ 1/ N^ ./ @/ |] %! t! !< _% Z^ L% V' 7^ v5 K% A} ^) H#.z7  < o% ;% t] 8< [[ Bn x% L] $% {* a, A$ Y^ V7 E^ J^ << S9 J* U] A$ si B] 6* 46 N- hb v^ U] S9 5] =! -% D= 7^ X{ :$ d% ^4 M* (% 3] ]< |] S% I{ [/ L% =& s$ #/ l% |{ @/ +% L^ 8' D% _% <% p] Z^  ! a, !< W^ ]< !< 8/ sj $* sj U% J9 F' k/ x% n% +% o% )/ +% K^ (& p$ <u B] .% J- U% 5$ L^ o3 8/ [/ k& ]o Q# |% +6 $9 q] ,= c% [/ #9 /% |/ g7 N^ r$ $< r$ O% H$ )> <% m% =< d^ !< ^) |< ${ w3 [/ =} (& !< '% =% n% =& 3/ 5$ `^ !< -* a, @/ g7 e% w3 S& H$ P% p7 C! `; 3} t! 7D s! .-.;O {* m= *! v* d9 N- N* bo p/ x% r^ 0! 23 ]9 /] /& L8  > j5 [$ M! J) E$ n& 0% @& `$ b^ ~- :[ !& O% 1/ y] A[ %/ H! 0Q D* 7' d= |* 5> S8 E% 6% s~ != w- += w{ m- _* X$ `) S) z7 %/ @g ",
"Ud o] L% .5 m6 <! O* w% C^ -% B{ Lt Z^ -/ v% rG $- Q* a[ R5 j* )6 +-.C! (< ^) F' A< ]] r9 N& -- %^ ^^ >^ @& E$ J# Q# Z& P# v4 W; Z{ ]5 @| 73 s* Q* @/ A$ .} u$ _* H* W^ i* /* _* q% @-.X2 t- l/ ^* x: S& c% K$ (& ${ Y6 -* D% =& 4/ =} L% y% t! w3 L^ 7! ;0 0$ P# ~] L& Q} Lk == Q^ I] Hu /) =/ -z eY v% bv UI 3} ;x 0B Wu Xz Qb -V #-.lA AB $-.Gz Qb Gz ~w *X : .{v {G Gw %-.fj QA &-.yx Gw Tv *-.~w 9D ~w  D ]G Wu Xu ~z wa Fy JE Xu XZ Yu bt gw Zu qu 4C =/ Zu v% I^ |{ 6' w^ v> y] 9* i] U^ _/ G9 E^ >/ N- !/ U^ -% B[ B] }/ += -~ M2 '[ u& l| j5 :% ,= ;% _7 zE m3 x- B{ `$ '% %< h] >% '= C{ 89 w{ @% /) a, P; D{ @% {{ Y* l* z7 j] a] /* w^ B{ S) 7' y^ b] t^ .4 !& =^ 9} Mw `6 A$ w{ T] 8' {{ ;% C9 z7 @/ x^ y% |] e2 a9 =< @% << L% R5 ;% -/ &/ A$ ~< |] &/ L% y% O% w* |{ x^ a, g] J^ 3! B] KO k^ %! c> t! A$ %{ B{ #/ z7 >/  ! $9 o% ,= (% `% ]< U^ s$ z7 x% 1/ 7] $9 H6 a, P^ :< |{ d! m% K~ W{ E$ ;] C| L# .5 &] :4 :t >l V& S8 /] >] Y$ '| H# i4 h& 84 y[ |4 :t t: h| 04 G/ m} y: Y2 W: x/ o: k| Ma q: 9} M: D2 Q: ~[ G7 )^ @$ B& 1L q% s$ ;% [/ Q^ L^ 2] 4/ 7/ 2} >/ B] y] W^ @% ${ =% J8 _% !< m% !< 6% F' o% ;9 U^ l% +%  ! o^ [/ )< (& 6% h] R^ ;% _/ e% t! h] =<  ! r$ g/ c/ F' D% `% R^ t! W^ -/ =< g/ {^ hl ~^ *5 s$ =} x% y] c> =< /% #& 3& 5$ (< '% _% ^^ ${ o3 )> A6 &9 t! J^ D% s$ O% `% o3 m% N^ w3 $< =& Z^ ;4 F' =& B[ ${ B[ 5$ `$ l% 1/ )> w3 8} w3 h/ A6 Z; %{ W^ /) s! =-.)$ h* d* w% C- x* u$ {{ C{ 5] }= o> W[ ,1 ]9 :4 {] 8E Z; g$ 0% !^ A[ `$ w3 >^ 4% K9 M! r* X$ -$ 2^ w8 )> h] !< p| x0 !< 1* ek 2* _* 0> '4 =< 4% Xk '= h] 9* :% ]* z7 e$ 8} |* @% l/ qh ",
")* D- 5] ]$ =] wh S^ N* p) )! K) =~ h) f/ 1] Sl S^ C* s^ z* 5] E] 9k OS _} g7 $9 6% ;0 W% W$ k3 g, /} E$ P# ^^ i$ %^ $^ ,[ d% Y{ b{ T: b4 h} X3 #0 w- C{ q^ (* 7' g] R- H- |* U* {* ~% --.V{ w% w{ m/ g4 () F6 t% ;^ T% F% `% U^ l% -* $< $< Z^ t! a/ !< U# N! /& 4% '^ '[ Q} N} ]* ~* Hu R] o] e9 .t /u pw 9z 5E t| 5E $V 4< d] 9z (v IY Hw 5V gw +w (M dx cx VA rH uF 0O ^v Hu cx 0l 5y ;V WY hw  O cx &u t| (M (v Vu $u 6c lt ;z /v Ar w, /u Qt Ds `' R] Xu =P C] C` l] 3[ a] E^ w^ s$ x^ A9 w* s$ E' B] c> w^ ~< W] g] :% 6* 7* +6 o% '[ .$ -$ B/ B/ N} L) {[ m} O| x| b2 K| Z| 0| R) N} _| y2 L) {[ 7| ;3 5| M: W3 D2 tg oc L) D3 b2 8^ oc a} J2 D2 8^ '3 a} Tk T& @5 r5 h) Y/ w{ :% @% 2] I{ B] ~< t! P; %{ Dg U^ 5] C* g] /) d9 v) -% s$ K^ 5] @/ |] 3] $% !< i% l% y% <% w^ w% si ~< =< 3! 1/ s$ e% x% h] a9 &/ 2} L% P^ ,% B4 ]/ [t k^ k/ s$ :< c> ;/ B] %! B] 2} x% K) )> _% >/ I{ {{ l] !< w% }$ *] Z# @* :4 /& :4 b4 '] )5 #] y[ W% X{ *5 &] 4$ =] .5 X{ j5 ]% tc j% v& &] )] () Z{ 4$ g& g& )] =] z} y) ~5 1[ :^ *5 :^ ^$ R$ [$ !a L^ >/ R^ O% L% :< }5 W^ FE s$ _% S% a9 L^ $< U% _% ]/ 3! @/ x% @/ p] f/ L^ F9 Z^ L% (< ]/ }5 =< O% D% ]/ L^ '< c$ !< Q9 =& =< 4/ -* (< }/ (< d! h] E% N^ 8/ B^ a, ]/ Y^ _% )% L! s{ E5 <0 1] S% p$ ;9 m% /% d: w^ -% t! `: 6/ 6l 1/ @& t! p7 g] 1/ N- >/ %/ ]< =< O% O% Q% l% O% -/ '% '% $< O% r$ 1& $^ n& ;4 `% b^ J7 F' -& (& 8' W; E{ =} x% 9} Q( X$ m] 8* K* q^ v> |< 5] += I{ U* 9* `= D} .| p} @4 :$ S; ]& Z$ %] P# 7% A6 b^ >[ .^ %^ s| ~% 2^ }] T#.B[ FE P; }5 {! uY G4 46 q^ Y* w) &! t: O% 8' $t 7' 2] 1* %! 7* 3! -< K4 C[ 0* l/ /P ",
"V5 9] |] }^ () Oo 1* g= B- Y^ s$ c! c6 ^) >% ;-.+= {{ n] d] v* w% %! >-.L# d* M] 7* ,[ Ci {$ {6 G/ t; L& 6% i$ /^ B# 3% d% !% '^ D$ Z; v4 X4 >5 ;3 o* -% ]* N- N- L* S^ K* 9* 1* 5] // <$ 6T z: r2 m% 1* Z' X{ E% P% (^ +% ^) n% W^ $< L% 5$ o% `$ S% z7 0/ &* ,-.V4 b% s{ )% o} !| :* =9 N] f] IU _< I^ ^N )t 1s >x ;C 1s au e9 PD {G 3C WA t| MF hw 5y Xz tv ;x t| ;z ,v {c gw pw -V lt Y= Rv Bz LX MF ;z '-.K] bt ;z ;z Fz Fy Fy {w =z x{ Ds )t Cs Uu C` 6! )-.^/ s$ v> -% L] @% y] E^ #/ #/ |] {! s$ f/ U^ Z^ #/ t! >/ q] a9 |] o] S3 '[ {% @$ {^ j% -$ '[ L& 57 S& W$ -$ ;6 '[ v5 ;6 .$ s{ !& n$ )] )% E$ >^ -$ |[ >$ r5 :5 =^ A5 J# S& -$ .$ g& {^ &* :$ X$ _^ F} .& v4 q5 y] t! :% :% 6' x^ :/ b] `: Z^ L% d^ I{ g] += C9 ;% 3! k^ c< ZM @% z7 s$ q] !< A$ ba P^ x% @/ =< 3[ ${ :% o^ 3! g7 D% @/ L^ `% `% R5 z7 j$ &/ $< h] '% X^ $< C^ w^ 3! O%  ! 3! d^ 2} @/ s$ g] W^ ^/ U^ >/ ~< L% !< >/ p; m} r5 X{ 7! A! P% <] R$ :$ :$ ($ :] 0% |% Nl !^ Q# @* Q# %] .& .& -$ $$ V$ -$ ja !-.*$ &* s{ I$ F& S& j7 {^ ,^ M$ g& Y# k$ _5 !% >> h8 |] _% =& :% !/ y] x% a, `% `% (& +% W^ ]/ A6 `% R^ t! !< ]/ a, L% W^ 0< ,% 8/ @% ^) ;% <% ${ N^ |] '% O% L^ H$ Z^ C[ ${ Z^ c> H$ +a L%  ! +% `% a, g/ p7 L^ ${ 3& }/ e% ;4 R$ t{ s{ b4 5$ V] -* C[  ! P^ t! =& h] #< h] T% S% F' 7/ S# W^ 7% L% m% &/ _% @/ (& M% :% L% O% u% _% 2/ |] +% g/ <7 t% ${ w3 T% %% O% o[ 4% Q% c% f& p{ ~-.$^ 1/ Y% ,, {-.J] N- V* S' x% Zm U^ o- ./ e2 <; ^= -| G} R: #] j% S; z} Z# Z$ .! 6% '^ q% ^% .^ $& B* G$ :$ !% ]-.d& 7* w= a] m% ^-.c% -[ ,= $- <* K* i, `2 d^ .^ eH w{ Q^ '= c= T] L% ($ A[ o] o% @& `p ",
"oT v% W^ L# 0$ *O {* K* x- u> P^ Q~ VY u% @/ ~~ 1* O= N* i% -% g= -% a> 3. t& d] != 2} 7/ JP &] !6 X2 ,4 Z{ A[ '^ >^ a$ *6 L& Q% M$ y[ V; g5 b4 y[ K5 3{ =- N- {! w* u* *! x^ x^ y] >< J^ ]% /-.j: /) N^ f] X{ ]$ =& #^ 5$ T% o% F' 7/ #& ^) !< P; =& ^) 0< N^ i7 *Q !& K$ V$ -$ %} c| n; `' 0< =P 1s +/ ^/ C] X] _v (-.en O^ }u 0u {G K] ou fx .w =P yz C` #M dI K] Bz K] _< It ;z #M _-.W- V] A] O- Cz ou fx 6y u| ky Uu `] i* ~z ^* m2 O] cu 3} BC Rt Sv Jt O- O] L] 6! D{ {{ s$ ~/ u! 89 f/ t! (& W^ `: /% B{ ${ v> x% J^ C^ Y) b{ g5 M$ {% *6 '% _% -< `^ >/ Z^ (& d! E% =< O% g7 $/ )> $9 =< Z^ |] S% X^ !/ H$ Z^ !< h] h] _/ J- _% >/ >/ d! !< `% ^) */ */ 0/ n& !& >$ d3 b] w- ~< ]/ 5] y] c/ &/ %! !< |] a, S^ V7 0< =< W^ }5 x^ #/ ;% B{ _% p] ;% B] >9 $^ |{ A$ 3! t] _% 2} D% x% Z^ L% x% w^ B{ t! @% G] u> :% += 2] q] a, =< c> A$ L^ '% L% -% z7 3! 8' |< =% L% p] :% |] M% 3] y% 8< &n  $ D} S& F& Y< P% SW {$ ,$ :-.{} Z& Ca @Q P& +( +$ QL V& #A <-.$4 L/ S$ 0$ ,U {o y: x: [-.PH X% i4 yr SW S8 t& :& #A X/ T& m> 0& u* D< e% P^  ! =< :% :< q2 !< >/ o% @/ R^ D% a, _/ ;/ $% }5 ]/ p] o> k^ =< B] k/ y% c% w3 a, _/ =& ;/ c> D% L% $< 05 Z^ S% h/ =& S% n% |] D% <6 L^ h] 4/ -< n% 0< L^ 5$ '% =< _9 L^ Y4 87 W$ >] 8% B] A9 r3 a, q^ 4/ U% )> U% h] -* '% n% m% 8/ l% @/ @% F' _/ w^ ;% 1/ 4/ '% L%  ! D7 =< @/ 5$ @/ 6l L^ >^ -& $< `6 o3 =< e$ 4% =} )> Z; N] JO C! sZ 6T O# += m^ V8 5] B] (! m/ += Q' Q; R5 n- o: b1  $ )4 L# `; }^ r6 K% E$ ^^ $* d% 7/ b$ $$ R- th g3 d% +e u% d* 0* ~* w3 }-.SJ `* 5] G* 3] 5] L% Y~ g2 D% d% T8 P* ,7 B{ I{ f= ]/ :$ v6 r2 !< -p lV ",
"|-.Y* }5 Y4 -] Cl 5* z^ U- y% 2} B' oa -* 2} @) H- y] 3] 7* u* t* E* i* Z& +' n} S' (* Jt 2% I4 @* (} Q: l< -$ >$ b$ '6 6% ^^ f$ ^^ E[ .5 `; {^ Z' g4 12 f= (= m/ 3! += @a ~! z= u* g* ,= J* >/ '+ m> 7' h] C^ X{ H& .^ 0{ w3 !^ `% Z^ D% `% +% _% c% F' #& p$ b, a& ]x R$ '[ V$ r7 R} G} r* q] 6' L] v% cu .t Jt W] cu 6} du du Sv gw nu tv cu }u Bz Ds _) p..MF (X bv C] I^ C] ;C cu 0Z QD Rv UI  w `] W- 9] [{ e] 4a Rv [u bt P] Cs x{ QD v> U* S* >/ 6* V^ D{ <7 6! ,= 2] J- Ht u! J- >% O^ @/ h] !/ V7 |< 8' :% ./ 3] U^ h% <^ %5 )6 Fl '} t0 1-.~Q 2-.3-.Pc yc 4-.>. GS $S 5-.Lo -4 ;} gr 6-.3r 7-.r8 K0 Pc 8-.3r @r Rc jR GS ]7 lO 9-.&T 28 F/ 0-.a-.Ln Vk RF m] *& M! ]o H! m- P^ 1/ q^ t! #/ y] Bn _% t! :% D^ !< n] u* $9 L% t! 2} Z^ g] x% `^ L^ a, B] _% ./ R^ =< '% p] >9 !<  ! 3! =& |] R5 3! {{ a9 !< L^ h] _% |] =< L% _9 L% B] x^ w^ w{ ]/ N^ {{ $< Z^ $9 @/ W^ _% #/ s$ g] W^ ~< '= f{ )^ D& 53 z) ,U .> gI 2R b-.'> 3a s: bC NN 4#.v: 6^ c-.5! ]0 w: y: Hs BK C4 ,J d-.lQ 75 04 _0 I& e-.6^ z: L/ '> bC a5 ]0 &> s: x/ |] #/ :% t! d^ |/ a, 7* y] u> ;% A6 *< `% k/ !< =} |] =& @% |] @/ Z^ (& L^ p/ U^ A$ L^ `% @/ N^ !< l% B[ =< `% I{ 1/  / 7/ }5 k^ W^ o$ a9 L^ U] _% P^ r$ h] :% ]/ F' P^ U% j$ =& !& =^ !^ 0$ x#.i% LR ,% $- +% (& D6 4/ L% F' 5$ =& %/ x^ @& a> ]/ |] <% @/ 7/ !< 7' ${ t% W^ -p :< @& =& 0/ <% ~< +% f% S# /} S# Z$ t% E$ *% '%  > B- ;4 3o X2 f-.>& M- <; ~; V* g/ w* 7* w^ @% x^ n] P= B/ h3 `#  | Z{ Z; )] d% 0% E$ 0{ %6 '6 7/ @& X6 c* ,[ Ei F& *n }/ T- 9* a] -/ }9 .  h% y] t- N- <* S' E* E~ H: /% H$ xg C* w* Q' D^ {* h* e$ wU x{ #/ E% !q ",
"g-.4! b, y$ 17 O: q^ (* j] += z* @~ A6 =} C[ v' a] S* K* h% {* N* /* <; e= f$ h-.0& j* b] G4 H$ 3s W% `) *o i-..& @& K$ >^ A& q% >^ K[ P# }^ V; S& {] j-. 4 e- 0* {{ -% m^ 7] |< h%  ! w% [{ <; J# @m lQ t] 2} 3! W% ~5 Q% B[ r$ (< P# !< w^ <% 0/ `$ =< +% .( m% =< U$ *8 4^ Q# (5 Q# X} @| :- m3 L] m3 {{ ~! kU wX FM ^` _v fx W- gw }u (v p)  w ;C N] 5E _v ~r QD PD Hu du !0 9] kt O] 0] I] C{ kx 5y e] 1s 5E q3 wD &q ~! 9{ =l u! UI l] HY ,= ]* P] I] Fh (& *! 4< x% G9 6' j$ cu c> |< )! nb  ! L^ `% L% ;9 N^ =< =% I{ d^ C2 /^ 9% N& Ez WN Pw k-.WN `; X; G2 &> Y; -C `2 -C k> l-.h> ->  A Hs X2 .> V; &> h> _0 m-._0 H/ T; '> Hs U2 .> x, x, WN a5 X; .> M2 Q= +3 |u V$ C} !^ ./ g7 #% G4 q2 S% y]  ! `: @% o^ E' @% @% ]/ M% |{ m/ Z^ x% 3] C[ :< ,% Z^ `% >% 1/ +% :% t! S^ h] ]/ Z^ N^ z7 ;% `% {! g] g/ Ea a, &/ |] |< ;% }5 |] 8/ }5 `% `% x> 1/ q] I{ #/ &/ }5 6' B] z7 q^ x% A$ d= O2  5 |% }% R; LO >/ 3] 3] E' x^ w- B{ D- H- 2} sj w^ ,= ~< p| %{ P^ m^ x^ -% 8] o> y- N^ Uq :% B] P; B{ 1/ B] a, R^ m% ]< ~< U^ C[ a, )> h/ K) &/ 1/ d! p$ H$ !< !< ~< @/ :% O% L^ e% L% r$ =< $< t! _% m] d^ $< =& C^ K^ _/ ]/ I{ C9 d! 0< =} L^ (% ${ #/ m% '9 U% h] o3 O% O% =% L^ `^ U^ ${ @/ 2/ (& I{ w^ ${ L% 0< U$ O) V$ ~$ L^ %{ Z^ h] d: n& l% |] C- L^ |] `% P^ |] ${ @/ a, _% D% :< I{ S% ^% U% <% |< l% d^ _/ +% <6 O% <% P% f/ o$ b^ $* b% d% -* )> */ S; d]  ! >% d| {m U$ 5< g= 3] n] 0* S^ R5 z* i% i% |] %= L) n-.(] >5 *5 Z; 3$ d% Q# >$ P% >^ l% Q% <$ S% /= 3/ =] ]$ Mw Io J] K* Y* +6 [&.9r 8* 1* V* P* x^ l] 8* `* S! Q: Q% #& on H- Bq t] fr m= I{ ;6 8r j] 2/ d! E- ",
")* 4* >9 D$ z} D~ t] g= $- N- {! T~ y] P^ (! *~ 8* U] w* += u* U] 7' p) 7' j] ~$ o-.v: S] C{ +[ </ ~p Ol g& g2 *~ W$ 7/ l% A6 5% A[ q% ^^ u5 >] S; t5 =] b4 K5 Ih += #% 0* |] |* '/ B- P* y] w% += *f w( =e T] l] 7' 0$ #] S% h$ '6 l% 5% ^) =& _% -< 7/ s$ /% (< 4/ k/ x& @. B& E$ =^ Q# F3 ~5 := U^ >% @/ =l 2] kt 1* l] _< >% fx Fz .` 6} $V =l oV Tu 9{ ;C Az 89 9z $V =l O- 1s 4} O- N] R5 r] fx nu .t ex tY C] C] 6' [{ _< p) l] b] I^ v> l/ B{ a] L] A] bo `% Z^ #/ 6! >% Ql 99 B{ x% x% #/ l] W^ ;% =< f] x^ C- (& 9= x| j% f$ j% ^^ !$.B{ :% _% Kn d9 |* P^ << y% N- |{ L^ w- N- %! I{ 8/ ;/ (* P^ y% K^ &/ m/ C] m, -% _/ t] b] t! m^ i% V7 ./ Y^ ,% q2 w- !$.lw () Q# ]% M2 =- S% S^ C{ ./ !< p^ ;% ./ U^ =<  ! w^ z7 N- l] s$ `^ oF m^ V7 1] !< P^ +9 O* q^ g] @^ %< $% |] -/ %/ &/ p] _% |] Z^ x% !< &/ Q^ _% =< &/ y] 8/ J9 M% vo  ! R^ =< (& _% ,= !< 3] 7' %! 1/ @% U^ ;% :< J- g7 :4 UG A& oc 2) @/ Q^ `: ,= Z^ q] 2} _/ 4/ 3! =< B] p] J9 &/ w^ B] >/ @^ 4/ B] x^ i% @% C{ 2} h] L% (& K^ '% ]< *< o^ '9 W^ g] h] $% o% {! t! w^ += a9 |] P; U^  ! |] `%  ! l% 4/ o% e% f/ $^ L% A9 +% ~< z7 k^ _%  < }5 t% +9 I{ U^ W^ }5 Z^ |] 4/ F' 05 !< #/ p7 C- W^ f/ F% F' U^ _q ${ c> 4/ c> `^ w^ w3 t! /% _/ 8/ W% .! [$ Q& *% w^ `: <% |] m3 =& `% +% L% `% /% `% !< l% $< D% $< W^ u% +6 m3 =< (< W^ r3 L^ l% n% `% 5$ r$ ${ l/ 9% _/ l% |% t% S% p2 C[ Z; 5{ d^ V^ V# +@ V% 1* m= %! B] v* %! C{ J* /* v* ./ w= N/ z3 p-.`# j5  > F& ;] n$ F' /^ ^^ M! ^^ @/ W$ q-.zv Y{ +( Vc E& b] [k U- k/ '..O% ~; =- i% l* $- y] y% U^ g] h, {3 S% p$ >o J] =9 G4 P* U* N- E$ !6 d] x% o$ 87 ",
"+g '= T] ]& 4P S~ 5* m, B- _= k^ J= j$ |] G] O{ q^ H- D^ {* D* c< 6! N* {! I{ {* X% r-.*$ W* w= {* ]% VW L# ^6 q: R; 2% <a n& E$ /^ ~^ K$ V$ W$ {^ S; e5 ,] /& jj ~; .} c> A^ =& ,= m^ /) t= =! J^ v> {% I! k: ,= u$ r2 ]$  ] 7% E% $* w3 7/ ^^ 5$  ! _% O% r$ !< 1/ T% q2 F$ WW /] q% }] Il 16 Jl p) w^ o] =l Ht =l Ht 89 =/ (% &u 89 6J ;z e/ Z] m3 7k 7< E' wG `u ){ ^* D] o] Cz ;C fx Uo {/ %{ 1s >W L] St D] F- ~r K) f] =l P] M^ kr I] ,= 89 tq 8] v% J- z^ t! -% L] @% n% 6' 1/ ./ %! D% /) P^ d! q2 g] B] h] {{ D* Qa Z{ X# q% Z; T#.L] @% U^ C^ c< a, t! P^ << B] D{ t! |* i% c> C[ R^ {{ g] `% q2 |] x^ ~< t! 2} :< :% c>  !  ! 7] J- Z^ V] L^ |* a, f/ U^ @% I{ ]$ X$ bE Q& 5^ R* L% w- |] D% e2 B] ~< @[ N- 0* z7 D^ a9 `^ @/ y% x^ I{ Y^ Y^ z7 _% B{ ;/ U^ c> sF Bn p7 2} gQ p] @% m] {* 5] ,= S% =< br 4/ !/ 2] >/ P^ P^ M% 8/ D% @/ M%  ! s$ w^ U^ @/ s$ x% =< <%  ! Y^ ]< J- :; a{ :5 )^ /] $8 K$ ZO B{ t$ p) <6 >/ |] B{ g] z7 C- ~< 8/ x% d!  ! i% (& I{ w^ L^ _% u% K^ @/ =< 8' s$ |{ U^ P^ @/ _7 .% O% q^ @/ _% P^ u% d^ o% (< B{ =< v^ L% B{ t! @% 1/ D% s$ z7 x% o^ 0/ 4/ S% M% ,% 2/ &/ u> ;% @/ h] _% ]/ j$ F' l% x% o^ 6l o% u% $* (& |] b^ =< <n c] ;% n% )> H$ {! R^ O% Z^ h] |] _% j$ n& L^ 2/ U$ ^$ ($ `4 *% )r 'O L% m% ${ u% =& U^ 8/ t% HB w3 0/ :% O% w^ p$ p2 D% o% @T _% m% <% =< S% g7 _/ N^ '% g/ Z^ 1/ %% +% 7/ H$ $^ @& %/ `; := y] ${ 0& wo *$ -% <* ^O H- v* v* S* 8* V7 B{ b] <= |^ C} 4$ &| !&  > =] )% {% Z& ^^ b$ P# i$ ^) ]6 @) &* 'a ;R 0-.>$ )- E* u* ,9 ST $9 m, i* (* i% m^ j= S* y% J! K* s' Hn 4/ .( d7 ]* v) -% BO g< /) d% /^ M) k^ ^% '%.",
"V5 f] <% 64 g5 ^~ m= w* w% 0* <; 5; d^ O% y] H; x^ K* u> x* h% C= 3* ^* S9 y] I{ w% R# C( U$ _* t- <; D& ~p N& J) 83 I= L& >[ /% j% ^^ A! f$ s{ 0% ^5 Z; v5 {] (] @1 [= =< B{ x^ |* G] w^ -/ =- |{ u* @/ W^ s-.#A -% 2] !< k% /7 g/ (< n& r$ 4/ 0< (< O% -* |] $*  ! =& h^ +% ;$ O4 3^ W$ 2% A& }2 Sm '= 3! /) /) 6! K^ p) R% =l 8< >/ Cz #/ .T :% O- w^ IU J- [{ uZ cu x{ u! *! >/ DU >% 6' c9 P] h] N9 >% <u v% `' A] 8< {{ J- ^* P^ l] v> ]w Z^ >% C{ l] m^ 6! @% kr w^ j$ J- P^ _/ @/ #/ #/ q] s$ }5 0< c> 8< 5] ./ i$ S} ($ &* !] *S G$ f/ |* 7* I{ y{ +% :% V7 #/  ! q^ P^ $% W) C^ 3! x% a9 |* b] 2] t! J- g] ,= 7' m3 ${ ./ ~< }F |< x^ B] g] t]  ! /* U^ L% {{ 8/ cl {o (5 ~] %1 -% 3! a, Ba a, v* Y^ K^ $- =! I{ /* Zm HB U^ t! U^ {{ =% l] @/ ;% L% c< Z^ t! z7 |{ t! E' %/ |] B{ 3! 6l j] {{ U^ (! h] mw {{ _% j] =< 5] x^ g] f/ a, W^ U^ ,[ s$ d! 3] @% ./ x% B{ L% '% |] ./ K^ ~$ {] X$ S& (^ E9 y% /* t-.2} L% 3! =& y% :% O% M% x^ 1/ 3! B] (< ]/ N^ D% a, L% |] ./ J- L^ |{ w% $9 u$ N^ @% m] `% C^ b] ${  ! M% g/ W^ T% g] `% =< %/ x% C^ g/ Q^ F' [] g] o% r$ o% !< t! L^ @/ x% [< M% O% N^ Z^ a, o% C^ `% |] D% U^ j$ 7] R^ S% c% Z^ <7 !< L^ a, `% 4/ !< F9 l% S% <u  ! =< J7 H$ R^ +% :% D% -/ s$ `% f5 ~] :$ ]5 0< 8' #/ ]/ c> o% S% %< F' r3 (& 0/ _/ t! =& x% A9 L% 2/ )> 8/ 1/ <% (& g/ I{ A9 /% ^) 1/ 7/ e& D% `% !< W$ 5$ w3 P# ~0 S; g* =< !< 4^ 0( <$ $- %= {! Uo == x^ x^ $- o- p) S' S= (] ]9 /] +| .$  > =] !% $* 7/ 4% $* <a ^^ [$ {% H; ]% Y{ W% h6 1$ q/ )= G- 5$ .a d& O* [{ S) h% H- 0* C* C* 9* O= 5] i; 7^ *% 6/ ]a B- I* <* 8] q- |* @& 06 ,* >/ +R hr ",
"T9 w{ L% 5& !5 qg u* d= V* h% $- ); %< {! ,* }w q^ i* H- w* K* C= u* c< N^ t] a] 1* h% $$ X .`2 Y= ./ ~; th B< i4 ~] 4^ u-.S# '6 i$ $^ d% i$ Z{ i$ V$ L# S; U: .7 j| h9 U- 3! {{ 1* t] =! u= 8] w{ -% w* l] e+.^' R# D- K) u! [% y[ !< )> !< $< >^ o% Z^ w3 m3 $* =& K) 05 +% =< F& <8 H# /^ X$ W$ C2 $5 e* ,% E7 3& 8] B{ I^ L] u! K) w^ 6' _< v> {w >/ N9 E7 =l C] c> 4< P] P] l/ e9 Uo {{ 5N :% V* X^ o] T] H] h] x{ S* J- l] J] x{ {{ T] C] 6! d^ )> -% t! J- v-._< m3 J- =< u! u% @/ s$ 3] $% x^ %! 1/ >% B{ 8' w- H! ;$ _] ~^ H- 1& C{ R5 @/ 1/ _% L% ~< I{ %! `% {{ p] W^ P^ @% B{ %{ 6* @% 7* 2} E% 0* i] q^ t^ @% {! V] ;9 y% U^ N- B{ |] N- P^ 1/ i% (* m- y% hb W& M' =^ ($ &* ]{ I- 7k 3! g] d^ y% &/ g] l] !< U^ V7 ;% }5 #/ _% M% %! KO g] 3! f/ 2] x% s$ h] B] !< _% W^ w^ I{ C! @/ b/ }= y% C9 ;% ,% B] @% p] D^ :% -% t! J- `% y% _% m^ 05 x% 3! g] L^ ;% _% t! _/ y% 1/ /* +1 A& .& G/ ]8 `% [t 1/ u* B] h] f/ {! |{ O% /) 4/ )> 4/ q2  ! @/ |] A6 6* si %! @% %! C{ w- 1/ d^ m/ x^ @% 5] 1/ 4/ w^ un `: p] O% &/ L% w^ L^ 3! g/ Q^ t]  ! E% W^ C^ h] g] =& =& 6' 4/ ]/ y] p$ &/ x% N^ 3! =% P^ =& Z^ $9 I{ :< Da `% u% r$ vo )< l% #< D% t! :% $< 7/ x% !< L% $< !< $% U^ '% +% L% B] ${ '< A$ _% d! ;/ W% ~^ Q# ]% H$ F- u% d! =< $< L% k/ `% o% @/ 1/ !< $9 3/ ^) ]< >/ t% )> (& `^ F' N^ `% l% 4/ =} ;% D% |] $* L% w3 %% n& `% i$ ~< S; N] =& u! x3 u_ *$ S* d< y] [* r] u* h% '= P^ &/ C- /> b2 #| y4 p} &] a{ g& !6 /} W$ K$ <a $& O% ${ Q# ,~ '[ 2| {$ mS w-.Ym 1* 5a f/ x-.r$ =- .= 3* i* m] B] V* ,* |* p) w- C{ v~ z2 ^% n& y-.d* w^ f] U* 7* n] Z$ Fn d] :% P: r> ",
"hK I] `^ Uk X{ =~ t- B] += x* &/ f) o3 6l j] o, 1< +o C{ A- l* S* O* x^ O* /) :% C{ {* $- L# W> ~T s* '= p= *f {$.Y4 b% <| }{ B# $& o[ 3% 0{ r$ <a Q% 0% B& Z; Z{ }6 7& K5 D* b9 += ,% j] m^ t! u! Q' B{ /= ^* $< z-.U/ ek 1] 4* H} %} 4/ S# S# )> 2/ o[ w3 .^ )< m% m% <% u% F' &/ ;$ 0S r{ L$ B# y6 %} 90 w= U^ _% m3 /) C{ l/ 1] 6' c/ ^) ,= >/ 5] @/ ,= C] 8< J- u! du !< r* A] j] <u  ! e/ m3 Y9 o] +/ 8] w% (% J- I^ x^ |] u! C] 9* 6* _/ 5] t! |< '= |* ./ s$ B{ F] x> i% S' A$ ;4 O% L% 2] 4/ O% =< @/ 3! @= s! 1[ >$ Q# ]{ `0 6* w^ e2 i% w^  ^ 3] c> 8/ |* N- l] s$ |* =! {! += w3 P^ 3] @/ p) |] m] a, 7' _% T] Z^ :< x^ B] B] C- << :% v) 8/ A$ i% #/ {{ ./ c< /) (* qs (5 j% {] z} P^ Z^ (< x^ {{ P^ E' p> u* i] Y^ B{ !< ./ @/ y% j$ N- M% P^ !< w^ _% `% ,/ y] +a z7 `^ s$ s$ !< w^ B{ s$ F' m/ ]/ t! u* L% V7 g] I{ =% 4/ I{ $9 D% x% 89 B{ 7* B{ h] A$ x% _% |] I{ 1] u* N< J# &* >$ Qm 4% y] g] x% b] B] %! ]/ V7 }/ W^ /) b] u> d^ x% ^% 3] 4/ _q @/ R5 _% @% g] h] P^ U^ I{ @% $% f/ '% Z^ 3] a, v^ $% un  ! u% @/ ${ /% F' @% D% Z^ 0< _% 3! L^ }/ r$ $< !< L$ W^ %! r$ E' :% U^ 0< v^ 8' (& -/ U^ &/ :% @/ R^  < P^ m% (& N^ S% =& a, t! =< w^ ${ /) '% #& m% U^ =< $< '9 U^ J- =& U^ H$ l% I{ _/ p$ ~$ ~^ :$ Ol 3% k] <0 >/ f/ 2} $9 l% s$ $< f/ 9/ J- 1/ B] L^ `% )> B{ %! 05 L^ L^ -/ <% z6 L^ !<  ! L% *^ b^ m% q[ D% K# L$ x> S; f* Z^ nb h| A-.w$ v% += <* N-  ! N- w- R^ w% g] m^ 8- '| y} sc {] g5 S; <^ R# /% q% $* ^) #& 0% $< $* S! Y$ g& <& Nc S& 9! '= e= k$ Q< O^ S^ N- e= h% m^ c< l] 8/ 9* ]* y% <; a] :> V} `% )> Xt '= += j] ;{ L; 3[ ql ml U* |] [] 8p ",
"ut D- =& >$ L8 S~ /) 3> i% 9* -% -; 8} ${ M] v' g= u* E* S' k* S9 A$ 2* y] .} S^ S^ h% u> S^ m5 T) I/ !0 a9 V8 j% y< :[ ]o {& o; r6 !% P# K$ 5$ y6 ~^ -* W$ /& a{ U: X{ s4 ;3 U* K* x% s$ (! a] 7] N- i% 5] p) #/ *% ;# ~% U^ M^ D{ !^ :[ %< Q% Q% w3 =} h] 4% 7/ S% /% 6/ '6 ^% <% 1/ ;$ 'z h| .& B-.y6 V2 b4 8] =a d^ E7 a, 0* F' ^) q] {! B{ J^ 6! t! b] %{ a] -% {* I] C{ y] /% O] t^ 89 H] 6' ~< J- u! o> 7* %{ N9 x% w^ |{ += /% i* /) B] t! << h] {* v^ @% {{ @/ :< ){ @/ U^ h] c> j$ 0< /) |{ U^ f/ += E' :$ r} =^ '[ g& %q -a L] m/ f] @% '% }5 _% $9 si 6* n] m] x% s$ %9 t] X^ c> S^ g] i% [t B] d^ %{ _% >/ @% x^ |{ 2] ,= H- k^ B] i% L% y% GU H- 2] 1/ 5] I{ 2} t! C-.x2 !& .$ Z| f* A$ s$ /) -% Gh m/ 9* B] |] I{ :% p] u> @% 4/ t$ P^ y] w- x^ S^ :% @/ =< B] (< (& ;% q^ 8/ ;N }5 B{  ! w^ o> m% 8/ c> L^ 2] O% |< Q; L% L% s$ %! Y^ P^ q^ c$ c> </ :% $9 ;% << f/ |< T% g} 7$ ($ w: ,- B{ 2} =< hp X^ @^ U^ B] W^ m] `% ]/ ;% ;% |] =& =< J^ t! x^ _% u* }5 {! w^ y] Q^ 5] L% <% y] ]/ s$ a, =< R^ +% 4/ +% F' S% :< x% E% )< 6' B[ 0< m] w^ L^ `^ 2] `% Z^ M%  ! a, g] g] .% 8/ J- O% {{ -/ 3! !< n& !< U^ P^ @% 8/ o% 1/ 0< L^ 0< =< `% d: x% )< m% L% t! 8/  ! @% /) a, 8/ 6' w3 3! 8/ `* Z^ U% e% +% <^ vJ L! +$ 3% +% f/ x% $< %{ ^)  ! _% #/ c% D% `% <% m% |u `: t% s$ s$ 6} _/ z7 |] w3 =& T% <% 1/ -* %/ r$ H$ ]< H$ Y& M^ S; u= L% %/ ,3 Mm ^$ S* 3* {{ ek v) e2 l] B] ./ u* @^ ]- d5 I1 la <^ EE  > -$ ]^ A! >^ ^^ >^ 7/ t! A6 4% P! {$ :5 !] 5Q q% x* u- q^ a9 D-.L^ /* 9* ]* =& += 3] 1* ~! h% h% t] S^ L] -% f) B/ n% /% Xe ]* =! u* C{ l* 3! Q# }] P; S% A6 .v ",
"}A ,* a, <] Z{ &4 ,* P- w] ./ i% (; rn C^ y%  ~ y] {* g] )= y] S^ q^ u* @% S^ x^ (! y% d[ S* $- P% E-.c' G- ~< 6* &% b: ]$ #* PH b= o[ w3 0% K9 W$ '^ l& 0% {q B% Z; s5 ]5 +| K5 S* 2< C{ w- <* w% N- #/ {* t] v* -% `t F-.1$ j$ ./ t! .& W} c% A[ ^$ 3% ^^ [] ${ `% B[ bn /% p$ 7/ F' Q% #$ G-.8^ 0% <$ p6 Qd  ] m, ,[ w^ 40 4/ n% g] B{ {! t% E' :% h] x% C[ s$ C] 3! B{ %{ y] Uq 8' x% nb /) 1/ >/ += ./ Z^ w^ l] x% 6! Z^ y] U] v^ [{ w* E7 B] %{ L% m/ @% v% t! O6 8' %< 5] |* N9 s$ 6' z^ -% 4/ {! N^ |] x^ W2 X# bE S& >% .% |{ t! d^ q^ 6! q^ w% O% 7] p) s$ |] |* =& B{ B{ I{ a] t! w* x% u* += 3! ~< U^ u> =- |* 6! >% ./ z7 P^ y] >% t! %/ += w-  ! 2] y] z7 }5 Q^ u% g7 q^ <] g& G% F2 >- 3] f/ =& C{ x% B{ J^ 4/ {{ ;% 2} S9 B{ {{ o] k^ w^ a9 Y^ B] &/ =< %! ]/ L% $9 P^ w^ %! t! e2 t! [t t! %< L^ e2 3[ -p z7 A9 w^ i% t! @/ S% N^ 7' X^ ^) Bn 1/ x^ =< y] `% x^ 1] M* S3 -$ &{ y[ -K 3] q^ 7* 3] 3] #/ =< ./ Q^ o^ @% L^ ;% C[ h] @/ '% W^ p$ M% Q) _/ @^ h/ L% D% $< ;% a, p2 (* L% 2} 8/ X^ h] Da 1/ ,% w^ t! |] G] u% U^ T% d^ @^ (< x% B[ y- O% '% <% o% h] N^ [t L% w3 c% _% 8/ A$ J9 _% Z^ `% @/ g] `% O% +% }5 L% W^ N^ &/ o% c> $^ 1/ u% 0< q[ ./ 8/ B[ B] =< u% Z^ %{ (! y% :% m% @% h] ~< ]< D% r% (} 7$ B% f% N^ 5$ 1/ 2} F' !< S% K) =& 0< g/ _/ F' `% 1/ n& K^ k/ ~< F' ]/ |< (& 5$ E% t! w3 |] =} S% <% 3% Z& %% c> S; E* j$ (7 +s q@ yr q- u* 2} K* P* C^ {* C{ p^ V* )! >- 7^ y} c} #] *5 Z; X$ Y6 E$ >$ ^^ 7/ 3% 4/ A6 W$  { 95 j% U{ fB >$ i* l* G- =& Xl R^ h% b] p) N* ]* {* E* h% w% m, x- h% A- C{ Y* 6) ,a Z^ o3 pb H- I- c* f] C* o% W$ J) Y* @% h) @g ",
"aN H-.J8 f$ Y{ =~ z- B{ += i* m^ .{ =} t! :% v{ B- u* :* 6* v) S^ G4 C* <* }5 ){ H- $- J^ q2 a] D- G# 9m E} 6* x% |< J# WW 4& (} =$ ]> 7r V$ $$ $& v6 S& J) q% S& -] c{ .5 Ei  ] V0 St :< i% S9 7] V7 y% x^ 7* 9* g] x^ *% |# Zd c>  ! |{ 3$ B} d^ <% 7/ b^ !% </ t% 4% ${ r$ 3% t% i/ @/ l% 1[ .#.C4 @& _^ d% f} j3 ^O 1/ 6' W^ u$ t! _/ B] 8/ x% K) @/ K) N9 s$ h] L] {* Z^ /) L] C{ 8< @/ @/ h] x% {{ ${ B{ h] B{ $- B{ B] 6' T] <* X^ `^ 4/ x^ u> T] (< += H$ += L%  ! :% L% x% z7 h] %! s$  < 5] _/ `: 0* c^ *] 1$ !^ ~3 ~n O% O% f/ $9 l] x^ :% x^ |] =& A$ |] N- _% h] y] |* %! g] += N- n] fk B] x% 1/ #/ C[ `% ;4 w^ &/ L% 1/ C- 0* %/ -% u* C^ 6] *9 1/ t! %9 %9 z- {{ #/ dC %3 =^ |% H: t% N- ~! y% d9 U^ g] a, V7 m^ w^ 0* 5] _% {{ 1/ 5] I{ &/ a, x^ 3! R^ x% i% w^ n] Z^ R^ m/ N] |{ =& N^ t] !< Q^ B] ./ L% ;% {! t! x% <% 1/ 4/ '% @% x^ `^ _% P^ |r 8/ 3! ~< 7* 46 N4 +5 a$ b^ P^ 'O x% 7' o% B] B] W^ y% s$ x% J^ |] U^ Da U^ @% W^ 6l s$ w^ g] Z^ ;% -% |] $% |{ 7/ #% g] 8/ }5 B{ !< s$ x% $% h] A9 U^ y] d! :% *< z7 g/ _/  ! >/ (& d^ g7 |r |] _% P^ @/ 7/ R^ ~< `: h/ S% !< w^ =< B] m% C! ;% f/  ! O% N^ ~< m] 3! d: F% +% 4/ 8/ =& `^ +% #9 Q% c> s$ D%  ! ;/ |] 0< @/ Xo (< [/ H$ l% 0< '% ;% L^ R$ E$ P# _$ *% H$ M% Z^ (& Z^ )> F6 O% /% &/ d! l% =< W^ o$ O% ${ t! =< #& 1/ '% _% a> `% (& Q% (& c/ 7/ 5$ $^ r$ %o S; E* N^ d^ o: I-.SW E* B] {* E* J* 3! -% $- T] P* #% {* c| V: }^ )4 7& `; (5 a$ M! Z$ S# Z$ =} p7 S# |% e! `& u& N/ J-.5& f] l* ri 6' PT <a 8P K) $- o> q/ =! 3] r* {{ A- e2 s* w- N- 7< p^ K-.g2 w3 B[ fQ {* Q^ t! S* p) w^ L4 Mq {* <% g7 Vd ",
"7C r* @/ )% /] 4~ '= d= 5] P^ u* <> ;* 6/ g] -; h] b] =; I] (* .} B] m/ h* _= r! h] C{ N- Q* 5] << A- M# @# t& B- y] 9* @Q `7 @7 `) H# I* b$ *^ $& 6/ $* w3 v5 /^ j% () V; W< =] L5 W2 b= C^ p) u* D^ :% ek t! 0* 5] |* #} -* G| I# x> t! h* P& ]] _/ Q% S# /} $& (< D% H$ ^$ =< t% a> }/ (& ZM c% ]8 7^ M; i$ Y& #4 B} ,* n% s$ 7] 2] |< C- _% >9 A9 /% @/ u% cY (/ 89 M^ E' 6! @/ l] <% g] >% w- @/ Y9 N9 ^) P^ B] c> q^ U^ E% 6/ Y9 :% /) 3] U* C- U^ c> B] c] t! _q f/ ;% 2] :% 6* ]/ B{ C- n% f] w^ 9* 0$ ~5 ~] {% 04 jH +* t! A$ _< 2} B{ z7 q^ |] W^ u* w^ x^ B{ w% C= i% 8] h] B{ Y^ t! Q; {* h] P^ N9 C{ y] B] E' E^ |{ y% z7 Q' p] U^ x% y% )9 O% w% A$ w^ Z^ += R5 _% U^ ;< AR !&  0 S& Q3 P* ./ M% o- 7* S^ {{ w^ 4] J^ d^ 1/ I{ P^ x% U^ *< x^ e2 #/ &/ #/ {{ I{ g] ;% Z^ A9 ,% 4/ v^ 2] 1/ z^ x% A$ U^ =< 2/ f] B{ c< `% += `% 0< U^ s$ p] 3] U^ &/ |< @% P^ y% $% |* O3 t6 W$ B7 <8 h] i% =& s$ L% 3! y% P; q^ 2] }5 @% #^ L% u> x% e% z7 y] L% I{  ! ]/ ,% e% h] w- 5] }5 <%  < |< x% y] ;% @% @/ k^ L^ 0< '< $< E' $< x^ >^ 3[ L^ O% !< 0< !/ 4/ ${ =< p7 =< C[ `% F' )< <% L^ ]/ B] !< l] 2} 8/ ;9 |] W^ a, _% u% <% W=.1/ t% d^ u% w{ W^ j$ F' ^) s$ !< 8/  ! `% w^ 7/ W^ 1/ )> |] P% 0< D% #/ $< p$ %% 7& hl s{ /] -& /% `: _/ S%  < d! F' o% N^ #/ b, d^ :< H$ {* g] !< )9 D% ;4 L^ z7 J- U^ 6' w3 D% L% d% O% %% l% E% S; h* ^% Y9 |#.8( ,$ {* o% K* m^ {* x^ ~< ./ N- S' i% )- a} 44 L9 2^ C5 S; &] X$ !% .& <$ p7 0% $* r$ L-.$t N/ =^ <& pS 1& U* {* ,* += M-._% ~> k) H- b] ./ A- x^ ]= |* <* H- R5 o> x^ 8] g= @% d, J/ '% N^ rS |{ b] J- y% V* u* ^^ hl  ^ T] S6 35 ",
"9C 6* ./ <^ Z' N-.h% g= y] B] d^ E~ ^% 3% L6 A; s$ t] 9* z* J- P* z* H- ,= $- w, S* {* <; 0* 2] S' ,% (! 2% O-.C& zl V* o] <$ E8 !@.'[ n: k= *& /} $$ `6 b^ ]^ b% >^ Z$ B& q{ mq N# .| 02 h- |] $- w* Q; 1* H- S' |< z^ @/ @/ `6 f' ~% =9 =< 6! B& /] #^ [/ /% !% i$ F' B# T% Z^ (& A6 v$ ]/ ;% 0/ 7% y| y: S# K# S& 4l `4 Do '% T% x% >/ @/ D{ >% B] A$ ~! /) 6/ x% /) 1/ !/ 6! 2] 6! _% %{ ]w %{ u% J] L% kr |< Y9 M% y{ q] f/ w^ 6' s$ P^ q^ B] 2] a, S* q^ &/ x% 3! ;9 ,= V7 ~< /) u% B{ w^ 3! c> {! =& *3 &* !^ }$ s~ P-.B] $- 7* B{ ;% V7 I{ c< n- a, d^ ./ U^ `% &/ {{ %! %9 @[ U^ v^ q^ U] |* 1] {{ y% 5] :< 6' x% k^ {{ |{ S% }5 :% c> ar s$ g/ q^ /; N- |] B] x% C^ m^ @% 1< _/ 7& (5 i: {] Q-.g< S* #/ *9 $- j- 1* U^ P^ $9 B] y% ~< L% U^ S^ >< g] B{ g] g] #9 |] d^ ~< p] !/ I{ P^ k^ B] t! @/ Z^ -/ d^ l] i% B{ I{ q^ U^ v^ S% y] y] y] HB [t @/ ,= q] @% C* /= w* c{ ^$ /^ &$ k8 R# |] d^ q^ |] m] ;4 Q^ N- x% J^ W^ &/ ;% @% R^ b] L^ |] 2] c> A$ %/ >/ %9 g] _% 1] u! Z^ B{ 2} Z^ 4/ L^ A$ @% @/ s$ y% 1/ d! D% s$ /% y] L% Q^ cu L^ t! |] H6 O% }5 o% @% 0< O% ;% U^ :< h] o% D% A6 ${ s$ +% U^ W^ S% ;9 I{ d! @/ D% w^ L% S% ;% {{ `: |] g] !< *% x% t! T% @/ F' YP  ! x% &/ =< l% %{ 4/ :< 2& h/ #& L^ `# )^ a$ .] l% =< 4/ ${ 5$ x^ J9 Z^ r3 E% z7 B{ m% ${ (% |! Bs %% =< -/ x% H$ :% =% m% O% P^ t$ 6/ ;9 %% r$ 89 S; R-.yl {! `2 7: yr _< 7* ./ u= A$ %/ p) n] a[ w% h; l= G3 r} )| ^q )] S; j& q% .& W$ K$ $^ ;* =} #& '[ B~ yr K$ =e Sc Dt f] H* d* B] S-.@% 4! n] I- x^ :* p) J^ m- s- u* x^ @[ N* N* E] K= 7* P* }; G/ W^ $& mj t* A- 7* d= {{ d^ S& {9 3o >^  6 os ",
"HP ~; $% ]5 () 0> D* P* ]* |* O* ~~ F- K{ `^ o' u* C{  < u* j] v> q^ m/ (! x^ x^ {{ H- B{ %! U] 3* y% i* V* L-.T-.U-.U- 1< >9 b% Ku 4$ i: x| <- f: /% 6% (< .^ W$ e$ $& Z$ Q& f{ {] k7 T& S3 n= L* =! <* U] =< '= %! w- /) t! ,= '6 `e  ( n> j$ q^ 7& /] a, O% ^% o[ h] '< L^ D% [/ ]< p$ D% (& w3 `% 4/ hQ H# Q% v6 Y# a0 W% k^ +% 0/ F% 1] W^ >/ a, =< G4 @% s$ -% >% Z^ f/ kt ^/ d! P^ s$ f/ s$ %< L% ~< !< 2} s$ w* O% w^ s$ x% 2} 6! 2} ./ T] =< w^ a, x% B- %{ o- y] I{ v> w^ C[ |{ d^ @/ k/ U^ 1* h9 o6 #$ R# $^ F^ ~< |{ s$ _% 0* += 3] G4 v) p] S% 1< 3! B{ :% Q' t- y] m% ;% Q^ x^ g] B{ P; t] m/ 9a :% a, J9 B] v) P^ _%  / ./ N^ b] U^ s$ a9 Q^ _% N- -% /) z7 5] m] [/ %! ;% v< t: Dh {O Q2 ^) P* C] <; <; n] |{ ]/ %! F^ a] U* H- p) ./ ;% P^ V-.+= // y] g] ;% q2 J- 9R a, M% u> -% x^ %! w* M% |] i% o- h] Q^ !< N- {! c> i% Y^ w^ B{ 3] ./ @% y% 3! g= ./ a9 q6 M} k$ K$ D$ o- B] t! x% 5] ,= B] `% B] W^ y] E' P^ a, c> B] c/ }t j] L^ t!  ! '% /) 3! /) 3] 5/ P; =< >/ m3 `% H$ {{ o% }/ w] /) x% t] =& t% j$ 0< &9 #/ O% ;4 %9 @/ ;/ =% {! 5$ @/ =& 8/ 3! u% 6/ o% `% =& A6 N^ ${  < <% =& I{ Bs S% !< x% h] =< +9 S% =< 4/ ;4 x% 3] @/ Z& A9 p$ 1/ g/ 5$ w3 c> t! L^ g] w^ 8/ r$ @/ =< p$ h] #& A6 i$ 8$ ml J) N& l#.O% x^ +% q2 &/ n% r$ L^ @/ $< t! |] h^ L^ 5$ P^ `^ >/ =% n& F' 5$ $^ Z^ I{ $& /% X6 7/ b$ t$ S; Pp !/ d^ %1 $r 2^ H- -% u* V= k^ x^ 5] N- K) V* v) ,! {[ t} )5 `# &] V; `{ _[ W$ >^ ,[ $& *^ b% P% v$ @) k: ~^ Z' W-.X# |{ w! := L^ X-.x% [s H- f* i* i% ~> /; U] {* 0* Y^ N* H- m^ P* |* d* _* 2< 9o >] B] w3 g) ^) Uq h* D= B{ P^ ^$  r h] S% g/ ll ",
"7C v% p] 3^ B& >o += g< U* n] `^ :~ (7 $< -% #; 3] C{ 3! h% N- m/ L* S^ $- Wp |* I{ |* U] K* |{ K* K* w^ x% ~* `n Q&.r: E* N- /) iy aS >$ :7 '4 G! ^^ +% Q9 q[ B[ |% M! {9 q% :4 +> &] /& 44 X| 5{ v) S- ~< 7' q2 b] C{ u! {{ w% 6! $< Y-.n: +/ @^ 7' )^ Y{ f2 E$ -9 0/ S% '9 $* ${ g/ <% @& (& !/ S# S% o^ 2) c' =} 3% ($ _| -] += a9 d^ += x^ Y9 {{ '6 2< j$ K{ l] W^ Z^ s$ -% |] D{ 8< y] @% @/ x% #/ ;% Z^ 2} B] C^ 2} u> m] (! y% @% u! z7 3] <% x% u> $< /) ${ g] P; C{ E% B] e2 v* B] =< B] k* E} ,| q% 0% !3 0J 7' -% I] ~< d^ {J 3! c> !< B] a, I{ w^ c< g] '% z7 x% z9 y] |< 2} i% A$ s$ o> 1/ {{ 2} m/ Y^ `* t- 3! -% 0< y% c] x^ #/ 2} H- =& &/ t- $9 n] V7 C- 4/ u> o> 3! w^ q% h= *& $$ y) Q: 8> 46 T- A* l! .} 5* =! y% V* C{ {{ |* c< m^ 5] A^ =- [* m^ H- x^ ;% c< V7 R5 1* o- x% a[ i% @% B- 0* R* |* H= m/ q^ w- u* A$ H- d= h% V* 6* t] 0* {{ {* C* C* q= c^ >^ uh Q: Z-.^* |{ H- q/ |{ y% p) m, u* 6l 3! ./ $< M% L^ x^ t! 2} @%  ! B{ ,% P^ 4/ =< d^ &/ U^ O% $9 d^ o% e% -% O% L^ z7 k/ ./ ]< /% g]  < p$ o% s$ u! ~< 3! &/ '9 ;% =< P; `: y% 4/ ~< S% +% .% h] +a L% @/ =% B[ .^ $9 3] =% Q% 4/ 1/ ./ _% >/ $9 m/ +% 7% N^ ${ w^ a, &/ %< i$ 1/ e% ]/ h] ,[ ./ %% }5 @/ F' L^ 8' F' N^ H$ S% O% B[ I/ '6 !6 T&  0 D7  ! `% /% O% !/ #& h] e% ~! <% z7 8' +% {! '% :% s$ @% `% F' p7 :% *^ S# <% #& (^ *& >/ S; v> ^) B] Pw `-. ;.9* ,% i* 7' m= S^ v* t* x^ {! w* b* }| c} <^ <^ =5 S; L# f$ L& i$ 3% W$ [$ ^^ (& i$ 2- G# f$ W% .;.9% S* u* e* 05 +;.7% $- |{ v^ Y* U] E' u= %! u* i% x^ F^ m^ (= x% -% i% n] H- m^ 6> y2 B[ b$ OP L* E' 5] [{ m- 9q >6 QK {! 6/ (% 19 ",
"8N w{ R^ <^ l| >o I* w* N* <; v^ Jp aN )> 7' ;= -% e2 m^ 9< -% %; D* c< h% C* R* y% ,= x- @% w- 9* u* {! p) x^ %= Dh !R j: V* ./ G- Q% 38 W$ /^ 43 6{ o[ K{ A! $^ -* {9 K9 '6 )^ _4 x| L# %5 v} q{ j= I{ 3] {{ x^ y] m/ 2] P^ += p^ j] -* `x i7 w^ a] i% {} v} w3 0% L^ ($ ^^ /% #& %^ r$ O% V6 U% w^ o3 =& Io <q 5^ >^ *^ E$ `3 J/ l* ./ :< Q^ u! c> 0< t! L% 2] h] u% d^ v^ P^ 3] ;% ]/ g] s$ 3! L^ a, n] |< B] >% I{ w^ ,* `: s- >/ `% y% u> 7* q2 B] 2] Q^ ]< B[ v> z7 5] @% m/ ./ C- x^ 3! -% +^ V2 L$ L$ W% lR P# w% d^ {! W^ ;% u> e2 vo -% /) C- &/ H- ;% m] w^ B] 1/ |{ t! u* z7 ./ S^ j] y% )> x% x% 5] %! -% ;% @% 8/ `^ ,% |< W^ Q^ 6* un |] w^ B] L% -/ 9a ~< p^ %! :% ^) w% x% /!  $ 5$ W$ c} >> y: %1 5| !! NN '4 a3 %1 M: D2 f3 q: 7^ a3 /0 %1 *o ^3 a3 q: !! 7^ 7| [| oc 02 9} 7^ b2 a} 7^ s! 9} '3 o: '3 04 @;.|| q: C3 b2 a} R} %} W: N} b2 G/ 4^ h& H: G2 v& I$ G& r- |{ 2] ~< ;9 %{ >/ B] |/ T% <% !< $^ C] :% [] t% N^ o$ ,[ '6 e7 8/ >^ /} n& JO $* w3 <% <% `$ f$ b^ a> ^^ c$ j/ o3 a> $* V$ ,[ Z& /} >^ q% 7/ ^^ o[ |u =} v$ r$ D% o$ J) h) `% 9* =& i] =< !< [< d!  < |] =% 8' Q^ a, x% (< }/ N^ 9/ R5 (&  ! f/ '% H$ ${ ;9 :% h] D% )> k/ 4/ _% (& ]/ e% L% D% x% s$ l% !< N^ q2 -/ u% N^ KO :< .5 {9 ($ E} Zt `$ L% d^ $* p$ F' !< O% o3 z7 r$ 6%  < |] x^ w3 0/ B] |] O% g7 w6 S% Zt !< e7 #^ 3% g/ S; T- r2 !< q: S> >& j] J^ k* -% G4 V7 x% d=  < v) J* `- m} d} <^ Y{ %] c{ +5 L& {% c$ Mq W$ =} $* b^ P# m) z% @$ !& Eh 3% 4< (* s* $% #;.}5 Y* J^ {! C{ |] h* (* 0* J*  / Y^ := w% E^ S^ P* u* 8] q^ 3] x^ 9; ~3 O% A6 dC -% B{ i% m, )! +9 X6 vb ~* c> t$ vi ",
"s> C] @/ 7& /& S~ (* 4= P* D* N- E~ %/ B] (! B' 5] x^ {! B] O* (! 2< o- c< ./ 0* [t y] m^ {{ $- 7' y] u* a] += k^ w- 6% $;.|$ C= 1* F] 3% gR P# b% z: .~ 7/ &^ o3 s{ /% S# j% A[ ^$ 3^ b{ g5 N# .| m| b= y% h% R5 d^ *; 5* 2] E' B] H- =L !< j0 ;9 f] >% I] L# |$ g/ (& u% ^^ l% B[ -/ S% [/ Q% y] u% q[ -/ !< Z& 55 l: r$ ,[ _[ N/ l{ b} *f o3 :^ Z{ 5% &* 0% W$ '[ {9 @& t6 /^ '6 0% o3 Q# _[ %l K9 E$ $* }] w6 '^ a> K$ ^% ,t 3% ]^ W$ (} +^ K$ ^^ -& ($ $^ ^^ _[ o$ o[ c$ 3% Q% p$ K{ 7/ S# .& f| /^ e$ o[ F; %;.{{ a, L% ,% m^ G4 ^< m^ 2] 8/ }< w- w- P* 3! w% z7  ! >% x^ u* :% k^ g] w^ i% ${ E' 0< s$ w^ Q^ [s y] y% +9 U^ k^ q2 ~< Z^ U^ 5] U^ s$ %! A$ B] N- 4/ q^ m] q^ C^ N- W^ 9% HU R# ~% 4% 2/ 5% Nl () ,Y .5 +5 1[ :5 v& )] G% E5 @] *] () ;] M# Z{ 2% j% +7 -$ S& P# S& {} {^ 1[ -$ )^ () -$ j7 W% .5 }^ W% {^ ]| &] Y# 7& ib %] $5 %5 L# _5 /& Y4  $ Y4 V$ 4% 4% .$ 8^ q: C: !4 N} N} w& U{ i| c| :4 V} ^| S} 0$ ,Y 0$ t& d| 64 V} /] w& Y$ s4 `} >5 i| ^| 54 .7 }4 l} @4 y[ r} Z} >| 64 p} D} >5 v} 64 D} k3 }4 !] >] }4 4^ h} S} d| }| 04 g2 %} x/ Z; 2^ E' $< 6% 5/ 6% vT ${ O% t! D% &/ P^ a, i$ L% P^ =< h] `^ O% _% B{ h] L^ @/ !<  ! n% -* L% z7 m% L% %% k/ n% j$ t! -/ S% F' ^) 7/ +6 %/ B[ }5 :[ V$ >$ V& -& (& =< $* O% %{ l% x> N^ O% #& W^ p$ 9% _/ r$ =< `^ L^ >/ `%  ! ${ d& S% J7 4% A[ M^ S; (! h/ c> oc G> &e T] d< a] S^ x% l] w^ w- `* l] w^ :* h| $1 <^ B& -$ S; ~$ P# y6 |% E$ A[ 5$ 6% B# |% s~ 7$  % W%  ) Z& <; w% x* 7/ ST D% S* Q' @% 4* << l* (! H- ){ z* 5] ,= %! w- E* 7* (= @% h* x> v* w- s= 4| |u !% NF u* 5] K* |* c> B] >6 /t f* ${ p% BB ",
"1u n> _% 4& <^ V! v% p) (! P; v) }> V^ N$ 3} Y' o] +; w% N] $- f= 2} += -% x^ i% 7* e2 |* |* S^ j] u* ,= j] (* L* w- G9 </ Z#.M& i* G4 7* }$ 2o !^ E$ S2 P! s6 A6 @& e7 A[ 6% f: *& f$ I} C3 &] Y{ A} D3 O= $- u* p) |* S^ }= l* p) P* x^ i% )> eQ 6% w* B] y] F& g} $& .! )/ 6% w3 =} j$ p$ '9 ^^ F' 6/ B[ }5 p2 4/ Jp S0 (% /} =& d& (U j} ~| .$ i} b4 ,| B% /& (] :[ y[ @4 )5 y[ (] Pd #5 ck D} /] b4 W} {] 2| L9 /& b} ,| A} +| A} /] 64 L5 X{ 1| <^ B& B+.)4 c} <^ .5 ,] k& E} ^| 3| B} V} V4 L$ P% %% 95 V' a] #! 9R O* k^ << -% @% h% S^ -% }5 x^ 5] B- |< w- Bs x^ C{ A$ m/ l] s$ I{ s$ E* %{ m/ w^ L% u* w^ _% >% h% B] w^ w^ N- y% >/ ./ ./ L] y] |{ [{ w^ U] += x^ w% i% S^ 3! C{ J- m- M% $* f/ <6 t% A6 #T u% 1& S# e$ A6 -* Z$ B[ T% $& 0% @& `6 S# 0/ P% J) !% ,[ 3% $^ b$ -& p2 $& %% i$ #< #< $* r$ Y& </ T% '6 b^ `6 g/ b$ +% w3 7/ +% d% [$ '6 9% K$ U% J$ W$ $^ S% #& p$ '% $< H$ p$ '% _% c% t% 6% P% $^ Q% Q% d& r6 w3 0% 7/ J) <$ *^ '^ -* +% H$ 0% G$ w3 H$ /% $^ [/ +% O% `6 %% |/ .^ p7 $^ (& d: p7 -* p$ Q% ^^ c& Z& 5% q% d/ Y& 7/ W& %% 3% $* {[ _4 p] t! `: =% ;9 5$ t- t! g7 :< |/ S% a, |] B{ (& _% +% _/ W^ <% 2/ p7 m% +% L% =< <% t! x% Z^ 8' ,[ '% j$ f/ c> $< )> Z^ y% #< O% :< R^ j] Y2 '[ s{ _4 '9 (% p2 p7  ! $< p7 '% w^ w^ `6 u% $< t! S# $< S% <% l/ $^ S% )> W^ o% b^ ^^ {% 8/ S; U- -/ !< Zn A> X% H- Y* E* << u* |* S^ YP B] :% e2 A= (3 ]9 b4 C} '[ V;  $ q% [$ $* >$ S# $* ^^ q% q% fQ G& /& ^$ Iy .* -% 0* $! |] r0 g/ 0* ./ u- y% (! I{ g] x^ j] g] x^ 0* 6l bo @/ P^ f* h% m= A* S9 ]* -% ^; 23 L% O% <P i* c< O* 3! 9* 3! q% 70 g* s$ G6 -0 ",
"pA 6* m% Z{ =] P! H- B- s| 7' Q* u2 ^) -* 2} .9 J^ x^ J[ l* -% L* 3] 3] B] B] m^ @% I{ (* -% y] {{ ]* J^ D^ w^ m- o> _* q/ ]% &;.n: 1* k* N-  $ WW V$ /} S2 Q~ 2% $* 0/ $& q% Q% a> !& Z$ x3 x| () Pd %0  1 o* U^ -% t]  < w^ S^ C* C{ m, J] (* G4 *;.m% J] |] L% {6 =p g/ i$ c% w3 r$ p7 q[ H$ '% +% 99 =< 5$ !< E6 %l T! va J/ l% $< $^ K$ Z& r$ W^ <% w3 c& >^ n& o3 4% $* E$ T% 4% .( P# 7/ -* -* L$ 5$ n& /% %% *% r6 7/ 4% $^ b$ Fq A[ n% o3 5% q6 7/ p$ B[ b% B[ b$ K$ a$ DE *& ^$ 6%  7 i$ c& '6 3$ =;.7{ 0* o- `m 3] <* 5] ~> [= 9* B] @% q^ w* P^ 46 V7 w% i* =! N- '= $- v* =- |9 Ah d= {B [= -= &= P* :* G- w* {* 5] e2 o- d= v* P* d= (* K* H- S' *9 n] ;% $- I- %! {{ ek g] 5] K^ M% m! (t y[ B] :% M] w% y% {! x^ V* |< w% @% ./ y% @% o> B{ |< N] M] ~! V7 y] x% >0 {{ d^ >% 5] q^ t% U^ y] (! // 7' ~< z6 {{ x^ 7' x{ p| J- J- z7 i% L% @% h] #/ J- c> 3] B] q2 y] O% L% %< 7D !< 8< F' !< P; #/ r$ ~! %{ Z^ /) 1/ V] #/ /) @% d^ |] x% E' %! t% x> x> x> ,= J- ~< !< ~< @% x% 89 @% ^) /) h] 6/ h] j$ C[ Z^ ${ r$ g/ _/ $* N9 $< t$ ^/ y^ E6 =< 4% J$ $^ Y6 !4 w& -% 6' |* ,= m/ `% n% t! br z7 U% t! Z^ y% L% <% U^ <7 -p 6/ x% ;9 A6 o3 O% [/ !< w^ s$ (< d: _% A6 t% %{ h] 6l `% 0{ E% !< ;4 1/ `% ]^ s4 P# J) @& 3% !< 5$ W^ m% b% $9 d^ (< h] @/ 7D L^ L^ =& S% N^ $^ &/ $9 B[ $< -* $^ 0/ /} ^/ S; ~; %/ %{ t: -;.@5 m= 5] m, |{ Y= |* C{ I{ K^ J* v) e= w& L9 <^ H& Z{  > I/ S& '^ $^ ($ E$ w3 %% 7% F& Y! <& ,] G% QF _$ _< <* ]* m% ;;.]/ E' S- (* K* n- h* B] u* 9* += ZO m^ 5] _* p] w{ h% |{ {{ @% S^ B{ v> {* t* `2 e% #& on {! P* B- 4= D^ 7* =^ J) 4* 4/ ,} '%.",
"{P A{ ,< y[ /5 >;.O= ]* 6* 0) C^ rG L6 +% S6 7a l* l] x^ `* C^ '= += |< ,% v) K* << B* 8] 4* c< '= k^ l* y% D^ S* t] D^ w{ i* T% ,;.B& ~; <* x* [$ FY >$ W$ x, 4~ h5 ^% A! o3 V$ Z$ K$ W$ !% =| M: () 0$ N# V| )= n] <n i* p) {* {* B] R5 != w- ./ 0< ';.sj ~! =< Eg !% k4 t% O% r$ ^^ <% U% #& O% 05 h/ -* y] /% U^ b, S% S0 !S uc F2 v, v5 }a :$ k5 E$ .^ _/ (& ;9 [< `$ $^ $^ S% o$ Wf =} }F r$ o3 %% 3% T% c$ Q% O% c% S% t$ a> !<  ! $^ _7 t% /% h] S% =% +% <% ^% `$ 7/ 0/ 4% E% w3 v$ X# ~$ S; );.A* =& K^ i% i] w^ $-  ! 3] B{ O% =< z7 N- ./ 1/ k* B{ Q^ |< |] ,= A9 o] q^ O= )= ~- h' Y! *O cq ,H G~ 2) NL :U >o Ku +f >~ &) 5~ d, f) 9- ^> n= B; o; Z- r= &~ ^- Q* g, l* I= 0! :- 6; ;= '~ fl ^7 v@ V  !;.j#.3-.cO ~;.Sc yU W-.lH @8 y< Lc ;t 0Q Nc {;.];.DO ^;.2P q#.$F 1L /;.xQ  ) %8 [8  n LU x8 (;.CQ Ro 9X d8 _;.:;.iQ WW @I 8y 15 CE  n *n 6H 9G hU ]8 =R AK Bi O: `Q GE o8 lw y< wJ .6 fP ;0 s< Fo nq uY $o <;.[;.Lq };.o8 |;.bM |;.f~ 3u Y! 1;.J4 tF Zc 2o qJ o7 6s :~ ;~ v; dC 2;.M' ;- s' 6~ @~ o' 0> Z= h% D* 7{ +) 3;.O; FP O~ 4;.ra 0H (; R# X$ /} P# Z$ Z} *5 q^ L% z7 `% c> m% t% &g B{ $& &/ x% U] =& |] @/ U^ ]< >/ -/ l% I{ B[ d! <% -/ #& =& $* <% (& )> S% }/ |] 1/ 0/ Z^ =& w3 S% 2& z7 f{ e$ K$ W$ j' '^ 6% c% r$ `% d^ L% F' .^ )> $^ h] r$ +% 4% g/ 7/ $< #& u! 7/ N^ @& .^ w6 L6 Z; M* %/ // j> 5;.,& V* ]* w- n- w- %! y] w^ y= ,o 3] A- s! f} c}  $ S& Z; =] 4% )% Q# i$ b% $* K$ ^^ 9% 7J #e #* `& [v !O U* d= *F Q% G| !% I* bo S* m/ h% J^ B] D* 5] h; u* [{ H- (! `* q^ N- 5] {! .} w% v) U* K^ -% ^~ '} %% )9 ]a |* n- B] E' p/ `^ g& p6 /* z7 x% fu ",
"}A G- y% Zd Ei #f :% A) 7' h% ;% +~ o3 /% Q; (u t! :* m/ 3! =! C* (* u! 5] c< 9* B- 7* v> 2} |* R5 z* N- v- w^ w- 0* $- h% y] D* <$ 6;.I/ K* 9* V* M$ Bi }6 E$ mc a~ P% *^ K{ i$ 3% `6 /^ J) W$ $] (3 g5 g$ D} pg w= w- R5 H- q^ w- O* v* 2} ,= ./ u! 2} 7;.C* O- ${ E^ d% =e 8' <$ +% 7/ h^ +% 6% H$ 6/ 7] $< [] '% c% D% L% `6 U# d* 8;.j0 9;.H+ l  &..b. 0;.i+ w( a;.b;..a c;.E  d;._R Y#.,@ {R  , r@ |W  # e;.Z. M@ C+ ,_ /..E+ ~# 3T W, =m '@ _#.!7 |( f;.g;.k+ I, (# h;. # ## $r u7 _@ u_ #n 7= U{ %! 3! W^ +a f/ m% H$ x^ `: @/ Gh S^ l* y% c< %< s$ i% &/ I{ /* a9 |{ g/ 3[ i;./= 8< 8} ($ *^ c$ @5 g$ X{ K} $$ :t =e 5& Y{ Y$ [% [% %& M& S0 *> S8 d4 c' N/ `# !] j: _4 !] U{ [% n: C& :[ 3^ q& W3 V; S; Z; T; .> S; k{ S; S; S; Z; T; T; `; S; Z; S; S; S; S; S; S; U; S; S; S; S; S; m{ `; T; S; S; S; S; g{ T;  > S; W; S; T; c{ e> S; S; T; S; S; S; S; S; S; S; U; e> .> S; S; Z; S; S; T; S; S; g{ X; V; $> T; 'u $> k{ V; S; Z; S; T; S; S; S; T; S; T; S; T; S; S; S; S; S; k-.'} +3 s: x: 83 J/ {0 ** 5! lq st gI 5! _0 G2 4#.j;.S; ]0 I# >> a5 <M k;.[% K$ .$ !6 K| !& g] l] j$ U^ 6/ m% ;% c> p7 7D H$ a, _% 6/ a, :% $< (& O% [/ p$ i/ $< &/ 7] KO x% L^ !<  ! F' Z^ )> q2 !< |] </ N- H$ 8/ @% R3 '[ Z$ /^ 9} AQ Z^ p$ [/ A6 P^ 1/ $* $< _/ %9 h] B[ x% 1/ k/ w3 U% 7/ T% (< #9 e% <6 %^ (7 S; N{ .% t$ >> l;.y$ b] u* w- ;4 O% w- %! v) N- o- @% ;{ m;.>| Ss X{ !& `; F7 d% s{ Z& -* c& b% D' 6% 2$ c~ `& (5  $ tA 1$ ]* 4- k* p2 x9 =< 9* k* v^ 7' (! H- 3] /* m^ S^ 9* w- N* 5] [; [] ]* {! N- 3] m^ 3]  / I{ += F' q~ J2 6l )> 56 ./ i% -% @[ C* I{ 2% (} 9{ m3 /[ n;.",
"iv +/ 2} G# H& t' %! S^ (* 6* u* u' Z6 L^ _} v{ m^ {{ m^ U* _* += p) w= U* 1* A- S^ z7 O= F! ,= F^ E* {! u* 6* A- 2* (* u$ G- -% m= %! ;B *$ )= I] 7* Z# @{ .& W$ M: c~ i: 7/ ^% W$ p$ @& .! a> P# Y% H: Z{ +| s4 O2 X= y] Y* ./ 6! ,% v- s$ ,= w* H- C{ g/ o;.k^ d! >/ d! 3% B/ _) r$ /% B[ '% =% $^ d% 4%  ! u% p7 $* (& 0{ R^ </ ~< Ea $& Z# 5$ l% ^$ F& b^ T% 2% e/ p$ !< #^ L^ </ h^ k$ b% o3 d% u% n& >^ 5$ {% %r 9% 0% a> Q% P% 9% -& c$ </ `6 g/ 3% 4% H$ 9% v$.w3 i$ -* #& !< e% 1/ |] A- 1/ X^ a[ y] %{ :% H$ W^ D^ U] ^* y% %! C- S9 -% N^ B* 6* m- :% {{ =& I{ Y^ s$ {* -$ g{ U; 7| :4 r} b4 _| E} 3| e} u} C: D} g} Y{ !] +| ]$ (]  $ >] }6 #5 =] |$ y[ 7& >5 .5 )5 N& @4 3| B& 2^ _4 l| v, ;| 4^ b| $4 H# (] !] Y% e4 D} k3 4| b} 84 y2 ^| h} C: O| =p d| z2 i3 O} =p P} j3 -| D} (4 w& >] p} V} u} L5 /] 64 A} O} Z} V} N/ /] 7| Y% 3| 5| r% z2 '| >] ^| B/ C: S} B} s4 In 14 G/ 4^ i4 4^ y2 '] >] d| 1^ i4 M& J/ 14 Y$ '4 K< 7| 3| f} t: y[ y2 i3 =e 5& ]9 y[ )| y[ #] :[ !3 xr |* _% d& `$ [] <7 $^ 05 N^ sj t% ${ D% +% ]/ X^ ${ =% ^)  < =< h]  ! L& qJ k4 r$ :5 #* G/ >$ b] N^ $< %{ Z^ {{ D% ;/ D% ${ @% ,[ h] }5 a, 1/ s$ w6 $% 1/ B{ 2} !< g] a, L% C{ -% 8/ $< D% H$ [] `% 7/ =< R^ ^) w* b2 G5 K[ ^^ v4 o8 b$ <0 U% H9 '6 w3 -* d! `% S% @/ p7 !< P^ ~U @/ /% e$ r$ _/ (% ,/ ^$ /}  ^ S; ^= 6/ d! Y2 p;.>& i% E* {! w= j] v> ,= {* |< N* x* /= x| (] !] 4$ z} S;  $ 0% ^^ >^ s{ $$ /} o3 b% L$ uS 04 -$ 5& ~+ ~% I* v* U- c% q;.A[ P* z^ <* A- /= /; ]* v* $- [{ H- 9* 0* 6* 9* += w% ,= H- U] :* (! J^ R* 8] u* K* b' K2 D% h] >o @^ C= ]* _% a* x% 2% ]o V] :% (% 4S ",
"!a >% w] L#  5 C~ x* v* 9* 0* N- r~ g7 5P C[ yQ P* ~- v* p) N* m^ 7' 8< $- k* e2 {! i% g= c< K* x^ w% 4* H- y] B] z* H- w* m^ g= j] C* :% r;.UG A= m= 4* L& 65 )% {% L2 }k ;* ^% n& /} w3 $$ F' $$  7 i3 s! $g D} $1 12 c* J* ,% w- t- D^ j] E{ ./ o- ,% 1< ^% .r V7 99 1/ ]/ L$ 8| `% $* $^ /% 2/ Q% d& r$ O% B[ bn =% o3 -/ `$ $< $< 2/ L% }5 |] D% =& _/ h] U^ O% t$ P; g/ a, @% x%  < j$ !/ i] N^ (% N9 >/ ,= @% |< `% >/ O% m% ;9 =& L% 6' C[ w^ ;% Z^ h/ L% :% )> p] x^ 1] N- 6' i% _} 2]  < -%  < P^ `% _9 V] y] C^ {{ 1/ C{ N- }5 ,% d^ %! S% N- C{ v* 9= t] _= P* B{ b* S} -1 ^^ $< d^ m] 4* u*  ! g] ;% }5 l] y] L^ =< x% E6 p] 1/ h] @/ T] {{ x^ 1/ z7 ;/ 8' %/ 0< B] @% B{ |{ h] <% !< _/ '% U% p7 S# 0/ )> E$ 2/ %% p7 7/ *% p$ +% &g F' '% L] 6/ L^ 4/ J9 0/ |r <6 k/ U% d: $^ r$ 4/ l% b$ S% ,[ l% e& *^ =} F' p$ ~6 N^ +% %^ 2& w3 i/ H$ `6 n& B[ Q% $* D% -/ 7/ r$ q[ 6% !< e% o[ .^ @& <% /% =& P; =& %/ $* <% n& h) Z^ p$ 0/ B[ F' h] |< !< b, (< Q% (< >^ B[ r$ =< h] N^ G# Ma [{ ;% 6l _% 6l |r #/ m% D% 8/ -/ $9 $< +% u> =< N9 |] U^ $< ^) Q% |] T% }[ NN <% ~] s;.O3 .5 5= y] _% U^ A9 U^ S^ %{ @/ p] d^ &/ 8/ >9 h] e% r$ $< Z^ t% ${ >/ h/ f/ @/ ,[ =< +6 ${ 0< t! b, (& 2} L^ 5] 1* } .t;.)& S# hl )~ X# l% _% z6 5P r$ O% L% |] w3 b^ o^ 1/ ${ O% u% (< $^ 6% Z& F' i$ 0/ Z^ 6* S; M* g/ c> j> t_ ]$ o] H- 5] %! U* w^ w- 6] n] y% =! G- ,> v} @4 D$ -$ S; g& {% b$ P% L& 5% X# p$ $& )^ rS x: !^ K} #r v9 3* 7* := }t u;.05 _- k* i* /; _* A$ %; d= P* z= U] *= A^ P^ m^ =- 6* F^ R- -% j] %! R* u* 1* Y^ C{ 5= <= 14 ]< yl v;.g] f! 1* q^ x% 8/ F& _^ T^ o> L6 !{ ",
"HP o] C^ W% %5 *} -%  < E* 5] C{  { G] <% Q; !J x^ 6* -% S' K* #/ += V* @% ~> A- N- K* h* K* ~! |* 8* 5] 9* E* b; d= -f _* b] u* A- a] m] #/ w;.h: l* H- ]* Z$ iH ]& 6% a} <! q% K9 X6 J) 7% <% D% .  |% i4 p{ =] m6 >| H! S] Y^ |9 B] t! M) {{ p) y] {{ 5] C{ J- x;.P* Q; A6 S% /} Z| L6 0% +6 ^^ !< $^ r$ /% S% =< $* ,% 0< B[ ;9 a, S% 2/ N^ _% ${ </ 4/ N^ S% 3! x^ w^ w^ >/ z7 t! L^ l/  ! z7 a, Z^ |] {* Z^ 4/ j$ |{ 9/ l% j$ 1/ l] A$ K^ 05 L^ a, U^ Z^ z7 B[ {{ 2} Z^ x% ,= x% +% C- +% `^ 3! S% !< =< `% t- t! U^ 5] B{ k^ C9 #/ x^ 5] x^ `* Z^ I{ c>  < K* |] _9 ]* L) X{ $* 7/ /* 4/ d! >/ 2} 6/ o>  ! '% K) )9 `^ '% ^) p] p7 N^ y%  ! 1/ &/ =< '% =& bn W^ 7] z7 j$ %{ F' $< @% u% w3 !< !< `% ;% +% k/ S% O% F' F' i$ F' t% 7/ h/ N9 |r Z^ o$ ,/ (< +6 t! %^ <% r$  ! J- H$ S% 6/ r3 Q9 O% ${ V$ '% <% E% t% %% O% /% (< N^ `6 !< <% @/ d! S% ~< ~/ z6 t% y% .^ k/ `% !< 7/ O% 6' <6 j$ r$ #< 7/ 8' (< _7 C- 4/ `% c> %< l% S% 0< f/ w3 F' l% .^ (& S% K{ 0/ @/ r6 =& O% #& (< )> .$ N< $- U^ x^ +% h/ <% w^ p$ ${ (< W^ B] S% :% (& w^ n& O% (& B[ ;% (&  ! ~^ B< M& h^ P# ^6 L) s} s$ Y* y^ 2} t% g] $/ x% S% $< `^ M% 4/ j$ m% =& D% 6' m3 x^ B{ a, Z^ !< Z^ S% _/ =< t! C[ J9 N^ ${ 0/ >/ _3 d| .^ 4% _[ T# aO h] U^ D% U^ L% E% +% %/ )> t! t! f/ n% q] L^ U% '% x% l% 3% _/ 9% +R // S; z= :< t! Zn Dm r{ E{ 9* m^ -% u* u> ./ {* 5] 3] P* a* 9} h3 {] X{ () S; () '[ $$ W$ M$ 4% t% $* u% '^ 2o V& )6 x& !Q 5$ 1* /= r* %! y;..% g= {* ,% 2* t* v^ 0* ^= C{ *; U* S* (* ]* |* q^ t* $- {! V[ w% Y^ ^* m^ S^ U] S^ .} /; h' H! +% Q; T8 {! 1* i= K* 9* =! %] +P /) P^ P: 2t ",
"pp x> u> !5 B& iU T^ S^ << o- L% 7> P; W^ {! *) Q' =- N- C{ m, w* B- 6! A- y% m^ x^ w* u* w* 1* j* 5] 0* n- y] 9* S^ :* Q* %! C{ 1* 1* w* q^ 2/ *# ZS E* 6* V* %% kO z} v6 !! W! U$ b% ^^ Q% 0% /^ B# b$ Q# ]5 n{ 1| =] )5 `< M- |] 5] =- P^ 8] j* H- u* e2 H- R5 x% 9Q *; {! ^^ y] 3% Q2 -* '% 6% Q9 [/ U% F' w3 =& }/ (& 8/ L% p$ N^ <% L% 5$ (< ]< F' E% r$ =< $< x^ f/ ZO K) K^ g] l% k/ =% S% L^ w3 x^ t% ./ L% W^ >9 w^ O% $% !< 0< Z^ _% `^ @% c> ;% >/ v^ C^ h] 5] |] f/ |] !< o% |] P^ &/ s$ W^ p] t! $^ u! B{ '% 4/ J- l] |* L% L% S^ U] s$ J] |] U^ w- @[ {{ l* T& 3| %% F6 !< )r >/ @% a, 5] i% x% n% O% U* Z^ (< W^ S% %< Gh 8/ 1] ,% _% X^ :% 1/ >/ t! si $< V] !< ^/ a/ R^ a/ 2] a, a, %/ <% u% _< l] ^) w^ '% `% !< o] $< p7 m] :% =< x% Z^ ${ %{ L%  ! (< %% L^ t$ ${ </ W^ r$ L% -& d: `% J- w% a/ O% B{ @/ :% )> u% 3! ;/ ^O w3 P; w^ :% 1* L] 89 :% @% t! d^ x% ek u% (< =& '% =& `% 8/ r$ |{ +% ~/ &/ %{ Q; h] '% L% $< iP h/ O% z;.4/ a, (< Z^ Z^ H$ ^/ T] u> $^ ^) o3 b^ ^^ /& +> f= N^ l% 1/ Z^ o3 #& ;% !< N^ r$ $< L% w^ b% L^ n% '% O% /% m% x% c> ]& b: #] ]< W{ G% j5 Y3 D3 U2 #3 Q: (3 !4 b2 g2 H: 83 S3 H3 W2 `2 H: /3 F3 D2 K| H2 a3 L) ~[ L2 L) y: 0| In S3 A2 @f oc }2 u} 1[ ,[ 4% r$ )^ R; `% o% 0< 1/ @/ W^ B[ [] L^ D% t% 5$ !< )> E% 0/ x% '% Y& 0< d% _% A! Rt S; l* x% @% z: B> r{ _* |* ,o =< @= B] -% :% U*  ! t] ]* '4 #|  $ 47 y) S; 3$ V$ >$ d% d% A& o3 (< +% M$ I4 5^ ~^ c' gn ]< /= w) 8] H- A;.x^ a9 <R v* J* -% m- +C L* K* 8] x^ m= H- g] ^* Q; I- (* ]* 7* V7 {* l) j] v) 3[ h% |* U^ V* B; x/ 2/ '= Qu 7* 0< ,* m, $- w{ ]& <O S) `% t$ nj ",
"oA v% '% y[ @4 )~ Q* =9 *; C{ j] U= r3 U^ |{ !J |] {* 4= A- (! m= (! B{ x^ h* c< v) J! N* S^ _= J* S9 S) <* ~> V* $- J* u* ]* h% 6* H- q^ Y* H- <% `, Zt N* E* *{ 0% k< -$ K$ 04 O5 '6 /} ^^ [/ P# $& D7 *^ L& ,] V| 47 W% (] 73 u= h% ,= {! B{ ./ u* 8* i% w% %! @^ w^ `o 8- 7' !< V^ 3% G/ K{ >^ [/ Z& r$ N^ b^ `% q] ;9 >/ E% '% <% m% $< m% |{ (& 6% N^ D% (< :% ,% a, << L% P^ =} e% k/ 8' a, }5 0/ B{ P; H$ !< I{ (< >/ /) (& L% 6* O% L% p$ w% W^ 1/ -/ u% 1/ j$ |< L% )> S^ N^ U^ @/ %! a, ;% f/ |] 2} >/ |] p^ g] s$ =! (<  ! x^ 3] y] Z^ 2] N- w% ,% S9 g] B{ _$ r% B# w3 /% << <% q- 8* b* M* 1= .= U* J] k' 9[ K* 6! ]* |< t* _* A= m- m^ 1* w^ |* P] _< R* v% v- V* 1* ,% C{ j* H- m= -% w- v- 6* s$ '{ C{ y% ~< x^ /) y] ./ m] -% u$ c> C{ a] @% x% // 2] J8 5] ~! B] i% X^ L] J] ,% U^ y% w% K) J- x- N- {! ,= 6* L] 4< Cs E{ S^ 2< /) y] I{ |{ S9 T^ @% j] @/ j] Q; 7* |] 6' C{ `^ <{ r2 _% -% B{ ,% a] @% =< {{ J- x% _/ o> l] Z^ b, (% S% %< u| N@.M] !< w3 r$ t% %/ !< ;9 ^$ 7/ l& )^ >> 0* 5] w^ a, w^ &/ </ o% O% @/ J) K^ p$ L% F' l% G$ )> g] ]< (< ./ )> !% I= -$ V$ L$ S# A6 ^% O% K$ S# b$ b% ~6 v$ p$ $< p$ F% q[ g7 p7 A6 @& 8} p$ A[ T% K{ $^ 0/ 0{ W& @T )> b$ ,/ >^ A6 J7 7/ %^ @& !& ]- O; +% <% n%  ! 3% !< 3! =< @/ +% Z^ :% r$ 2& (& /% (/ x% D% $^ )> [/ ,[ (7 S; O= 2] B] S; B;.S& _* i* {* |] 6* |{ >/ != -% p) w= b- x| |5 N& @5 !& S; k& L& (} d% 4% 0% 7% =} $^ 5% nR T& }] J& B0 ${ @= *; s; a- C;.e& u* ){ p> k* ,% <; V7 S^ K* Y* $- 0* 5] d= /= ./ B{  < q= O* G4 O= %! w- :* ,= x* 0) q^ v) {* l= x: 0/ a* ]a y] `* $- P^ }= M^ J# i5 Z^ [/ l/ !{ ",
"Bl @^ 05 Z' Q& o~ D* E* P* g= N- g, j$ ;% )9 ]; Y^ S^ 5] `^ V* *; {! E' (* w^ 9* H* t* A^ (! h; N- 5] w* Q* @% (= 5] V* '= 0* (* p) b] m^ <* S* j] w] D;.,^ ]* g= f= -& 2U @$ w3  3  ~ *5 %% ;< 8} Y6 B# M! !% S# >] W3 N# D$ c4 V| u= bo `^ R* w^ f= x^ g] d] |] a] a] t] }8 <> %/ =& h] >^ -3 k/ A6 (< T% <% =% 7/ ;% _% 8/ 6/ %{ =& 2} z7 8/ !< {* w^ x^ _% _/ ^) W^ !< %! e2 !< i$ U^ L6 |] |< e% O% %! h] w^ e% x% :< a, F' g] ,= x% ~< @/ U^ x% r6 d^ {! @/ -/ m% B[ |] -% 8' y] 2} o> U^ y% /) (< =< ]/ %9 G4  < N- {{ o> u! [[ 3] Q* n] f= e2 I{ x^ C* Y^ f= E5 H3 '^ ;* A6 <$ q* K0 oS ]Q e$.E;.F;.G;.H;.Ux I;.J;.X+ K;.Xx L;.M;.N;.U .'..2Q H+ }9 O;.P;.Q;.R;.S;.a;.T;.U;.f' D-.+y V;.W;.`( X$.f' X;.Y;.Z;.`;. >.Jr 7( 1W +, .>.h;.t@ )( f;.+>.@>.#>.+' N, S( Y, }# $>.%>.&>.4( *>.$, =>.->.X$.L( ;>.>>.3# AT X;.,>.'>.). 1( [W )>.+>.># `> b# X;.I! @>.!>.~>.V@ .>.&' {>.4. |' #U ]>.kj ^>./>.L( 5( ,m (>.7( _>.h( S, :>.), <>.Q> ` ._#.A-.&# [>.%, W( {( Q( rm :( ^: }>.~>.A@ @{ S0 4% E% /^ j5 A3 O[ x% =< B[ %{ h/ Z^ ,% d^ T% _9 t! x% $^ 8' d^ =} 5$ ^/ 5$ (< p] t! d/ qJ y2 I} !n (< M$ 7! s{ 5% f$ 7$ b^ 7/ ^^ $$ $$ .& X$ K$ $& K{ J) e/ S# c% =} #& [/ (& `% S%  ! m3 ${ L^ 6/ p7 )> d% QL >^ |>.1>.zE d! =} E% L^ S% -/ b, L^ 7/ (< )> D% P^ *< =< g7 p$ S# 0/ '6 $^ Q@.x% S; M* ;% u> .> hW /] V* w% N- (! D^ L% x% t] q- m/ V* a! x| C} /& .$ !& Z; _$ b$ P% !n E$ R# $* 7% t% n$ K! t& )% B/ );.F' p) B- b* k* 4# %{ -{ o] p) h% V8 ,0 k* i% += (= h% w* 9> -% v* v* j] P* C= V* %= 3] q= a, 3* J^ u* {{ ,= v) w* $-  ; T& q^ 1* 0N ;% C^ e2 [{ 8] h] .$ 2>.7' `% N; ll ",
";7 Ba #/ B% _5 9k H- ,% G- 4/ 6* ,- 8' 5] S) u{ L% 1* 5* ./ ,= {{ m= I- O[ S^ D^ m^ t] t] V7 n- <* ~* ~> |< O* B- 7' x* 2} C{ H- w* H- q^ o> 6! u* ./ H$ 3>.)6 `* 1< :* 7$ NL Z{ V$ !3 |- $$ 2L /} o3 +% $& .& Q# %] 84 Q2  5 T: c} m| <= Q' u> e2 ,= k* ,= ;% {{ j] w- m/ !< Tq r~ d^ j$ g] =^ !] l% %% B[ b^ l% $< _[ 1/ ^% 6% L^ z7 L^ <6 ]/ =< t! S% F' N^ _/ ${ t!  ! L^ {! D%  ! ]< ]< `^ ^) $< d! <% ,= 8' ;9 `: !< D% F' q] S% K) )> I{ b^ ;9 ;9 N^ |] (< Da 5} c> x% 2} L% U^ 05 @/ 4/ s$ P^ `^ += d^ e% 6' @/ U^ x^ =& S^ m] _% >% {{ 9* U^ 5] O% {* q= ^$ L2 l& P% M! S/ c;.9a -% p2 %$ 2/ dy 05 3% ;9 7/ '9 <6 H$ ]< ;< <$ -& `6 l% 2& o% d: <6 .% o% j& W^ )6 `6 Q% D% ]/ ;9 B[ 5% e$ D% 7/ M$ $^ P^ t! a, H$ O% 1& Fq )> ~% i$ :v 8$ ;$ 4>.G# w6 Kd X$ s% Ss /$ V% d/ p2 .& Z& 9% Q% V% Q% jy V% -& '& ~O }a N$ V$ X# {} $$ 9% LO $^ <$ +% ^{ w6 rb S# P% $$ 4% b% {} f$ ^$ 5>.0% 4% %% M$ +( B& 2% j% q% X$ d& *$ s% V% J# G& :r R# }a Dh -& @$ d% f/ 0% f% 2$ G$ 5% G# QL ha N> S8 /% +6 g5 B% v} i% t- (% 4/ `% d^ <$ ,% $^ m% O% t! =} U^ g/ $< Z^ h] !/ O% ${ w3 W^ ;* b$ 6>.7>.&f %, |' ,_ i  M> ZT wo ;# 8>.ZT 9>.c;.0>.l@ a>.AT Ux b>.c>.WT d>.e>.f>.g>.h>.R  i>.j>.`> k>.l>.:Q q0 `@ Zo 9% *6 O% d^ ,/ [/ a> S# 6/ </ 7/ N^ O% N^ r3 Z^ ~6 A6 _% (& '% K9 D% #& T% L6 Z; Q- y% {! |#.u_ ,& H- 0* += h% Y^ w- b] -% 7* n- q= ){ 4^ 44 )4 /& *] Z; :5 0% .& .! d% @& A[ b$ Q% {% +! 4| /} 6#.m>.<% u- N* U- 8= n7 -% Q; Y) l* S^ 0* h% h% u* /) /* $- 2* 7* x^ p) w- D* V7 u* m, 7' 4- w% z* 5] q^ C{ $- J* l* t- '= /* wh E$ 3! oh o) 0* 8] +a R* [{ w* '[ Ks h)  < [] J: ",
"$R v> L% F# Z{ dB Q* S9 (! u* 0* e) i$ B] d* *& ^* f= d= I{ N- S9 %! 3! w- y] += 6! Ah 9* |* D* i% v) n] ~! t* d= 8* .} :* 5] >% a] B] (* 0* x^ Y^ ,7 w% +% j>.3% m- o- ~r )& Gr b> Q# 75 (; O$ <% P% s{ %% P% i$ K$ q% 3^ x| @$ j5 C} 63 q- y] {{ i% |< P* {! o- H- += L] v% /* m[ i-.)> C[ o| )% _| ^) r$ $^ $& =& H$ 1/ m% `% `% y] O% [/ W^ u% (< :< D%  ! >/ )> u! S% |] W^ Bn $< x% 1/  ! |r !< L% Z^ a, |] L% N^ 4/ q2 $< q2 '% %! o3 y] q^ E9 t! m^ F' O% W^ g7 &/ h] u% m% A6 P^ ${ (& ${ =< 7* h] M% U^ N^ A$ e2 8/ @% L^ z6 >/ W^ *r q] 4/ w^ %9 S) F& S2 f7 f$ n& M& n>.Z$ }5 3! k^ @/ v% @% P^ :%  / }5 %! h% z7 C[ a> g/ U^ L% J- y% )< 0< l% l% @% L% B] Z^ 6! |] z7  ! l% '% }< 0< h] m/ -% U^ X^ U^ K^ ,< .% O% ]/ g/ e% F' &/ &/  / (P %9 z9 _% /) U^ i% ;9  < R^ _% _/ :% c/ L% s$ 1/ 8/ t! |< )> Xo B{ w^ $% P^ Z^ (% t= o% =% 2& 1/ |* d: f/ a9 Q^ ^) ,} ;9 p$ L% )> g7 yl +% p2 c> 5$ H$ D% $< }/ N% L^ `% %9 -/ Bs W^ _% ${ 6l y] L^ j] d/ %< @/ >/ D% !< d^ s$ f] t! 9% 1# 0q )/ w6 3% d| E} J* @% S% ;9 ;9 l% '% ]/ e% ${ r$ <% B[ x% e% _% $% '% T% 1/ ;9 `% d^ z7 ){ c> >/ T% 6/ R# w6 %% S# `n )6 i7 e$ q$ >^ K% T# MV {% ,[ S# k/ U7 ,[ ;4 P# o3 *^ w6 w6 ^$ -& MV b% D% /^ ^) t! R^ A9 ;4 _7 L^ Z^ F' N^ B# y] `: O% >/ F' 0/ K% _/ r$ |] 7/ 7/ (& q% 0/ %/ Z; 2* %< d^ T; O> o>.~* -% S^ U^ -% u= ]* %/ *9 B- p) |9 A} ,| }^ .5 -$ S; Z{ X# B# k$ -& (} e$ %% 2& ($ Gr g} P# S8 p>.w6 q- u= _* z* Kc Q; K- 4* {* S^ V* A- =- l* +[ w- 9= m/ u* 0* C* |* P^ v* 0* m= y% :* u* [= w* L* A- Q' 7' $- w- p> 6* d< t> <] ,% d* Tu ;% `= 7* 6! (* P^ F& 1! hp x% Y9 Cp ",
"1u E{ %! 5& Z{ Sd '= m^ 0* J^ y{ o= O/ l] 0/ h] @% p) m= /* {{ :* N* Do w% v% K* q^ m^ h% o> [* '= ~< y% m, u* c> {* +[ B] 6* x^ o] t- 2] u* $- H- -% u* G- q[ w  <& !u g< q/ 9% uc -] 'n 3| :- L& f2 6% $* .! w3 4% Y6 E$ !] F2 1[ {5 .| D3 &= w% V* d9 p) a9 -% j] u! 6* x> y% |< Zc nw (< y] p^ y6 0| _% o3 w3 p$ O% $< y] <% O% /% C[ b^ (< ;9 ^% x% w3 t% $< r$ +% 3! ^/ }/ t! g/ E6 l%  / C[ )> &/ r$ o% 0< (< W^ 0/ s$ 8' N^ |] t! g] >% _% |] I{ =< .( 6/ 4/ =< :< +% N^ L% 1/ ]/ d^ >/ a, U^ `% R^ L6 @/ a9 4/ `^ w^ s$ m% %{ (& $< /) 2} x% Gh j- *]  1 l& (^ 0/ @$ J0 l$ 2* $< {! += S% J8 t! %! )>  / !< X^ ]< O% 8' 7' }5 x^ a, z7 7' L^ _% F' a, 6% T% S% 2} z7 @/ x% a/ _% $< %{ 0/ ./ ]/ x% w^ x% N^ F' ]/ `: `^ _/ $9 ]/ =% o^ ]/ ]/ _/ @/ N^ =< 05 _% d! g7 =} p7 _% ,= y] a> L] $% @% l% Q; !< Z^ m3 :< _% #/ l] =< =< i% ]/ |* |/ ;% x% [{ =& ]/ C- 3! 2} =& =< g] ./ 0< =& a, ;% s$ `% ${ :< l% s$ t! `% 8/ :% @/ t! 3] u% d^ s$  ! W^ g/ R^ br W^ %9 ;% 4/ J^ G- ,= 1/ a, iy !+ =e W$ E$ '^ {[ @$ x% R5 l% 4/ 6' 8' ]/ o$ [/ u% 7/ W^ +% _/ U% ]/ ;% t! +% |/ <6 i% x% (< ~< @% K^ w- g/ =& aU u! a, Z^ 7/ L^ _% 8' $< Z^ S% K^ ^) t% ZO p2 n% xb 99 j$ l] C[ Z^ l] d^ 8< z7 a, -/ !< B] :% 7/ l% Z^ c% T% ${ w3 o3 e% `% O% +% E% 4/  ! |/ O% $< 7% T% 0/ (& q>.S; h% 6/ 89 B3 :_ 0& 6* y] '= w- x% V7 5] t- p] u> 7* 4= /& y4 [4 Y{ '[ V; Z{ {% T% K[ ($ Z& `6 n& 3% R# ]~ x3 s{ ]$ r>.[/ ,= s- _* V' #S T] Y* H- t- '= Y* << m- C{ {! E9 B{ J* m] -% E* C{ G4 P^ {* B- ,= e2 q^ B] H- <; $- p> ~; 2* P* 5] |* S' ~> G* T; <% ^} 3s y{ w% I- q^ L* z7 F7 [^ 7* x% d! !q ",
"7r w% q[ j4 g& rG t- x[ :* I' 6! B] s>.|' (..lR y] t- ./ u* e2 8] 2< H- a[ C{ 5] S* y] <; a] w% $- u* v* S^ R* S^ 5= L* 5] 0* |* t* |* =- v* 9* H* x% @% t] m, t6 h  2% t* G- =9 i/ 2k {9 !& ;p u; $^ 7/ i$ Z$ .! d% .& d% >6 4| 53 !& /& 64 @1 8= l% |< z7 y% p) C{ s* |< %! q- k^ '% vD t>.C! Z^ 1/ !& 14 U% 1/ k/ Y& t$ g/ l% O% d^ r$ $^ B[ ]/ L% ]/ |/ '% x% x% g] +% Z^ =< 8/ p] 6l o[ ]< =< N^ w3 L^ p$ 3] S% %9 k/ L% &/ h] ~< =& *< w3 I{ $9 |] |< i$ `% @/ #/ 4/ Z& yO D% H9 y] ]/ w^ l% c< N^ g] &/ ]/ ./ 0< %< J^ }5 c> g] ./ ./ c> =& m/ ,o )% !! /^ P% G: ]& x0 $^ 1/ 2} C{ x^ t! a9 !< x% ~0 e& _% 2/ x% $< g] `^ h] %< B{ ~< P^ Z^ 8' 1/ 7' _% d^ 7* $Q s$  / !< w^ a, <% +% %% !< @% -% a] a, g] I{ 4/ 7] 5] B] |{ g] @/ !< D% H$ h] 1/ %/ n] D% :% 7' {{  < f/ @% L^  < ;/ !< $< ;/ @% w^ d: ~< _% j$ L% @% P; x% o% ./ 3! D{ *<  ! N- =& }5 E' K) L% L% !/ _% `^ d! =< w^ [/ =< L% <% ${ p7 >/ r$ =& L% j$ %< U^ 8' !< _% Z^ L^ <n `^ {{ U^ !< 4/ t! z7 C^ L% +a A6 A$ 7* =< t! X$ z8 <-.K[ 7/ 7/ x: T% ]/ L% Z^ #& B[ |] s$ 1/ B[ c% D% &/ _% :% $* D% 8' 0{ &/ A9 I{ Da %< x> W^ *< <n |] L^ L6 l% G] l% `% '% l% )< g/ &/ Io x% (< c> Ea e% S% KO %/ 6/ `% 0< ;/ (& @/ }t =< -* D% $< ^) +% r$ ,% 6% )> Q% h^ %/ %< 1/ %< p7 S%  ! !< F' Fq ^) w3 6/ c% r$ g7 S; ^* A6 r3 gI 3: CR <* Y* C{ y] h% {! [t p] _} C* D^ 2= wr L} D} [4 F} S; |% b$ K$ P% '6 >^ H$ T0 P# ($ A$.64 7$ 4$ Nn u>.n* E* ;! <> v>.!= g] O* 4! m^ E^ y] A- ]* x^ |* `* in 6! X* g] {* {* B- I- fk t] y] |; A- t] |* u= '= u* m^ {* i% |] Y* {* u- %< w>.s. x>.Y^ p^ S9 i% v^ o% U^ {^ aN 7' g] p% %C ",
"pA n> x% r% .5 O: K* F^ t] h% p) j] B{ G4 C{ l* ,= 0* o] y] k^ m^ =! +[ ,= E' %< S9 P^ 0* p) += O* ]= |* S' 8] c< N- A- += u* D{ v) q^ ^= C= q- h% 0* x* ./ D* 0* P# .' R/ 8] $- $- y>.WK $$ A& i4 ;; b$ 3% w3 6% l& L$ !% w3 $$ _4 @1 W% Y{ X{ R3 D] g] {! N* $- I] y] D^ u> t- 3] V* |* wh z>.Y& 0{ ,% Z{ .^ Z& t% |/ +% H$ `% R^ p7 +% g/ F' B[ Z^ x% p7 |] H$ -/ |] =& g] _/ =& 05 M^ _% F' L% t! F' ${ &/ $- L^ U^ W^ ${  !  ! =< @% ~< m% {! f/  ! c> /% :% O% K^ y] ]< (< L^ x% m^ $% N^ :% s$ {{ s$ x^ ;% Q; L^ h% 0< P^ |] f/ ;9 s$ |] b] 3! ^6 /3 Q# +^ $& =$ Dc R# !< L^ J- 2} }5 x% m] v> H- @/ L% L^ x% n% x% B] 1/ t! L% Z^ h] H$ |] S% =< E' p2 b] x^ t! 8/ d^ ~< I{ a] Z^ P; N- t! x^ i% !< y] z7 p) |] P^ g] 4/ Bn -% !< O% ${ B{ s$ g] ,= :% :< #/ w^ L% h] x% _% x^ q2 p] 2] =& |] y] d^ '% |/ }5 T% ~< >% @/ d^ s$ @/ W^ |<  / s$ _/ W^ `% M% d^ S% y] _/ ${ y{ u% I{ iP c> U^ '% $< [/ x% 2} br <n D% 6/ S% |] a9 |] `^ k^ w{ u% +% ~< 8/ y] @% =< L% |] n] (& t- O% ;% P; B] o% ($ 18 |4 P% 9% K$ L2 /[ 3] 5] |] ^^ l% }5 |] ${ c% =< +% L% (7 B[ =} l% >/ '% 7/ Z^ _/ >/ Z^ d! w3 w3 </ vo w3 o^ /% !< j$ @/ ~< P^ a, 4/ !< l%  ! b^ F% B[ !< _/ A9 D% F' 5$ +% $9 _% $< b$ N^ n& <% t! O% E% N^ K^ (& _/ 4/ r$ 6/ r$ `% _% '% r$ .% Z^ a> <% ;9 <% F' ,[ i4 7' w3 V6 =| A>.V& t- n- k^ A$ %! :% q^ t] K) c< S^ _= -$ .| Z' )4 3$ V; *5 +^ n[ {% K$ $* @& <% Q% X$ iI U{ ($ >] xc 6% D* /= m= I= 1L (! J^ U* Q; |* k^ n- p) 5] h* -{ A- p) <* 9* S* 9* A- += C{ w- u* {! x^ R* K* Q' :* a, /; m/ H- w% 7' a9 P* b] :* =! {! C- H- P^ j= oF Y* >< a* O= I/ }] f* {{ ${ U9 ",
"jq _} Z^ #] &5 L: a] += q^ R- o> 2* B{ 2] C* v> P^ c< O* K* 3! s$ x- i* u* (! {{ y] 1* }= |] 5] 3] i] A- d9 J* K* u* 0* w* << n- 0* H- =- %= {! g] {* u* ]* H- <* C* j$ Nx T$ i= B- B>.WO C>.@$ () i4 B; t% n[ }] /% 6% >6 d% b^ b% ,] b{ )% @5 64 N< e= p/ S) y% 7* += H- 5] O* w^ m] u* r3 Z= tZ 7r _^ b^ j{ B[ o$ 2/ J) q[ o^ l% =% @/ 8' .% 7/ L% @/ j$ L% 8/ w3 I{ '% 3] L% B] P; |] U^ ;4 j$ L^ s$ h] a, .% /) +% ^% !< `% _% x^ 3] A6 B] a, %! $< L% U^ =& x% ~! 8/ |* L% >/ KO |] U^ @/ y% c> 4/ ./ I{  < 1/ x^ Q% |{ 8/ y% U^ s$ @/ 5P G4 ^^ C2 5% M$ E$ =e ]S ,< >% y] p$ U^ $9 w% s$ =} x^ C^ |< t] z7 $% V*  ! f/ =< s$ %/ W^ w^  / U^ ~< {* z7 >/ U^ |] h] Z^ 3] 8' {! ,% _9 _% =< =& /) U^ x% :% /) x^ B{ C^ B{ m] u$ &/ ;% ^/ R^ K^ U^ B{ x^ C^ S^ '% @/ 4/ |] y] 2} k/ >% d^ _9 S% :% _% C- 6/ _% y% @%  ! W^ d^ R^ S% Q^ N^ m^ m^ {{ B] E' C{ w^ b] -% z7 0< 1/ 6l p7 g] 7/ O6 &/ -% ./ x% h/ |] f/ 3] x% @/ ;% 2} s$ ${ I{ x^ ]/ q2 >/ 6! D^ P^ y% '9 m/ O% N^ 3! &/ =< @% L^ _% -< ;% m5 5p B% d% (^ $* c{ ]/ ;% 6/ =& `% +6 w3 +6 S% '% F'  / !/ m% O% ;4 L6 )r `% =< D% D% h] t! <% &/ Ea ]/ !< 4/ p$ n% =< ;9 6/ L%  ! z7 o$ S% ;/ F' =< $^ :% b^ w3 </ S% L^ ${ $< +6 ;4 +% b^ b^ H$ _% p2 |] @^ 6/ %{ p$ t% !< 4/ +% F' ^) )r H$ @/ o3 )< N^ un <% 2} t! {[ r$ D6 '3 D>.$4 x- i% I{ (! <* w* y{ 3] {* C{ m/ I* ]& T& b4 B& {^ S; W$ >$ P# 6% 0% $^ (% r$ w3 Q# j8 {3 0% 5& MQ i7 P* *; Q) }o E>.`% @% 9* {* x^ {* -% A- 9* ]* -% 0* x^ ./ H- =! v* 7* ;% S^ I- 6* q/ m- $- O* (* u* 7* += /* }= {* ./ $- a[ m= 8] /* K*  = |* B] c< j] U] |{ 8] _* x^ k& M7 J] Z^ ${ RK ",
"pA N] 8/ hn -] u2 7' qq m^ $- (* =- v> w- 7' <* g] /* gs s$ {! S^ m] t^ <* S9 K^ B{ {{ N- w% x% D^ A- %! '= P* j] S^ v* <* B{ x^ D{ x^ {* z* 0* {* x^ (* i% K* K* 6* ./ p7 F>.M$ ]* (! != ]/ J4 y[ *] m4 w= =} 6% 5$ $& r$ .! .! >^ W$ 64 Zn 2% W% :4 C3 l* {! t! H- ./ 8* w% ./ 3] h] $- m^ )! G>.F# X6 '^ p{ a> K9 l% O% (& w3 ${ =} 6/ <% O% =} d^ (% 0/ #^ 5$ =& A6 %/ B] &/ !< >9 c> $< 6/ (< ^) L% e% @% 1/ I{ 4/ U^ 8' E% o^ /% S^ 6' h] Y^ 4/ h] =< h/ |] w% 3] ,% <u E% p2 ]/ =< h/ D{ 8/ 2/ B] g] 2} L%  ! l% w^ O% Z^ |] s$ t! (< u* ^^ Q: uh 7% $^ {$ NO ,^ ,< G] &/ << r$ u* 1/ 0< V7 @/ ;% ;9 ${ @/ y% ;9 @% 0< _% _% #9 @/ ~< @/ U^ 2] =& x% 6% z7 !< :% %9 ;/ S% w^ bn :% p7 m/ @/ $9 !< C{ w] |/ '% !< !< '% )> L^ L% |] #9 t! =< @/ _% F' x% 05 3! U^ _% t! I{ ]/ (< t] %! Z^ %! Z^ =< y% <% a, 5] -% (& R5 l] u% a/ ,= P^ L% B{ $9 H$ :% )> 4/ _% 3] %/ !< _% _% <% N^ p7 x^ j$ z7 <% >/ t% t!  ! 2] A6 ;% w^ 89 $< =< ~< _/ @/ ;% h] U^ 1/ i] 2/ p] _% L^ `^ g] @/ !< %! }5 '% x% F' o% q7 48 /& 5$ w6 3% c^ _/ @% v$ c% >< t] t! ;< =< 7p 5$ `: l] m% +% 6% |{ x% N^ p7 -/ +% w^ '% 8' e% c> ;9 8/ 6% </ @/ #/ _% [/ U^ g] S% `% F' ;9 r3 |] ^) @/ +% H$ $^ B[ O% =< -/ Q^ $< @/ _% 4/ 0/ =& )> e% $< H$ +%  ! r$ ^) p$ KO  6 ${ =& m% O% H$ o3 #& v6 [] 0{ .| /% .& <@ C/ B{ J8 m^ |* H-  < t] B{ a9 i% 5] (* &* D} :4 N& Y4 Y; F} Wf f$ 4% o[ d% F6 $* w3 .$ HU t: _^ '| H>.S# S] 1> Q' R- I>.D% @= H- %! -% d= -% _= j) /* Q* V* V* /* v* ~0 <; 3! N* 9* T^ 1* 9* g] K* 5] 5] m^ S' <* B] @= C{ w* P* z7 K* 4* m/ 0* P* n] y] o> z* y] {* u* 3] u* a] I/ zo Z* S% d^ 0X ",
"8N w% 1/ u} :4 55 J] n- C{ 0* +[ O* v* E* e2 q- ~> C* D^ _= H= [; C= u$ N^ v% P* D* p) v* 9* U* H- x^ I- w% w* =- m, N- xu p) q^ p) k* R* <* m= x^ u* N- x^ N- B* t] 9* {! 2/ J>..* Q- T] ,% 1o <S {& M< Y% 0* h^ $& *^  7 P% H$ K$ >6 7/ {] oc *5 +] sc R3 l[ {{ U^ t! L% 6! w% (! s* u* E' l] 1& 7{ [$ zv (0 w3 B[ 6/ ;9 $< Q% w3 J8 =< c& r3 =} K{ (& k/ Q% m% !< r$ N^ p7 W^ Z^ Ea [/ U% (< g] $% |] S% ${ S% g/ !/ @/  ! $% |] 1/ l% g] 4/ |* x^ I{ ${ /) '% &/ :% ~< >9 H$ O% i% B] |{ ^/ 2/ B] D% }/ ^) i% D% e2 =& s$ U^ ^% %< y] H- ,[ Y< d% %^ %% S0 to  7 R^ ;/ y% z7 t! O% B] j$ w^ a, g] M% !< a, m% x^ L% 2} {! 1< U^ :< L^ {{ M^ N^ @% J- ;9 ]/ U^ 1] |] 1/ ^) _% ~< p7 0< A6 t! 1/ 7' `^ !< %/ 7] _% s$ 7/ K) 1/ N^ u! U^ ;% e2 U^ 8/ t! ${ %9 @/ s$ ;% a, =< g] ^^ @% 0/ D^ W^ U^ 4/ g] F' x% U^ s$ a, u% &/ ./ @% 2< t- |] U^ x% O% S% L% M% k^ ;9 ${ =< }/ $< L% >/ U^ {! M% d^ =< L% |] S% D% bn |] ;% 3! N^ x% p7 =< 3] B] _% !< &/ N- !< L% x% |{ }5 F' +% 6' =% o3 4] @/ u* 2] 2} |] g/ k$ ts U# g/ `6 F' J< H6 z7 @% L^ $9 k^  ! =< (< 1/ +% p$ !< =& )> 7/ A6 O% %% #/ t% e% =< N^ n] e% O% h] ;9 =% 4/ b$ _% 4/  ! s$ l% O% o% q[ j$ f/ @% I{ =& ^^ o3 ^^ N^ S% p$ l% ${ d! +% =< @/ '% '< `% ,% L^ '% L% =& S# ]< '% e% B[ @/ |] U% l% o3 ]< E% w3 b$ ,| +7 9} My C[ V* C* 2] {* |] y] 6* E' /* u* {* *^ 7} Y4 +| :5 c{ nl K# B# d% 0/ J) W& 7% 0{ 0% j2 N/ )% d| oS i/ Ht q- ,= G= P, <6 r^ u* x^ t] /; 5] z* &/ V7 Q' 2= w% N* N- 5] 0* Y* p] K* /; q^ i% <; Q* J[ 46 R* d* d< K; ]* f= z^ 6! }= /= $- t- N* $- U* x^ 6* 8/ ~r e2 N- H- A- u* Ht Y# QK T^ p] L6 e^ ",
"*4 K) 5] Y$ () wh @% o- w% (* y] -% p^ += C{ p] g= O= ,% == !!  > Y< m} L) ([ `; h{ T] +; 2< u* r; |* (= m^ D* =! H- U] w% <; O= m^ m^ {* z9 w* V* 0* Q' n- w* B* -% q^ u= 0* 9% ^W C/ :- {! d^ -& 6Q [| v5 }$ S) P% ,[ #& T% >^ v6 ^% L$ (6 +$ -| :5 Y{ Y{ N} y% T^ {* v> -% ,% @% S% {! 8] s$ ]< U- ml X# >> !< ${ Q% |/ +% g/ p$ $< b$ <% t! Z^ [/ w3 L% p$ ^) $& e% 7/ [/ l% F' '% mR %/ %% r$ h] $< &/ Z^ !< ${ E% O% t% ./ _% _% U^ p$ 8/ O% E% @% !< '% B{ #<  < x% h] 4/ !< W^ |] =% [/ L% L% L^ !< B6 >/ Q^ s$ h] c> N) e% 6' @/ Q# C2 L< .& H$ 0$ Bc M+.~< t! &/ !< t! ]/ 7/ ;4 ,= t! z7 J- :< m% +% t! <% x^ h] @/ 2/ !< ${ B{ }/ j$ Z^ un t! _% ;9 J- 8/ b] c$ |] r3 =& a, w^ O% $< L% c> Eg x% ]/ =< S% 3! E% L^ Z^ 3! t! i] P^ I{ |] N^ ${ y] h] :% ${ j$ p7 t! `% a, E6 X^ a, q2 =& += =& x% L^ w^ N^ t! -% :% =< |{ /) m3 $9 %! |] 4/ 2] w%  ! |< L% !/ ${ I{ `^ U%  ! 8/ >% J- d! L^ E% %/ /% 3] N^ %{ t! 5] <% @/ %/ @/ x% L^ U^ _% D% !< o% _/ $< 8/ O% z7 !< 4/ $^ W^ =< a, @% D% L^ _% J8 6' *$ )B G& p7 -9 S# f{ :% &/ O% Z^ D% J- N% 1/ >/ ]< y] #& =& o$ $< l% A6 -/ w3 B] w^ n& y% Z^ @/ x% %9 +% +%  ! S% t! $< A6 -* L% L^ l% O% :< <% <% s$ P^ '% w3 T% p7 S# $* l% >/ <% Q% S% H$ D% i$ Z^ =& ;% =& }5 o3  ! o3 d^ 1/ r$ A6 S# j$ 7/ #& w3 @& w3 G6 ,| <] !! m) ./ `^ B{ a, 2* D{ N* w% w* w* I{ Z] F2 y[ () *5 S; m5 A& ($ i$ r$ ^^ w3 ^^ O% $^ 9k Hn R$ h& rs )$ 1* L* :* R= &Q _/ -% {{ u* {{ /) O= C{ (* m= 5] i* << u* 9* |* 0* <; u* w% o- {{ j) h% P^ |* J^ w= 5] Y] x^ f{ Y; L3 {3 V2 ]{ Z; Y# 7= 7' <; J* w- R* 3! x^ 7* |< 8] N- A- n- E5 b> =l j$ /[ fu ",
"=u ~! 8' 2^ '] 6~ t! c< Q* =- B* += o] 7* {* x% L* t- :% V; y4 bU xp {9 L< &* 7& ;] O} /3 eo |} ~; v) k/ t* w* D^ 7* {{ A- v* p) =- += {* a- (! x^ v) $- m= '= n- O[ q= W) n] %! 2& w;.8$ _* (* u$ <$ jR i3 )% >$ y% )> b^ K{ -* q% n& *^ 9% .& !! ,a N& M# q4 m2 /) 3! 5] #/ i% t* 1] x^ B] A$ S# [{ 87 )] Y2 ${ w3 U% l% #& h] $& ^^ p2 B[ c% w3 5$ {! H$ $< D% ]/ D% L^ $* S% L^ '% +% p7 ;4 <% l% F' =& %{ !< S% =< ^% ]< P: Q; x^ U^ %! un F' $<  ! B{ L% ;4 ./ ~/ L% L% =& e% L% )> =& VK m% P^ g/ c> $9 |] _% c> y] L^ z7 =% |{ _[ W2 /^ d% w3 :-.xc @$ !< <% J- <6 =< +% a, -/ `% !< t! (< J- =< B{ g/ l% S% w^ Uq w^ <% _/ P^ =} g] f9 :< ^) 2}  ! r3 N^ r$ L] 3] (& D% w^ !< f/ $9 c> h] 8' _/ ;4 d^ @% 1/ $<  ! L6 P^ 4/ 4/ ;4 (< ,= !< O% c] }5 :% >% $< c> W^ =< L% _/ _% =& 2} $* P; W^ 4/ L% S% Z^ ]/ `^ @/ W^ k^ ~< 1/ g] |] e2 2] @/ P^ 3! O% C^ %{ m% ;% B] L% N^ Z^ U^ B] L^ h] P^ a, e% !< !< C[ !< e% S% 0< f/ 3] ]/ o% %9 <% %/ '% B] t] 1/ @/ Q^ L^ x% s$ z7 d: D% _% 2& B{ B] 3% =& f/ ^/ g/ ,$ jI j% ,[ B[ W$ S< C^ B] `% 0< g/ S% >/ L^ ;/ !/ 2} =<  ! L^ !< U^ O% )> O% |] L^  < l% e% ;4 e% A6 o% W^  ! ,< @/ O% D% |] |< +% +% ${ !< D% o^ l% 5$ =& r$ $< |] p$ e% $< r$ '% >^ )> `% @T @/ =< O% PQ o% O% _/ O%  ! F' A6 E% Z^ ${ H$ U% '% T% .& |] A} |% !! e) S' Q; :% |* a, |< S^ G4 ~< l/ =- Y< )| z} () S; ;* P% Q% 3% Z$ $^ p2 H$ o3 /% .9 $4 !& 14 5  Zt t^ O= Q* E= K>.8' f= N- t] y] 2< J^ P* /* m, =< B] x^ $- i% 6! (* 9*  = 2= `* v> K; 1* O' A- 9* Q* s*  ; D2 ,1 Z{ )% g$ t5 $5 =^ #* {& f{ :; a, 6* @% |* A^ P^ L% K* $- A) K^ B{ M# L>.~-.@/ =} qn ",
"O7 ,% j$ r% @4 &4 q| .} A- :* N- n- 2* a] |{ u> O[ #< #3 )^ P# pc Tk :5 $* .! x/ @6 X6 |[ S; n= V7 O= p) A- 9* l* 4- l] <; w* l! 6! K* q^ l* :* L* w* `= J^ u* |{ |* {{ (* o- $- J] ^) N> U# -; w* 8' L& r< m} j% a$ #% ${ B[ w3 Y6 %^ e$ ($ -* *& W; *] )^ 44 := Z^ m, m] x% 0* 5] {! x^ m/ e2 O% [{ G5 >$ G2 =& [/ 0% O% #^ d: >/ p7 D% d/ 0< H$ [/ !< D% ^^ t% 2} !< F' S% Z^ j$ D7 ;4 l% S% -* 7/ -p D% (< f/ ${ 4/ O% p$ :% 8/ ;% &/ 1] t! :< i% L% Z^ $9 L^ @/ 3! g/ f/ U% !< p7 }5 (& >/ L% F' Z^  < ~< @/ _% d^ d! g/ u% m/ G6 %1 3% >$ *^ r{ M>.v5 B{ t! ;% s$ z7 {{ m^ N^ 2} ~/ U^ &/ 3! F' B{ B] }5 I{ $% g] e% l% /) ;4 6' N^ d^ Z^ %< |{ /) #/ c> f/ &/ ;% L% :% n%  < ${ h] p$ L% Q% d! 4/ a, P; g/ (< I{ :< <% W^ _% N^ @/ N^ f/ x% B] c> y] g/ )< a, }/ l% N^ $9 =& M% 0< +% N- ${ /) -* D% 8/ U^ F' L% x^ o% w{ `^ m^ w^ D% D%  < W^ >/ x^ '% !< @/ t! s$ `^ W^ 4/ |{ L% ,% s$ l% |] @/ }/ <% L% a, s$ !< I{ @/ a9 sj L% U^ >% S% x% a, Q^ $< x% H6 vo S% _% m% 8/ y% _/ p7 z7 s$ =% '% h] l/ O% =} !< k$ O#.+% 3% A5 Z{ 1t i] /< $< 6l Q^ c> L% O% 3! S% r$ d! n% F' @/ (& <7 7' !< O% 1/ /) D% |r H$ U% L% m% U% O% '% !< _/ w3 >/ =& 0< B[ m% @% $% $< ^% (< ;4 H$ $^ :< n% l% L^ 7% r$ D% H$ =% 8/ Z& S% *^ t% +% B[ 7/ ~< g/ !< D6 F' L% u% 2& $* Q% /^ 0/ 64 ;6 B/ l~ -% 7* 8< s$ 1* u* += ,= o> |< 2] 73 Y# )] e{ d& w3 3% E$ P% `6 n& $^ Q% {^ E~ U{ g& N& r8 i7 L* Y* f= g= N>.&/ m- 7* t] w* 8= n- R5 <; m= B] K* C* :% F] R* C{ C{ %! != I{ t- v) 3] p> q^ Q' G- $- z= S; 5& n$ f$ i{ ^=.R$ +3 !3 S& [^ B: Z; 8= R5 v) 9* #/ 2* B{ a- |* u* B{ 3] ($ ;] <* #/ $< O>.",
"Ud =l =& B& )4 $v N- w- m^ k) 0* 6* >9 S' $- l* -f R3 !& _] 23 M- h* &$ k4 g2 Es B| c{ -^ L< >> <> B] {* m= '= m^ {* /* B{ d= {* 7* S' A- 0* p) ]= y% u* @% E* {* <* h% P; %! w* |* |9 p$ P>.c' d] g] /) S# Q>.hn  5 {9 =& ;9 o3 ^^ n& p7 n[ k$ 8} h| X< j%  $ ^= H* 2] d^ x% Z^ E'  ! H- i% 7* |] _* tc V$ Y; %% +% $< $& -< +% U% i$ 1& !< n& $< E% Z^ F' +% L^ n& U% +% [5 w3 |] H$ =< !< t! F' )> F' 6/ g] A6 @/ '% t% |] %< !< ;/ 4/ a, u% D% C^ 1/ k/ g]  / #< k/ t! h] N^ )& ;/ =< ${ 1/ 6% |/ $< !< r3 (< =& U^ |] L% m] ^^ p{ Q% q% l% R>.Nc d%  / d: 8/ k^ a, !< ;9 8/ L% >% Q^ D% )< w3 |] )r S% Xo B] ;/ f/ q[  / &/ d^ $9 w^ S% O% ]/ V7 s$ O% d^ $% +% X^ 4] d! C! O% ]< ^% 0/ o3 '% S% _% H9 p7 n% m] 2/ |] &/ B] $< (% 4/ `$ 8/ w% m% z7 6l t% Z^ (< }5 2} $% @/ %< }5 o% ^) M% }5 p$ %/ L^ U% $< L% a, -%  ! L^ +% |] s$ d^ 2} =< D% `% '% $9 2& B[ x% !< B[ s$ _/ !< U^ <% |] s$ B[ |] @% N^ @/ e% u% b, )< =% ^) <% z7 '% 7/ $9 `% d^ h] w] A9 t! |]  ! %9 |] a, L^ @/ +% `% &/ =& ]/ O% ${ O% =& c% B{ P# :~ h^ V6 i$ v5 S3 (% B] g] b$ '% '% k/ 6/ 7/ m% }5 </ @% W^ N^ _% =% [/ @/ 7/ 6' @/ =& :< E6 @/ <% `% =< =% ;% $< |] '% W^ D% |r ,< B] ,/ d/ (& b$ $^ -* B[ o3 &g i: c% *% g/ =< S# d! $^ K# #& q2 A6 $^ <% p7 !< +% +% 5$ _% $^ r$ r$ *% E% Zt 0/ D} !^ )3 4~ ~! ,= )> G4 0* %{ x> @% ,= J^ =& Y2 S& UG w& !< ^^ -& $& P% Z$ n& K# `6 T8 $4 <] i4 S>.B[ << 1* q* 3= T>.[/ 0* y] v^ 0* 7* :% w- v* P* #9 n] (! += I{ :* x^ u* ]* U] {{ C* w* Q* U* 7* C* K* V7 p, S; o5 K# +3 Iy S>.&& }^ -& U>.4a 04 !^ .$ A3 jo v* U] U* ./ @% @[ 4= 5] 9* d< &* yE '{ `% F- 35 ",
"K: /) x%  $ /& o, [= v% 3] g< J] S* 6* C{ 7* g, S< Q# b^ T{ .~ h| T0 5% /} .& #& S; V>.`2 .! )% // w- <; f= B{ {* $- '= =! %; J^ c< >0 A- u* a[ K* d= i% N* += v* m^ y] <; n- m^ {* 6* %! w3 Mx J| != g* N- @$ C< ]5 :5 b% a] r5 `& y$ X$ 1$ =< !< )^ E$ 3% q- 0% %{ ,% y] x% $9 :% u! N- r3 U* z7 '= k& ~^ /3 Q% *& F% P# !% =& E% 7/ u% n& _/ p7 +% $< B[ P^ 2/ Z^ $^ $< 6% L% S% g7 +% /% +% r$ Z^ g/ >/ x% $* ~< |] (& !< =& u% 8/ (< <% .^ Z^ =< ${ +% D% B[ F' +% 3% :< F' f/ 5$ #/ l% 4/ 0< c$ 1/ l% `% S% M^ @/ |] ;% j$ +> L< 7$ #& h| F< +% =& >/ @% _/ o> T% B] g] si D% &/ =& 8/ P; '% ^) >9 (< ;% M^ N^ K^ |] 8/ j$ O% C[  / d^ z7 ,= !< (< t% d^ =< 0< a, ]/ &/ (< `% %% W^ '% $* (< U^ t! &/ u% 4/ F9 r$ t! $^ |] >/ t! @/ =& /% =& D% E6 m% On s$ y% I{ u% `% z7 h] U^ @% =& o^ w3 O% $9 t% S% =< r$ L% N^ }/ @/ q2 $< 4/ |{ >/ r$ t! 3] @/ &/ Q^ Q; L% 2} L^ d^ 4/ @% }/ _% 3! w^ >/ sj =} x% |] 2} E% '% 4/ <% `% 05 =< L% =< )& m% F' P^ )< 8' w% `% Z^ %/  ! |] _% Fq j$ H$ s$ 05 ~< |] 1/ H9 /) S% S% !< `& <q J) B[ b% #* @1 ^) #& _% p$ %% N^ n% 4/ _/ -* s$ |] 0< +% 0< Q% |] O% $< +% L% !< u% sj (< O% 7/ ;9 L% =< O% n% f/ <6 ^% 5$ f/ `$ u% U^ t% a> $& w3 w3 +% _/ $* Q% $< S% r$ P% l% i$ `% u% u$ D% 8/ p7 (& H$ !< w3 (< `% D% Z& L% <% D% d% g7 w& b> Q: r) +R )> C{ ~< B] y] 5] $< A$ :% '6 ${ }] s{ t% Q% Nl l& 9% 7$ IS j% W$ cl r% (6 /0 jS p7 '{ G9 F* i= W>.$< -[ 0* =! V* j* 7* ./ ./ x% E' 5] 9* t- ,= K* a- u* S^ K* _= q^ x^ 6* u* ]* S^ )! J* f= N& {^ $$ $4 3-.h{ .^ *^ <% E% -$ ;$ B< +5 b^ 59 lt %! #% {{ [{ Y* Y^ y] w- x- ./ *$ .! 7' x% t$ tU ",
"wU |{ @% 64 t} P! (* ]* m^ B{ ^) V* b] u* /* Z- ^3 B# _$ 39 y2 E[ i$ d& A! H$ K$ ^% ~[ Td '[ l& g{ r; C{ v% m- w* (* q^ 5] += += (! h% =- Q* H- -% u* ,% v) ,% a] u* t] o> B- B] $- C{ b] J* B# d;.3^ t* w% 7] P# My 14 t5 4$ H- *~ f) R= K' U* iy [] T% 83 K! |] Z^ /) {! :< z7 w^ {! w* t$ @% ;4 K* v4 V$ g{ 7/ B[ [/ [$ 7/ F' ;9 +% 0/ r$ p7 w3 '% [] L^ =& r$ d: S% d: $% $< w3 !< _/ $^ e$ H$ t% D% a, }5 r$ N^ W^ 7/ `% F' k/ (< R^ L^  ! =< S% $< ]/ r$ u% '% g] ${ 1/ O% W^ =% m% !< m% =< Z^ |r |] <% @/ g7 S% g] +R S< zv 0% M! oc oS w3 $9 s$ ,= x% A$ w^ h] @% l% D% `% $^ .( O% 4/ ^)  ! ${ $< HB c> O% P^ J- (< p$ I{ :< W^ $9 }/ N^ u! (& W^ ;% `% :< ;/ a, !< x% o^ z9  < ;9 ${ n& e% !< Q% (< (& @/ _% $* S% a9 1& ;9 :< )> o% `% Ea $9 l% A6 1] p] l] y% t% xC B[ p7 K^ w3 I{ r$ h] ]/ +% x% 3! @/ :% 2} ]/ h) h] &/ B] 7' s$ l% g/ O% ;9 ]/ x^ Ea z7 g7 m% o% _/ =& =< 1/ z7 =& i$ X^ H$ |] [/ ${ L% w^ D% H$ |] J- x^  < )< $9 8' H$ >/ Q6 L% U^ `: ]/ B[ t% !< h] D% ${ a, ${ n% n% h] .^ [/ O% ;9 F' `% 7] Z# ,n s{ 06 -& .& b{ 3o x^ ]< o^ p7 1& B[ L^ Wf =& A6 w3 =} ]< q[ |] w3 !< r$ L^ N^ e% ]/ )> ]/ O% B[ 1/ p] @/ 1/ g] (< u% O% |] o3 m% ^) !< W^ S% 6% #& <6 +% -*  ! k/ =} 5$ b^ p7 O% D% 4/ ${ L^ p7 D% <% -* n& cY _% :% +% `% '% S# 0/ >^ E% 64 s{ t: }> l/ q^ B{ // x^ p] =< h% 9a 6/ j] :* PP (< :^ .& <; uc o7 o7 X>.uc j= y$ [$ W: Y>.4>.A- <* x^ m/ Z>.Z^ w- S) 9* h% *; *9 B{ N- x^ w* K* V7 a] v* N* P* P* -% w- B] O* Q' A- C9 I- $- =- t* y% 7{ Z; B# ($ `>.&7 *& w3 k/ l% n& !% H$ w& f/ .! b^ V; N{ g= P^ J] i% += {{ k* N* |] 95 hl lr h] .^  ,.",
"f^ @% d^ i4 b4 +Q 0* d= J[ w- t] (* Eg 5] 7* si i$ M! }$ U* 8} W$ Q6 $& b^ $^ 5% r$ K# s~ =e <$ !4 S] A- K* @= /* 9* v* H* ,* w% q^ ,= b] n] @% $- C= += 3* C= v* C{ 5] $- v- j* B{ a] O% N- z= d/  _ P& }} B] B{ ~] .,.<& {% >$ 6% 0{ t% @& J$ Y* b$ lq +,.V$ g] h] 6! x^ t! !< y] `^ r$ 5] t! f% K* L8 |[ j{ !% ,[ n% 0/ l% =% 7/ p$ [/ H$ ^^ 3% $^ =} w3 6% U% [] 5$ a, U^ =< l% F9 ${ =& b#._7 O% A6 R^ o3 +% F' t! U% a, S% L^ F6 4/ F' K$ =< t% <% 7/ @/ D% r3 g] 4/ O% 2} `% %9 g] ]/ 2/ =& 4/ `% O%  / H$ D% )>  ! F2 )^ $* r$ ,a Bc l& |] ;% $9 x% @% {{ !< d! |] 0< 6' |] @% w3 :% A9 -% $9 l% =< o% R^ C[ 8' =& U^ b^ l% x% ^) =< @/ g/ !< m] <% U^ t! |] =& @% |{ ~< Z^ 0/ V7 m] :< %% ~< S% w^ ;9 JO t! D% _% b$ ${ !< ;% p7 ;9 %9 `% l% k/ <% F' L% )> o% k/ o% f% (& D% 2] U^ e%  ! p2 }5 :< (< @/ //  6 g] S% KO s$ d^ W^ C* [/ z7 e% F' }5 &/ }/ m] m% '% r$ @/ x% F' n% !< l% &/ )< ^/ :< $< %% W^ <6 h^ 3! %{ @/ =< ~< a/ L^ `^ D% [/ =< !< H$ =& %9 d^ l% .( '% !< D% !< [/ )> 4/ M% t% $< @/ 6% c% L% t% !< (< b$ M' b$ P% @& 1[ /3 q/ =& 7] L% %< ~< <% F' |] x% L$ '% L^ k/ L^ (< $* _% u% D% ;9 7/ _% [/ '% N^ <% -9 <% ${ F' !< L^ b$ (& m% 7/ D% F' #& H$ _/ ,[ d% S% p$ 5$ (< S# <6 </ $& %% P; +% +% =&  6 n% 0/ F' =} )< L% D% X6 7/ %% f% .^ $^ k/ ,a [^ s! r= l] y] x% x% _/ a, |{ 7] d^ U^ w^ o% FQ |% G& /} $^ }] S& =^ f5 0% b^ z} ,> T>.f: 9* 8* E* p) @,.ia += t- S^ -% y% U] a] G- ,% :* {* a] {* j) D* {* P* (! z* w{ I- p> 2} w% :* S9 += v) ,o p) S) U: _[ 6^ V= J7 #,.$^ (< E6 b$ <6 0/ ;* J= H/ 3% {& -) K^ s- p) $- `* += G- 5] B] v& 06 ,= ;% [] $,.",
"~q ;% 1/ J/ R: '~ l* (* 1* w% y] C{ d= w) w% s%  6 6% G4 v} s{ +% h^ ^^ A6 A[ -6 <% 0% #] $< g7 '[ A* p) V* (! u* h% $- n] 0* ,* K* N- x% j] v% C* R5 2} += j- u* q- ;) y] :* S^ S^ S^ c< 1* ]* N- *g %,.=e v% |{ +9 >$ l, b= !; 5; o' d) @) :> hu 7;.hu Ss 7] _% J- {! :% w{ @% o> ~! {{ `$ N^ sj |{ G5 )% >> $^ r$ 3% Z$ o3 q[ <% o6 e% >^ n% _% +% `$ _% &,.O% !< S# u% <% ${ /% d^ ]/ Z^ }t ${ +% -* (< N^ o% d! b^ =& r6 ${ i$ ]< [/ p$ a> r$ b$ e%  ! O% i/ ;9 @/ S% Ca @/ h^ =< $* &/ p$ #&  ! ;% m] H$ /) !< g% S; 4% T% V6 I@.&M A& @/ Q% N^ @% 1/ N^ !< $< N^ 05 <% {{ N^ p$ _% $< ]/ w3 (& !< 8' N^ 8/ <6 |] @% W^ O% =<  ! 4/ _% O% +% +% O% $^  ! l% p2 $^ +% p7 +a !< [/ L% d: ^) -* ;9 )> !< *,.O% '% U^ _7 K) O% !< `^ e2 =} B[ +a '% ~/ $< A6 (< L^ 0/ ]/ e% p7 [/ 6l e% o3 ${ y] !< _% (< t% +% =& |] w- ]/ O% D% _% P^ !< z7 </ _% n& !< g7 `% _%  ! *< D% n% W^ $< =< ;9 _% )> =< (& 6l d! B{ L6 @/ &/ j$ O% $< -& 2} _/ :% =& -/ p7 4/ O% D% =< }/ t! E% i/ l% A6 Z^ x% /% <6 1/ F' ;< C[ m] S% /} 05 ,[ :< Z$ =& ~O ;- ;] 7/ 6% {O  > /) ^) %^ w3 '6 t% Z^ @/ x% `% +% ]/  ! n% `^ ^) g7 H$ =% :< ]/ ;% U^ s$ a, }/ F' o% c$ (& ]/ g/ P; +% S% d: E% $^ x% +% VG <% K$ O% p7 )r (& $^ 5% W^ ]^ l% F' O% '% b^ +% O% o3 L^ 2& p2 k/ <6 p$ B[ U% $& 5$ <% L% 5^ b% oc /> q] Bs (! x^ += {{ Z^ y] (! `% 7* ;% $< .( =,.2+ P) f= x* v) C{ R! +f T  -,.%7 (! a- i* $& Vx &* g] /* A$ |* j- U^ 5* += V* H- $- w^ m^ O* 2* |* v) m- z* K* D^ D- `* u* w- {* -% =! S9 q/ w^ i$ o[ =} K9 3$ 8' p7 =& e& o[ Z^ %% i$  ! (% Y$ o3 7p _x ,* m= O= 5] {* {* y- d* p) 64 os |{ C^ /[ jc ",
"$R ~! {{ k3 D} C~ h% a- w* w^ l* S^ y% <; y% &*  6 n% ^[ u5 ^6 5% P: 5$ */ $^ A[ b$ s{ J/ 3% @/ b^ t> 7' y% Q* B* G= 9* u* o> B] s^ K* x^ g/ w* |* w- b] t! {! v* {* P^ -% c< L% ~* += q^ (! c< i* 6* V/ ]#.7^ C{ P; $% j] [/ C/ BK H# j: H# g6 Y$ e$ x> B{ w{ x% @% B] J- '= ~< y] j$ @% %/ j] <% S* g4 %] G2 6' d^ 2/ /) ,= Dg N9 B{ X^ m3 C{ 6* C] j] |* x> ,= a] S* T] 5] ^* K* Z* y] 0* T] =9 w% a] m* O- v* h* t* V] f* d] U* ~* l* g* )! f* D- n> t* 0- *! U* ){ ^* V] H- I] d] j] E* ^* 6! J] I] ~* 9* H-  !  > !^ P% -$ v& F/ J) H* P] a] 6* Y* 1* )! U* ~* 7< u- d* dz t* Y= <; ,* m= Y) u] 4< u= ~* .= '{ :; G- r- {w C{ V* a] ~* X] t* M- t* x- I] )! 1* p) 6* w% '{ '= a] '= $- P] 8] ^* 7* u! 4* 6* u] J- _* p) E* j] Y* Z] <* k* h* z= E* '= S) 6* '= E{ p) ~! '= C{ h% e* 1* t* N] g= S* h* e] )- u- #0 C= Q* ~; E* u= z= %= E* O] H- u$ 8] T] f* T] V* w% D- H- _< D- V* d* 0* N* 0- 9] J] <; a] a] b] I] f* z] ^* d* `] t* t*  ^ .t C! S* h* V* d* '= S* ,= K) *; m- c< 7* C{ 4< L] p) |* w% u* ,= _< C] |* S^ 7{ |< S' %V )8 Y$ o3 0/ '6 ,3 w% h* S' @= Y] j] E* :% x- |{ U* ^* 1/ Z] 6! M] m= y] {! F] w* ^* x^ t* T] /* y] H- 6* 6* J] o- M) Z* v> I] S) S) n> x^ C[ p| E{ K) w% u$ x^ %V v% i% 6* j] ,* (! U* Y= U* -% ~! 6* ,= J] v> u* ./ z9 x% h] #& S% 64 s{ NN 8= 1] 8' rZ x> N^ _% )> $9 3! B] (7 ^/ `% %V 9% C: M& 5>.T/ !] ;& 0& <& f% t- S9 a* f= {` ;,.5$ h% K* /* |* 6! o- B] v* x% {{ a] -% <* w% v) << ^= ./ d= I' J[ `* <; N* @% m/ f= M% @% c< t! u* -$ b, S% t$ ($ p$ h^ Z& F- p$ )> r$ +% [5 S& 6% kc 2/ #f x^ :% (* j] 2* A* I- l] m^ G% b> 4* #/ ,/ >,.",
"!a // <n i4 v} /~ ]* p) 7* v) a] v- E* {* j] o% D' :% T] k& 6% p7 >^ O% Z^ .^ K# r6 _[ 7$ C/ /} %^ j6 i* v* w* 2] x* t^ i% {* (* {! w* 8] q^ v^ V* (* m= l] :* R5 w^ b] D^ Y* (! w- `* A$ $- Y* += {* M- &% =, o: P* w^ 3o 6] `^ e2  / E' L% C{ x^ O% {! L% |] x{ t3 `% %o $< u$ j$ l/ l6 6/ #/ p| _[ .! }] .> 83 M: gI C: 4^ m} '3 Q: `2 F2 U2 H: @s 8^ Z2 Q2 /0 p{ ;3 H: `2 '3 `2 g2 M3 S8 '} 8^ oc g2 75 {0 83 ,3 '} M2 $3 `2 Zn e3 x/ P{ q: M: P{ +3 m{ N< Y; X2 X2 sZ  A b{ 9} T2 G2 p{ o{ N< e{ $3  > S; J3 O} &* n$ /} i% w- q4 +3 Q3 e{ c^ GP H! B3 >> e{ q{ Z; a{ g{ e{ .> g{ Z; S; V; a{ ,,.h> c^ B3 U; a{  > Z; Z; `; X; a{ P{ Y< mc ]{ M2 a5 #6 Y; Z; k{ a{ e{ @> Y; $> {0 'u Z; {0 c^ Z; `; S; >> T; c{ `; `; `; S;  > S; Z; k{ `; S; S; S; `; `; k{ B7  > `; S; `; S; S; S; S; S; Z; a{ Z; `; Z; Z;  > Z; c{ S; T; S; V; V; Z; +> T; S; `;  > Rp U; g{ o{ W; Rp >> .>  > >> `; `; q{ S;  >  > `; S; O< Y; S; G2 S; V; S; S; Z; S; Y< g{ V; S; Z; U; Z; V; >> f{ c^ c{ X; `; c{ `; Z; S; S; S; V; Z; `; S; p{ Z; +> c^ (0 H! p{ S; v} c{ g{ b{ H: a{ `; S; S; S; S; S; V; Z; Z; S; S; m{ V; ~9 Z; S; a{ S; S; S; S; `; S; Z; k{ T; S; S; Z; Z;  > g{ k{ S; S; S; S; S; Z; S; S; c{ S; Z;  > S; c{ e{ +> n{ X; U; k{ U; >> k{ `; S; S;  > >> S; `; c^ c^ Z; |6 c^ a{ Z^ S& F' |= w- o% _/ M% !< ;% h] D% _q I{ /) d9 =% m] L% 2} /) =& w^ 2& '% `^ U^ @^ B{ $- v- x^ ',.t% :* F* x^ O[ 3] J^ {* D^ C* 6* [* '= P* A- H- O[ n] v) `* y] {* (* i* B{ k^ <; x^ a] w* /* {! L* {! $% M7 D% 7' U7 @& `% ^) h/ <% r$ 7/ S% t% ]5 r6 g/ .& ]-.+= '= w% != <* w^ w- .= t^ W% nl %{ !< )> Vd ",
"E$.-% ]/ Z{ e5 =^ N' += a* m^ m= i* C* 7' H- aC pc b, U{ C= d% F' o3 c% /% g7 #< Q# X6 zh S2 %7 d| 8~ x^ O[ W) bo P* c< x^ |* z{ (* {! 9* m^ H[ T] w* w% a, y% ^= {! N- /; 5] {* <; u* =! w% 5] t- ./ z7 S^ &* +' j, 9& p7 O- d] 2} r2 F] P; 6] w^ h] g7 p| 8' J] ~0 S^ ,= 7' ^) u! z^ (7 @/ j$ C* -* S) v% (= m= J- B{ %{ C[ H6 B{  ! h] d^ {{ h] A9 5} %< <% Z^ 8' j$ B{ ~< <% B{ K) t$ J- X^ l] l/ K) :%  ! x% 6' M^ ,= l] t! 3! Q; O^ c> A9 1/ x> C[ m* ~< P^ d^ 7k x^ {! y] 1] %{ I{ D6 x{ P^ 6* B] @% |] d^ )> ,= oh l] d] (! H6 @/ // w^ B] %< {! `% |< 8' 8< kt Q; y{ P^ %! ;% x^ m/ d9 u$ 7* 7' %< ~< P^ 8] |{ E{ x^ 1/ v> 1] t- :% J- @% x^ |< 6* 7* 3] U^ 5] i% ./ y] += |< 1s y] BC O* ,= d* W* S) `' w% g= x> L* V] 6* j] 8] I] M^ 6* t! O- [{ Y* =9 H- := K* v> V* S' v* <; $- :% w{ B] o] o> H- 8] |* S* 7] ,= J] B{ P; 4} a] <u g= w^ p) ,= W^ w- y] J- T] d^ >% u! t- x^ t- t- $9 y^ >/ L] y{ /) '= H- x% -% {! w% ,= c> K) |< d^ U^ 7' ek %{ v> V* o] Y* ,= -% v* 6* U* q^ g= J^ ;% z7 ;% |* lv l] [] @% p) fx )! l* x> y] :% ~0 D= A* p) w% t* <* 4! '= R- u- n> V] n- 5* m* ,= 6* d* += (* N* a] z= i% ~! c* ,* ]* p) L] d* 8< ,* [{ 0* @% >% 3o E{ g] V7 I{ S^  ! |] 6* @/ :% {! ~< 1/ g] y] l] y] >% -% 8] v> ~< c> :% =9 1] j$ !< ~< y] c> t! o] b] ~< w^ {* |< C/ T- o> g7 L^ 1/ {! h] E%  ! |] S% ^) C[ G] -% I] %{ ^/ `% q^ P; @% K; 5= I] <7 ** 7Q ^J -* %! +/ U^ =! w^ {* I{ y] j- A- <* w- m^ x^ w^ @/ (! v- m^ P^ R* b] w% G4 J[ a] C* 5* <; _% a] ~< vn h* ,= ;7 >[ |^ C% d! 0{ #& =} Y& /% n& !% u% Hp 3| !< N/ BS i* n- V* L% 1* :* `* 9* Fh Q2 q5 o] '% P: @g ",
"V5 @% :< Y4 YV W: $& G* 0) K* hp 9< t] ;% -% ),.I# $^ v& Xc ,a J7 r6 #^ O% 7/ -& *& %* I; 3o |] S% $- h* N- (* <; P* x* S' O= 0) p) v* S^ /) S' W^ K* C* m- <* 2] v) m, N* <* {* B{ x^ 5] %! I- f= 9* (* F! f= w^ f= !,.~,.{,.],.^,.A>.Dm A>./,.}@ (,._,.:,.7: m_ <,.9m -_ X> [,.r. >s k( Z#.I, },.a] ,* p$ a, X/ m-.P9 g> lq 5! t: W; S; T; |,.** Oq _0 83 o: ^=._0 5! 75 ~[ ap 1,.6^ ~[ Na 'u ~[ ]{ F2 (0 :3 X2 ~[ 6^ 83 X/ NN g2 :3 h| Na :3 !3 _0 ,3 Q: Z2 p{ T2 M& |$ Y% 3| B/ M& a} {& OG :3 B3 e{  A NN dl 75 :t T; |,.Zn 0q 0R dl S; X; bC ~[ 0R `2 st a5 V` X2 ]{ c{ sn Z2 '} VN Z2 M2 t: 2,.$e Z< '4  A Z2 Z2 '} x: 04 8^ :3 {0 Rp g> X2 0R 5! ]0 U2 X2 :3 X2 gI Z2 3,.0q 4,.n: t: v: g2 9} ~3 '} t: g6 w9 g6 st {0 st >3 h> m{ g> B3 _0 75 `2 qp {o 0q S8 I@.P{ 5,.0q C4 h| 7O UN 5,._0 S0 sn 6,.~3 d{ h> `2 '} x, sn ]{ g> ~[ ]{ Z2 sn 8^ o: :3 ]3 x: ]0 gI ~3 :3 a} '} 5,.{0 _0 w: mT C4 X2 0R W; 7O sn ,J Z2 :3 83 gI TD {0 sn `2 '} I@.** 5! I# .> (0 :& `; +> ]0 >O 03 _0 `2 H/ ~[ +> j> (0 &> g> .> &> c^ &> Hs gI S; m{ mc (0 83 y: 83 ~7 Z2 I# s: 7,.Zn 83 Y2 a5 m-.sn ]{ (s c^ :3 ~[ {0 Y; h> Na qs  A B3 T3 :&  A t: B7 `; 6^ ]{ W; |#.bC k> ]{ 03 a5 a5 {0 G2 `; S; {0 h> 8,.7O !3 5,.Rp l-.0R 9,.k{ -> S; ^0 ]0 z: +3 s: Y; h{ h> h> F2 j> ~9 a5 z: 5! v: p$ Q- M& Gm 0,.a,.{R T-.b,.`( c,.Yx e( '# k# 7m $# Kr &s Q( U( @_ d,.m_ q# e,.|: f,.g,.I> l) w- << G4 [* @/ a- t] K* (! x% u= B{ 1< |* N- %! |* v* (! H- 0* `= e2 {{ 8] w* m/ _= ,= <o D^ J* q= x- 3* {! :- 7& (% %* h,.S; 0< O% =& i$ r$ </ r3 h| ]- 7r ~< 9u p7 5] u= q^ v) K* u- g= H- W2 K$ V: p) &/  6 qn ",
"Vm q/ m] d% `} 47 C2 K{ <= 5= z* A^ p) b] u* n% C< =} M^ DN i,. 0 g> {% j$ `$ h> dC u,  5 D6 U} r8 a[ V* J* M* A$ K* f= J^ N- 6* V= |* v* (! J^ /; m, &= h% l* g= -% S^ |* O= I* C{ x^ |* S- 9* {! U] n- 4* 5* ]* K* h] :$ ,5 <& 9& t& ]& 7& T/ *e 8$ <$ S/ ;$ 1$ 8& 9$ J# Zd ,& J% PH P& 1% G% => !o Q# t, L^ 3= W/ d& M$ .] Ss j& ]& J% {} j,.&% uh U7 N4 G& B& .$ ~$ y$ N4 5>.O# X% %* m$ |& M+.;U iy rb k,.<-.83 l,.G# A% 3$ *f F% ^{ R# Dh *e !5 ;$ gy m,.U# V# }% R/ J| Z# ,< <& n,.*e 2$ o,.S/ U7 p,.*U O& %$ c& :/ T# q% eB hy ^{ =U L-.+* ^$ q,. & r,.s,.P# *e Z% dy c' T/ t,.&* V/ @T LO Y# #T !% {-.k: '5 H$ 2$ V% S#  ;.jy h: Dh hy G# 0& r% *$ NR j,.~% sj |r VK d: %7 8* [t )6 '9 c% `% *g sj 1$ c& d% z% f$ X$ {} 4& 0% Io 3$ Y/ D9 z7 V% ^{ c&  T %^ L-.A% %*  & i/ @T e% ]< f: iy M$ 7/ Z& o>.d% Iu D& h: iy -* B5 )& *% {-._M e% %9 Ca )P d: 9P *g ~% .& %* .& M$ m: N$ u,.ay #$ p7 p7 d& U7 p2 g7 !< H$ p7 += O* y% e2 D9 w^ @/ |] ]* =& -* #%  < Xo 8/ (* ]/ =< N$ t] a, c> 7* ./ 3* v^ k^ TA Q^ y] E9 i% |r J[ 5] J^ |] B{ }p C^  ^ }- Q' L' Y* <; sj p7 i7 Bn L% HB m] 3] Da ;9 `m w{ C= a9 j- P- y] g] D* `% ./ A- <* &= z7 f= D{ s^ M) 1* {* B* <; 5= O= ~- <; (* /~ `= `* v> x^ @% F* m^ B* {* Z- z7 %9 C^ S9 J[ @% l) D* 0* j- I* I| @; 6= j- g; @; #[ K* (& '^ v,.;| @Q &% H# U7 </ X# K[ T# {$ #$ ~% f$ a& ;* ~$ Yn 8& N/ w,.]$ 75 |4 {} /$ h* << >0 w- k^ H' q[ O= v* :* H- 5= w- <; D* y] h% .; u* l] J* R* (! .} H- ~; e2 O= E* 0* $- z^ += Q*  = <; `= += Q; _- Z^ D6  > x,.`; .& z6 '9 y6 N2 /* [8 @& D% v& y,.D^ ./ C* I* {* N* b] R% #1 |[ k6 3% 2}  ! +% tU ",
"rn p) >9 ,= Ba >| 0$ In v6 5= G- n- U= y= 3] V= N- n, M^ Q; Y2 +% z,.e>.JS A,.^' l> !& +% {! *O 6l u* d* x^ d= :* {* v> {* 9< w- J^ i% O= h% I' 9* @= y] {* n] += {! 2* += w* G4 $- a] q^ 4! g< U- += [* n- a, p) (* h% ~* [; H- -% H- =- l* q^ x- ){ H- K* C{ N* N- {* ~* V* B] t* L* <; K* <* F' B,.P# 6% E$ := b] N- J- 0* j] ./ 3! w- ZO x^ |{ x{ C* q^ 1* H- R* 9* <; 6* (* g< =; A= Q* ;g 5= D= 9* N* += a] J- w* $- i% J^ y= N- p) v* w= 7= Y* v* x* K* l* k^ S* H- 9* m^ p) C* G4 Y* f] l* x^ H- .} h% B* D* w* h% G* G9 u* H- K* t* p) v> 0* =- U* e2 _= 2* D* F* := w- V= e= -= F* v* $- 0* /; /* h% ]- h% &= D^ O* n- #/ 5* $- += v- += 5] m- v* |* ./ F* 3] o] b] V* l* @[ t! I* _9 |* c< n] w- <; 9* 0* $- O= {{ Qs t- ~> A- x^ p) K* 4= <; N* <* d= C* `= == `* 5] E' |* g= v- 6* f= ^* E* 9* O= A- ;) A$ ]* _= m- N* w- l] h% |* t] m, S^ *! `= V* Q* `* e2 h% z- d* {* O= w% u= {{ <; x% 7* J^ p> =- ;g W) (* {* K* *= m, S*  = |* h% 6] V* C* l] v) *; p) v* H- l* ]* 5= n* v* *= |* |* {{ v> x% u* A- N- -% u* 7' <; w% 0* )! <; A= (* <; $= I- <; A* '= /* |* {* l* f= A- v) H- J- |* += S* v* {{ 1* w- A- {{ V* H- V* w^ (* t* ]* C{ g< '= u* w% q^ <; J] 0* U* $- [; w- x^ %! H* -% U^ 8] {* j] u> n] /* ^= 2< q| u* $- <* %/ 1* |< x% w% '= h* ]* h% 1* b$ b^ z6 '% ^= x% (! C* i% g] /; x% D* y] Q* h% (! o* ]* 9* $- *= (* %! Q' w- R8 0* 4* n- J! h< H- $- Y* += w^ w* <; ~! I- m/ %! {* += b0 8= w- m- <; (* m, $- .} c< q^ l* Kn (! V7 /; c= /* p] _* B] x^ t* 5] X- m5 C,.8' h9 AQ D,.C< E,.h( J( n3 v6 /) W$ 1-.%7 o* d= G- ,= n- e2 o> R3 :^ g4 i$ ;% @% #/ o[ F,.",
"D# K* |{ $< H6 D6 u} )^ x| _[ C= 9* 6! E' K* B9 /; G,.|{ x% %{ 6/ !] S; S; S; W: =} [] o9 m, M' ,% (* n] 8] L* i* v* U* N- O* p) B- D* ,= B] |{ Q' %! I* Y* 2} ]* 7* B{ 0r {* y] 3] C* a- c< N- ]* m, K* 5] <* /; Q* d= w% %= p^ _* Q* m^ Q* v* m^ u* n] (! 5] T- k* b] J* 3] u* N* @= _* 5* K* L^ ^k _5 r$ J) N{ C{ A- L% /* -% 3] H- [{ V* 8] $- j] 1* @/ 7' w- n] w% u* b] B- 0* g* 1* v^ J[ ]* 6* 0* v* R* M* y* x^ R* S^ D{ v% h% Q^ _* %; h* >* ~< H- H- ^* 2< S* Z* |* w* w= /; Q) N* `* p) C{ Y* B- (* << o] L] ./ H- a] 1* h% 3] 5] i% -% Y* w* q^ j] E* I{ h* (= v) E* w* h% p) ~! <o 2] C= m^ x- D^ 9* J] $- w* Q' =! x> H- d* @= V* P* 8* H- S^ t] {* h% ./ %! &q i= v* w* O* D^ Q* n> J^ 4= q^ w% D{ @= 3] b] 5] }= C* |* 0* 1* S' @= C{ m= ]* ]* 3* x* bo z= N{ /; v% $- v* I* .} P* R* (* 9* 1* %= 6] %- V* D* v) Q* |* K* p) a* h% O= |9 $- H* v* K= A- E* ]* (! _* 7* k* v* U* %= e2 5] S^ m- I* h% 3! <; R- w* w- (! h* y% O* v- w* m^ w* m^ Q) {{ <; (! <; i- J^ ,* .} [k s- P* y% C{ J[ 7* m^ h* ]* <* h* /* v) h% H- I* e2 ]* f/ Y= t] t- $- |* S^ p) 0* J^ A- m- {* (* << C* 8] =- ({ m^ C* t- 1* e2 U* v> c< 7* m^ 0* 0* G4 I{ |A S^ 9* x^ K* i% d= 2} 5] B* @= Q' S) /* Q* Q* O* 9< v* h* p) D* L* w% i] w- {{ n] t- o- V* '= N* -% t- C{ z= w^ -% &q {6 9% '% w3 k, S^ N* H- 4= $- @= w* o- 9* .= S' W- S' 9* 1; v) Q' v% )! Q* K* K* {* f= ./ {* P* 9* I] {* {* -% {* 0* A- V* +[ /; V* ]* {{ A- S^ _< :% u* <* x^ <; f= v* N- O* n- v) A- ,o Y* ./ x^ o= Q* $- ]= E] H,.:[ )> _) I] 9} S; T; S; v5 U* ^/ B& I,.J,.]* q= _* |* h% M] K) W2 7& c} kl L% %< ~< t! `$ fu ",
"jq t* t! i% J] h] %< B} b4 (3 ;7 f= $- o] K* A- :* :% $o K,.H: +9 y% L% w^ a] u* 7* M3 56 +Q O- O* i* -% a] *9 [- O* 3] u* u* U* :* m= w% ,% E' {{ 1< $- J^ x% C{ 7] B] m^ R* p] =! h% {{ $- 9* m^ S9 a- '= t- |* 7' t- C{ _* 1* N9 $- 5* 2< Q* S9 N* +[ _= /* g] R8 {{ /; {{ %! [k m^ m/ I* +[ }= o* W6 A! u5 Y= B{ f] w^ x> z7 R5 d< u> D^ {{ ./ P; j$ _< B- 5] y% Y* E' n] y% *; {* d= I{ M) t] o- A- ^* '= &n |* (* 7* J- v- {* {* l* 6* c< l* h%  < h% e2 @% W) *! h* m, =! @= S' 5] AC s- L,.w- u* m, Q' 8< 0* o- C* B{ K* C- m- D^ |9 9* 1* (! w% m^ @% u* w% H- h* v> w% w% Q) U] 1* 7< C* y% (* (* O* K= S^ &= D* v* (! D^ 2< P* (! `* E9 m^ += 1* S) o- B- ){ -% x^ v> {! C* w- [{ C{ p^ x^ %! S' <* C* n] m/ t] =- {{ |{ /* {* w% A- Q' |{ |< (! 3* (= 6! M,.H- 8] M- '{ ~> c< I* a- l* Y^ b= ]* (* 1* '{ P* w= H- X* h% I- d= 1* /* J[ 8* |* 5* /* V7 1* R* C= t] (* i* <* 3* e2 *; {* S^ '{ j] L* =- l^ A- F^ 0* J^ x* p] l* (* {* 5] o- i% +[ 5] =9 t] {{ S* S' t* _* R* w% @% U] H- L% U* C{ B] 5] i% 8] >0 S^ (! w- t- '/ q^ R5 k) n/ =! (* 4! 6! 5] ){ E' 5] m^ t] 2* b] i% 7* ~! 5] h% 6* H- S^ k^ ./ u* q^ u* _* S- m^ @= [; U* |* 0* i% ek S^ h% P^ m^ N- h* t] %! A- 5] :* t* I- N- |* :* O[ N- <; C{ N- v) t^ C* u* u* w* '{ S9 +a ^< 7] {* d< _= t! &/ >$ @& )/ ,6  ; k* v* n- u* A- [[ .- 1; =! K* w| ]* {* @= P* m- h* c< R* w% $- K* w- v) %= $- q^ 9* z- /* j- ,% 7< v* U] v) b; ~> S^ E* %! P* H' $- p) J* v* u* /; i= 0* I- h] ./ '= 6] d= B] +[ J* H- << := E* P] %!  8 N,.!] C! y] d^ E{ (% U* _/ H! O,.hy }= D* h% Q* <* P* {! m| =] @;.>$ C- d^ k/ 7* z7 25 6V ",
"ku t* |] I{ y] y% m% ~< %} +5 d1 M! M* <; >0 ./ <; H- R* U$ 86 wJ ti t: $> mc n: *a t. P,.x% Q* m^ 5] |* {{ $- z= B* 8$ _) @% T] += ,= 6* T] +/ J- x> ~! 1]  ! ,= c> >% 7' h] 5} I] t$ ${ `6 #& 6' ,/ G6 _/ H$ <% M6 /t K$ R$ A& @& i$ 0% !% I$ ,] $5 X{ y[ @$ Q& H& {| T& (] $| +$ x| Y2 7^ NN h& G/ () S& F} V* y] `= 5] q2 5] I{ R5 b] I{ Q^ 7' u* J^ v* $- N- ./ =! B{ {- =! $% V* %- H- A- {* u* w^ S' |* $- l* 5] I' w* y% $- |* ./ X* S^ *= m- J[ 5= ]* Q* v) =! B; ]= m^ /* v^ l* K* h; [; O[ p^ g! 8] [{ p) m, <* m= v* d= 9* m^ q/ R* Q' S^ 3* A- {{ A- N- 46 O* J* S^ V7 |* 5] p> r! w- m, vT {* 6] >% }5 &= {* C= 2] o- |* S^ /* j- 5] R5 1* 2< l* /; (* vo 9* (* _= #- {* w- 9* == 5] 0* x^ R* q^ P* x^ += :* z- w% b= 9* J^ m/ h;  < v* I- D* <* *; K* =- ]- 2* x^ w% y% ]= {{ I' m^ c< m, +[ C= }= w* }= j- |* 5] _= c< 9* i% b] E* N- |9 ;{ K* P* 0* +[ j) h% 3] u* A- m/ 5] p/ V* I- B* w% ,= |* h% m, <; 2* m, K* P* +[ |* l) u* m^ 8* D* E9 y= u* A* I- v* ]* -% Z- .} :* I- Q; p) s$ h% @[ #} 9* 8] l* w* z* :- f= H[ +[ m^ N- [* k^ H- ]* V7 h% 2* {* u* 9* y; 3] B9 B* 7* c< R* b; m= {* w- w% A^ u> O* N- m^ K* `* p] S' R* I- a9 O[ 7' S^ p) 9* X* m/ =! Q' S^ += 5] (* U] .P =! m, ./ f] 3] V* U] R5 S^ t] w% |* x^ S^ 5] << g] (! k^ d9 S^ U^ u* 9* q% C6 g5 E2 .! y6 Y# /& `& S& .$ .] T: +5 )^ ~5 1| <] !^ {^ @$ ;* ;^ /% X6 $* C! S% f2 =} c> q2 Z^ u! Pa U^ #/ l] 1* ~! {! w- // J- =< a] 7{ ~< N] I] v> v% w% z= 6! U* en m* _} 6* T] x> #< z= 6* 6* 1* 0* |9 =! B- l* w% Q,.MO R,.W; h> ;| j' S,.]S y$ ]= '{ ./ += w% C* (< P3 +] E} =] %/ 0< d! ^/ <6 %/ P: N7 ",
"<{ V* w^ E' !< Q; h/ 7D H$ A2 T& l3 `# ]- S- P= q- h% d= I- P=.F$ E#.T,.U,.V,.]q +] |{ d* 6! A- $- B{ d= {{ u* /> j{ gw t$ x% f& h] q9 <{ f& N] u$ M^ _< Q5 M^ E7 V^ du 6X .t QH Dg a] 9{ j^ Yu Y] Y= Y] u3 R-.q| Q] )! W* J] o] F* _* t* s* )- zs u3 Y= x] L; N] H-.]* j* Vu '{ St F] }u O] N9 D| 99 M< $$ m4 1$ r% `4 Y% %& `& -5 T&  * .$ j5 2| #] Pd W< /& )] W,.}^ /] j5 =] {| dc v4 B+./& j5 &] .$ X{ .5 ,|  $ ~5 0$ y[ ,| pc () p} ,| Sk pc :5 -$ h$ )% v& 2% ,t -$ t{ #* X6 Mq {% 5% +7 Q& u5 $5 )^ y[ '[ L< -$ =^ !6 >$ ;* M9 <] () %6 1! S& }] )] (5 {9 !^ +^ (} F7 ,6 $* ~^ /^ J)  0 D' 8} $* ,/ '6 (^ u6 (^ _[ .! X6 B# _[ )% K# #* '6 /} b$ K$ s{ yl {9 p6 X6 qU p6 y6 >[ A! ,/ jQ K{ `$ #^ E6 [] ,/ %o ,/ o$ 06 v6 =} ,6 at G6 *^ }] `$ @/ u6 ^/ v6 J] 40 /% b, C! 1s x> u> !< %< T9 uo F' o$ (& x{ M6 Ot Dg kc %V K) IR St 1] Q5 K) T] 6' +/ `$ a] 8' v^ P] E{ ~! @% f& N9 C! 6! 6' /* K) =l ~* O] F] F] 6! 6* %{ 6' 5} x{ r2 WY x> u! T] h% 7' B{ ~! w{ u$ N] M) E{ ]* v* 3} WY f& u! u! d^ St 8' g7 _< C] v% 8' n> ~0 _v p| 4} I] >V F] C! O] N; Pa @p x{ St v% l6 ZZ |! FR >% Y9 V^ t! I{ M^ C[ 1] 5N M^ j@.>t =Y G: ^) K{ /[ L6 ^^ d! )< Z^ 2! N; cu [] u6 P: (7 P: pn d! L% X,.5} ,/ 6/ *4 pp X6 <% )> (% Y& u6 J7 T6 o[ J7 u6 =} J7 25 w3 #& $& J7 ia Io @$ [$ V$ `$ ~! 6X J]  ^ ~! ,* 9] e] _+.4! ~) M- @w r- .w G{ @w Qt ri Y,.Q5 W- qH d] D- }* 4* s| QH 0] x{ u$ <{ S6 S6 o9 5} f& // p% V5 pJ N@.%p 2! t! zE %p m3 p| >V W] #g M^ +/ =l C# x{ u| @> R* C{ v* v) S9 w- != <; m= 0< Z,.c- @I -P <o 0$ .( N* (! x* 9* H- 1* =- =& vG )| Z' L9 si 1] t% )> ,= t! %9 F' t5 ",
"oA _* @/ L% !< t! g7 u> A6 C[ m} Y{ Z| )% k) -{ E* c< x- E* /* )! y' J; += ]= p= K) a] |{ B] {* h% $- B- `* K* o- M* :q S% 99 `% J- _% ^) F' 0< ^) @% J- g/ `6 m% S% h] L% h/ 8' nb 0{ $* x> #/ }5 `^ U^ x% %{ v% >/ K^ |< Y9 T^ a, 7] 6/ K) += 7] C[ ,% %{ p) U* y% p/ ,= K^ r2 Q; f& O% x- J- n% F' Q# @& ql S% @& Al s{ L$ ($ 2% K$ ;] (} =} i$ [$ =^ (5 {6 B# '[ 8} 8} M! ;6 L! q5 =^ 2% s{ S& [$ [$ [$ hl B# >$ r5 a$ E$ '[ d% rJ b> x5 .  !^ X< l5 b> `,.b> <] 70 v5 }] hl e5 S& &] 3$ f5 s{ g& z} b> (5 Q# f5 )% 2% |[ :^ K$ L8 L! A! !6 -$ Um )^ Y# G5 {9 v5 )% g5 !6 u5 @] &] S& s{ )^ /5 [^ @] /5 *] Z{ y) ;] _^ !& j% U6 j% {^ )% () S& .$ b4  5 )5 ~5  5 1| v5 .5 @$ 3$ *] g& 1| W{ =] -$ $5 &] +5 v4 z} X{ /& a7 )5 =] y) k7 L9 Z{ .7 Y{ .| Y{ X{ W< X4  $ U: 47 1| X{ R: X{ m6 v& U: +5 B& :5 ]] +| 4$ #] Z' )5 .5 {] y[  $ #] /] C5 )| Y{ () 0$ +| p} c} C} r} Z' )5 /] )4 <^ D} +| [4 @5 sc +| D} .| L} N& .$ )4 c} +| /& H& d} Z'  $ d> Z' >5 @5 L} 64 l| h3 f} >| ]9 h3 V& )5 z2 S} L} .| j4 L} 44 Y{ X{ p} @4 s4 >5 L} d> )| Q& c} sc {] l| W< ,| D} Y{ ,|  $ B: U: y) )5 k& L} W< +| Y{ c}  $ )| k& {] j} =] il &] #] C5 U: j5 l5 {] )^ k7 )| y) g& 1[ ~5 'r |7 T: e5 &] v&  ] )] )] .$ *]  5 g5 s{ 1[ [^ :5 =^ !& 57 E$ `9 L! -$ S& :^ K$ /^ xp L! ^^ Q% %o %{ d! M^ u! >% ^) /) |< C# |* -% +9 @% 1/ `^ 8' E{ m^ S% z7 n% >/ _/ d^ L% Z^ /) ^) f/ T^  !  ! g/ N)  6 L% JO g/ ^% N^ k^ B] t! .( ~! B] |] P^ x% h/ ^) x% =l /) =< S% l/ P; y] A6 N9 x- jT U* d= S' v* I- w% 3* 5] 8* O= R- i- 8- :; b= g= k* m, u- N* 1* 8] P= E6 F2 ]$ y4 N& U^  ! t! D6 f/ g7 m] S% e& qh ",
"JH b] Y^ 1* (& C{ x^ A$ ${ a, x% Tk R: k3 &5 :- x^ M% 8- B- k- @% n- a] u* B] w^ Y) B] F^ =! m^ 9* t] w% <* 1* :% *} ]% }$ {} z% {} Z& {% h$ X$  '.rb I/ .'.f: _$ M$ 0$ {} *$ ]$ rb *f LO b$ bE l& b% <$ V% :< z7 o> =< B[ t! VK f$ S% L% +% S# Z& =& B[ ^$ !O 6% N$ 8% =% c% $< p$ 7' d= ZO ba L^ P% +'.t$ )> K{ JO l% d! L% $< Z^ C[ ^) d^ ct C! ~< N^ H6 F' 4/ L% w^ P; >% h] y] %/ ~/ Z^ t! 7' H6 h] P; L% t% ${ w^ W^ O% N^ j$  ! h] ${ j$ >9 F' j$ M^ g% E6 h) d!  ! t!  ! x% %/ g] w^ J- y] Q; j$ x% |{ l] s$ %{ ,= d^ g% (% d^ 1/ -/ t$ %{ :% L% L% g/ t$ F' ]/ ~< H6 Z^ ^)  ! |] O% t! L% p$  6 @/ N^ 6' R^ ^/ @/ (% d! `% 1] Q^ t! x% ${ )> y] U^ +a Z^ Z^ >%  ! A6 ${ /) 2} /) N^ ^% x{ f&  ! L% L6 L% d^ f/ !< Z^ @% 6/ $9 `: e% $9 N^ -/ _/ A9 a, _/ _% X^ L6 )> %< Z^ _% (& b^ C[ (7 x% _% L% g] L^ jT ~< Dg h] C[ d! `^ s$ 6' U^ 1] >/ c> :% :% %{ P; d^ 2} x% h] U^  ! %! &R 1/ 6' $9 =& (% t! `% 1/ O%  ! >/ 8' g/ =< a, ,/ W^ S% b^ */ (& Q6 h/ D6 A6 q[ =< 0{ g/ _% ${ G: E%  ! ${ r3 x% U^ C[ %< 6' g% N^ g/ =& d! E6 o[ `% ~< L% (% j$ h] 3] C! Z^ $9 ,/ g% 6' P; t! K) c> d! N^ S% x% 3! :% 1] // P; :% ~< ^) @'.J- g] B{ V] A] ~! J- !< U^ F' x% ~< /) =& <% P; |] %{ )> N^ A9 1] f& @% /) %/ m3 >/ j$ L% N^ |] %< d! r2  ! B] y] @/ U^ @/ F- d! '% n$ 7] m/ d* ]< |* T# i/ D9 {$ *$ :/ Dh #'.$'.Yn Hl *e &* S/ rb dy Z/ Ss &$ c' U# +( 3^ X$ `& *> c' @5 ha ;U >O >l )z M& ,& J/ <-.T{ ]3 !3 J/ v, j: ^} V$ O& J/ r{ O& %'.3R lQ &'.lq s: Ga N/ 83 Ro y{ S) ^= j) p^ 8= u* |* v) V* n- 2< m^ |{ >0 V* _v |* |* S= P* A- L% *3 b4 .7 ]] L^ %/ y% a, M^ =< w^ :% P^ K9 *'.",
"yh h% 2] x^ @% P^ x^ 2} U^ <% ='.C#  3 X{ G} @7 ]; m- |* G= H- E* M) m, 9* Q* v) x* j) g= Y* d* Y* <; v) (* 1* A= -'.^O <M sj {J ba OS p7 %7 z7  < ){ B- 5] (* P^ =< v* w] :<  / =& m] ;% g] 1* y] /; =& Wp ;'.o% k/ z7 }a S# z7 )6 l& AU %% ,< x$ %r ]$ Z& >$ W$ l& +% .( </ }t `: )P -& f$ Kd V$ D; =< p, W$ >'.d0 y0 ,'.A,.''.Z_ =7 !  )'.[A ~  d0 !'.~'.{'.]'.^'.v# /'.('._'.:'.m0 {@ <'.Od ['.=,.}'.C;./'.|'.1'.{Q !  2'.to co hs g0 3'.|'.4'.^S <Q }0 Mt 5'.I  Ez 6'.Y>.#n kQ @< C' We 7'.Q, }0 8'.^  #n I  @r w0 N;.eS v@ Vc GS 'L ;T >T M0 $0 J0 9'.B8 0-.0'.9s @r a'.DO b'.lH jH Mc c'.kQ Mt lS &F $. ,S Ac Sc 28 {S d'.0s e'.*Z yo bQ f'.#( AK C-.LU <8 Tm Tq o7 7V 8o `Q qF U@.g) V! uS o7 g'.=X X' l< ;~ cR '7 e! e! Yf h'.uv V! t7 d)  ~ c! l, a~ t7 Q! _o 0^ ]; O: s= ^- Z: ); == r~ 6- #[ {> 1> o; AS %= <= !> z' ]> ]; R= e= 46 g, -= 9* V= K= =! ~; w* (* ^= Q* u= z* :- i; e= h, == 1> <- f= z= ^= )- 5* ]* x* R- :* l* D* _* V= .= 7= H- Q- a* 5* ^= 3{ L- %= != I= 1= l= e, j' ^- @) O; r~ j' &) M' l' d- R= .{ Q= +) v{ i, 5; 5; 3~ z; -- ,~ *) *~ <! K' Y' 0; AQ Xe X! .m v~ |) &~ V' ,~ Lt (t Q! 0; AQ 2- iw .{ W~ m) S! Jp h' p~ T8 dC Nq iQ Sd e! nT cl ]U xg p< 3u Un ]O Zc _S -4 28 Wc ]) i'.Zp GR ,T ,T Qc Dc j'.W-.r8 k'.!S l'.V  m'.n'.1-.o'.p'.7= 6) q'.=} 5- 6* |* e2 g= N- 8[ |] O' G= [t ;% </ P^ +9 {!  = J^ 0* m^ @- i= T* d, 5] n- q^ F^ Y*  < Qq 46 a< += a9 )< W^ x^ C= O* J^ 0> 4) C* F* 2* &= v* a- b- ={  ; k, ;[ D= w= _* 7= c: U# 4! r- ]* {{ P* A- i* v* p^ 3* K* ,= %! A* 3* (* N* {* ]* V* 9* U^ 43 b4 D} 64 ;4 '% C! |] h] k/ B] /) `% J- 8} N7 ",
"$q j] U^ %9 s$ w{ |] j$ P^ #& '% :% P; C2 /& u} ~4 :* 6l j- [* .; u* r^ w% b] D^ E' O* m- w= =- 5= S^ N- J* <* w% H- U* u* M) A- 1* v* E* u* H- `* C{ /* =- u* Q' =! si q/ E* C{ o- y% C{ H- 6* a] h% A= o- C{ m- -{ A$ ^* p) Q* b* -% ^= N- u= |* *; 8] 8] C{ w* B{ `] t* j* K* {* h% 7' ;; 6! @[ s* hl -& =& B] l% U# ^$ !< T% *% Q% (& z& O% *% *% 1& X$ ($ i7 N$ )& 4/ &/ jw 7/ N$ #T &g 4/ d/ -< )P #$ p2 ;9 Wf '9 O% c$ W& sF w6 -& -< 9% i7 >^ $* a, M% e% e% c% 5% 6% l% e% Io l% %% sj ;< .% l% @/ C^ }/ <n `: l& 2& .% +% -* IS `% }a %9 .( Wf =< f: Z& r'.3/ p2 5/ =& l% [/ pQ =% f% OS )$ p7 v[ C/ }$ U# )6 Dh 7! $$ SJ L^ ;9 M$ v9 G$ @T s'.0% =U `6 t'._[ si sS u'.B[ ~% j& j& E& ^$ G# /$ rb 3% MV }$ a% ^$ 2/ *g R/ <$ .% k$ yt 1$ m5 %* z% 8& PP $$ bE +( p7 G# G$ <$ %$ 7$ }a <$ 2$ iy Z& 3% |% 9% 2$ 9% P,.h$ {% *$ *g q% R# Y/ ^$ Dh i: k: 6$ *f *f G# ;$ Yn U7 *e -< -a z% _$ U# %* !^ :$ X$ i: i7 `6 7! /$ ]$ ,& v'.LO 7! Z% &% -& G% U# 7$ f$ M$ J# LO h: a% Z% &% Z# ;$ T$ M/ >& w'. & PH U# X% J# MV h: T# U7 wr NR 49 1$ jy V/ hy %* hy 9% !$ ,& iy ;$ X$ |$ yr ~$ `# a& #$ a% k,.{$ o>.h: x'.|& +$ .] hP w$ jy _$ _& %* `& I/  ;.w'.%$ y'.Y/ Zd y$ ;$ F$ %* y'.Z# ;$ _$ z'.Z# i& f: w'.d% 2$ %$ &% N$ _M  7 7! Z# 9% bE c& A'.f% /^ Wf Q% %r :$ &* .^ dz Dg >% Q^ O* A- x* a* V* O* <; N* J* x* E* q/ '{ 8= i* R= u= k* {* F* c; != _= t* t^ '= u= ;g $- x* 5* 7= V* S' H- C= j] a* ~* ^= [; >- b= 0* 5* I* y* K= N* Q' {* R= &= != F* s* d= t* << 2* += 5; {* C{ l* x] b= a- h* q= Y* /= S^ ]* i% C{ v) 8] <* 6/ 32 X{ R: {] D% S% (% <% {! B{ @/ g/ %{ U^ (< p6 -0 ",
"dK O- U^ ~< >/ -% _% 2] 2} :% =< Z^ A6 x% p{ ,] a0 y2 5; 5= _- w- m, w= V* 8] P* >/ <; w* y% f= E* N* %= U] <* E9 G4 V7 y% 3! 9* _= [{ -% o> C* 0* u* ;% x* y% )- v) m, K* :* w* n- $- v> Q' 5] x* C{ |* R* 1< S' n] Y* @[ {{ A- m- x^ 0* w- -[ p) S^ i% '{ a, b] {{ m, +[ w% S^ D^ O* 9< ]* &= m^ M- e5 [$ ;6 G- 7* _9 B{ u* p] H- B] N* *9 E] |* |* 6* |{ I{ I{ A^ S^ U* << u* 7= $- |* a] N* m^ 7' B{ `* t] M) D^ P] ;% K* %! {{ J8 6* q^ )= t] /= }= m, w* C{ ]* K* k* p^ s- K* I- K* l! ju $- ]* O= [= := += ^= m= _* /; v- $- 3* <; S' 8] C* m/ z7 0* /* h* i= G- 5] U* h% [* +[ u* v> n- z* @= /* a] )! '{ b* z* `m  = 5= &= ek [- {* B- S9 x^ K* p) g] $- N- o- z* >< w% 7' A- v* a* p) A- u> w% S^ t- w= e2 [= k* L* ]* :* %= v* @= p> q/ h% 0* Q' u* `* a[ V* K* <; w- << a] (* 1* <o O= I* N* {{ C= 2* 3* A- b* K* /; u> k* q^ /; I- S^ << [= d= [* ]* B] v^ w* Q) 9* A= :* p) :* m, v* `* m^ f= 3* ]* J* `* =! (* ]* &= K* h% Q* ]= G= _* ^= a* h% q-  = A= C= B* q- >P q/ {{ w* $- v) 2* e= E* $- q= V* 3> B] C= Q; [* A- =- >0 9* E* x^ 9* I- 5] S' 1* Y* (* a] C{ u= y] 1* 5] C{ w{ *; <; m, w* := (! <* i% ,= 0* ]* $- 5] m, v) 5* K* `* f] u* 8] =- z= |{ d* $- V* (! =! C{ t! |* S' p= S^ 6* m/ Z* g= w* N* 5] {* /* (! p) v* /w b] += 8] Q' w{ {{ E* _= 2] J6 W] X6 B# vn 0- [= {! e= m, /; |9 i% @[ L* `= v* F* (* 1* N* N- 9[ j] g] :- j] .} w- q^ %! +a (* 6* w% 7' 0* G- 5] << Q' N- N- K* ]* += y% h* v* h; m^ 5* 3= >< fk O=  = 9* D* w- Y* ){ 0* Gh K* L* |* w- Y^ ,= h% $- w* /; <; {* U* E] Q* _* E' -% D* _7 D2 /] D} =] !< ^) ^) J- _% U^ o- i% 3] $< |{ #/ G: H$.",
"QR o] ${ 1/ /) (! =& B{ y] u> g7 p% +% `% {! O| /& J5 D2 x= F* 5= G4 5] K* u$ v* 7* v* -% u* =! 9* /) '{ I- e2 p) J^ @= `* _- w* {* z] -% C{ {{ m- |< e2 @= m, 8/ J] b] p) V* w% N* V* 8] _* ){ R- s$ U* k* /= t] 1* a] $- |* 7* != ]* {! q* l] P* O* 5] N* P; d= x% 0* (* J] H- P* ,% A= E* =- $% Y= 87 =^ ~] u= {! o] g] 3] 7' A$ y] P^ w^ V7 U* f] R5 B- B{ u> ,= w% m^ P^ bo x- /* 3] <* += t* I- 3! v) y] m2 x^ 9* d* w% d* %! O* w% N{ w% << l] g] w* w- w* |* {{ a* a] (! C* ,; d< Y* c< %! G- J] ^= a] J* {* w% m^ w- 5] r; A- =9 ./ a- a] /) K* s- p> 5] H- S' _* m/ }= B{ a- A- B] K* K; =! [* w- 7* 4- }= )= n- 3* :* S' m= a; w* q- 0* ]* 6! U] z* 0* ~> h; /= q^ J* t= [{ A$ ~; S^ += N- J[ :* m^ u* Q' :* ~> j- ]* <* S^ b; D^ `* I- 8] C9 A- v) H- q^ 1* B* G9 Q' d= i= j- P* S^ D^ w* *= N* =! ^= J* <; K; 9* @[ I* |* w* (* V* w% J^ &= O= }= I' _* z= :; -{ {* =! n- v* S* r; e; J^ (* f! J* ]* /= B* C{ := v) {* 3* 2* f= B* b= z4 =; a[ /= [- e2 G- 3] D* a- &= L* @= *= z* ~> =! z= ,= U* Gh d= ;g $- D* 5= J* /* b< ~> b] {* [* 9* x^ -% u> 1* << K* S^ I* `* m^ u* n] 9* $- 5] O* (* <* w* <* S- <* l* i% z* R* S9 A= I- F* h% 4= E* v* _= |* n- u* x^ H- L,.w- C{ o> K* $- `= !p <* V* y% v* (* p] v) /w m^ 7* {* $- u* w% S9 ]* i% U* _9 B{ m, l] W^ 3% [] i$ N# *= ~* (! C* t] /= v> 1* W) a- 9> Y* G4 A* R* A= (! [= p) {* ^= h; k- =! Y* 3= N* c< h% h% i% v> A- 4* t* z* {* C{ L* N* A{ S^ P* :* m^ 4! B] a] S' c< e= := x^ K* a] V* S' w% D* Q* K* m/ 5= v) f= m= p) s- 3] K* w* m^ 1< ]= 8* |{ h* )- !% A3 .5 '| I/ d! >/ U^ =& 8/ h] h] P^ t! ~< c> =< ~/ +R dY ",
"fK w{ ,= y] C[ @% =< f/ '= L% -% g] J- ^) <6 {* F2 ,] B} -1 /; R* 6] j- S* D* j- 9* J* z* D^ b] V* f* v* 2] p] B- `= m, :% v* 5* o- y] 5= 1* w* E* [; 8] {* d] i% >0 t* <* H- _= 4! 0* << I* q^ P^ 5] 0* w* f= A* H- w* `* m^ G- N* j] (* q^ C{ Q' l* U] x= D^ K* h% J[ w- K*  = S] m- }= 5= s^ z* j] }6 g& z} ]* {{ R5 W^ @% 2] v* H- h% z7 A= 5] U^ a] 9* |* I- |* += Q' 1* x[ N* x% ){ |] 3* ,= _= 5] q^ p] 0* R5 ./ 9* 7' {! w* a] H- S^ x^ u* 5] [{ w% {* B] m= B{ 5] w* <; m/ u* v) =9 =- S' ]* 6* #% w% y] w% 6! B] 0* <* z* D^ C* v* l* V* 5] C{ i% y] x^ /) w% 5] y] += Y* u* := S' Q* {* %! C* m, p) U^ 0- S^ U^ >< x^ V* m^ C= Y* q= H- q- D* _= K* }= P^ v* $- o- H- ./ <; B{ @= E^ c< $- ~; C{ -% c< Q* K* w* u* w^ J^ x^ ^= w% <; m^ ]* *= k^ q/ P* w* p) S* i* p) :* i% U] q^ m/ E* ]* X* x* 1* C{ m- f] d= ]* <* 8] B] g= H- m^ v- B{ ./ w- E' a] x^ I' {* y] w% {* <* [; 1* m, x* << S9 0- E* m^ hp m/ Q* O= A- g< i% n- d* V* u* D* D^ l* $- t* Q' w- d* y] h% H- I* x* H- 6! q- 9* }= *= w- {* Q* 9* V* B- x- a] 1* v> 9* w- v> w* m- O* <; j] U* o- t- v) u* =! m^ I- $- x^ C{ -% c< <; k^ B{ t- e* G9 x^ d= w% w- A- u* u* $- a] |* v^ H- {{ v) u* V* 3! S^ v) L% g] v* =9 u* |* (! u* v% 9* -% {* w- U] G4 E' L% B] v* C* m/ q^ 3] B{ 1* H- 7* 6! /) R^ M$ !6 .! D} g- }= E' q^ +; i% E* Q* 7' m, .u C* N- }= Q* Y* E* Ah 1* P* D* (* E* w* (* 0* {* n- += P= (! g< d= n- S' R^ f= =! S^ p) )! A- N* $- R8 e= ]* `* K* 5] Q* x^ E* 0* V* N* *; 8] V= d= v> m^ K* V* K; v> S' m, 2] V* -% `* }5 S' p> R5 e= z7 TR zk <^ g& o$ A9 a, m3 5] b, 2} /) 2] x^ E' s$ |{ ;4 P: F,.",
"B'.R-.t] /) x% 8/ 5] u! $- w^ %< C'.L^ N^ `% T% 7* e{ /& E} 32 :; a- w^ <* J] v* 0* 7; ;g 6* =- 9* n- S^ zn i% b] H- Wo {* 0* w* m^ 9< O[ m, =- I- v^ K* I{ c< 2* m^ `* }= w% h% 2* u> I' m^ <; Q* p) E* %; <; v> |* .; U* g< E* d= H- n- 3! D'.{* A^ =! (= cv 2* n- w- == d= `* m= += g= *= j) Z~ qs v4 X$ v} A* `: c/ w% E'.u* t] ,* S9 5] m, Q' w* S^ @= 1* ;% [5 w% q^ I- 0* {{ K= K* += A^ p) {* 5* q^ (* )!  / o> Q; c< v* w% -% 5] A- $- |{ Q* (* V* /) =- m= d= /* m- (* v) w% {* 3] p) g] Y* c< {* u* R5 2} x* u* T] m] 1* {! v^ -{ P^ += w- @% D^ ./ `* j] w* m, {* Y* v- 5= 5] A- p) }= C* %! `* =- <; K* [= P* D^ V7 :* h% {* _- p) q^ v* g< 9* -% _= i% y% p) O= 0* V7 m^ i* 7* <* S9 =! K* 3] x* y% ek ^< O= d= 5* v) d< C{ m/ 8] x^ S^ 9= x[ g] j) t] o- d= a[ {{ 1* {* Q' H- *= {* -% z* V* 8] z* :* 2* A$ =- w* N- n] ;g ;% d< [{ w- <* |{ j] bo q- N* K* M* ]* m^ K* C{ H- w% |* l* 2* 2* ]* <; H- d= := 0* A- B- /* K* |* f= <; J* _= A- m, o- B* 46 i= `* C= d* m, B] n] E^ #/ t! y] 3* u* J* f= d= I{ -% Y* 8] (* w* P* a[ S' 0* =9 %! {{ u$ +[ w- x* |* k^ b] 1* ,= @^ u* I{ ./ p) {* #9 x^ z9 i% h% /; 7' w* p) 3] v* w- R* 6! t] E9 $- 2= u* w- y] u* d= si @% =- B{ D{ u* u* {{ w% f/ S^ H- 3] {{ Y* z9 f] n] {{ A= f/ H- w% j] U* -% x^ B] ./ p] _/ $$ tc &] F2 R; L' D= H' ek jo 5] z^ R* q^ a[ `* B{ (* F'.G9 J* s^ -% H' 0* /* ek J^ J^ w% q] V* S9 a- {* x^ C= v) q^ t! d= =! R* Y^ u* A^ 1* U] c< l) 5] S^ n- i* a[ 2< m, %! t^ /) |{ S9 {* ./ v* @[ N- w* a, V7 O* y% o] C{ F^ v* P^ |{ N9 -{ |] S< @4 N} 1[ .^ O% `% r2 E' $9 >% =% K^ %{ s$ KO i% C{ I{ p6 =n ",
"9C a] ./ 1] B{ |* m^ P^ N^ H- x> ${ U^ >/  6 K^ A6 x> O2 X{ j-.S3 ($ '9 b^ E% u5 _[ ;] W6 j} v4 .$ #* )^ kl -$ ~^ Z{ s{ s6 (5 |7  % nl ]| k& Y# k& g& )] N& Y{ M# {] Y# c} /]  5 C} :[ O# Z' l} +$ 3| 47 W} D} ec s4 {^ X{ L} b4 y$ g& #] ~| j7 4$ !& Ei X{ mt )5 +| /& d> >| >| .| e| =1 <1 A2 V; s} -] .& W: K* 6' I{ e2 x^ ~! f/ ./ d= 6* 9* =- a, |{ c< O* 6! h% 0* c< m- ,* m^ -% [{ x^ U* $- w- J] n] += ,= U^ ,= A- S9 =< c< (* (* V* C{ /* i% y] P^ m- N* w{ ){ F^ a9 d= v^ C* C{ '= b] t^ *= u* c< G4 v* K* k^ *9 ./ -% _* 7* 5] |< _* |{ w^ 0* bo p^ m, R5 U* y] 2] E9 v* p) D* N- p/ B] t* S' <; y] l* B] U^ a, V* {{ 2* <* w* X* m- (* H- -% d^ H- += z= x[ S* N- E* u> q^ += |* :* y] (! `* 1* -% -% B] m- S* 8] E' (! P; N- w- A- H- << t- I- K= 5] B] i* w^ K* N* x^ v) o- *! S^ L* O= v) V* S' t! }= <* 1* w- v^ v) %! u* D^ `* a, O- x^ N* f= A- C{ R5 C* |* u* m^ y% K* q= u= 3* G- v* 5* =! S^ D* O= [k R* g= d= <* a- w* K* B* O= m, {* {! k* v) ]* 7* E] u* 3] O* g= (! ,* (! {* :* [= 7* << h% V* O* {! L* 5] N- S9 I{ q= 0* q^ -% x^ J* l* {! x* Q* l* 3] a] i% -% (! x[ 7* N* o- y% w^ c< D^ w- 7] n] B- m- C{ ./ B{ v% h* 8* t! I- E* -% 8] {* i% += I* <* i% C{ t! o] a] %! :% A= t- 5] :* w% 6* b] w- N- y] ^< <; n- h] C* m= /) t- y] B] k^ 7* N^ i/ e5 Q& )5 #{ 9} 7& *6 )^ M! ]^ L$ -& c% ^^ W$ J) /} %^ e7  6 5$ #^ )> 25 pn o[ #^ /% (& ^^ J) u6 o$ I6 t$ !a %o M6 o$ <% 6/ <7 x> 89 y] U* 7' x{ Rt p| I] %{ W] Rt QD ~-._v 6X >V V8 J] ~< x{ 7* G] d^ T] 3o ,= C# ,* 3C (7 t3 w{ C[ {{ .^ E} H2 (] `S #* q[ T9 U5 ^* =% t! q^ x^ L% 2] u* @% K) S^ S* w- -o G'.",
"E$.'= U^ J- K) u> L% W^ 1* '= ,= i% $9 c> j$ g7 !< N^ ~< 63 E} c| L) {1 E3 o} Q} ,1 c| 5^ B/ s} ^| )1 e4 k3 g} /1 H'.O} K< e| 16 || r} e} I'.]9 s} ^| e| B} [| '| w4 X} z2 %} S} k3 `} '] k3 G7 :| R} e} y2 ^| o} g} Qa y} C: s} || 23 0} O} c| :| Qd _| /1 Qd K< #2 k} '| E} e} d> r} %0 G} Pd Y4 7& N& >$ i3 B] 6* 3[ >9 I{ H- R^ =& i% [[ << a] {* %! m= 5] 5] U^ w- i% s$ ,= 5] 0* z* y% a[ U* '= i% 9* |* K* =! m, 5] |* e2 -% B] 7' @% 2] y] u* y% P^ t* u* u> D{ 9< i% H- i% p] v) y{ n- Q' n- x^ w* w{ N- w- S9 {{ 5] p) v* 5] S^ v* g< '= i* u* w- =! {* i% 1* (= E' S' I{ C{ i* O* v) B] 0* (* {* B{ += J* w= 9* y] V* H- m= `* w* q^ /= V* Q' w% |< O= S^ u! B- E9  = Q' H- a- o> a, y] w- -% k* a9 W) ]* m/ a] /* w% w^ q^ 5] w* <; 4* -% y% {{ i% =! $- v^ |* ;% /* m, I* =; w% <* C{ S^ '/ U* 5* &= N- P^ 3] N* 3] ]* += q^ ~> m, R* y% j) Y*  / E' {* @% S^ u* =! (* j] w% p= b= ]* A- &/ N- A- += 0) u* |* z* (* $- v* `= u* d= 3! E' O= p) I- w= <; v* I{ |* y] w- 8* 8/ 2* h% y% +[ h% h; 0* g= P* 7' u* D^ F] C{ F= B{ z* <; l] K* ]* w- +[ ./ <* p> w* |] w% k) U] P* {{ y% m/ ;) w% 5] 2} w* v* D^ N- 3]  = t] m^ L% 5= c< 5] i% S' 5] O* 9* |{ <; 3] {* `^ |* x^ m^ p) B{ 9* V7 a[ m/ x^ Y^ L* N- K* =! 3] A- 1/ += B] h* %{ 3] i% @% y] R^ m] h] ${ P^ m^ c{ g& F} T: )4 }| y2 Qd O} c| Ko z3 5^ 5^ 7| w4 y2 ~1 S} o} o} o} Y| o} c| {3 o} |2 {[ O3 m} -| )1 L) A2 A2 d1 {[ %} || W: q4 Q} {3 A2 O} 7|  4 Z| -| A2 -3 &1 x4 {[ =p M3 c| K< TR W: #1 .4 -1 *3 Q3 T| F2 V3 Z| m} W: m} }2 In F3 Z| M3 Q} :[ >| K# %/ 2} <%  ! y] @% G4 w^ x% i% s$ h] (& B{ /) =} S^ @& J'.",
"J7 {{ E' ./ U^ c> @/ 3] ,= -% I{ x{ d! C{ 6' u% a, h] E% S% *1 X} v} ~| Pd ,| 0$ ,] c} #5 {] (] p} g4 s4 N# >| c} ,| @6 ,] >| Ei .7 +| dc >5 K} >| Pd W} ,] B+./] ;5 N# C} ^q  5 Y4 {] 4$ B+.~5 ,| Y{ Y4 ~5 X{ b4 .$ `# Y4 c} <^ l} #] .5 )5 )| W% Y{ l| )5 )4 v} B+.A} Z' C} h} 24 4| 44 g4 <^ <^ (] K'.0| |* V7 J- J- >% |] B] x^ x^ 8/ t] ~/ ~! m/ P^ += q^ w- w^ h] w^ /) y% `^ x% ./ N- :% V* {* += B] `* c< y] B{ ./ h* y% 2] ./ ./ H* 5] 5] u> V* ./ j] m, {{ h% g/ 4! C* 46 q^ -% :* =- 0* C{ B] m^ 7' V7 /* C9 $- U] 0* <; Q' 0* t- x^ t^ w* %! (* {* y] B{ B] 5] B] K^ |< |{ q^ w- u* v- S^ ,= *! h% :* y] D^ u* I] L% w% N- S' 46 d= V* t- m- S^ ]* x^ ek S' <; {* {{ <; 5] 0* u* {* C{ $- |{ v) 1* 1* y] 9* <* H- t- Q' c< 0* _= n- =- p) v% N- j] $- 5] 3] += K* d* $- N- m^ @% A- q^ w= 8] c< C{ {* u* q^ q^ B] @% J^ 9* v- 9* y] F* g] w* V* v* %! m^ C* $- 5] E* 3] S9 w* {* `* l* S^ A$ 5] =9 6* {* 46 _* e= L* 8= D* :; G- b]  = (* u* =! k^ S* m^ I- I- d< w* m- %! << H- ./ 7* =! N* o- 6] q- @[ _* c< H- Q' h% W) b] K* w* h% `* Q' |* m^ S' O= 0* P* 1* Y* w- u* u* c< o] m/ U^ 7* p) p] 9* -% w- <; S^ x^ >0 Y* N- _= C{ C{ 9* c< w- 0* =! w% p) h* C{ V7 U* ,% _* += 5] += |* y] d* -% B] %! g= )! u* U* 3! s$ 0* ,= S^ /) u* c/ S) 3! E] |< N- b] ,= |< n> a} T` y[ d} B& 1| 47 W% y[ }^ 0$ Gi !] ]5 Q& 5& d> N& m6 p} v} >] d> V& )4 y[ m6 v} D} >| m4 h} ,] p} [4 X{ +$ y[ _4 y[ m6 &5 Y4 <^ @6 _4 [4 @5 c} c} W% e} /& c4 B& >5 p} Q& :4 (] h} v} @6 b4 v} @5 +| p} v} :4 N/ s4 y[ A} Y{ L} /] Y{ a3 )> .g l% =& z{ :% w^ 0< p] _% ,= ~< P^ K) x% y% += y% H- #^ g3 ",
"yh ,= B{ E' {! t] w^ z7 ~/ =< w* Xo a9 ;% {! Xo -/ J- h^ !< r6 $^ /^ W$ *^ Q#  6 8} ,6 Ot /^ $& I$ S& >$ !6 r5 }] E$ n[ C5 z5 {^ #* |% )% S& !^ )% ,6 (6 Q% z} q% u5 ZP M! 7$ ~^ g& W6 S& _^ .$ :5 s{ u5 d% (5 =^ Z{ '6 s{ A! ]6 Q#  7 0% a$ $* K$ v6 $& J) [$ $* i$ #& (} /} s{ X< W$ p$ 7% +6 +% +R t! x% ${ ./ !< =& -% B] 9* E' 7' w^ M,.6* :% p) 1* S- v- :* w^ k^ m, m^ (! t^ @/ z* b] %; g] S9 v* k^ S^ .} 3] {* m, =! B{ A^ t] 9=  < C- R* -% N- 0* += {* i% w* i% <; w- S9 s^ g< k) %! v> C* ,% fk {* bo 1* N- w* E^ w^ -% 3] A- U^ w* h% Q) =! b] v* %! u* p> '= J^ p) B{ w% C{ %! ,o b] 9* 3! $- Bn %! Y* *; {{ 8< z7 E' C* N* P* += U] A$ w* R% C* U] p) 3! $- << =- N- _= h< =; i% A$ h% 6* A$ h* D^ {{ m^ w- J* 0* K; >0 q^ +[ j] U* C{ 1; `* <* Q^ p) +; W^ o- ,% 9* m= I' Q' t] H- ,= *; h% S9 v* k^ d9 u* j) U] w- 46 N- ~< <; P* n] m- 5= q^ U] 9a (* A^ -% C= 3* V7 l[ v) ]n Q) y] M* Q' x^ c= w* q^ 5] (* [* 9* l* o- B- m^ -{ P* %- c< {* u* m^ v* A{ =! n] S^ #% j) {! a[ B] N* 0* jo %! Gh J* =! I- m/ m^ 9* x^ S^ 2} 0* D= t* v* S^ {* K; y% u* w^ (* U] =! {! B{ V7 -% S9 [= 3! =- r* /) <; q^ 6! |* =! (* |{ p] c< K* 7* y] n] v* <* .} t] A$ N- 5= V* J^ a9 << ,% e% 0* t] B- v* (* 5] {* `* i% {* S^ A- S^ b] y% << :% t] C{ i% d< J^ N- x^ w- s$ C9 #/ >/ <{ @& M6 *^ ^^ (6 A! v5 M! hl J) |[ A! (} >$ i5 A5 a$ g& )^ b> {9 :5 (5 =^ L< v5 R$ j5 &* )] {^ /7 j% _^ v& )% G5 F& k& )^ _5 r5 L8 )^ v5 dc Y# X6 #* `t g5 q5 ^q .& L'.!^ _^ F& ^6 k& Q& :$  5 /& X{ -] |7 !& -$ q5 }6 +] I/  $ .5 k& e& h/ #& L% N^ 3! ./ ~< ;% 4/ a, U^ I{ B{ D^ a, |] Q' }5 B- i5 bU ",
"5C d! d= u! c2 O* ~; 0* w% O* 2] R* p) D{ S* E' ,= l] d^ B] @/ =& F' <% G$ ;% -/ 8' DE A6 O% O% A[ %^ p$ [$ @& E6 V-.T% 0/ H$ 7/ 5$ )/ Q% E$ e/ b^ &* s{ K9 q[ <% ;^ Q% 0% *& d^ v$ f2 0/ n& 4% e& !% P% 7/ n& (< ;6 E$ Io d% L4 .& Io 1| VG K$ d! $^ r$ B[ >[ r$ o[ K$ p7 <% 7/ '6 Z^ 6/ L& J) =} C[ a9 O- V8 ,= :* n- %= ){ _/ m, x^ =- <= n- F* A- O= }= G- D= i- m^ N- w* /= v* (* 3* 0* F^ ]* 5= S- q= o* l= ^= (* |* s- ^= F= |* b- b] *= K* H' l* B* D* V* v* :* B* O= {* j) N* G* `= ]* _= p> C* 9= P* t2 f= j; `* D= )- A* :; <- 4= m- 2* d= F! V= 9= P* &= n- O= %- *= v) i= Ws 3* |; ^= A* (* F! ^= (* ]- 4= D* w= e= I- e= u) D* m, <; =- j- -{ A- _= A* F= F* }= f= V) q- 6- w= i= G= m^ u= A* .- [- G= q= g- %- (* 5* W= [; .- :- D* 5* K= 8= K= 9= Q* *; [; 5* B* Q* b* ]* q- >! w) u= m! >= C= C= $; P= i! W= :- 3* ]- ]= S= D= i= >= S= [- b= Q= 8- *= P= F* :; q= b= >= V= 5; `= Y) ^= x* C= <* [= D= &= 3> K* Z- ]- _- $} {; ]- H= a* f= 5* ]> R* 2* W= v- r; ]* &= ^-  ; t, K; ]* N= :; O= d= ]- 9- @= C= Y) q= W= u= b= j; :* :* B* r; }= G* f= %- 5* k= P* a* W= z* '- }= F= ;g t* .; 2* l* 3* f= (* P- K= H' Y= b< b* 0r O= P= b; <; d= )= b= ^= u* _= K* 1* R* :- K* )- H- I- R* <* Q* q^ S* &q h% .} f= N* /* <; f= H- z* C* X* L* y% p) J^ ~; `= O- {{ u! j] :< h] ${ ]< w3 O% ^^ @& g/ #< K$ E% 4} F' $< -p p7 i7 *^ A6 %% r$ i/ 7% i$ ^^ c$ bn 6% P% H$ Ea b$ *& /% o3 b^ $& a$ =} 5$ 0/ Q% w3 4% U% n& n[ Q% E$ +% 7/ r$ m% |u #< Q% T# %% ;9 (< ^% /% r3 n% e& E% F' )/ %^ VG n& d% )> L^ i$ N) K) @% a, %! <; S^ x^ 3] (* Ql }= {{ e2 ;g Ar ^* 0* w% 0* M^ mq M'.",
"X6 @7 W} $1 6| ]9 0} G} #2 h} k} S} 6| ^1 cc @| #| N'.i} u} 5& ]$ +] ]$ .5 y) s4 ~5 Y{ !] Y{ X{ +5 {| Z{ }7 @] @6 y[ C/  $ nl 4$ @7 y[ b4 %5 `{ #] 7& 7& |^ /& 2^ y[ R$ +] @5 ;5 i}  $ ,] =] {] #] B& +5 p} 4& N# N# #] X{ N# =] X{ y[ 5& )5 W% ,| /] Y{ D}  $ @5 )| p} 2^ ,] :[ N& 3| 64 >] Ol d> 20 :4 >| #2 g| S} 0} y} w} M} Qd ,1 X} S} Z} B} A2 x4 l3 16 !| _| b1 s} e} <5 h} c| d1 -1 ^| #4 <1 >1 &1 #4 F3 d1 }| J5 L) || O} cc Z| }| R} e| In k6 s} +0 P} ]9 i| G} =1 B} K< (1 0} &1 j3 y2 7} O} u} || P} In 16 l3 l3 e| -1 s} d1 #4 !4 T4 s} o} P} l3 ,1 m} b} Z} K< u} 8| +0 *1 Q} *1 c| d1 ,1 16 G/ Y| Z| l3 c| 16 j3 H'.A2 Rn  4 6| (2 |2 q4 7} c| m} [| 44 !! /| q4 *t B2 {1 }| j3 j3 *1 *1 ]9 }| 0} q4 Q} k} #1 A3 S} :| d1 {[ }2 j3 O} #4 %} K< O'.`} )1 }2 c| >| e} :2 E} e3 e| *1 c| {[ 0} O} || K3 |2 Z| !2 s} d1 A3 || !! '| ^| o} ~2 e| z3 Q} #4 A3 N} B2 R} /1 /1 || B2 s} c| || L) _| K3 C: |2 In l3 In L) Z| Z| 20 K< l3 || d1 0| $| O} R} s} <5 l3 H3 ,1 Q} {3 {1 s} _| Z| ^| K< S} Z| V} }| S} K< y2 Qa L) +0 #4 *1 -| m} A2 #4 d1 S} l3 :| a0 N} o} B} 6| o} '|  4 o} ;1 o} -1 ~2 A2 A2 ~4 R} 0| c| C2 s} w4 m} L) c| k} d1 13 y2 V: || h} y2 K< e} M} P} A2 #2 *1 b| c| || P} <5 =p 8| w& S} c| /1 j3 O} s} '| }| G} 0} [| G7 ]9 ^| S} >| b} Z' w& v} 20 v} 64 j4 f} )| ]% .5 lU b4 L# Y4 {] =] /5 () y) =] $5 {^ L# () 1| @5 :^  % 1| )] k& N# =] Y{ N# )^ &$ /& !& 47 k& $5 j% )^ N# f5 {^ Y4 R$ E[ ]& v& )] #* W{ V4 @$ -$ |7 :5 7& @$ .!  5 )^ *5 )% Z{ &* 3$ Y# () )] !& 3$ 7& 3$ -$ k& ec .5 =] p} x2 8| l3 b1 h} 26 s} ~1 O} u} ^| l3 S} E1 s} K< 7} L} 'o D5 "};
