/* XPM */
static char * Horror_Wall_11_128x128_xpm[] = {
"128 128 558 2",
"  	c #E1D7B9",
". 	c #E2DABB",
"+ 	c #DFD4B5",
"@ 	c #DFD5B6",
"# 	c #DBD1B2",
"$ 	c #DDD5B7",
"% 	c #E0D5B6",
"& 	c #DDD4B5",
"* 	c #E0D7B7",
"= 	c #DED3B4",
"- 	c #D9CFB0",
"; 	c #DED2B4",
"> 	c #DFD3B5",
", 	c #E4DCBC",
"' 	c #E3D9BA",
") 	c #E4DBBB",
"! 	c #DFD7B8",
"~ 	c #E1D7B8",
"{ 	c #DFD6B7",
"] 	c #DACFB1",
"^ 	c #DFD5B7",
"/ 	c #E0D7B8",
"( 	c #E1DABB",
"_ 	c #DDD3B4",
": 	c #DDD2B3",
"< 	c #DFD4B6",
"[ 	c #DED5B7",
"} 	c #DDD2B4",
"| 	c #E1D9BA",
"1 	c #E2D6B7",
"2 	c #DDD3B5",
"3 	c #E1D7B7",
"4 	c #DCD1B2",
"5 	c #DED3B5",
"6 	c #E0D6B7",
"7 	c #DDD4B4",
"8 	c #E1D9B9",
"9 	c #DED4B5",
"0 	c #DCD2B3",
"a 	c #E3D8B9",
"b 	c #E1D9BB",
"c 	c #E2D8BA",
"d 	c #E2D9BA",
"e 	c #605D52",
"f 	c #DCD1B3",
"g 	c #DBD0B2",
"h 	c #DFD7B9",
"i 	c #E2D8B9",
"j 	c #E1D6B7",
"k 	c #DED6B6",
"l 	c #E0D5B7",
"m 	c #DBD3B4",
"n 	c #DDD1B3",
"o 	c #DFD3B4",
"p 	c #DED5B5",
"q 	c #DAD0B1",
"r 	c #E5DCBD",
"s 	c #E0D4B6",
"t 	c #DBD1B3",
"u 	c #E0D5B5",
"v 	c #D8CDAF",
"w 	c #E3D9B9",
"x 	c #DBD0B1",
"y 	c #DED5B6",
"z 	c #E3DBBD",
"A 	c #DED4B4",
"B 	c #D9D1B3",
"C 	c #DDD5B6",
"D 	c #DCD3B5",
"E 	c #DED6B8",
"F 	c #E1D8B9",
"G 	c #E5DDBC",
"H 	c #DED4B6",
"I 	c #E1D8B8",
"J 	c #E0D8B9",
"K 	c #E2D7B7",
"L 	c #E0D4B5",
"M 	c #E1D7B6",
"N 	c #E5DCBC",
"O 	c #E3DABA",
"P 	c #DCD4B6",
"Q 	c #DDD4B6",
"R 	c #E0D6B6",
"S 	c #DCD2B4",
"T 	c #D9D0B1",
"U 	c #E0DABA",
"V 	c #A09B88",
"W 	c #DED6B7",
"X 	c #DDD3B3",
"Y 	c #DFD5B5",
"Z 	c #E1D5B6",
"` 	c #DED3B3",
" .	c #E1D6B6",
"..	c #E6DDBD",
"+.	c #E2D9B9",
"@.	c #DFD6B6",
"#.	c #E3DABB",
"$.	c #DCD3B4",
"%.	c #DFD6B8",
"&.	c #D8CFB1",
"*.	c #DCD5B7",
"=.	c #E3D8B8",
"-.	c #E6DDBC",
";.	c #D9D0B2",
">.	c #DAD0B3",
",.	c #E6DCBD",
"'.	c #E6DABA",
").	c #DFD8B9",
"!.	c #D8CEAF",
"~.	c #DBD3B5",
"{.	c #575035",
"].	c #E4DABB",
"^.	c #E2D8B8",
"/.	c #E4DCBD",
"(.	c #E1D6B8",
"_.	c #DFD4B4",
":.	c #E2D7B8",
"<.	c #DED2B3",
"[.	c #DBD2B3",
"}.	c #E4D9BA",
"|.	c #DBD1B4",
"1.	c #DCD2B2",
"2.	c #E6DBBB",
"3.	c #000000",
"4.	c #E7DEBE",
"5.	c #E5DDBE",
"6.	c #E2DABA",
"7.	c #DED7B7",
"8.	c #E4DDBD",
"9.	c #DDD6B7",
"0.	c #E1D5B7",
"a.	c #E4DABA",
"b.	c #E0D9B9",
"c.	c #928D7C",
"d.	c #14130F",
"e.	c #E3DBBC",
"f.	c #E3DBBB",
"g.	c #DBD2B4",
"h.	c #E4DBBA",
"i.	c #D9D1B4",
"j.	c #E5DBBB",
"k.	c #DED6B9",
"l.	c #E0D7B9",
"m.	c #DAD0B2",
"n.	c #DCD4B5",
"o.	c #777364",
"p.	c #B7B19C",
"q.	c #846628",
"r.	c #807B68",
"s.	c #DCD4B7",
"t.	c #E4D9B9",
"u.	c #DCD5B6",
"v.	c #E6DEBF",
"w.	c #E5DABA",
"x.	c #D4CDB2",
"y.	c #F1E9CD",
"z.	c #92712E",
"A.	c #6C695C",
"B.	c #DFD7B7",
"C.	c #DAD2B4",
"D.	c #DAD1B2",
"E.	c #E6DCBC",
"F.	c #E0D6B8",
"G.	c #E1D8BA",
"H.	c #E2DAB9",
"I.	c #FAF2D4",
"J.	c #574723",
"K.	c #DED7B8",
"L.	c #E4DBBC",
"M.	c #D9CEAF",
"N.	c #DAD1B3",
"O.	c #E5DDBD",
"P.	c #E3D9B8",
"Q.	c #DDD2B2",
"R.	c #DBCFB1",
"S.	c #D8CEB0",
"T.	c #DACFB0",
"U.	c #D9CDB0",
"V.	c #F1EACD",
"W.	c #B6AB8E",
"X.	c #E6DDBE",
"Y.	c #E0D9BA",
"Z.	c #E0D8B8",
"`.	c #E1DABA",
" +	c #E2D7B9",
".+	c #D8CEB1",
"++	c #AAA591",
"@+	c #CDC5A9",
"#+	c #E2DBBB",
"$+	c #E7DFBF",
"%+	c #E6DFBF",
"&+	c #DBD4B5",
"*+	c #D9CFB1",
"=+	c #E6D9BA",
"-+	c #D9D1B2",
";+	c #DCD0B2",
">+	c #DCD6B7",
",+	c #E5DEBF",
"'+	c #DBD4B6",
")+	c #E2DBBC",
"!+	c #DAD3B5",
"~+	c #E7DDBC",
"{+	c #D3CDB0",
"]+	c #DDD1B2",
"^+	c #DFD8B8",
"/+	c #E3D7B8",
"(+	c #46453C",
"_+	c #E1D5B5",
":+	c #DACEB0",
"<+	c #DCD2B5",
"[+	c #DBCFB2",
"}+	c #CDC6AD",
"|+	c #3A362B",
"1+	c #2D2C26",
"2+	c #615E52",
"3+	c #E0D8BA",
"4+	c #E3DBBA",
"5+	c #BDB7A1",
"6+	c #3E3218",
"7+	c #46391D",
"8+	c #554729",
"9+	c #2E2719",
"0+	c #45423B",
"a+	c #DED5B8",
"b+	c #8B8776",
"c+	c #D7D1B3",
"d+	c #9B947F",
"e+	c #CEB375",
"f+	c #181712",
"g+	c #23231C",
"h+	c #4D3B18",
"i+	c #736547",
"j+	c #E3DCBB",
"k+	c #DFD9B9",
"l+	c #736F61",
"m+	c #7B7769",
"n+	c #5E5A4F",
"o+	c #DAD3B4",
"p+	c #E2D9BB",
"q+	c #DCD3B6",
"r+	c #E5DEBD",
"s+	c #DDCEA6",
"t+	c #837B55",
"u+	c #786332",
"v+	c #453515",
"w+	c #706C5F",
"x+	c #D6CFB1",
"y+	c #624C1E",
"z+	c #4F3D19",
"A+	c #938F7D",
"B+	c #978F77",
"C+	c #988D72",
"D+	c #B3AD97",
"E+	c #917E51",
"F+	c #8E7B46",
"G+	c #5F604D",
"H+	c #20201A",
"I+	c #675A3B",
"J+	c #8E8A79",
"K+	c #918B7A",
"L+	c #725B2B",
"M+	c #554B2D",
"N+	c #988B6A",
"O+	c #B3AB94",
"P+	c #DBD1B1",
"Q+	c #E5D9B9",
"R+	c #E4D8B9",
"S+	c #C0B9A3",
"T+	c #B58D3B",
"U+	c #968551",
"V+	c #969573",
"W+	c #3D3D32",
"X+	c #4D3C17",
"Y+	c #504D44",
"Z+	c #E6DEBE",
"`+	c #E3DBC1",
" @	c #59564A",
".@	c #8D6E2B",
"+@	c #DDD6BC",
"@@	c #49473F",
"#@	c #DCD3B3",
"$@	c #D0C7AA",
"%@	c #B68E39",
"&@	c #7B724D",
"*@	c #7F8067",
"=@	c #997E3D",
"-@	c #6A5322",
";@	c #5B461C",
">@	c #B9B198",
",@	c #C8BFA4",
"'@	c #E7E1C5",
")@	c #EDE4C7",
"!@	c #8F8B79",
"~@	c #E4DAB9",
"{@	c #DAD2B3",
"]@	c #B5A781",
"^@	c #97742E",
"/@	c #A48136",
"(@	c #9F7F3C",
"_@	c #CEC3A0",
":@	c #8F8C7A",
"<@	c #96917F",
"[@	c #D7D0B3",
"}@	c #E6DCBB",
"|@	c #E7DEBD",
"1@	c #DAD1B4",
"2@	c #8C8877",
"3@	c #A8A28D",
"4@	c #DBC99C",
"5@	c #AFA994",
"6@	c #A59E87",
"7@	c #807B6B",
"8@	c #BFB79C",
"9@	c #D7CDAF",
"0@	c #D9CFB2",
"a@	c #FFFFE9",
"b@	c #807C6C",
"c@	c #CDC8B0",
"d@	c #6D6144",
"e@	c #736E5E",
"f@	c #4D4B42",
"g@	c #AEA68F",
"h@	c #E5DBBC",
"i@	c #CCC6AE",
"j@	c #836528",
"k@	c #7B5F25",
"l@	c #897B5A",
"m@	c #716C5E",
"n@	c #D6CDAE",
"o@	c #D3C9AC",
"p@	c #DDD1B4",
"q@	c #312F29",
"r@	c #B1AA93",
"s@	c #BBB59F",
"t@	c #877143",
"u@	c #C0943A",
"v@	c #4D3D1B",
"w@	c #524220",
"x@	c #CCC6AD",
"y@	c #D7CEB0",
"z@	c #C3BCA5",
"A@	c #686558",
"B@	c #908B7A",
"C@	c #DDD4B7",
"D@	c #988861",
"E@	c #9F9478",
"F@	c #94845F",
"G@	c #B1AB96",
"H@	c #646255",
"I@	c #918C78",
"J@	c #D9D2B4",
"K@	c #B9B29D",
"L@	c #D8CFB0",
"M@	c #E8E0C0",
"N@	c #A19C88",
"O@	c #908C7B",
"P@	c #31302A",
"Q@	c #D9D2B3",
"R@	c #898575",
"S@	c #908B7B",
"T@	c #D8CFB2",
"U@	c #E8DFBF",
"V@	c #DACFB2",
"W@	c #DBD3B6",
"X@	c #E8DCBC",
"Y@	c #E7DCBC",
"Z@	c #E9DEBD",
"`@	c #E3DABC",
" #	c #E9E0BF",
".#	c #D7D0B2",
"+#	c #D8D1B3",
"@#	c #E2D8B7",
"##	c #E9E1C0",
"$#	c #E2D9B8",
"%#	c #EAE3C2",
"&#	c #5F5C51",
"*#	c #E3D7B7",
"=#	c #D6CEB1",
"-#	c #DCD1B1",
";#	c #E7DDBD",
">#	c #E7DFBE",
",#	c #DBD2B5",
"'#	c #D7CEAF",
")#	c #D8D2B3",
"!#	c #E4DDBC",
"~#	c #E1DBBB",
"{#	c #E3DCBC",
"]#	c #D8D0B3",
"^#	c #DDD6B6",
"/#	c #E7E0BF",
"(#	c #DBD2B2",
"_#	c #E8DEBD",
":#	c #DBD0B3",
"<#	c #E9E1C1",
"[#	c #E3DCBD",
"}#	c #D7CCAF",
"|#	c #D9CEB0",
"1#	c #E5DAB9",
"2#	c #D8D0B2",
"3#	c #D8D1B2",
"4#	c #E3D9BB",
"5#	c #E5DABB",
"6#	c #DAD2B5",
"7#	c #E5D9BA",
"8#	c #E8DDBC",
"9#	c #E4DCBE",
"0#	c #E0D9BB",
"a#	c #D5CEB0",
"b#	c #DDD6B8",
"c#	c #DED7B9",
"d#	c #DCD1B4",
"e#	c #D6CCAE",
"f#	c #DFD9BA",
"g#	c #DFD8BA",
"h#	c #D7CFB1",
"i#	c #E8DDBD",
"j#	c #BFB79D",
"k#	c #D9D0B3",
"l#	c #E4DDBE",
"m#	c #6E6A5B",
"n#	c #E4DABC",
"o#	c #4A473F",
"p#	c #716E60",
"q#	c #E4D9BB",
"r#	c #6C695B",
"s#	c #6A675B",
"t#	c #D2CCB3",
"u#	c #46443B",
"v#	c #D9D3B4",
"w#	c #E8E0C1",
"x#	c #B3AD98",
"y#	c #747163",
"z#	c #6D6A5D",
"A#	c #D4CDAF",
"B#	c #D8D0B1",
"C#	c #DFD9BE",
"D#	c #A8A38F",
"E#	c #E0DABB",
"F#	c #B7B29C",
"G#	c #D9CDAF",
"H#	c #E7DDBE",
"I#	c #E4D8B8",
"J#	c #D6CEAF",
"K#	c #E3DAB9",
"L#	c #E8DEBE",
"M#	c #D6CCAF",
"N#	c #4C4941",
"O#	c #E2DABC",
"P#	c #DBD5B6",
"Q#	c #BFB69D",
"R#	c #E5DEBE",
"S#	c #DDD5B5",
"T#	c #DDD3B6",
"U#	c #777363",
"V#	c #DCD0B1",
"W#	c #EAE2C1",
"X#	c #E0D7B6",
"Y#	c #E3DDBD",
"Z#	c #DBD5B7",
"`#	c #D9CEB1",
" $	c #E7E0C0",
".$	c #D8D2B4",
"+$	c #D8CDB0",
"@$	c #E7DCBD",
"#$	c #DBD3B3",
"$$	c #7E7A6B",
"%$	c #6F6244",
"&$	c #E3D8BA",
"*$	c #645E4E",
"=$	c #A7A18E",
"-$	c #676457",
";$	c #CCC4A9",
">$	c #5B5648",
",$	c #D5CDAF",
"'$	c #D7CDB0",
")$	c #E7DBBC",
"!$	c #B1AC97",
"~$	c #47453C",
"{$	c #E0D6B5",
"]$	c #D1C8AD",
"^$	c #7F7356",
"/$	c #BFB79E",
"($	c #E7DEBF",
"_$	c #DFD8BD",
":$	c #D2CAAD",
"<$	c #B5AE95",
"[$	c #E8E0BF",
"}$	c #636054",
"|$	c #A19B85",
"1$	c #3D3B34",
"2$	c #E5DBBA",
"3$	c #817A64",
"4$	c #E0D5B4",
"5$	c #DCD4B4",
"6$	c #BBB59D",
"7$	c #E2D6B6",
"8$	c #E4D9B8",
"9$	c #CBC5A9",
"0$	c #9E9986",
"a$	c #E8E1C0",
"b$	c #E6DBBC",
"c$	c #636155",
"d$	c #6B685B",
"e$	c #D8D1B4",
"f$	c #A9A28A",
"g$	c #D5CDB0",
"h$	c #E5DCBB",
"i$	c #E6DEBD",
"j$	c #D7CCAE",
"k$	c #E2DCBC",
"l$	c #746F62",
"m$	c #DED8B9",
"n$	c #787466",
"o$	c #E3D8B7",
"p$	c #DBD4B7",
"q$	c #C5BEA5",
"r$	c #454134",
"s$	c #D2C9AE",
"t$	c #918C7B",
"u$	c #2A2924",
"v$	c #E5DFC4",
"w$	c #E0D9BE",
"x$	c #A39E8A",
"y$	c #B4AE98",
"z$	c #A7A28E",
"A$	c #EEE8CB",
"B$	c #9D9886",
"C$	c #5D5B50",
"D$	c #EAE0C0",
"E$	c #D7CFB2",
"F$	c #6F6346",
"G$	c #5C4B26",
"H$	c #8D8672",
"I$	c #A2997E",
"J$	c #605C51",
"K$	c #787465",
"L$	c #E5DFC3",
"M$	c #544119",
"N$	c #AA9C75",
"O$	c #DED8BE",
"P$	c #A09B87",
"Q$	c #A19A85",
"R$	c #D2CCB2",
"S$	c #907946",
"T$	c #705825",
"U$	c #B5AE96",
"V$	c #6A675A",
"W$	c #9C9784",
"X$	c #ADA690",
"Y$	c #E1DBBF",
"Z$	c #D0C9B0",
"`$	c #51462E",
" %	c #D7CFB0",
".%	c #7D796A",
"+%	c #FFFFE0",
"@%	c #FFFFF7",
"#%	c #BCB7A0",
"$%	c #6E6B5E",
"  . + @ # $ % & * = - ; > , ' ) ! ~ ; { ] ) ^ / ( _ : < [ { } % | 1 : > { { 2 + ! 3 + 4 @ 5 6 ' 7 5 4 = : : 8 5 9 0 a b 6 # c : d e f 0 g h % i 9 j k l + m n ~ 5 6 o ~ : + } = p _ q } } { % 4 r s : } ) _ t u _ v = = h g 2 w @ + : f x = % / + 3 y z @ y d = ",
"9 & A B * ! C D E F G : # H 8 { I ! 2 J % K * L 0 < % < M 5 _ N = m ) O @ { @ P _ : Q 9 _ R 9 S / % j t = = T ! 3 _ 0 U   C % + V 2 % y * 8 W y P ! @ X f = 0 Y 9 0 Z @ > ` X u A _ } t  .+ : ..C % % +.@ @.@ ! @ 0 6 R 5 #./ % < + R 5 = R { 8 + Y 6 $.' C % 5 ",
"+ %.&.*.b | c I { $.R I 6 = # i Q | =.-.E m f o @ = f y + + 5 } ;.S y >.$ ,.i '.).= % A n # =.@ @ ' 4 _ > L ] !.4 @ @ $.# ~.L ; {.j 4 y ].t : ^.y 6 = R = : y 2 S 6 = 3 : : # u + Y : /.: u < @ ! (.6 2 6 $.0 _.6 d + A = A F :.9 o : % + <.0 y [.}.@ d P f L g ",
": 6 = J @.y R + S 6 |.4 5 + + j 6 @.4 6 : + ; Y : ^.1.y = _ % :  .+ 6 3 { I / _ , + 9 g R u 9 / 0 + 4  ._ % + ] _.p X &  .= D 2.3.< + Q 7 * y * n 6 } X n % y 4.3 [._.6 # = > X 9 @ x 5.= = % L J 0 5 % 6.O ~ _ 7.} | > Y : l 8.9 : f = = = Y : _.~ + _ 1 4 : 4 ",
"% @.R / 9.[.9 [.6 { @ f y 6 _ @ % & @.} 9 7 _ Y $.+ 9 9 _ @ 0.9 5 A / @.a.:.H D I ~./ J Y 0 * p @ 9 ! < y @ } b.h 6 y 9 % 9 @.c.d.^.R y e.I / y < _ 0 5 * 6 _ 9 6 @.0 @ / @ & R 9 5 p f.9 @ + ~ + A , / Y :.  g.h.i.! 6.9 S R W @ $.@ % Y Y } @.& 6 y l + 6 y 6 ",
"g.6 j.a.k.t 6 9 @ l.H @ 3 9 @ ^.@ R = ~ = 5 ~ = y % 2 % m.9 _ l @ * f.@ :.P n.9 9 ,.l 9 r _ 6 9 _ = 9 g 0 ^ y 8.@ I S _ @ o.p.q.r.| B / s.[ & 9 @ < ^.S ! R ^ 9 , p + 9 f 0 ^._ 9 @ 9 | H 9 0 < t.{ , S = P 6.H 9 u.d ~ v.@ { S } + & 0 _ / 2 9 @ Y @ _ y R < I ",
"S y +.[.9 :.j ! j ) @ } i 9 @.6 @ ~ R < Y 6 0 9 ~ S & ~ #.9 j { 5 t w.6 @ w p F & + 2.@ } ~ 9 @ a 9 @ A 2 j.t N y + 9 H 9 x.y.z.A.i B.C.{ 6 R 6 R - & P 6 _ ( y P 6 6 H % 6 ~ D.6 2 $.[.j @ 5 Q 9 R 0 ~ w Y Y ,.[.{ E.H @ 6 S & :.@ % Y ~ @ p @ H % t @ < 6 j.a ",
"u 9 n @ y F.C.% 1.+.+ } g f _ a S < f H = R = u 9 # x Y = 2 [.5 9 3 } = m 8 p @ _ u # G.5 u ~ R _ ; _ J @ = A +.w.@ 0 6 + H.I.J.g 9 o 9 @ 6 S 6 y k d P ! =.X W K.L.: F.: R M._.6 + <.R 1.N.n.} 5 Y n = n.6.~ @ & 0 9 %.< + & O.P.L = C O + A + f * : 6 % 6 :.Q.",
"D . / K.5 (.R.= 4 A : = Y : 9 :.5 6 ; a f = = f A y x + L + x 9 t D } % 6 ~ 3 _ ~ > u 9 { }.& F.2 4 + S./ 0 9 @ T.~ # @ % U.V.W.= ! n & 9 X.@ + : A 5 + 9 : C #.t Y.D j._ Z / = _ y 4 % L } : Y _ W 5 + * H 6 g @.6 _._ 9 ~ i E ;.3 L = ^ } 9 4 ` S = @ Z.R.= $.",
"E @ _ 3 @ @.`.6./ _ ^ 0 & ~ * F 9 * ^ 5 6 { / 6 @.A y ^ @.& { ~ ~ _ 2 W y Y ^ 6 { y @ { Y.& @.2 j @.9 : .  += #.& K.9 3 F..+++@+J 9 $.w I #+O.f.6.% ^ _ ~ ~ @.~ ( d 6 [ j.* d $+@.6 I { y F.{ H @ m.H y @ @ 6 R & 7.[.[ %+{ W { . y * 0 _ ^ + 6 6 y 9 q < H S @ ",
": i A 6 W 9 &+= g q @.:.o : } @ $.^ o 6 : ` : 5 M I + @ : =.Q &+R s u = H 7 p = } + + % % 8 @ % @ = 9 u ! { j ^.o R = < % i ' : = 6 n.9 * ! _ o { P . ~ o = *+y 2 P =+@ @ & [.5 7.{ X 3 L =.~.-+{ 5 0 9 t $.& f @ C u _.# _ i L.6 ;+= x 4 A 4 = ; ~ % 4._ F F.: ",
"y N.[.* 6 9 & @ }.:   0 { { D ^ 9 ~ {   { F 6 * $.6 9 { J I   ' + @ ~ t i = $.~ I E.^.>+P ,++ } { H @ @ / 4.Q O.n.6 9 _ / @.D '+{ )+I +.C y { @ e.F / g.. Y.[ ].9 @ !+H y & / * { 5.9 +.9 y / 2 /.6 y 6 i + & I ~+5.9 { y / 5 S ~ i * m.9 i < p [.@ @ Y y * Q {+",
": ~ @ 7 9 0 = 9 = 9 _ 6 > : _ j y @ f % + t = ]+2 @.m.^+X / [.3 X = = = @ 2 p n.^.= 0 _.%.A $.w + 5 > 0 = F d a._.] 9 9 T.4 d : & H + t 9.@./+n.+ e.+ & Z 9 $.j / ^ f W + _ g u } - (+_ y * 9 Y W + > _.9 g._ C 6   0 _.= 0 7 6 < 5 n 9 = _.= _+= % *+@ :+_ F.x ",
"+ ~ o { 9 + _ : + = @ = ` + g 6 9 & = 3 # u _.: t <+: 6 = = $./ A  .% _ 6 2 $.N H = % / / : % R * f : ` = Y t { / `.= & = [+_ D.+ 6 u +.a.d % u X & + L : : & 9 @ @ = A B o # L < 2 }+|+1+2+m.{ S.` : _ 6 6 [.#.@ 8 _ = @ : + j ).j <.` + Y _ 0 0 9 g y 0 } @ ] ",
"9.Y 3+9 & 2 9 y _ : y : 9 $.p 9 j S H & 3 ^.6 % 0 % @ R =.H [ $ 4+!+$.@.9 & 9 & l 2 h y 5.3 @ j ~ ~ 6 : = @.Q 9 5.C 3++.f.I y +.u.! B Z.@ l p &+,   O Z R @.n.H % ^ 2 @.:.9 a f 0 5 5+6+7+8+9+0+f.'+y @.$.p $.$.+ [ i y 6 9 _ 5 { @ a+].d I 9 S F.A 2 9 6 6.& @ ",
"@ /.Z.F l & @ @ 9 : y Y _ 6 @ 6 R & % 7 S _ @ @ _ < R @._ b+= H } -+X.w ^._ _ _ , ! 9 , t _ _ @ 7 6 6 [.9 % A c+& j Z.+ n.C & [ y D W 5.. y P @ 3 4 K.F { ! f.B.) ~ + A Y 0 6 b 9 t d+e+f+g+h+i+< Y e.@ 9 0 9 0 j+@.* 6 H _ 6 2 7 6 ^.9 j % f `.i ^.A 4.p $.9 6 ",
"k+#./ R % 6 @ 7 @ _ S $.6 H / @ R $.# * @.@ $.@.& Y _ % @ % l+m+s h n+R #+^.3 S   H o+^ 9 ~ 0 9 & 3 9 0 _ l 0 _ 6 9 P u.u.p+/ w y . I A , y 9 ! @ 9 < #+6.q+/ F P #.3 [.).9.y R [.r+@ s+t+3.u+v+w+. f P.@.@ p < h 6 A H 6 @ Y @ 9 7 _ 9 9  +Z.0 @ n.*.( x+i.N a.",
"4 @ : @.y _ = # g % 3 Y x 1.= { & 9 = @ : } 9 u 7 R x @ _.# y+z+A+B+C+D | Y.w ~.D @ j Y } = } 6 ~ X A 9 u } = L u 3 < 0 [ ! L.= _.9 8 b.N.^.= 0 f 6 = &+u ` n 6 9 R 0 R = ~._ = 7 O.D+E+F+G+3.H+I+J+K++ 9 ^.p : $ f + 0 9 : + @ H _._ + X C ` Q.= 7 5 K.%.d F [ ",
"u 6 o 2 @ & : _.+ n + % } K o 6 0 < ` 6 : + 4 A 0 & ;+6 + 9 L+M+N+O+5+% ^ j n.= 6 = f Q.@ P+I R _ f : 3 g Y j g + [._ G.W 6 S 4 X ~ : 2 p+6 -+O  .Q++.~ } q R+3 } }.y ..9 q 5 0 Y [.S+T+U+V+W+3.X+Y+5 f H 5 9 C d u } u % : @ 3 & _.= 1.%.X 9 } # & = H C : ! # ",
"6 9 t + R * _ 9 6 0 A A S p ! 0 I @ 9 Z+`.9 A @ A 9 Y % 9 `+ @.@+@@@2 _ @  +l t ' Y 3 } = + l 9 j.$ W & % Y X #@C.3 f *+9 3+d _ Y `.@ + 9 f.H y p $.R + + 0 [ 0 ! 3 [.2 ( 0 [.9 A 3 $@%@&@*@=@-@;@>@t 9 #@9 5 [ 5 @ 5 % % R < 9 y = @ 0 _.+ u _ % o+6 /.9 P ) X ",
": O 0 & 9 0 u _.= = { + j +.i 9 Q @ 0 3 n r # : 9 6 ] 6 ,@< A '@)@!@+ <.9 @ _ > y Q P ~@:.: * #+_ _ = : + < @ C 9 #@X 3 K._ + ^.{@* _ $.w _ = _.+ I + K w.@.~   9 i A @ ; p+= 5 _ Y.]@^@/@(@_@:@<@K 5 ` R 3 @.H a.: 9 _ 5 4 * 7 [.: ` : Y s 5 Z.A R A F w +.o : ",
"A R # 3 @ Y ; X 0 H A R = : # O.[ ^.: /.1 L./ _ 6 _ T.5 <.; 5 } L 4.;+> n.[@P = /.: L._ g.S H { < Z.+ } + n.< <.+ / O E E @.} u = A Y ~ #@}@s # = N.@ p = ; m.f.! |@& J 1 | 1@) t.Y 2@3@4@5@= : o d ]+; f.!+P y @ = R _ = } 2 / t : } > ) B 5 L = I : Z+%.Y t : ",
"= ~ * P 9.9.^ B D w R 5 < @ f $.Z+, + @ d 1.0 +.# & 4 R A A < A > g.6@7@8@^.p + 6 L : X 5 = p 6 A A n _ / + Z.$.p ^ # | # 9@_.+ : 6 = l _ 6 0@;.[ 6 : 5 = 0 f & 9 9 ;+w } x A / R d C.a@b@: < Y f ;.@ d R 3 _ *+{ + : A < 0 & 6 Y 4 ; p %. .@ u = S K.).k *+` = ",
"X R / @ 9 _ n n : P j = ` <.: i S J o H m.o A 0 @ @.f 6 = # L l m+c@d@e@f@g@2 Y H : = W A = 2 R 3+A = _.! D.Y A ; 3 f t @ J Q > # 9 C 6 @.@ <.n 4 W = % 4 = = h@$ w <.@ o F.# g 9 _ { ).4 _ ; f _ R } ^.2 ~ 6 q |.; R 9 + ` 2 R ^ X X 4 W f A _.> ^.% t C _ n.^ ",
"o 2 A | % < P+< 1.A j.p _.` 1.@ * { c R 9 u n q : & + @.= <.5 f i@j@k@l@m@j.+ y 6 <.% ; F 1./ 6 6 = A j n@/ f f _ [ ' 6 0.o@} [ o 9 _ O.9 t _.} : 9 { R f + = b 6 N.p@3 _ : ;+0 Y Y.- _ ! o 5 + 9 L q@r@C w.} { 6 n 9 o : _.y H * 9 = j # L 5 : 9 f # t ' D + q+",
"& _ 2 0 ~ R & 9 i + F.@ B 9 _ (.{ i / I ).| 0 y j 9 = j H 9 % s@t@u@v@w@x@(.9 & 6 y 6 @ 6 F # @ @ @ (.= 7 l.Y j 9._ $.).y@9 /.& @ 9 y # @ @ y S @ + 2 2 C ~.d S ^ 6 ^.: S ^.9 9 J 6 % 9 @ g.j.6 5@z@A@B@#@@ 6 & _ H _ < w 9 9 ~ _ ~ ^ + [.9 + : @ J ^.& $ 2 @ ).",
"2 @ 6 % #.* # 0 ^ 1.~ p @ R y 2 * R $ 9.I C@& )+0 w & 9 9 & Y D@E@F@G@H@I@3 @ = R j 6 6 K /.} @ @.@ 2 % @ N.J / % ^ 2 { ~.$+D.h @ H H < d y + ~ ^ u & = w C J@9 @.#@@ * i 2 _ u._ 5 @ = 9 _ A C.K@5 % 9.$ 9 6 = ) j 6 @ % @ } + @ 2 S 8 9 6.: * a E & & l., 9 | ",
"6.6 5 H L@& ^.Y + @ Z++ [.= p v.+.:.K.M@A Q @ Z+_ } Y H } @ t 3 N@2 ~ /.2 O@P@9 j ^.^ * y ! r+S j R Y K C.3 g 9 & i 9 @.* @ 8.6.3 @ @ @ y@* 3 _ 9 9 3 y ~ @ & { I R 9 @ 0 3 t.f.~ < w H @ S _ 9 8 ~.l.).S Q@3 9 p+9 2 p 9 _ Y y j Y A : @ #++ @ 9 ^ R * f.#@O.} ",
"*+O } * #@&.^.+ 5 A 9 f s 0 _.9 6 @ + g D % 0 @ = @ n _ ; = + L _ a n 9@R@S@. : & = R n 5 f.. }./ 2 = 9 # f s = 0 9 = S Y _ : u { J@C w p F 2.9 f X _ = o R _ 9 7 R + % ; 9 0 i : @ R.6 + } ) 2 T@% > : *.j.#+_ & + 9 o < g y  +% = F.5 % 2 = o 0 6 ..H ) f d 3 ",
"[ / 5 9 2 3 0 t L p+u _ + 4 : @ 0 6 _ 6 r = q @ = 6 ]+} _.+ = % = l + + @ _ < n.S = o : 9 O 7 % * <.n 9 + + % 5 <.[.: * f 4 9 4 + U@R+/.:.@ ] g.= + & W + u T.~ @ 6 g   i : X ~ 9 & : 9 ^.+ 6 Y + V@t j l @ W@%.. 6 L + @ o p :.9 6 X@_ D % = = Z $.9@# %.= _ 4 ",
"3 6 * ^ _ * K j '.3 Y@^.Z@j % :.T @.=.p : j < 3 `@! + A = Y _.3 _ % % y e. #^.5 9 3 /+/+j 6.6 R R Z ~ 6 Y _ 9 0.R 6 + $.j  .@  .% T 1 @ J @ t.F /+n.% = 9 /+, L.7.y K # R+< j I p+/ E.3 w.K Y 3 _  .l Z.e.a.^.j 2 R j Z K 6 / + f.u 6 f u + _ + 9 _ 5 )+$+: @ t.",
": ~ R C ^.& :..#  X _ 4 + q . @ @ $.{ 6 + B y { _ R 9 R ~ @ j.m ].W ) + @ ^ y u.e.g _ @ @ C :.y % } S + 0 : % + S @ _ @ 0 & g 0 4 6 F H _ i } [./ _ y _ 0 _ 2 _ @ H [./ 0 0 g./ & # } @ ~.9 + 9 5 [ _ % $.i H C._ = H 9 0 0 l.+#..5 0 x &.9 5 + 0 @ 0 . ! B % 0 ",
"l :.Y W { y @.y C / I + { l I $.< / H 9 ~ R Y.W y 9.O.! _ _ 4 * % @ @ 6 9 ;.^+8.J @.c F.(.@#(.@ ~ = ^._ Y 6 0 9 6 6 9 @ ^.i i $.@ :._ { 9 J @ D 6.y 3 = y 2 +.9 @ | . @ @ ^.* f.{ ).* @.~@9 o @.A : @ l 6 t 7 p ##$#(.H ^ `.2 @ %#8 /.9 t.#+3 + H E.# . @.J ~ b.",
"t.J [.R = u.w Z : & X ! 0 @ 9 6.R @ : ~ u = X D (.{ y I @#% / _ } $.&#C N 2.E _.K.! 6.} = 4 Y 3 5 X n @ # 0.= X _.9 _ _ + X 5 0 R @.= I 5 C [ *## ] X G._ 9 3 _ w | _.$ y@a 4 + 5 ~ { @ A } 5 _ f 0 f = j @ W@R 9.= + j B.4 B.{@=#t.= @ 9 < t._.: * B a $.C Q i ",
"# & + w @.6 -+Q+4 | i f + $.} M@6 p Y F.+ = 5 _ _ !+{ /.H = 9 + A 9 ` Q.Y #@2 # . , 8 s = Y 3 @ 2 : _.0 + } R _  ._ o @ Y 4 X : A @ + 6.7.S -#= ;.d { i +.l.l.).O.y O F.< % g _ d -+t ~   ` R : X %.u ` _ p H x J + R $ j @.#@_ @ x t.#@f 9 *+= _.b.+ Y.J L u = ",
"u Y Z y [.6 Y O ~@f M@+ =.O u f.9 _ Z 2 _.+ 5 i i 9 9 H % + 5 0 @ j Z 1 @ #@[._.@ l.K ;# .= 9 p _ j _ < % X R R + % = _ j a  .Y u R L Y.9 j + ;+Z@_ J + @#{ A @ C f. .< >#+ f { S @ ^.E ].=.= Y @ K L j ,#C +.K * d F u u K 2 [.+ + R D y * O J 6._ F ).} < 3 Y ",
"{ Y A Y @  +_ l %+& D W K.7 p H 0 9 $.l $.!+f.b.u.Q 9.J t R % * 5 { 9 D.@ #@2 j 6 ~.].'#H i 6 $.& 9 S } & 2 0 _ S a _ i 7 @.6 R & j % 9@p < 0 :.S [.F = 7.9 @.I 0 Y )#^ E I B.!#9 + ~#R 9._ D ~ 6 9 @ $.~ R J # 2 J / ^.2 H 6 $.@.9 < $ S (.# N 6 J 6 /.9 {#_ p ",
"I t @ / 9 + 9 R $.A D.y @ [ b +.+ 3 _ j 3 e.y I 5 y _ @ ^+& } * 0 _ @ +.$ ]#W j.S 9 ! l t 6 F.9 3 9 S u 5 ^.5 0 @ @ $.@ R _ @ [.S 2 p [.9 % p _ 6 R $.Q f 5 ~ & @ I d y @ + $.M@f 9 % _ 6 $ 9 | # $.3 i @ 2 D.I ).@ ! 2 & 9 @ j C y W % '+m 1@f.J 6 D.| O M@9 9 ",
"@ @ 0 _ @ @ f # y [ D _ [._ ^#F O y _ $./ #@_ $.9 /#0 A 9 { _ Y = (#$.V@^ @ ).S.. t g.S & 9 2 + 6 t # A # X _ = _ @ _ 5 p 5 S $.2 _ Z.0 #+6 = @ 9 5 N.Y $.A Y n.B.y@i _#J @ t ).Y O._ p _ : | ! j 9 0 :#2 6 )+9 P :#N.S & 6 R 5 R 2 ~.@ : Y W 9 Z.0 7 } # ! 6 _ ",
"; { : + @ + ' X _ } {@f.8 C & + l 4.9 <#@ + > f 9 0@+ _ _ g.+ < u @ : + : I , n._ F I g @ 1.* 6 + 9 : 3 A Y % o 5 9 # 3 + : n = o @ y + 9 d f 1.f = A _ Y + $.j 6 J R l * = > g ! <+= % 9 = ;.G. ._  .R @ [#$ m @.%.6 _ 5 0 * 6 5 . ;.& 6.+ d d [ < 7 R = = <.= ",
" .S =._ @ :.p @ j + : 0 j :  .3 9 (#].9 , % f L @ @ }#f.% 2 +.l & 0 } j.3 ! 9 = N.l F / R S 6 & = 6 % S 3 K j < 9 _ g @ 5 + 3 Y + @ S.9 9 = $.Q ' ~ } 9 + j L 9 @ (#h@@ O. ._ + Q ' |#..:.a % [ + @ 9 ~+8 r 9 % 2 i ~ j Y 9 6 J @ 6 @ g.% + [ X.%._ < 0 l.@ _ : ",
"o { : R J =.: = ! + ' R ; n = _ 6 6 @ 8 : 9 L h@).!+/ C /  +S 3 g.6 = O.C 6 ^ _.~ _.R Z.3 = $.w < : ! 5 : _ = ;+: j _ p _ : L 5 n y 9@9 9 :.= + 4 Y y _ ]+4 A H ~ #+D 9.= : ] + 9 B [ 2.{ = ~.[ F.9 4 C #+:.9 _.^ =._ L R g &+3 5 + F < 8 A  .] ! ) / J Y : = f ",
"_.^ 4 0 * p + # ] n.# 5 + Y X @ 6 = _ | [ / 7 + 9 3 ;+$.Y H 6 + Z.~ 0 ] I / a.+ 0 & _ t F K @ H ^ : @ l > = % : = + ;+9 < 1.: : _./ M.J A 9 } 0 R.} p % =.u 8 o+y 9 ` * F K _ A # 3 ;+n.N.g.y + ! _ 9 { [.9 R = j m.9 T@C = < 6 6 + p } ] % + = = e.] _ 5 + : = ",
"o F.+ & ) a = ]+' > J 4.o + a.% R #.9 d + = x _ s S 0 y } : & Q { D %./ Y.{ D y `@1#b k C y K.| | + s w 9 :.W 2#= l.m.9 9 q + % : (.n y @ 9 o <.W 2 f , o = 6 j @.@ + @ : a.= A = < ] H = 4 _ Q 6 = + n O.{ @ n `@* ! _.R L ~ R B.: + Y + 5 R 0 = %.W @ j 1.X % ",
"0 t 9 A #+< 9 @ $.R A { 3## / @ { +.{ { 9 p _ 0 0 @ f 0 5 9 / 4#_ a.D.D.5 2 i l 6 9 f + + E u.@ _ ! & ` + 3 Y 5 $.f m.* *+_ # Y @ 6 % Z.( } S , @ A X : Z.@ ! $.N 0 S 9 @ L@+ Y 9 9 @ j } #@5 < *+5#9.@#f N.P F.[.6.* : _ 6#6 & 9 7.S _.= K _ % #@f m./.t } 0 _ ",
"A 6 4 $.J _ L + : + : ~ > + N.R B n.~ @ = 4 + j J ~ : p } : F y d u @ 5 @ 9 |.9 t : $ ; = = C.F W = u  .f & <.+ % 5 i ~ :.L =._.u @ = k+_ a.] n = : = 6 = + D R #+@ u j = ;+F 3 E 6 : _ f % 9 @ + x C.;.^.@ @ = & 5 / ; < f n.N C f : 9 > * + d : _ / # 7#Q+=.o ",
"8#* % [./ ~ =.@ > j : j F H _ 5 ].&.@ ! +  .%.u $._ 9 _  .u S.B.[ } : _ j 5 { u 2 : f.K u s < . 0 + u : j L @ = o 9 : 9 A j :.: % &  .$.} >.% @ + = = + F y 5 :.[ y j 6 % u _ u @.t % ~ Y _.j y < a+A j 9 L.).[.t 6.^.% j j < [#@ : u o = o _ 4.Z 2 o < J 9 : _ ",
"j y y j 7 8 & S m ~.{ 5 i ~ 6 ).D &.~ J 9 #+# @ p 9 W $.+ @.= i @ i ~ j p & _ R < F.9#7  +9 _ S 6 @._ A p _#^ Q@C.@ $.y @ p S + _ w g.0 6.+ & & &+D & f _ _ ~ W & y 9 A 9 3 9 6 [.# >#2 + * % ~ } 6 6 @ # [.% * f 0#2 Y F.@ @ & @ 3 p R @.9 2 a#`.S # ^ 9 #+:.% ",
"p 9 j [.b#4 J _ I < 9 = 6 _ { L.@.@ {#6 W R @.l 9 p [.Y #@+ p g.0 f.9 ~ & 6 _ #@9 @ $+@ 9 9 } m._ _ #.9 n.9 + 5 2 b 6 6 9 j j (.R p | u.c#W +#6._ 5 R n 6 * }.~ 3 @ J ~ 9 _ { m.@ @.$.p @.+ @.t A [.@ & ~ y 9 * 9 W _ 9 9 @ t Y 9 l [ 6 6.@.l (.5.E 9 @ _ % /.H ",
"9 $.t ! < 3 T +.[.: F (._ 0@W O Y _ [.9.$.K.9 d#@.@ S K.H ;.$.6 4 C & [.0 Y _ [.y # | [._ $.R i ;.| 9 9 n.[.+ S S 6.9 R @ f 9 S 0 J e#$ j $.6 # 0 = b#}.(#m.m / + 9 [.9 p $.0 S _ R S ^+H & p i.n F _ 2 F 3 9 & y #+m.[.2 & 6 6 & E R = D & 0 D.S.G @ _ _ t # ! ",
"L (.+ *+a._ + +.4 _ 0 5 = m.= u.% ^ 4 l ! 0 t F J ~+# @ + Q.+ = % ! 9 % @ 9 y _.2 o h@% + S ~ %+^ + = = + + ~ _ = 8 0 _ = = o : o + : m.w _ H u : % Y j  ._ = C j ~ = :.: 5 = u l _ _ @ = + / + = 5 ;.= . _ i u & % ' ]+@ 0 _ 6 ^ @ : } = } % 0 + ! 0 6 = 1.+ n.",
"K 6 <.9 0 ( 9 g : l { = > = %.@ i.@ -#~ } = !.o [.= m.J ~ :.: h@F % n u S 9 [.: 6 + g./ L.: y . % f u _ : : = = : h S 2 _ = X = = ~ : S + ).+ { + 5 < @ : = % @ '+6 4 { u : 1.= [.% n 6 + 4 y 5 L + 4 A < 9 & = 9 @ G.t.| <.H 6 @ } : 9 = u = : = B S H @ : = & ",
"$.{ ~ 6 * & H {#8.# :.} 2 C 9 C.C 4..#! E & 5 $.6 5 6 { & I @ ).= $.j H y y 6 2 $ $.l.$ J@d 9 | 9 @ F.+ S 3 0 9 {@@ & 7 ^ {@D [ J / ~ ~ 9 ~ S 8.8 + ^.< 2 { y @ ^.5 _ @ F 6 a y j t @.{ D { = k % y L.l./ $.^ ^.! @ f#2 W@].& * * 6 F.# [.7 0 6 n.* k+9 { *   g#",
"Z @.Y 9 Y S 0.< [.5 = _ Y 4 _ 3 9 @ % i A _.# = 6 P 9 :.Z = &+i + A <.R 6 _ & _ l = O G.6 N.f.y @ C w E.:.+ _ h.% % Y ^.u = :.: } R = R Y % } l.[.g. .+ ` u R A @.I = 6 A u Y : ~ 3 = ~ ; m _ 5 j _._.9 i 3 H Y i # ) ; 6 h#f.@ @ C 1#i#j K X I + :.Y | u + l % ",
"2 & ^ @ 5 @ $.g.9 +.h@: j#y [ 2 @ p k#@ H [.F.S & ~ [.y H D = 9 = 5 & D 9 3 { )+6 $.n.m # 9 t l.[.C h  .5#K.j..+2 $.6 ].#.2 $.H T y H & ^ D.& @ 0 ` ).R * & Q & 6 & Q @ { $.S _ y @ & { [ c#9 2 _ t ^ $.@ + H l#@ / 2 & _ 9 2 L.2 J W@*#a.).@.S S B.9 6 6 2 !+2 ",
"= @ = 6 ~ @ = + 9 + E.Y@~ = _ :.& S l 6 = 1 t Q 2 ~ q 3 } : _ _ % 9 o L N @ ^ : b % { ` G = 0 8._ = + ' f = : 9 ; % + #@6.= o o f L.: / ~ _ + A 0 R 0 N ; ]+9 6 _ 6 :#i = : f } 6 6 g K ] + : Y ; 0 o i ~ 6 ~ n /.o S.+ R > _ Z+@ : t ]._ + :.+ : _ = 9 C g : : ",
"0 H + ~ 9 @ P+Y _.A *+j m#= 0 % I 6 : p }#= 6.` ^#& x + : n#E A @ A + R.y H 6 X C @.9 Y : _ 9 p @ 4 + + F.y % ; 9 t 0 D.X.;+@ 2 ^.. = % _ 6 4 0 x A < :  .X = _ @ l + 6 = : ` x 9 { = 9 4 } 9  ._ u k { g.2 9 4 $.X ! 9 + X 9 7 9 : = + 2 y % : 0 H X #@r k#t.= ",
"9 & l Y #@Y D.S j = +.o#p#8.* _ 7 } $.y J T % y 6 Y.J ^+2#M e.A } @ _ @.y S @ ! 9.@ 2 H 9 l *+*+a % 9 + A * f @.H j _ R K.l.0 2 6 & E , 0 7 `.@ Y x S 5 ^ I $.Y p @ 2 @ @ 7 = * y $.R & t -.= _ _ Y 5 0 ~ < S y _ p ^ ^ 2 } & _ i 9 ~ < A { : 9 6 9 + R 0 H &+_ ",
"q#2 @ 6 R ~ ~ @ F r#s#t#u#9.{ 7.E.5 9 l *+`.~ < %+9 ^.@ 9 '+= @ : @ 6 / W Y./ 6 S X & _ O 3 y@O @ H H Q { n.9 9 9 Y 3+i D 6 9 @ H ^ 6 /.K.F.~ i @ u t = 6 [.5 I @ 5 @ 9 @ 3 2 j 9 _ I j @ v#: 9 + 6 ~ [ @ ^ S @ ~ n.@.t _ ^.~ N 9 g.{ D @ m 9 9 @ _ 9 d w#2 6 /.",
"Q J F j < J . n.p x#y#z#_ Z+6.A#v.7 (.i { #.J p u.3#I 9 = {#g.2 + O 7.A j y D.@ p 9 @.9 $.@ '#h R +.D.Y + l 2#i $ J H 6 #@2 < 9 @ @ 9 a., ).$ @ & f p @ j t.(#!+2 7 6 & 9 ~ R Y 0 @.2 9 @ 9 [ 2 Y $.R Y 2.. 6 q `.3 $.y { Y 7 K.A H $.+ _ @ B#* t @ y 9 9 ~ < 2 ",
"= Z.H 9 Q@9.}.Z Q.= C#D#Z.% _ 6 Y.&+%.E#_ 4.# I _ p F D _.n.1#E @ = : + @ < @ g X + + : % f t @.l.Q+K : K m Z.q k n.} * : } : } } ! y @ E u.l.0 _.+ Y j = & 0 :.I 3 + & + + ] ` 3 6 & g.: = ` l.f X = R @ @ $./ 0 =  .= + } 2 - 5.+ = % + + 0 # F 8 f _ = 4 : } ",
"p % 0 9 * A : o # ' + F#L 4 = Y | . $.$ a 5 ^.' Y @ G#Y $.-+R Y = % X $.E.3 [.d $.: 1 + ^.0 9@8 W Q@#.m B 6.:.0 = @ $.9 u _ 6 q $._ 9 0 W Y + n L@W B.K a K f  .( ^.1.~ f f _.^ _ 6 6 :._ Q._ # w.Q = [.5#@.g.= [.> <.+ R f % 8 B N & P.9 @ = Y = :.$.w % ] ~ _ ",
"4 F.A @ 9 7 L _ + 9 ^.l @ 5 } #@/.6 ^ { _ 2#$.& W d g...P W Y _ o x Z : _ W *+Z 5 A @ f [.D n.@ 6 : 5 2#@ 5 u / w.@ _ L.Q y@0 0 = 6 u l.9 ~ _.0 = '#w 5 @.} h R N._ > * <._ 0 t E #.Q j.W [ % % d + <.9 9 L.H o 5 Y 2 _ A f i 2 & 4 5 h#6 5 = _ ; y t 3+N.$.+ : ",
"= j _ + 5 * f _ 0 _ Y % 0 ; } y & i ~ a.= = : } 5 J # @ F + X 9 A j o _ @ 9 | : & # < X Y & @ & + : = + D H#5 ; 0 ! { 9 o : : f = } f % *+_ _ 9 X = ! B ! *#f P f.6 : @ = 6 ;.  { m W @ / }.n._ 1.: L f 9 3 ! = ~ } 5 # 3 = l ~ _ = _.A y ' < n # 9 { / Z = <.: ",
"5 6 + @ Y 9 + = 0 = 9 o ; + @ W C E <.* # I D { 9 | f }.H C } A _ ; + n B.7 $.I#3 = = 4 J g.J X.Z.C j.@ T.= * : : S . <+% : f = f ' #.@ + . + $.~ : 0 F o 6.@ ~ ! /.o 6 x 3 Q C ~.@ 0 Y@l.{ f 0 } j u = O $._ ]+@ + u : 6 } 6 ~ 9 _ + _ g = D < = 2 W P _ &.' f ",
"@ H u S + y : = = R 0 = 9 > f.a 3 6   . > 1.F = J#_ L.$+A 5 0 @ = % 1.K#7 y t X.@ = :.6.H J 9.:.:.+ 9 . : Y  .9.j _ ~.& 5 @ % :._ S w C F C + % _ & Y A % Z +.@ @ [./+0 @  .O  .m :.[ h A + # E.: % Y I _ * S ].$.+ 6 A @ 9 & < j Y R _ :  .: ! @ | ! 9 ^ n.0 L#",
"+ ~ : & j 9 = = 0 9 X _.+ = : H y ~ = ! k#O _ ` 5 w m.| = + 5 + W l 9 < 6 { 3 1#L.#.g 4 + _ d 6 9 n : q `@; 9 ] = h@/ 6 % m.;+f = S i 2 y R 5 A 9 @ + Z g + = @ ^ /.F p & Y M#= G.^.f . ; j / d ~ 9 H 5 y { ^.o @ 0 : = ; # + j 0 Z + + f o 9 ] w l @ { + S o F ",
"= N#_.@ (#6 <.X % 9 < X + = # % t p : @ 6.f .+n.% e.# O#P =.% = + A S A k +.P#9 J _ W ' / { l.{ 6 = _ + $.= : 0 x | _.@ L : +.<.= Q#O ~.* & ` : > 2 } : + + O Y 6 R#S#+.y 6 m.{ @ 8.0 . & C @ + #.y D =./ I I 0 @ = @ 5 @ L 6 / 6 : } % [.= = q { O X & = ` y y ",
"A X @ & @ 7 @ p :.$.6 + N.9 I 0 9 [.* 9 ).Y @ 9 @ S K.. O.9.' | 5 A k N ^.e.2 T#I e.J E F F C R ^.@.0 5 g., % K.[#_ I < j 6 9 { _ U#g O J 6 y @.@ t 6 + & 3 9 | ^.o+p 6 6 8 #+A 9 g @ Y.| @ = _ 5 A 8 Z.6 2 @ H * H _ 6 A S * (#y _ @ f n.Y + u.h 2 $.j K j ~ M@",
"6 9 0 6 F.6 _ a 9 5 & _ ~ _ K.9 @ _ = [.+ l H _ @ 9 2 Z+6 9 Y C.{ 8.e.@ g C@{ 9 Y {#5 j h @ {@_ 9 Y y + 9 v.{ e.e.$.H 9 { 9 6 : H @ 6 ~ H { @ 5 6 5 ~ < S R 2 9 y 8 F.9.i d Q [ E J C., 2 Y Y . j { . @ F [ 6.t Z+H < @ 2 6 p 2 t j ~ A $.y F / h m.6 @ @ , l #.",
"_ :.p _ 6 = A @ 9 % ~ _ S :.D.5.6 i % 6 m.J 9 @ 6 F.H P % @ 5 & & % ..i 3+_ _ i p j :.~ % S 6  +6 S 0 Y S Y.& f.! + 2 @ 5 _ @ 5 9 @ @.@.6 _ w 9 _ _ ~ 2 H @ _ 6 @ @ J `@9 S 5.S ~ 2 6 E < 9 } )+9 % a 9 @ W C / #+4.a 6 } @ t 6 ' _ + 1.5 9 9 O 6 6 ^ ~ < r @ 9 ",
"= 3 = @ 9 @ } f : = % 5 } % 4 ~.J j % @ A B.f X _ 9 V#R q S C < % P g { o+6.3 _ 9 K 9 G.} 1.& @.W#= @ + I . : X Q R#t.R = x = V#= 6 = @ S S + } = A f 5 _ ; A P | w.! ^ Y - + ` 9 + _.X## ;.n.| 5 = = + m Z.* 0 R o 9 G.~.A @.R ##o 0 + { n.= n.j / f 9 + * O : ",
"= 2 L 6 @ < L + = + 5 + _ + _ + F.u.].6.B = = + R & : :.L { _ _ 5 D _ u b.@ 2 9 @ r + # ~ 6 I [ [#4 = + F.% % = _.2 N.J k o 0 <.> ^.= 9 _ 6 <.} : R = : _ + # :.9 E F.. [ 4 4 > Y & f j L d 4 *+_ C % _ 9 9 Y J @ + + _ 6 j @ F.y B 2 } 5 + 5 = V#_ + # X ; 0 <.",
"  @ y 0 6 N.[.* { = ~ X 9 D m g.9 y 6 6 i k & [.^.C >+K.^+&+J i 3 2 ,.m ^ 2#].6 & %+9 { Y#/ 3 / i * O _ P i = 6 9 K.6 R @ b Q R H / S 6 S y * +./ 0 ^ + 6 / y [ 9 / d F / f.{ @ ~+! +#!+8.$ { @ n.0   W F 6 ).9 y & _ { R#p #@@ 6 @.6 + P 6 _ ~ 7 9.9 @ / c H 7 ",
"0 6 : { $.@ : L 5 9 _ j = : % 6 9 (.Z 6 _ _.$.F.Y 6 P+9 K C F {@A } d & 6 p D.N j W _.= & _ E.a.2 ; X f / / /+` + @ _ 5 + h@% : = @ R S _ _ 9 ;+} = @ } _.= j ~ ~ l.j 6 @ g.$.5 _ @ 1.6 Z W W n.k > u 0 2 | * = < Y I#Q+p ^.E.6.H = _ = = & Z O o H + L.@ ;+; + ",
"{ N.y & 6 I y @.i = Q _ y & F.& 6 _ / F.6 Q ! 3 H 2 & p 5 y O i 9 @ P $ g.@ @ [.+.O#{ Z#9.( @ %.$.H 9 F `#+.1@6 F t 3 3 H @.i { ^ y H y ~ 6 6 * i _.D 9 @ I D )+$.| 9 y v. $$.9 / 2 & @.@ [./ l 9 #.{ * e.@ [.)+{#i +..$| Y.Z+9 { ^ 6 5 5 I k#^+Y.K.J @ / @ i ^ ",
"Q.F._ @ 9 $._.A o } _ [.5 : + j & * ; t._.W = 4 < R 0 A B.I 6 :.A : ; m H H 6 8 K.4 _ ` #.1.9.~ K g > e.= : f n : < f @ <.] ' ] A g.+ & t * : Y o } + _ = = % (.t J < ~ 6._ : + 9 p +$* n.6 _ % A q j = . 3+6 8 6 > 9 _.C X u.j.#.% : # + 4 : = <.: 0 R u + ; ; ",
"<.9 o $.R @ : 4 # A 9 = =  .= 6 :.6 ; A A / x : 5 q#7 ^ _.* & d 7. .4 # ).@$h./ y % _ [ 9 L + :.K.=.= I R Y _ A : O.g @.+ : t % o I : @.@.9 @ + : Y } n : #.+ 9 G.#.;+! F ` X : t H #$H : L $.I X = n.9 e.} * F & : @ n._ + a e.).: Q._._.R t _._ {#% 6 j > _ = ",
"@ Y @ & 2  +@.p 6 } & _.9 R * @ % 5 ~ & 6 9 + t.= % 9 . ~ $$+ % 8 / h@& J $.6 & } b 9.& @ 9 _ } y @ P F C { [ _ H R 6 @ @.d { j $.7 9 @.[.H & 6 @ 5 { + @ o+@.e./ S F K.F 9 _ t.% + $., % 9 = 6 ) P @ 7.C.a.S y + ^ ).& 9 9 @ P 2 ..H f 0 { D 9 i _ H 9 @ Y y 9 ",
"_ < $.R @ @.@ 3 ~ : t _ @ 2 @ { }@' 5 p J j 3 9 2 j Y { | p %$2 S 0 3+w ! 3 % & f.f.$._ 6 9 9 6 [.@ * $.d =.9 ( i @ 3 9 / 9 * _ y 2 y 9 (.$.~ R 9 = _ X . b | 6.+.~ [ Y f.9 i :._ 5 R 7 i#R   2 m.A l.S @ n.a.y #+| 6 @ t @.@ 9 O.[#9 @ 5 a Y ).S 9 @ 9 6 { @.^ ",
"6 2 _ A Y $.^ [.@ 0 :.Y # &$$.Q =##.=.! #+2#6 ^.9 9 6 + J 9 + *$+ , 5 ^#W 0 @ <   b R H ^.t 3 9 & A 7 9 _ 5.J _ @ -+K.C.9.Q ! @ * ~ Y R _ $.6 _ S @ 6 u.f. +& ) C f.W $.J P 9 $.* _ [.5 7 _ = S + e.6 _ I 9 D.p+i <+X l _ R _ @ u.`.@.9 0 H # @ @ 9 @ 9 @.E K ~ ",
"_.6 X 9 y 9 = A = S 1._ X ` Z @.~ ~ : 4.A ~.# : Y # ` 9 o % % =$-$/ = % P / @ + t f.5 # = y < ~ 6 : 0 % 4 E & ~+u Y < Z.F C 4 } = @ ` m.& + 4 = > 5 B.&+X A + * @ j O @ 8 P _ u p $.u @ = + + 5 _ d d : _ 6 p f e.= 5 !.% { < ^.H n._ = P+9 + _.u ^+2 p Q l.d f ",
"4 6 L @ / y : o = <.u L = = o @ @ } X F d # # _ @ y : 2 0 _ + ;$>${ = % 5 [ W 6.P 4 :.p < # ! Y { 4 0 X ! _ 2 f Z.y 4 6 W ]+= X = @ L h / & [.= 4 #.{ / = 0 L 9 % l Z./ & 4 : Y m.* ]+H : 0 % = = ^ + 9 (.0 _ _ D.Z j @.5 = `.@ & q Z. .> Y / f + & = < ! o D.A ",
"0 9 6 w + 6.5 S A 9 7 : } $._ j @ 9 O._ ).~ 0 } u @ 0 :._ 5 + _ h@6 _ [.# ~ l t l _ _ *+j 9 < ! @ _ X _ x = A _ 5#^+5#y $.H 4.0 9 9 ~ j @ , < d [.! # = : @ P a 9.@ | $ . _ 6 9 Y 6 f 3 : } 0 S / S.@ 0 _ @ 6 @ @ b._ *+j 9 H 6.6 _ * 9 x A A 9 a W 6 2 @.l { _ ",
"<.& } & ~ @.= _.f + u = o = 0 :.6 6 = 3 + Q f 5 D.@ = + ^.= _ ~._ = _ o f.R 9 > @ a % : D K Y ) $.% _.+ R + } {@X R n.l.^.9 <.x <./.0 { I ^.4 8 y ! = + } * +.2 ~ @ : r+} l.2 ^ n.w : % = ; X ~.= F + <.j _ _ } _ v % = k#K R C 6 } F 4 _ < 9 n.: R ` e.j.$.: : ",
"_ % _ 3 [.* > + f l = $._.; _ R 3 y@n./.Z #.2 / @ w.% i y o f  .; / Z n ! P W + ).0 N + o } t { i F = ; _ y 5 o 4 9 = ! G. .9 = A 6 0 R *+@.; [.! 3+@ @ + ; q O.W O 7 _ L #.D { t.$  .O &.; @ + L y o : # !+h 0 $.= F R + } { y @ 8 Q l + & } <._.& _ e.:#u = : ",
"o @.+ } p 6 y T@+ # = 5 5 } + 7 9 8.= @ ,.X 2#) #@^ 4 =.8 X < _ % D # [ @ 0 R : ~ ;+q A < } * 6 A _.]+p f.: _ : A / 9 b.R ,$+.g _ 2 L < 6 _ &.g.P 6.A f f < < g.~ @ = 6 } { q ].0 & ^.K ` A 0 0 f 0 9 } _ Y _ A & = ) : < = @ I R _.<.#.N L 1.+ A 6 0 . R S ` u ",
"_ 9 { [.@ 6 u > = _ Y + + ]+# j 6 J o ~ 9 = 4 l.9 @ 4 y { 0 + 5 } 9 % / H 5 @ } ~ <.+ 2#= : ^ 3 Y.` = _.m = A 1.} [.t '$Y 0 ! Q ! 9 { @ y 9 L f d ~. .A 4 o f j.O.@ L 6 : D + g 9 * Q ~ = + Z 5 e.0 + = @ 6 ^ 9 H n y n.+ = 6 @.( X 0 / ! : _ # L _ + >._ _ W + ",
"o 9 _ O._ @ ` } F _ : # : : : :.T / ].3 g 1 : T ^.2 0 @ + ^ $ < 9 ;.a d / w % $.3 <._ L Q : H a.* f 9 g S.n < : _ 6 + @ )$: = F <.9._ , Y i _.% 6.0 ;.K.a 1.& 5.7 @ f O Y : ' 0 : 0 q ..+ Z } % m = 4 4 j _ % _ 6 o 9@o   X 6 ' 7 : + n.0 : (._ S < 4 9 X@# : l.",
"6 9 @ # < _ 6 ~ 9 g ^ % 9 :.6 2 ( y m R e.h 9 [.C J ' ! [.X.f _ #.} `.b.@.@ _ ~ _ @ _  +@ ~ t $.< _ l A @ 6 = ^.[.= t / t H }._ H Y e.9  +# @ )+_ j ^ < 6 6 6 5 @ i _ Y @ W f.[.% [. .%.6 5 _ 5 % = @ | @ :.R & 9 y m.H 2 F.9 [.2 @ 5 _ 8 _ 0 Y ^ A @ ~ t 6 @ '#",
"{ @ ^ 6 ! y _ 9 H m 9 0 @ _ 6 S 3 @ Q ^+& L.@.).6 (.& 6 @ m 3 9 w Q @ 8.n.6 9 j 0 } _ 6 % | + 9 3 @ @ _ 0 Z.= * 5 l 9 y < /.6 /.6 6 @ p+m ( w d ^ 4 { X @ R @ S 0 0 S @.H E @.%+@ < y R ~.E.Y . % 9 l.K.~ _ 9 + 9 } 0 @ + . _ ~ ^.H 6 q Q B.# * = 6 9 y 2 6.9 /.",
"R $.6 ^ T y 9 A :.0 O.+ $.% _ l#y R `.9 A 8 % $+9 f [.~ / ) @ _ f.e.H b#(.u.9 9 j @ H _ y 6.b.e.W 6., = ~ , j H 6 H _ _ R & e.6 R y H g.^#@._ 9 + 6 9 + $.= @.H { R & 2 @#{ _ . @ _ & 2 2 @ P *.6.$ 5 /.6 @ 3 + = _ t @.p O.W 2 0 + R Y F 8.i F b.G.! 6.3 3 /.:.",
": p _.@ ^.D =.f 5 Y _ Z++ = y 6 & @.= :.g.; # @ % @ :./ @ 0 O 0 / 2.: B.@ 6 Y.} $.= 9 L 5 ! ( ~ 0 : = | 9 9 > : 9 6 u 6 Y f n.^.= & O @ 7 }.= 0 = Y @ % ; R 4 9 p 3 9 :.l.= A ' = _ x w <.= & _ n.w.= A & !$~$f @._ 9 n 5 ) ( @ @ _ = + S Q 2 : 9 3 x l {$_ C J ",
"[ j = 6 @ R 9 >.= 5 * C ;.L.] 6 j 9.@ F = = : ' ! ~.: :.@ 9 = 0 9 } < F 5 2 l { @ = = 0 W = & }.@ o I#%   + : + x ~ g $#< : ! q F /.5 W 5 = g : = 5 A I 4 : v j % C 9 ~ / + !.i m.9 <.~ $.+ ] 9 = } @ Q+]$^$/$% ~ + p = : d y@:.9 <.Z = F._ 4 > o S  .#@% : A 4 ",
"w {@=.@ 9 @.X R /+C.^.= i % | L.3 a.K }@,.L.Q @.X.N w 9 j = Y U@0 % }.^#J / ^.6 ~ w j F =.R y = 3 1 9 m.& 9 9 :.R 6 < g.}.+ ($ .e.&  .~ [.* u [ 1 Y #.% % > | [ A * 1 w ].(.:.+.G.J j.% K = I 3 Y u j N._$:$<$~ @ 6 X.*#j [$6 R ~@+ 3 m. .j _ a 3 ^.l @ + x } t.",
":   ~.(.9 y + @ d : _ _ + 4 0 R 6 / H { f 9 y #.S _ f = . 9 H S @ S *+5 . i ~ a#{#+ 2 _ 9 _ 9 9.N } % ] C.J } g } _ A H _ #.g.!+: 2 9 9 9 H } 9 f Y 9 _ Y _ 9 0 @ H 2 & f.D.& Q ~ 9 f Y J < { 6 f ! 9 9 @ <+y u.y 0 a.@ ~.o+~ o+{ 2 W ] ;.9 } x m.@ R l _ C % # ",
"a 6 j {#^ j @.{ & / @.5 {@ +& 6 H W 9 @ @ 9 p J $.).3 @.#@+.> 7 j + i @ C.^ @.* #.9 J F.  W @ 3 8.0 S A @ $+Y _ 6 6 6 _ p *.e.Z+6 a 9 I 2 _ 3 @ I m.9 = y (.@.^.2 n.@ +.S 9 p 8 C )+9 ~ 0 2 { R + }$|$:.6 S R `.).Z+2 ^ F.C 6 R O.Y Q q X 8.A 6 ^ $.@ H * h 9 #+",
"1.& _.@.#.p v _.@.+ # l.+ t =.@ (#R _.! ;.6 _._ 5 6 F @ - H 0._ 5 % 4 = 3 , [@_.$ = / :.: u S#k J ^.s @ _ f ) X ` @ 9 @ = A = m.) 1$X Y 6 [ 0 L _ _ X d _ & 2$5 R 9 4 | & ^ + @ 5 9 ) @._.D + g 5 3$: _.F ! i._.J { / @ : u & &+%.Y = | Y 5 Q+: A 3 9 + + X = m.",
"A ~ 0 @ Z.O.4$/ _.% d + : 2 + P . 9 { (.9 } _ Y t @ 2 3 [ : 0 K u } L ]+R & 5.# G.#.W T#Y 5$R y & ;+a 9 > _ / Y _.@ = g.6 0 1.|#6$Y.R 9 C 0 ` = : d O n = _ } ! r y 8 G.S + m.1._ 9 [.@ g.= _ = 0 W 7${ ^.& 9 q %.| C c  .{ 9 @ @ : 8$b.} 9 - = 1.Y : y@Y 4 0 4 ",
"_.R Z & 9 _ >#= ~@2 J % : y Y R n.{#% 6 O.~ + 3 2 p R (.d @ } + f % 1 /+S 3 _ C p . O 7$ .Y (.3 :.=.R [ [.p / ....i y `.+ = + 9$0$@.6 Y.j.j  .% + J , : % F R j P e. .5 N = + :.6 6 A :.F j % R + % n = C.! { + 7., u _+@#Y 5 $.9 % 9 | { & 4+..j _ 2.^+5 = u ! ",
"2 j _ q R l y b 6 $.{ % f.@._ 6 + = !+l '+S#! I Y 5 )+S , 6 : 7 2 $.R * _ A 9 :.`.F l.R { f @ $.$.R 9 E l l _ d 9 < 6 . 3 @ 8 A H 0 @ @.B.r p _ g.N.Q ^.J p & @ _ 9 R#2 E p J & 3 } #+~.^.$.{@p 9 p e.^.R 9 ! j 9.~.l.@ $.2 ^ 9 p A l G._ < A #.3 6 9 O#3 & 8 _ ",
"@ 6 6 u.6 l & K E _ [.y : < 9 [.3 & 6 $.{ S & Q + 6 % } f.9 5 @ % 0 _ $.< 2 $.' l ^.| 5 H 9 l % ! & | Q+i.m 1@L@@ @ { J I o+5 9 H ~ 9 & @ N.* 9 $+A [.{ % H @ y @ $./ F 6 : / & % ~ %.6 A ~ } J + y a$$.+ (.m.' b R W H F t H _ /.$.K.) 6#n.C.S.p :.* W +.Q@< 9 ",
"t ~ o+Y #+$.: = $.|.J Y _ X R y J *+:.p L.[./ t _ P _ R | 0 A 0 5 _ @ < ~ { D.7 G.C.e.5 0 m.R l 6 &$u._ = #@9 y 6.Y R 9 p 5 t & S 6 0 _ , & / 0 $.5 P % [.0 0 n.f._ ) 7 C ^.m.& Y {#_ Y _ : 9 2#> *+| 5 ~ ^ Y.0 H } D 9 $._ R 5 R (.W Y 0 X 9 W d R _ H 7 5 2 7 ",
"o ).f K @ 4.% X = } + P R : m % (.#.@ F.2 9 t = 6 t o 3 0 F + < Y 9 1.A @ & e.n.p H Y f 9 Y _ ~ l A $.+ 4 = _ T.[ (.$.+ u 4 o : ; @ : + 9 i > 4+= _ R } 0 : _ :.t 5.{ F.t ;.D % # >.o @ A : K ,.A 9 B.A 9 & f.m R ' 6 _ 2 : { j } ~ j } + Y f R.F (._ R = g o _.",
"$.e.= j $.9 $.S ' ^./++ = G.Z ~ _ 9 p+R ! : } + l 3 > ) @ < ~.5 = _ % + R h j = w h 6 % Y _ @ 9 % s u m.+ : 9 % e.9 } @ 5#=#%. .y E j _ p e.p &.h@w + _  .s = 9 ~.{#h@j 8 = + = $ b$[+) + 6 _ ^ R % r ^.% J = _ ^ @ ~ j + 9 0 9 R < N g.= : _ 9 ! @ # 9 5#B D _ ",
"; & 4 [.6 + <.o = = ]._ + ; T.. 9 & F 9.= 0 = 5 2 { ;++ / : 9 +.| y / 9.h &.c#m y K #.: 7 = 9 @ @ = 5 2 n.9 9 = 0 n.C @ R : o f n * |#@ 9 n.W <.: + ;#_ 4 ; # c$d$Z.F 9.= 9 L } 3+y T@U@n.= + { Q < N.. J 9 6 4 $.u R Z @ = & @ 5 { r 5 C A + ; # C D $.9 = : Q ",
"= @ Z Z.7 _ Z Y g 9 0 + _.: X 3 e$Y@: * s f T.{ p I n y = D.P.+ Z._ Y q $.% Y = @ t #.2 8 + :.6 6 # _.< f j } A f / L ^.j 1.4 = _.$.: 6.^+R ' A : 5 L@5 ' & f$9 {#R : 6 ; f 1.0 8 &+& y ! y ^.= 8 } 0 f $.9 3 4 w _ 6 g B.# l @ Y.A 4 < 0@#.} u : I = @ 5 1.y : ",
"= ^ > y ^.R <.o F 1 @ C <.= % l 9 y / & _ A _ W @ %.~ / s : 9 Q 9 } g L | & _ _.l.` C = 0 u $.~ 7 = ; _ 5 } Y _ 4 W _ R f + X } L H + p | + f o y + + #.L 4 i } R { + @._ Y g$A j 2 + b#:.].0 D % } } d e.Y.6.y b _.| + Y + K.. _ _./+8 ! 6#8 @ } %.9 A }.1.# = ",
"9 @ 0 + R#l [.0 & _ _ + , ~ F Y + O.@ Y._ D.S [.[ R [ = + 9 9 5 m.9 p 0 :./ !+N.p 0 / j % P _ & @ Y H = : 9 0 9 p 5 ^ & 5 _ # 0 0 6 % 4 #+} $.0 @ 0 5$> #.+ 6.b.= Z+S { 6 9 @ _ #.% @ R _ ^+< g 0 :.p 5$9 @ & m.Y 2#W ! $ h * y @ 9.$._.4 R + J ).} @ Y.@ % Y 0 ",
"X 9  .& 9 a.n 1 = % = 2 + : ^ 3 $.@ ` % Q u x = d 6 & 3 _ = 0 y + o ~.C _ 6 F.# ~ o { = j 5 %.O 9 % f X o ^.+ : % f ~ :.:.*#j = 1.^ = & 6 i j.= 4 [ = 9 n :   3 { _ :.:.5 : # = W ^ x Y 5 g ! F /+L % = @ 6 H } 6 ; + = $ i ! | ! % o A g @.1 ^ l.+ / R :.*#=.= ",
"j.y u & 5 2 a R > = % + F 2 f + j.T + 6 5 B#[ ` n.6 F 9 + : } 8 9 % A Y + F.K.& @ = a.% @ q+L. $_ + L L = o 0 + : 6 o % R = + X w @.L &.+ *+J @ /+ .3 5 d @ G.j @ y + @ 0._.% u m.0 = @ Y : / { _ 2 % Y @ < y u S  .9 + + > . {#9 H m Q + o } % L $ n < Y _  .- ",
"@ h$y 9 R 6 @.2 7.h#p = 9 R < ).& n.^ R * ! ! 6 $.k ! _ :.@. .~ 6 } _ 5 q 6 _ 3 j ^ H W ~ _ + m ) 9 #@_ 9 w i &+C.6 ^.[.3 6 5 + R +.S Y 6.9 { 9 8.B & < $.9 P ).6 j 6 0 * @.R 2 7 f.^+{ < p 0 j.+ 9@9 f Y { A (#(.< H Y < C j 9 6 @.9 9 9 a.(.J@n.6 o+2 H 9 } % ",
"6 L@9 3 e$Y : 9 ^.% _ ; H / ^ f.7 Y , 6 @ R * } E.@.& Y R = @.B = 9 @ $.D y # $._ 3 . 9 @ % < +.C ' d } 6.R = 6 & | , 9 _ a 0 H R _ 3 * O#Y % | R + @.+ i $.& @ #@Y & @ # j _ @ & {#$.p @ % _ K.= #@9 @.S { 3 @.S Y 6 R { @ g 9 9 @ / < k R 5 H & 6 @.W 0 @ _ 5 ",
"_ 6 S.J 5 7 D.f #@: l.} X 2 W / 0 @ [.u.D.& 0 m.y@, y f.H 6 9 0 |#8 9 H ) Y 3 $.@ u.$.[.t _ 6 5 & ~._ 9 W $.Y _ 9.[.{@3 6 } $.0 t H '$J + i$y ~._ % ^ 5 # >./ @ R 3 $.@.@.t t } R m._ K.~ @ p 3+|#Q $.t w _ 9 [.{ 6 6 u.@ D.5 } { ! # % { & 0 _ *+9 p R &.9 _ S ",
"o j + S i Y + + : + # } = = : $ _ ^ : i f.5 s = 2 3 W ~ o <.9 = = 0 N.9 $ @.$.= H 3 5 u @ 9 9 6 F.0 n.+ 0 + 5 + y O J $.% 0 : X <.j + 5 ~ _ = x = 4 0 = : q = 6 5 S : @ x } ; : < D.m.^.` <.+ F = [ 5 = H @ N.: * + @ o 3 = :.i H _ = s = < 5 + F A _ t R ;.n = ",
"= I <.5 + /.} + + < / : o = %.~ P ^.j$@ g = = <.0 = ] Y.L 0 4 < = f _.T.f 6 & + h H N.=.L.` ~ l 9 5 = | = _.u } = | 0 ^ 5 + = } + y _.6 R /.= = = l D 9 L 0 c 6 H 6 Q.6 + : = <.& g L @ : = = . + W : 1.2 3 6 : ~ = 1@K #.<.H % @ s X 9 _ : 1 0 <.S _ H 5 = R f ",
"$.n.9 @ & i & #+y + _ a ^ { 6 m d / ( %.! _ 0 / 9 :.@.Q [#@.R 9.% & F p+y C & a.).).{ S !+h@9 & y @ H 1.$ &+7.~.k$5.a.p 2 @.D Q $.& 6 2 y R & k+y 9 l$} @ 3#@ W 9 @ 9 a 6 9 ^.2 S | 7 F F $.% m$= @ 6 T#6 & ^ @.K.3+. O.*.6 3 g.~ ~ Q X @ @._ J C @ p @ @ @.0#  ",
"> R A ^.Y } 5 < #@< = t 0 u X R 7 I / ~  .o # A 9 6 A 2 L +.9 + +.u L 0 ^ R $.! @ / + i 9 {@| { = 6.^.w j X 0 N = }.1.K._#: < = % p : =.9 % f ^ +.5 <@n$@ 9 0 a.3 6 + H R : : + @ . X @ <. .@ e.{ _.= 9 & 3 W = ~ _ =   , Q O.{ % ! P.:.@ = @ o$+ :.# 6 u + _ : ",
"2 [ @ i S & { $.9 x j.4 9 g.'+! @ * D [.&._ |.@ / _ [.i p$W@+ H = 1@$.& @ 3 | ( * @.@ & @ 2 m.X.{ J Q : ~ b#a.t [.B.9 i [ e.& 6 $./ 9 ^ (.* 8.$.9 |#q$r$& n.^ &.9 * 2 _ ;.R H 9 D 2 @ ~ [ N.9 ( = } D H & Y & [.6 y @ & ;.j.[.N g.t S + m.P : S @ $.9 @ t S [.2 ",
"+ j : y F & 4 _.5 Y 0 : : ` 5 ~ 3 9 5 6 + ; 0 = t 9 = 9 + : = Y ; O L ' _ % Y.+ `@4 4.+ 6.|#:.e.. : +$^ +.:.+ + s @ } R B.F ` x _ ~ g S { _ = Y } s$J+t$u$: } 9 9 3 } F _ : = = . & + :.g = _ @ = A o + @ 5 { + e.o + <.6.f ^.%+9 _ o < = + + = n @ } @._ g = L ",
"A 6 + _ _ 2 A _ : A 9 % : 4 : < # l + { ; o 4 A 7 2 <.= { 5 X.Y 7 ) * y p 0 t 0 3 X $ _ S._ 9 8 m.Z L.Y F.{ N.{ _ ~ _ 3 #.g @ } = 9 : j @ . _.9 : 0 v$w$x$M.A L.p j = p s = T.A 3#{ ;+% { } d f.6 ` 1.Z & _ @ : @ 0 9 0 9 : 9 7.9 <.= : + A } n % @ A #@% } = + ",
"H @.@ :.@.w u.y r : & < @ * E.3 0 + @ @.R p j $.& R#I p { 7 F R _ 0 6 p y 6 [#H @.7 H r _ 2 @ y@t Q % < 9 R#= 0 | R @ 0 @ @ @ S H y 5 9 7 # 6.6 y$z$A$B$y u.C$, 0 @ { @ _ 9 @ #@F.Y.6 p Q Y J + # 6 5 9 2 _ ~ y @.3 H l m.@ p t 9 j 9 5 Y * % R @ R Y R R H D.9 ",
"F.H 6 l 9 $ 2 _ & t.~ + ~ [.r J@{ D$9 5 9 @ @ a . [.7.6 0 Y.: 9 : H t d @ S } / 2 p D.C ) # Y.y 9 H +.& & B.} S 8._ 6 #.@ 9 a 9 H y 6 9 9  +E$O.F$G$H$I$S ^+J$$.+ % j 9 0 R H % i @ R @ _ ( ;.~ D H 6 l _ @ @ ~ < #@6 @ F + 9 + S & ^ 6 } & _ _ 2 Y (.Y H { :.9 ",
"H 7 @ 9 | ~.P @.@.* #@9 K$R 0 @.. & ,#2 I H 9 0 f.W e.6 _ D.1@H 7.p R @.j $.*+6 8.6 & 6 v#h @.:.@.@ * + % l B 6 3+H @ p 9 5 ^ 6 6 @ @ 9 5 6 (.9 L$M$N$O$P$J @.& 2 3 2 i ~ 9 3 #@I 3#a.Y # @ 2 H [.W u.Z.F , i m.p = _ { @._ 6 6 Y @ 6 9 9 @ : S 5 6 _ @ 9 t 5 9 ",
"! { 4 D &+o+a.I#Q./ $.Q$= Q _ l Z+^.} { } 4 0 : #+m.{ g.X f._.0 2 0 ] Q.@ P ! ^ k W / ^.%.h < P.X.u 4 K 4 A ^.*+n.| 5 7._ + _.f = & f Q a y : = R$S$T$U$Z.$.Z.a 9 t } { f = : : @._ x 2 Y = u r = Y ] = t J@@ F 3 _ K - + V@F.P.6 = = % = A u + 0 _ f 7 : u Y 1@",
" .w %.C `._ = o X V$W$X$} f : _ 8 _ u P < } : ' Q ! x R A ` R W + 5 1.y@F W N.5 @.f + o _ = = 8 8 I & ! $ ! d ! B 2 y 9 0 f + R _.9 [ @ C R + L Y$Z$`$e = - 4 R @.3 _.:.> 5 X + 9 @ : ^.= : 3  %: % 4 9@a * 2 d ( = = : 3 : 3 Y @ 0 _ A : Y 5 : + (.@ W : 4 6 / ",
"_.@ Z.H 9 9 ` Y = A .%+ K C.p+p & t y 9.d ! n.[.! m i a.9.& = ) L = o 0 O r 0 : % : 5 = Y + 7 6 @.o } =#j.= 4.: g y 0 6 + R g.g = H : H #@p g _ +%@%#%$%B.W @ @.$.6 = ~ : 9 1.4 t + :#a.d Q = = 6 : = = + { D.4 (.C a.9 -+f @.^._ : < @ _ < : 4 f d _ $ / L.{ & ",
": :.0 5 *+p 0 # + # _ ! Z.I#< C y 2 @.j.: = ] S D $+! Y y } A C.R _ o 9 D ^+#+; @ } f 4 9 = j @ _ : : 0 &.) /.; Y d A 9 ^ ` o 9 : j % :.6 * _ = + 9 [.W ! d V@9 { l = _ : } f } + 3 0 D / ; ` 9 f.: _.0 _ I ! % & l.S f.Y D 9 6 R + _.9 + o 5 > C 9 i @ H g @ _ "};
